P3
400 225
255
0 221 180
0 219 178
0 221 180
0 221 179
0 221 181
0 218 180
0 220 180
0 220 180
0 221 181
0 220 179
0 221 181
0 222 181
0 220 180
0 220 179
0 221 180
0 222 181
0 219 179
0 222 180
0 220 178
0 221 180
0 220 181
0 220 180
0 220 181
0 221 181
0 219 179
0 219 179
0 222 181
0 220 180
0 221 181
0 221 181
0 221 181
0 220 179
0 220 179
0 221 180
0 221 181
0 220 179
0 221 181
0 219 179
0 220 179
0 220 180
0 221 180
0 221 181
0 223 181
0 221 180
0 222 181
0 221 181
0 220 180
0 221 181
0 218 179
0 220 180
0 221 181
0 221 181
0 221 180
0 221 180
0 220 178
0 222 181
0 220 180
0 221 181
0 219 180
0 221 180
0 221 181
0 220 180
0 221 181
0 221 181
0 221 180
0 220 180
0 221 181
0 221 180
0 219 178
0 222 181
0 220 181
0 220 181
0 221 181
0 219 179
0 220 179
0 219 179
0 220 180
0 220 179
0 221 181
0 221 180
0 221 180
0 220 179
0 221 181
0 220 180
0 219 179
0 220 178
0 218 178
0 219 179
0 219 179
0 221 180
0 219 178
0 220 179
0 221 179
0 218 179
0 220 180
0 222 181
0 220 180
0 219 180
0 221 181
0 221 179
0 221 180
0 218 179
0 220 178
0 221 180
0 220 180
0 220 180
0 219 179
0 219 179
0 220 180
0 218 179
0 220 180
0 220 180
0 220 179
0 221 181
0 221 181
0 219 179
0 218 178
0 221 180
0 220 181
0 220 179
0 217 178
0 220 179
0 221 181
0 218 178
0 220 179
0 222 181
0 218 177
0 217 177
0 218 178
0 219 180
0 221 181
0 217 178
0 219 178
0 220 179
0 219 179
0 218 177
0 221 180
0 220 180
0 221 181
0 219 179
0 222 181
0 219 179
0 221 181
0 219 179
0 218 177
0 221 179
0 220 180
0 221 180
0 220 180
0 220 181
0 221 181
0 219 179
0 220 180
0 221 181
0 220 179
0 219 179
0 219 178
0 220 180
0 219 179
0 219 179
0 219 178
0 219 179
0 217 178
0 219 179
0 219 179
0 217 178
0 219 178
0 220 179
0 220 179
0 219 180
0 222 181
0 218 178
0 219 179
0 219 179
0 219 179
0 219 180
0 219 178
0 219 178
0 220 180
0 217 176
0 218 178
0 219 179
0 219 179
0 220 181
0 221 181
0 219 179
0 221 181
0 218 179
0 218 178
0 219 179
0 221 181
0 222 181
0 222 181
0 221 181
0 219 178
0 220 178
0 218 178
0 219 179
0 221 181
0 221 180
0 218 178
0 220 179
0 219 177
0 221 181
0 219 179
0 221 180
0 218 179
0 218 178
0 222 180
0 220 180
0 218 177
0 217 177
0 221 180
0 218 177
0 220 180
0 219 178
0 221 181
0 220 179
0 221 181
0 220 179
0 220 179
0 221 181
0 219 176
0 218 177
0 220 181
0 217 178
0 219 178
0 219 178
0 220 179
0 220 180
0 219 178
0 220 180
0 220 180
0 217 176
0 219 178
0 219 177
0 219 179
0 220 180
19 219 178
0 218 177
19 216 175
26 210 170
39 211 169
49 206 165
55 196 157
56 197 156
57 194 153
81 182 140
82 189 145
92 191 145
105 181 135
105 175 131
111 163 114
119 159 111
113 158 109
122 160 108
134 150 96
135 155 100
129 140 90
134 146 90
137 140 89
143 150 95
138 146 91
153 154 98
134 142 90
150 152 98
143 146 94
144 151 97
136 141 91
146 151 97
149 148 97
154 153 99
153 156 101
147 149 97
155 155 101
157 155 102
157 157 102
156 153 100
159 159 104
157 156 103
155 155 102
159 156 102
154 152 101
162 159 105
155 153 101
166 165 109
160 157 105
158 159 104
153 153 102
160 158 105
160 157 104
164 161 106
162 159 106
163 161 107
165 163 109
164 161 107
163 160 107
161 159 107
165 163 109
153 151 101
160 158 105
159 157 105
161 159 106
164 161 107
160 158 106
159 156 104
161 158 106
163 162 109
159 156 104
165 162 109
163 160 106
163 160 107
164 162 108
166 164 110
165 163 109
162 160 107
164 162 108
166 163 108
161 159 106
165 162 109
165 162 108
165 163 109
164 162 108
163 160 107
160 158 106
167 165 110
166 163 109
160 158 106
161 159 106
165 163 109
160 157 104
164 161 107
164 161 107
161 158 105
161 160 107
163 159 106
169 166 110
165 163 108
165 162 108
156 156 103
163 160 106
161 157 103
163 162 108
167 165 109
164 162 107
162 158 105
163 159 106
161 159 105
165 162 106
162 160 106
164 163 107
165 162 106
162 163 107
162 160 105
150 149 98
156 153 101
161 157 104
161 158 104
153 154 100
152 156 100
153 154 99
147 151 97
146 148 94
150 151 97
146 147 95
157 154 100
145 149 93
139 143 91
135 149 92
147 149 95
142 142 90
143 150 94
137 151 99
128 152 101
125 161 111
128 164 111
118 170 116
109 165 120
105 180 134
81 185 141
73 192 149
61 191 151
62 204 163
41 204 162
42 214 172
53 212 171
32 215 174
0 217 176
0 218 177
0 222 180
0 220 180
0 222 181
0 220 180
0 221 181
0 221 180
0 222 181
0 221 179
0 222 181
0 220 180
0 221 180
0 221 181
0 221 181
0 221 181
0 221 180
0 220 180
0 221 181
0 221 180
0 220 180
0 221 180
0 218 177
0 220 179
0 221 181
0 220 179
0 221 181
0 220 180
0 221 180
0 220 179
0 220 180
0 221 181
0 220 180
0 221 180
0 220 180
0 220 180
0 221 180
0 221 181
0 220 180
0 221 180
0 222 181
0 220 180
0 219 179
0 220 179
0 222 181
0 221 181
0 221 180
0 219 179
0 219 179
0 220 179
0 223 181
0 220 180
0 218 178
0 220 180
0 221 181
0 221 181
0 220 180
0 220 181
0 221 180
0 221 181
0 221 181
0 219 179
0 221 181
0 220 180
0 222 181
0 221 181
0 221 180
0 221 180
0 219 179
0 220 180
0 220 180
0 217 178
0 221 180
0 221 181
0 219 179
0 221 181
0 219 178
0 218 178
0 220 181
0 221 181
0 218 178
0 220 180
0 220 181
0 220 179
0 221 180
0 219 179
0 219 179
0 220 180
0 220 180
0 221 181
0 219 179
0 219 179
0 221 181
0 220 180
0 219 179
0 219 179
0 220 179
0 219 179
0 220 179
0 217 178
0 221 180
0 220 179
0 220 181
0 220 180
0 220 180
0 219 178
0 221 180
0 219 180
0 221 181
0 220 178
0 220 180
0 218 178
0 220 180
0 219 180
0 215 176
0 220 179
0 220 180
0 220 180
0 219 179
0 221 181
0 220 179
0 218 178
0 220 180
0 218 177
0 218 179
0 220 180
0 220 179
0 221 181
0 221 181
0 218 178
0 220 180
0 221 181
0 221 180
0 219 178
0 218 179
0 222 181
0 220 180
0 221 181
0 217 177
0 220 180
0 220 179
0 218 178
0 216 176
0 218 178
0 219 178
0 220 180
0 217 178
0 220 179
0 220 181
0 221 180
0 220 179
0 221 181
0 220 180
0 220 180
0 221 181
0 219 179
0 220 178
0 218 178
0 219 180
0 219 179
0 220 180
0 220 180
0 219 179
0 221 179
0 221 181
0 220 179
0 221 180
0 219 179
0 218 178
0 219 179
0 217 178
0 220 179
0 220 179
0 221 180
0 216 177
0 220 179
0 218 178
0 218 177
0 219 179
0 220 179
0 221 180
0 217 178
0 215 175
0 219 178
0 219 179
0 221 180
0 222 181
0 218 177
0 219 179
0 218 178
0 219 179
0 219 179
0 219 179
0 219 178
0 220 180
0 219 179
0 218 177
0 220 180
0 221 180
0 218 178
0 220 178
0 219 178
0 218 177
0 222 181
0 220 179
0 219 180
0 218 178
0 221 180
0 221 181
0 220 179
0 220 179
0 221 179
0 220 180
0 219 179
0 219 179
0 216 176
0 219 179
0 218 178
0 219 179
0 217 176
0 219 179
0 221 181
0 218 178
0 220 179
0 220 180
0 219 178
0 218 178
0 220 179
0 220 181
0 220 179
0 218 178
0 220 180
0 219 178
0 218 177
0 219 178
0 219 179
0 220 179
0 220 181
0 220 179
0 220 178
0 220 180
0 219 179
0 218 178
0 222 181
0 220 180
0 221 181
0 219 177
0 219 179
0 217 176
0 220 180
0 219 178
20 218 177
18 217 176
43 214 171
58 203 160
39 201 160
55 197 156
81 192 146
61 199 157
65 191 148
65 185 144
91 185 137
113 175 128
108 170 122
109 168 122
101 165 118
125 165 113
122 156 106
139 157 102
135 152 96
133 142 93
146 148 93
139 145 92
147 149 95
151 152 97
142 153 96
139 144 93
142 142 93
143 147 95
146 145 95
149 153 98
158 159 104
151 153 101
155 154 101
154 154 100
162 159 105
156 157 102
155 154 101
154 152 101
151 150 99
154 154 100
156 155 103
159 158 105
158 155 102
161 158 105
164 161 106
158 155 103
159 157 104
167 163 108
156 154 103
160 157 104
154 153 102
158 157 104
169 166 110
167 163 109
160 158 105
166 163 109
163 159 106
161 160 107
163 160 107
162 159 105
158 156 105
163 161 108
173 169 112
161 159 106
161 158 106
166 164 109
163 162 109
166 164 110
164 162 108
164 161 108
165 161 107
165 163 109
165 163 109
163 160 106
164 162 108
165 162 108
167 164 109
164 162 108
164 161 108
164 162 108
168 167 112
169 167 112
162 160 107
168 166 111
163 161 108
157 154 103
160 158 106
171 167 111
167 163 109
166 163 108
165 163 109
167 164 109
161 159 106
166 163 109
157 154 103
159 156 104
165 162 108
163 161 108
163 160 106
165 162 108
162 158 105
159 156 103
166 163 107
167 164 108
162 159 105
161 159 105
162 158 105
163 163 107
161 158 105
161 159 105
166 165 109
162 158 104
157 154 101
154 154 101
158 156 102
159 158 103
157 157 102
160 159 103
156 157 102
155 155 101
153 157 101
153 151 98
149 149 97
152 151 98
149 152 97
161 158 104
146 147 94
156 157 101
140 143 92
139 142 91
145 147 94
135 145 90
147 149 94
129 138 86
127 136 85
131 141 91
117 151 99
118 147 103
123 166 116
119 159 113
92 178 133
95 189 143
85 189 144
83 184 140
75 195 152
75 200 156
69 207 164
44 207 165
45 207 165
26 218 176
0 219 177
0 221 180
0 220 180
0 221 180
0 221 181
0 219 179
0 222 181
0 221 180
0 221 181
0 221 180
0 221 181
0 220 180
0 222 181
0 219 179
0 220 180
0 221 181
0 220 180
0 222 181
0 222 181
0 220 181
0 220 180
0 218 178
0 218 179
0 222 181
0 220 180
0 220 180
0 220 180
0 219 180
0 220 180
0 221 181
0 221 181
0 222 181
0 220 181
0 220 180
0 221 181
0 220 180
0 219 179
0 221 181
0 220 179
0 220 180
0 221 181
0 219 179
0 219 179
0 219 178
0 219 179
0 221 181
0 221 180
0 218 178
0 221 181
0 220 179
0 221 181
0 221 180
0 220 180
0 222 181
0 219 179
0 220 180
0 220 181
0 220 180
0 219 179
0 220 180
0 221 181
0 220 179
0 221 181
0 221 181
0 221 181
0 221 180
0 221 181
0 220 179
0 220 181
0 220 179
0 219 179
0 220 180
0 221 181
0 220 180
0 219 180
0 218 179
0 222 181
0 220 180
0 221 181
0 221 180
0 221 181
0 219 180
0 221 181
0 221 181
0 218 179
0 217 178
0 221 180
0 220 180
0 221 181
0 220 180
0 221 181
0 218 179
0 220 180
0 220 179
0 219 179
0 221 181
0 221 180
0 220 181
0 218 179
0 221 180
0 221 180
0 221 181
0 222 181
0 220 180
0 222 181
0 221 179
0 220 180
0 220 180
0 221 179
0 221 180
0 219 179
0 220 180
0 220 179
0 220 179
0 221 181
0 220 179
0 221 181
0 220 180
0 220 180
0 217 177
0 220 179
0 219 180
0 218 179
0 221 181
0 219 180
0 218 178
0 222 181
0 220 181
0 217 177
0 221 181
0 219 179
0 221 181
0 219 178
0 219 178
0 220 179
0 218 178
0 221 180
0 219 179
0 220 180
0 220 178
0 220 179
0 220 179
0 220 179
0 218 178
0 220 180
0 221 180
0 218 177
0 220 179
0 220 180
0 220 179
0 218 178
0 218 178
0 222 181
0 218 177
0 220 178
0 219 179
0 220 180
0 221 180
0 220 179
0 220 179
0 221 180
0 219 179
0 220 179
0 220 180
0 221 181
0 220 180
0 221 180
0 220 180
0 220 179
0 221 180
0 220 179
0 222 180
0 218 178
0 219 179
0 219 179
0 218 177
0 221 180
0 217 177
0 222 181
0 216 175
0 221 180
0 218 177
0 219 179
0 218 178
0 220 180
0 222 181
0 220 180
0 220 180
0 220 180
0 220 179
0 220 179
0 221 180
0 220 179
0 220 180
0 220 179
0 220 180
0 219 179
0 219 180
0 221 180
0 220 178
0 219 179
0 217 177
0 220 180
0 219 179
0 218 178
0 218 178
0 218 179
0 221 180
0 219 178
0 221 179
0 219 177
0 217 177
0 220 180
0 218 178
0 219 179
0 219 179
0 218 177
0 221 181
0 219 180
0 221 181
0 220 179
0 220 180
0 218 179
0 219 177
0 218 178
0 218 178
0 219 178
0 218 177
0 219 179
0 220 180
0 221 180
0 217 176
0 220 179
0 220 178
0 220 178
0 220 179
0 219 178
0 220 179
0 221 181
0 217 178
0 220 180
0 220 180
0 217 175
0 220 180
0 221 181
0 218 176
0 221 180
0 220 180
0 218 177
0 220 178
28 216 176
27 215 174
25 210 169
30 202 163
45 203 164
50 200 159
45 196 156
76 190 147
83 183 140
89 184 140
86 175 134
113 172 124
94 170 125
118 155 108
103 158 113
134 162 106
124 150 104
126 141 90
139 145 93
136 144 89
139 146 92
145 148 94
148 150 96
139 141 90
141 146 93
148 151 98
142 146 95
141 146 94
160 159 103
152 155 101
145 149 96
154 155 100
146 145 94
151 151 98
156 152 100
153 154 101
154 153 102
157 158 103
160 156 103
161 158 104
160 158 104
162 161 105
159 159 104
163 160 106
157 155 103
148 146 97
153 154 103
156 153 101
167 164 109
160 159 104
160 157 106
166 162 108
166 165 109
158 157 104
162 160 106
161 158 105
156 154 102
163 160 107
165 162 108
166 164 109
159 157 105
162 161 108
166 164 110
166 163 108
164 163 108
167 164 110
170 167 111
164 162 108
166 164 109
166 163 109
168 165 110
166 163 109
165 162 108
169 166 111
169 167 111
165 162 108
169 166 110
164 161 108
165 163 109
159 157 105
166 164 110
162 160 107
166 164 109
159 157 105
167 164 109
166 164 109
162 159 106
167 164 109
160 158 106
163 161 108
159 157 105
161 159 106
168 166 111
165 162 108
165 163 109
158 156 104
159 156 104
165 162 108
163 159 106
160 158 105
162 159 106
165 161 107
163 160 106
160 159 105
160 156 103
161 158 104
157 154 102
159 158 104
166 163 108
162 159 105
154 155 102
165 163 108
161 161 105
163 160 105
151 149 98
160 160 106
154 152 100
159 159 103
154 153 100
155 155 101
151 152 97
158 158 103
158 155 102
139 145 93
143 144 93
148 150 97
146 152 96
150 154 98
152 151 97
148 150 96
155 153 99
143 148 94
139 147 91
141 148 93
149 152 96
128 143 89
141 153 99
126 157 102
130 159 106
115 170 123
108 160 113
110 173 128
102 173 128
80 188 145
82 185 141
76 194 152
49 202 160
52 206 164
33 208 167
25 215 175
0 220 179
0 219 179
0 220 180
0 220 179
0 218 177
0 222 181
0 220 180
0 220 180
0 221 181
0 220 180
0 220 178
0 220 178
0 221 181
0 222 181
0 221 181
0 220 179
0 222 181
0 221 181
0 221 181
0 219 179
0 221 181
0 220 179
0 220 180
0 220 181
0 220 180
0 221 181
0 219 179
0 222 181
0 221 181
0 221 181
0 221 180
0 221 181
0 219 178
0 221 181
0 220 181
0 221 181
0 220 180
0 221 181
0 222 181
0 219 180
0 220 180
0 221 180
0 220 180
0 220 180
0 220 180
0 221 180
0 221 180
0 218 177
0 219 179
0 220 179
0 220 179
0 221 180
0 220 180
0 221 181
0 221 180
0 218 178
0 221 181
0 221 180
0 221 180
0 220 181
0 221 180
0 220 180
0 221 181
0 218 180
0 220 178
0 220 179
0 221 181
0 220 179
0 220 179
0 220 179
0 221 180
0 220 179
0 219 179
0 221 181
0 219 179
0 220 180
0 222 181
0 220 180
0 222 181
0 219 180
0 216 177
0 221 181
0 222 181
0 221 181
0 221 181
0 218 178
0 219 180
0 220 179
0 219 179
0 219 178
0 219 179
0 220 180
0 221 181
0 219 179
0 220 180
0 219 178
0 219 178
0 220 180
0 220 179
0 221 181
0 220 180
0 221 181
0 220 179
0 220 180
0 220 180
0 219 178
0 220 178
0 220 180
0 219 179
0 220 179
0 220 179
0 221 180
0 219 178
0 220 181
0 221 180
0 220 179
0 218 178
0 219 179
0 218 177
0 220 180
0 218 178
0 221 180
0 219 178
0 221 181
0 221 180
0 220 178
0 219 179
0 222 181
0 221 180
0 218 179
0 219 179
0 220 179
0 219 179
0 220 178
0 219 178
0 222 181
0 221 181
0 220 180
0 221 180
0 220 179
0 221 181
0 219 180
0 221 181
0 218 178
0 218 177
0 219 178
0 221 180
0 218 179
0 221 181
0 220 180
0 218 178
0 220 180
0 219 179
0 219 180
0 220 180
0 219 178
0 220 179
0 217 177
0 219 180
0 218 178
0 221 180
0 220 180
0 220 179
0 218 179
0 219 179
0 219 179
0 221 181
0 222 181
0 221 181
0 218 178
0 217 178
0 218 179
0 219 177
0 222 181
0 218 178
0 221 180
0 218 178
0 221 181
0 217 178
0 219 178
0 219 179
0 220 179
0 220 180
0 218 178
0 219 179
0 217 175
0 219 179
0 220 179
0 220 180
0 220 180
0 220 179
0 220 180
0 221 181
0 219 179
0 218 179
0 218 178
0 218 179
0 218 178
0 221 181
0 219 178
0 221 180
0 218 177
0 221 181
0 218 178
0 217 176
0 217 177
0 219 177
0 219 178
0 221 180
0 221 180
0 218 178
0 219 179
0 220 179
0 220 179
0 220 179
0 221 181
0 220 178
0 221 181
0 218 178
0 217 178
0 218 178
0 219 179
0 219 179
0 220 180
0 219 179
0 219 177
0 219 179
0 220 179
0 220 180
0 219 179
0 218 177
0 217 178
0 219 179
0 220 180
0 219 179
0 218 178
0 217 177
0 219 179
0 219 179
0 218 178
0 220 180
0 220 180
0 220 180
0 216 177
0 219 177
0 218 177
0 220 180
0 219 180
18 220 178
26 214 173
33 213 172
27 215 175
37 211 170
40 205 163
70 202 160
70 197 154
66 192 148
68 198 153
93 178 135
92 185 142
97 176 130
106 169 121
114 159 111
101 158 112
123 158 106
132 156 106
126 155 101
127 145 96
139 146 93
136 151 93
142 147 93
137 145 90
144 150 94
136 150 92
146 149 96
147 151 96
143 147 95
152 157 100
144 147 95
149 150 98
146 148 96
154 152 100
155 154 101
152 153 100
155 154 101
150 151 99
152 149 98
165 162 107
160 157 104
146 146 97
163 162 106
155 153 102
155 153 102
156 157 103
160 157 104
157 157 104
160 158 105
162 158 106
158 156 104
160 160 106
165 163 108
161 158 105
165 162 108
165 163 108
156 154 102
161 159 107
166 162 107
162 159 107
158 157 105
163 160 107
166 163 108
164 163 110
165 162 109
167 164 110
164 162 108
165 165 109
165 162 108
167 165 110
168 166 110
167 165 110
167 165 110
168 166 111
166 163 108
166 163 109
172 169 112
166 164 109
163 161 108
166 164 110
166 165 110
168 165 110
168 165 110
158 156 104
163 161 108
164 161 107
168 166 110
169 166 110
167 164 109
172 169 112
163 160 107
171 168 112
161 159 106
157 155 103
163 161 107
164 161 108
162 158 105
161 160 106
161 158 106
167 163 109
163 160 106
164 161 108
165 162 108
161 157 104
168 164 109
163 161 107
158 156 104
160 159 105
168 163 108
162 160 106
163 160 105
160 156 104
163 161 106
165 163 107
162 160 106
160 157 103
165 162 106
159 158 103
158 157 102
159 161 104
160 160 103
159 157 102
155 154 100
162 158 103
151 154 99
153 156 100
140 146 93
153 153 99
155 153 99
152 155 99
148 150 96
149 151 96
153 153 98
150 160 100
145 147 94
145 147 94
139 143 91
146 148 93
130 144 93
136 146 95
129 148 97
112 160 115
124 156 106
115 171 125
108 161 115
97 185 139
80 189 144
72 191 149
51 206 166
59 208 166
30 210 169
32 211 170
26 217 178
0 220 179
0 221 179
0 221 179
0 222 181
0 220 179
0 220 179
0 219 179
0 222 181
0 221 181
0 219 179
0 220 180
0 220 180
0 221 181
0 220 179
0 220 180
0 220 180
0 221 180
0 221 181
0 221 181
0 219 179
0 222 181
0 219 179
0 219 180
0 219 180
0 220 179
0 220 180
0 222 181
0 219 178
0 220 179
0 221 181
0 221 180
0 219 179
0 222 181
0 221 181
0 220 180
0 222 181
0 221 181
0 220 179
0 221 181
0 222 181
0 221 180
0 221 181
0 221 181
0 221 181
0 220 180
0 220 180
0 221 181
0 221 181
0 221 181
0 221 181
0 221 181
0 220 179
0 220 178
0 221 181
0 220 180
0 221 181
0 221 181
0 219 179
0 218 179
0 221 180
0 218 178
0 220 180
0 222 180
0 220 180
0 221 180
0 217 178
0 220 180
0 220 180
0 222 181
0 221 181
0 220 179
0 221 179
0 219 178
0 220 179
0 220 181
0 221 181
0 220 180
0 221 179
0 220 179
0 220 179
0 221 181
0 221 181
0 220 180
0 220 179
0 220 179
0 221 181
0 221 180
0 219 178
0 217 179
0 220 179
0 222 181
0 222 181
0 221 181
0 221 179
0 219 180
0 220 180
0 221 181
0 219 178
0 221 180
0 221 180
0 221 181
0 221 180
0 218 179
0 220 180
0 219 179
0 220 180
0 221 179
0 220 180
0 219 179
0 220 180
0 220 180
0 219 178
0 221 181
0 220 179
0 221 181
0 221 181
0 220 180
0 220 178
0 220 179
0 220 180
0 220 180
0 218 179
0 221 181
0 219 179
0 220 179
0 221 179
0 220 179
0 220 181
0 217 178
0 221 180
0 221 180
0 219 179
0 218 178
0 221 181
0 222 181
0 220 179
0 219 179
0 218 178
0 221 180
0 220 178
0 220 180
0 219 179
0 218 178
0 219 178
0 221 180
0 219 179
0 219 178
0 219 179
0 221 180
0 219 178
0 221 181
0 221 181
0 222 181
0 220 179
0 217 177
0 220 178
0 220 180
0 220 179
0 221 179
0 218 178
0 221 180
0 220 179
0 219 179
0 218 179
0 218 179
0 221 180
0 219 179
0 220 180
0 222 181
0 219 180
0 219 179
0 220 180
0 219 177
0 221 181
0 220 180
0 220 179
0 221 181
0 218 177
0 220 179
0 220 180
0 220 180
0 219 179
0 216 174
0 221 181
0 219 178
0 220 179
0 219 178
0 218 177
0 221 180
0 221 179
0 219 178
0 220 179
0 219 179
0 220 180
0 221 180
0 218 177
0 221 179
0 220 178
0 221 180
0 216 175
0 220 179
0 219 178
0 221 181
0 219 180
0 217 176
0 219 178
0 221 180
0 219 180
0 219 179
0 222 181
0 219 180
0 220 180
0 219 179
0 219 179
0 219 179
0 219 178
0 217 176
0 217 178
0 219 177
0 221 181
0 221 179
0 218 178
0 220 180
0 221 180
0 219 178
0 220 181
0 217 177
0 218 177
0 220 180
0 217 176
0 222 181
0 219 178
0 221 181
0 218 178
0 219 177
0 218 179
0 220 180
0 221 181
0 220 179
0 220 181
0 217 177
0 220 178
0 218 179
0 219 178
0 219 177
0 220 179
0 218 178
26 215 175
34 214 174
46 214 174
43 210 168
44 210 169
56 198 156
70 192 148
87 195 150
68 191 149
92 181 136
89 182 138
96 184 139
100 165 122
96 152 106
97 163 115
106 162 112
121 148 100
129 149 97
122 142 90
139 150 91
143 149 94
127 137 87
143 145 93
136 139 88
148 151 97
139 143 91
154 154 98
142 146 94
144 146 95
155 157 101
142 146 95
142 147 94
150 149 98
157 156 101
164 158 103
152 148 99
149 151 99
155 155 102
156 158 103
157 156 102
165 163 107
158 157 104
154 159 103
160 158 105
154 151 101
157 155 102
157 155 103
160 157 105
167 164 109
155 155 103
154 153 103
161 159 105
160 159 106
162 159 105
159 157 105
169 166 110
159 157 105
166 164 109
164 161 108
165 162 108
169 166 110
169 166 111
162 160 107
167 165 110
167 164 110
163 161 108
168 165 110
170 167 111
172 168 112
169 166 111
167 164 109
164 162 108
163 161 108
171 168 112
167 163 108
167 165 110
171 168 112
171 169 113
163 161 108
162 160 107
162 160 108
166 164 109
165 163 109
159 158 106
163 160 107
165 162 108
163 161 108
168 165 110
166 163 108
165 163 109
164 162 108
164 162 108
164 163 108
160 157 105
167 164 109
165 162 108
161 158 105
159 158 105
168 164 109
168 165 109
166 163 108
163 161 107
166 164 108
161 160 106
164 162 107
166 163 107
159 155 103
162 161 106
162 160 106
160 156 104
158 156 103
162 161 106
164 160 106
161 161 106
157 160 104
163 160 106
157 156 102
158 155 102
156 155 102
157 157 103
158 157 103
159 157 103
154 152 100
153 153 98
157 154 101
145 146 94
153 156 100
160 156 103
154 157 101
144 147 93
149 153 98
146 148 95
155 152 97
135 143 90
143 144 93
142 149 94
143 148 93
134 146 90
136 137 87
138 150 97
127 151 99
118 149 94
117 176 128
117 178 130
94 172 127
88 179 136
75 187 146
87 191 149
63 194 153
56 202 159
47 204 163
42 201 160
24 218 176
24 215 173
0 220 179
0 221 181
0 219 178
0 220 179
0 219 178
0 219 180
0 220 178
0 221 181
0 220 179
0 220 179
0 221 180
0 222 181
0 219 179
0 218 178
0 222 181
0 220 180
0 221 181
0 221 181
0 220 180
0 222 181
0 219 179
0 221 180
0 222 181
0 220 180
0 219 179
0 221 181
0 221 180
0 219 180
0 221 180
0 220 181
0 220 180
0 221 181
0 218 179
0 221 181
0 222 181
0 222 181
0 220 180
0 222 181
0 221 181
0 220 180
0 221 181
0 219 179
0 221 180
0 221 180
0 220 181
0 219 179
0 221 181
0 220 180
0 221 181
0 220 180
0 220 181
0 220 181
0 219 179
0 220 180
0 220 180
0 222 181
0 219 178
0 222 181
0 219 179
0 220 180
0 221 181
0 218 179
0 219 179
0 221 181
0 221 181
0 219 178
0 221 180
0 221 181
0 221 181
0 221 180
0 221 181
0 219 179
0 220 180
0 221 181
0 221 181
0 220 180
0 219 178
0 220 180
0 219 179
0 220 180
0 220 180
0 220 180
0 221 180
0 219 179
0 222 181
0 221 181
0 221 181
0 220 179
0 221 180
0 222 181
0 218 178
0 221 180
0 221 181
0 220 179
0 221 181
0 219 179
0 220 180
0 219 179
0 221 181
0 220 180
0 220 179
0 220 179
0 221 180
0 220 181
0 220 180
0 218 178
0 220 178
0 220 181
0 222 180
0 220 180
0 222 180
0 220 179
0 222 181
0 220 179
0 219 178
0 220 179
0 220 179
0 221 179
0 221 179
0 218 179
0 220 179
0 220 178
0 219 179
0 219 179
0 221 181
0 219 179
0 220 179
0 221 180
0 219 179
0 220 179
0 218 178
0 221 181
0 220 179
0 218 177
0 220 180
0 220 180
0 218 180
0 218 178
0 221 180
0 219 179
0 219 179
0 221 181
0 219 179
0 219 177
0 219 179
0 220 179
0 220 181
0 219 180
0 221 180
0 220 178
0 220 179
0 220 180
0 221 180
0 219 179
0 219 178
0 219 179
0 219 179
0 218 179
0 220 181
0 220 179
0 220 180
0 221 181
0 219 179
0 218 179
0 221 179
0 218 178
0 221 181
0 219 178
0 220 179
0 221 180
0 220 180
0 221 181
0 220 179
0 219 178
0 222 181
0 220 179
0 217 177
0 216 176
0 217 177
0 219 180
0 219 179
0 221 181
0 220 179
5 218 178
0 220 180
0 220 181
6 216 176
0 219 178
0 219 180
0 219 178
0 221 180
0 219 179
0 220 179
0 218 178
0 219 178
0 219 179
0 221 181
0 221 179
0 219 178
0 220 178
0 217 176
0 219 178
0 220 180
0 219 179
0 219 177
0 220 179
0 217 178
0 219 179
0 218 178
0 220 179
0 220 177
0 218 178
0 218 178
0 220 180
0 220 181
0 220 180
0 220 179
0 221 179
0 218 178
0 218 176
0 218 177
0 220 179
0 221 181
0 219 177
0 217 177
0 215 176
0 219 179
0 218 178
0 221 181
0 218 178
0 220 179
0 219 180
0 221 180
0 219 179
0 219 179
0 221 181
0 221 180
0 219 179
0 221 181
0 218 178
0 218 177
0 220 180
0 219 178
0 219 179
0 219 178
0 220 179
19 219 178
41 217 175
31 214 171
57 208 165
59 205 162
46 201 162
66 195 153
63 186 144
75 193 149
79 178 136
92 171 126
98 177 132
93 166 119
116 166 118
118 157 104
115 154 105
131 147 98
128 145 93
140 152 94
139 148 92
131 142 90
131 144 90
139 145 93
147 148 95
139 140 91
143 149 95
151 153 98
151 151 97
147 147 95
145 149 97
151 151 98
148 152 97
153 150 100
154 155 102
154 152 100
156 155 102
155 152 100
157 157 103
155 155 102
153 151 101
147 150 99
159 158 105
151 152 99
159 155 103
161 159 105
151 150 100
158 156 103
165 161 107
156 155 103
162 158 105
155 154 102
159 158 105
159 157 105
164 162 108
163 160 107
159 157 105
165 161 108
166 163 108
160 158 106
161 159 107
162 159 106
164 161 107
165 162 108
159 158 105
166 164 110
167 164 110
163 160 107
167 164 110
168 166 111
168 165 110
168 165 110
166 164 110
167 165 110
165 163 109
160 158 106
162 159 106
162 160 107
165 163 109
165 163 109
163 160 107
168 167 112
167 164 110
167 165 110
166 164 109
168 166 111
168 165 110
168 166 110
166 163 109
168 165 110
167 165 110
163 160 106
166 164 109
167 164 109
167 164 109
164 161 108
169 166 110
158 155 104
167 164 109
166 165 109
163 160 106
168 164 109
169 167 111
162 161 107
159 157 104
162 160 106
163 161 107
165 163 108
170 168 111
166 166 110
164 161 107
156 156 103
157 154 102
161 158 105
157 155 102
154 150 100
156 155 102
165 162 106
162 160 104
157 156 103
153 152 99
161 161 105
162 159 104
159 158 103
160 159 103
155 157 101
150 149 98
156 160 103
149 150 96
155 154 100
152 155 99
153 158 101
155 154 99
155 159 100
143 147 94
147 148 95
136 141 89
137 150 92
147 146 93
141 146 91
145 154 95
135 151 98
127 160 110
117 146 98
121 165 117
124 169 118
92 173 131
81 186 144
74 192 150
67 187 146
66 197 155
50 213 171
46 211 168
42 214 173
18 215 174
18 219 178
0 221 181
0 221 180
0 222 181
0 220 180
0 219 179
0 220 180
0 221 181
0 219 178
0 221 181
0 220 180
0 220 180
0 220 179
0 221 181
0 221 180
0 219 179
0 219 179
0 220 180
0 221 181
0 219 179
0 221 181
0 221 181
0 220 179
0 221 181
0 221 181
0 221 180
0 220 179
0 221 180
0 220 181
0 221 180
0 217 178
0 221 180
0 221 180
0 220 180
0 220 180
0 221 181
0 221 181
0 221 181
0 221 181
0 220 180
0 221 181
0 220 179
0 221 180
0 219 179
0 220 181
0 220 180
0 220 180
0 219 179
0 219 180
0 221 181
0 219 179
0 221 181
0 221 180
0 218 178
0 221 180
0 221 179
0 221 181
0 221 180
0 222 181
0 221 181
0 219 179
0 221 181
0 219 179
0 219 179
0 222 181
0 220 180
0 221 181
0 219 180
0 220 180
0 220 179
0 221 180
0 219 178
0 219 180
0 221 181
0 221 181
0 218 178
0 221 180
0 218 179
0 218 178
0 221 181
0 221 181
0 221 181
0 221 181
0 221 180
0 220 180
0 220 177
0 220 180
0 218 178
0 219 178
0 222 181
0 219 180
0 219 179
0 220 180
0 222 180
0 219 179
0 219 179
0 221 180
0 221 181
0 220 179
0 220 179
0 220 179
0 219 180
0 220 181
0 220 181
0 220 179
0 221 181
0 221 180
0 219 178
0 218 179
0 221 181
0 222 181
0 221 179
0 220 180
0 218 179
0 221 181
0 220 179
0 220 179
0 220 178
0 220 179
0 221 180
0 219 179
0 220 180
0 221 181
0 220 180
0 220 180
0 219 179
0 221 181
0 217 177
0 219 179
0 219 180
0 219 179
0 218 177
0 220 179
0 220 180
0 220 180
0 218 179
0 219 179
0 220 179
0 220 178
0 220 180
0 220 181
0 219 179
0 220 179
0 219 178
0 221 181
0 218 179
0 219 178
0 220 179
0 219 177
0 218 178
0 221 181
0 220 179
0 221 181
0 217 177
0 218 177
0 217 178
0 218 180
0 219 178
0 221 180
0 219 179
0 219 179
0 220 180
0 219 178
0 217 178
0 221 181
0 221 180
0 219 180
0 220 180
0 221 180
0 220 180
9 217 178
0 220 178
6 220 181
0 220 179
12 217 180
17 212 178
16 213 179
17 212 179
22 206 177
16 212 177
15 214 179
20 208 178
20 208 179
20 211 181
27 204 181
18 208 177
22 209 180
23 204 177
20 212 181
13 216 179
17 213 179
15 215 180
8 216 178
10 218 180
8 217 180
10 216 177
8 216 178
6 218 179
0 220 180
6 218 178
0 218 179
0 217 177
0 216 175
0 220 180
0 217 176
0 218 179
0 220 180
0 220 180
0 218 177
0 220 179
0 218 177
0 217 176
0 218 178
0 221 179
0 218 177
0 220 179
0 219 179
0 220 180
0 220 180
0 221 180
0 220 180
0 220 180
0 219 179
0 217 177
0 218 178
0 218 176
0 218 176
0 217 178
0 220 180
0 221 179
0 221 180
0 220 179
0 218 178
0 218 176
0 217 177
0 218 178
0 220 180
0 219 179
0 219 180
0 219 178
0 218 177
0 219 178
0 220 179
0 217 179
0 217 177
17 213 173
33 214 173
41 211 170
25 212 172
40 209 167
50 200 159
78 197 154
64 188 148
69 198 156
85 180 138
81 181 137
101 170 124
99 170 127
116 163 118
123 164 113
125 161 113
130 152 102
123 148 94
139 149 94
123 140 86
133 145 91
131 140 88
126 137 85
141 150 94
141 145 94
150 152 98
135 141 90
143 144 94
146 149 96
142 147 94
153 154 100
157 153 100
149 151 99
159 155 102
152 150 99
144 146 96
156 155 101
156 155 102
159 157 105
153 152 102
154 155 102
160 159 107
153 155 101
162 161 106
157 157 103
153 153 102
162 160 107
162 159 106
164 162 108
166 163 108
167 165 110
158 155 103
164 160 107
160 159 106
161 159 105
166 163 110
163 162 109
161 160 107
165 163 108
164 161 108
161 158 106
161 158 107
170 167 111
170 168 112
167 164 110
166 163 109
164 163 109
164 162 108
167 165 110
161 160 107
163 160 107
159 157 105
164 162 108
164 161 107
169 166 110
167 164 110
167 164 109
170 167 112
168 166 111
164 162 108
170 166 110
170 168 112
165 163 108
170 167 112
165 163 109
165 162 108
169 166 110
166 163 109
168 165 110
167 164 109
170 167 111
165 162 108
166 163 109
164 162 108
169 167 111
168 165 110
168 165 110
163 161 108
168 165 109
161 159 106
168 164 109
168 165 110
167 163 108
164 162 107
170 166 110
167 164 108
166 164 108
164 162 108
165 163 108
169 165 109
163 160 104
164 162 106
165 162 107
167 163 108
159 155 102
155 154 101
166 163 108
164 161 106
156 155 102
157 160 103
158 158 103
157 156 102
150 152 99
162 158 103
155 156 102
161 162 104
153 154 99
150 153 98
146 148 95
153 153 99
148 149 96
149 155 98
160 155 101
149 154 98
144 154 97
149 150 96
145 153 95
133 141 88
145 149 94
127 136 85
139 149 92
133 148 93
143 151 97
113 151 106
123 159 111
120 170 118
102 171 123
102 168 125
84 182 139
65 189 148
59 196 153
57 204 161
45 207 164
61 213 170
42 212 171
0 216 175
0 220 181
0 220 181
0 222 180
0 221 181
0 219 180
0 221 181
0 220 178
0 222 181
0 221 181
0 220 181
0 220 180
0 221 181
0 219 180
0 218 179
0 219 180
0 218 178
0 220 179
0 219 180
0 218 178
0 221 180
0 221 181
0 221 181
0 221 181
0 220 180
0 218 179
0 218 178
0 221 181
0 221 180
0 219 179
0 221 181
0 220 180
0 219 179
0 220 179
0 218 179
0 220 180
0 220 179
0 219 180
0 221 181
0 221 181
0 222 181
0 220 181
0 220 180
0 219 180
0 220 180
0 220 181
0 221 181
0 220 179
0 219 179
0 220 180
0 219 179
0 221 181
0 219 179
0 220 180
0 221 180
0 219 179
0 221 180
0 217 178
0 221 181
0 220 180
0 220 179
0 218 178
0 219 180
0 220 179
0 221 181
0 221 181
0 219 179
0 220 181
0 220 181
0 219 179
0 221 180
0 221 181
0 219 179
0 218 179
0 220 180
0 221 181
0 220 180
0 221 179
0 220 180
0 221 181
0 220 180
0 220 178
0 221 181
0 220 180
0 220 179
0 221 181
0 221 180
0 221 181
0 218 178
0 221 179
0 219 179
0 220 180
0 220 180
0 220 179
0 220 181
0 219 179
0 220 180
0 221 181
0 219 179
0 221 181
0 220 180
0 221 180
0 222 181
0 220 180
0 217 179
0 219 180
0 219 179
0 218 178
0 220 180
0 220 179
0 219 179
0 222 181
0 220 180
0 218 178
0 221 180
0 220 181
0 219 180
0 216 176
0 221 180
0 220 179
0 219 179
0 220 178
0 220 180
0 219 179
0 219 178
0 221 181
0 219 178
0 218 178
0 218 178
0 220 180
0 221 180
0 220 179
0 219 179
0 219 179
0 220 181
0 218 178
0 220 180
0 219 178
0 221 181
0 217 178
0 219 179
0 219 179
0 218 177
0 220 180
0 220 179
0 218 178
0 219 180
0 220 179
0 220 180
0 217 178
0 219 178
0 218 178
0 219 178
0 220 179
0 219 179
0 220 179
0 220 180
0 219 180
0 220 179
0 220 180
0 219 179
0 218 178
0 218 178
0 221 181
0 219 177
0 221 181
6 218 179
8 217 178
16 211 178
22 208 180
17 212 178
23 207 180
25 202 177
26 203 179
34 191 180
34 192 181
31 194 177
37 185 180
38 182 179
38 182 178
41 175 178
41 176 179
37 184 178
43 172 180
40 180 179
40 179 181
42 177 181
38 181 179
35 191 180
45 168 180
38 180 178
33 193 180
26 202 177
31 196 179
31 196 179
34 191 178
25 206 181
22 209 180
18 211 179
13 215 178
14 214 179
5 218 179
10 214 177
0 220 180
6 217 179
0 220 180
0 220 179
0 218 176
0 219 178
0 220 178
0 218 177
0 218 177
0 220 177
0 220 179
0 218 177
0 219 178
0 221 181
0 218 177
0 219 178
0 222 181
0 219 177
0 219 179
0 220 179
0 218 177
0 220 179
0 218 178
0 219 176
0 219 178
0 214 175
0 216 176
0 219 178
0 216 176
0 217 175
0 219 178
0 219 178
0 221 180
0 217 176
0 221 181
0 215 175
0 221 180
0 219 178
0 220 180
0 219 177
0 220 177
0 219 178
24 214 173
38 209 167
40 209 169
34 204 162
56 204 162
60 199 156
65 197 154
76 192 149
99 192 145
89 182 140
105 161 117
73 177 135
102 166 119
111 163 113
117 151 104
122 144 93
116 147 96
135 147 94
132 140 87
130 143 88
136 141 91
133 144 90
145 151 96
145 154 97
151 160 101
146 151 97
138 141 91
145 147 95
142 142 93
138 142 91
152 158 101
153 154 100
149 148 96
155 156 102
159 156 102
151 153 100
149 148 97
153 154 101
150 149 100
150 149 100
152 152 100
157 155 105
165 162 108
159 157 104
164 162 107
153 154 102
159 156 104
160 159 105
150 151 101
158 157 105
162 159 106
165 161 107
166 162 109
160 157 105
162 160 107
160 158 106
168 165 110
166 162 108
169 166 110
162 159 107
167 164 109
165 163 108
164 161 108
166 163 108
168 165 110
162 160 107
168 165 110
165 162 108
164 161 107
164 162 108
171 169 113
166 164 109
168 165 110
163 161 108
165 162 108
166 163 109
171 168 112
166 164 110
161 159 107
162 161 108
162 159 106
165 163 109
169 166 111
167 165 110
166 164 110
169 166 111
169 166 110
164 162 108
166 163 108
163 160 107
167 165 110
163 161 108
166 163 109
166 163 108
167 165 110
168 166 110
166 162 108
164 161 106
166 163 109
164 162 107
163 160 107
166 163 108
166 163 108
167 165 109
169 167 110
162 162 106
163 160 106
165 163 108
158 156 103
165 163 108
163 160 106
167 165 109
163 162 107
163 161 105
160 158 105
159 161 104
156 156 102
154 155 101
158 156 103
164 163 107
163 160 104
160 158 103
159 161 104
160 158 104
159 158 103
150 149 97
162 160 105
152 153 100
158 160 102
153 153 99
153 151 98
151 153 98
153 152 98
150 155 98
144 145 93
135 140 89
143 146 93
144 148 93
147 154 96
139 150 93
139 144 91
126 139 86
130 148 92
130 155 101
123 154 103
117 154 108
114 171 124
100 183 134
99 183 136
90 189 145
77 193 150
77 199 156
74 200 156
67 207 164
27 216 174
32 217 176
0 219 178
0 221 181
0 219 178
0 220 180
0 222 181
0 219 178
0 220 180
0 218 177
0 220 180
0 220 180
0 221 181
0 220 180
0 220 180
0 221 180
0 222 181
0 220 180
0 221 181
0 221 181
0 220 179
0 218 178
0 219 179
0 221 181
0 220 181
0 222 181
0 220 181
0 220 179
0 220 181
0 219 179
0 222 181
0 220 179
0 219 179
0 221 181
0 221 180
0 220 181
0 220 179
0 219 179
0 221 180
0 220 181
0 220 180
0 220 180
0 221 180
0 220 181
0 221 181
0 219 178
0 220 180
0 221 181
0 220 180
0 221 180
0 221 181
0 221 181
0 219 179
0 221 180
0 221 180
0 221 180
0 221 180
0 218 178
0 220 180
0 218 178
0 220 179
0 219 179
0 221 181
0 219 179
0 220 180
0 221 180
0 221 181
0 222 181
0 218 177
0 221 181
0 221 180
0 221 181
0 220 180
0 221 180
0 219 180
0 222 181
0 219 179
0 219 179
0 220 179
0 220 178
0 218 179
0 218 178
0 220 180
0 220 180
0 220 180
0 220 180
0 219 179
0 221 180
0 218 178
0 220 179
0 221 180
0 219 178
0 222 181
0 219 179
0 220 179
0 219 179
0 220 179
0 220 180
0 219 179
0 219 179
0 221 180
0 219 179
0 220 180
0 219 178
0 218 178
0 221 180
0 220 180
0 218 178
0 219 178
0 219 179
0 221 180
0 221 181
0 219 179
0 221 181
0 221 181
0 220 179
0 220 179
0 218 179
0 221 181
0 220 180
0 221 180
0 218 177
0 220 179
0 219 178
0 216 178
0 220 179
0 219 178
0 221 180
0 219 179
0 220 180
0 222 181
0 220 178
0 222 180
0 219 179
0 221 181
0 219 178
0 221 180
0 219 179
0 216 178
0 216 178
0 216 176
0 221 180
0 220 180
0 220 179
0 220 180
0 219 179
0 219 179
0 220 179
0 216 175
0 219 179
0 221 181
0 220 179
0 220 180
0 220 179
0 219 178
0 218 178
0 220 180
0 219 179
0 217 177
0 221 179
0 219 179
0 221 181
8 217 179
10 217 179
8 216 178
22 205 178
24 206 179
28 199 179
34 191 179
36 188 179
40 178 179
43 173 181
42 174 180
44 170 180
47 159 181
50 151 181
49 151 180
51 146 181
52 148 181
55 132 180
56 128 181
58 122 181
55 129 179
59 108 180
57 119 180
58 115 179
57 123 181
57 125 181
55 134 181
57 123 179
54 140 181
54 139 181
56 130 180
51 146 181
47 161 179
50 153 179
47 165 181
46 165 181
41 178 179
37 185 179
34 191 180
37 187 180
25 206 180
21 208 179
22 209 180
17 213 180
11 215 178
9 218 179
0 220 179
0 215 174
0 220 179
0 218 177
0 217 177
0 221 179
0 218 178
0 219 178
0 218 178
0 220 180
0 221 180
0 219 178
0 219 179
0 218 178
0 218 177
0 220 179
0 219 179
0 221 180
0 218 178
0 220 179
0 219 178
0 219 177
0 221 181
0 219 179
0 219 178
0 220 178
0 220 180
0 219 179
0 219 179
0 219 178
0 219 179
0 221 179
0 219 179
0 214 175
0 219 177
0 220 178
0 218 176
27 219 177
38 215 174
33 214 172
45 199 158
43 207 165
72 205 161
52 196 156
66 196 154
81 184 140
80 177 135
90 186 140
75 168 126
120 176 124
110 166 122
113 159 111
116 163 115
124 147 97
135 148 95
129 141 88
128 144 89
131 139 87
133 145 89
134 139 89
140 149 93
138 145 93
148 150 97
137 140 91
150 150 98
148 150 97
142 144 94
149 154 98
145 151 98
154 158 102
151 150 99
151 152 100
159 157 105
150 150 99
150 149 98
155 157 102
150 150 99
156 156 104
147 150 99
160 160 105
155 156 103
158 158 104
157 156 104
159 157 105
166 162 108
156 156 103
160 158 105
156 158 104
159 159 105
157 156 104
163 162 108
161 158 106
164 161 108
163 162 108
165 162 109
165 163 109
161 159 107
164 162 109
164 162 108
162 159 106
161 160 108
162 159 106
164 162 108
162 160 107
164 162 108
162 159 106
167 165 110
168 166 111
169 166 111
165 163 110
166 164 110
169 166 110
168 165 110
167 164 109
167 164 109
168 165 110
161 158 106
166 164 109
170 167 112
171 168 112
169 167 111
164 162 108
169 166 111
164 162 108
165 163 109
167 164 109
163 162 108
168 165 110
171 168 112
173 169 112
163 161 107
167 165 110
164 162 108
167 165 109
163 162 108
167 164 108
166 163 108
170 167 111
164 163 108
167 165 109
167 164 109
165 162 107
162 159 105
162 159 105
158 159 105
167 163 109
170 169 111
164 162 107
165 165 109
165 166 109
163 164 107
161 159 105
167 164 108
161 159 104
155 152 101
163 161 107
159 159 104
158 159 103
157 156 101
159 162 105
152 154 100
157 157 103
156 156 102
153 155 100
153 159 101
157 158 103
147 152 97
153 153 100
159 159 102
138 145 91
154 153 100
150 150 96
139 142 90
144 148 94
148 154 97
139 145 91
146 153 97
141 153 94
139 151 93
129 137 85
134 139 87
136 149 95
112 144 99
118 160 111
101 163 119
106 169 119
81 178 132
101 180 136
71 193 152
65 191 149
67 203 161
42 214 171
42 211 170
19 219 177
0 218 176
0 218 177
0 220 178
0 220 180
0 220 178
0 220 181
0 221 181
0 219 178
0 221 181
0 220 179
0 221 180
0 220 180
0 220 180
0 222 181
0 220 180
0 221 181
0 221 181
0 217 177
0 220 180
0 220 180
0 221 181
0 221 181
0 219 180
0 221 181
0 221 181
0 221 181
0 221 181
0 221 180
0 222 181
0 220 179
0 222 181
0 221 181
0 217 178
0 221 180
0 220 180
0 219 179
0 221 181
0 219 178
0 221 181
0 219 179
0 219 180
0 221 181
0 220 180
0 219 178
0 220 180
0 221 181
0 220 181
0 221 180
0 221 181
0 221 181
0 219 179
0 220 181
0 221 180
0 220 179
0 221 180
0 220 181
0 220 181
0 220 180
0 221 181
0 220 180
0 221 181
0 219 179
0 216 176
0 220 179
0 219 179
0 220 181
0 219 180
0 220 180
0 221 180
0 219 180
0 221 181
0 220 179
0 220 179
0 219 178
0 220 180
0 219 180
0 220 180
0 220 180
0 220 180
0 220 180
0 221 179
0 221 181
0 221 181
0 221 181
0 220 180
0 221 181
0 217 178
0 220 180
0 221 181
0 217 178
0 219 177
0 220 179
0 221 181
0 221 181
0 217 178
0 221 181
0 221 181
0 219 179
0 220 180
0 219 179
0 219 179
0 219 179
0 219 178
0 221 181
0 220 179
0 220 179
0 221 181
0 221 181
0 219 178
0 221 179
0 219 179
0 218 178
0 217 178
0 217 178
0 219 180
0 220 180
0 219 179
0 219 178
0 219 179
0 219 179
0 220 180
0 220 179
0 219 179
0 221 181
0 217 177
0 220 180
0 221 180
0 215 177
0 220 178
0 220 178
0 219 177
0 219 179
0 220 179
0 220 180
0 220 179
0 219 178
0 221 180
0 219 178
0 221 180
0 220 181
0 221 180
0 219 178
0 221 181
0 218 179
0 220 180
0 220 179
0 220 180
0 219 179
0 220 179
0 220 179
0 219 179
0 220 180
0 217 178
0 220 180
0 220 180
0 219 179
0 220 178
0 220 179
13 215 178
22 207 179
29 197 178
30 197 179
32 196 180
37 183 179
37 184 179
45 168 180
47 161 181
53 138 179
55 130 180
55 132 178
58 121 181
59 114 181
59 110 180
62 99 181
62 99 181
62 99 181
61 98 181
62 99 181
62 99 181
61 99 181
61 98 180
62 99 181
62 99 181
62 99 181
61 98 180
61 99 181
62 99 181
62 99 181
62 99 181
61 101 179
61 101 180
61 101 181
61 99 181
61 105 181
59 113 179
59 115 180
56 127 181
54 137 180
51 148 180
50 148 179
46 162 180
40 179 179
41 177 178
34 190 178
35 189 178
32 195 180
25 202 178
13 216 179
10 216 178
10 214 177
0 220 180
0 220 179
0 218 178
0 218 176
0 220 178
0 220 179
0 219 180
0 219 179
0 217 177
0 221 180
0 220 180
0 219 177
0 221 180
0 219 178
0 220 179
0 218 177
0 219 178
0 220 178
0 219 179
0 219 179
0 219 179
0 220 179
0 217 177
0 220 179
0 219 179
0 218 178
0 218 178
0 218 178
0 220 180
0 220 179
0 217 176
0 219 177
0 219 177
26 216 173
32 217 175
58 199 158
42 202 162
55 204 161
58 200 159
89 195 149
76 187 143
81 177 132
75 179 132
93 183 137
97 169 122
102 158 115
113 159 110
109 154 102
111 155 104
122 150 93
124 144 92
128 136 86
130 145 89
142 151 95
148 149 96
118 137 83
138 147 93
146 153 96
135 143 92
144 147 95
151 150 99
148 150 97
153 154 100
139 144 94
143 151 96
140 147 96
155 157 102
148 145 96
151 150 99
155 156 102
161 157 105
150 150 101
154 154 102
154 153 101
158 157 104
157 156 104
159 157 104
154 152 102
155 156 103
163 160 108
155 157 104
154 151 102
162 159 106
159 157 105
160 160 106
162 159 107
162 160 107
168 165 110
169 165 110
160 158 106
166 163 109
163 161 108
158 157 106
166 163 109
162 161 108
159 157 106
164 161 107
171 167 111
165 163 109
164 162 108
165 162 108
167 164 109
168 165 110
168 166 111
162 160 107
169 167 111
168 165 110
166 163 109
165 162 108
163 160 107
163 161 108
173 169 113
165 162 108
166 163 108
168 166 111
170 167 112
166 163 109
168 165 110
165 163 109
167 166 111
172 169 112
171 168 112
172 168 111
167 165 110
164 162 108
171 168 112
169 165 109
162 160 106
162 160 107
168 165 110
170 166 110
168 165 110
162 161 107
165 161 107
165 162 108
168 164 109
172 168 111
161 161 106
162 161 106
168 165 109
166 167 109
168 166 110
159 156 103
167 165 108
161 161 106
161 158 104
161 161 105
167 163 106
162 160 106
164 162 106
167 164 107
163 163 106
164 162 106
162 162 106
159 157 103
166 166 108
158 161 104
157 158 103
164 161 105
148 148 96
152 154 99
155 159 103
164 162 106
157 155 102
152 153 98
156 157 101
150 154 98
143 145 93
147 153 97
145 151 95
144 151 95
145 146 93
142 150 93
131 145 88
152 156 98
137 151 92
140 152 93
128 144 91
118 152 101
131 159 105
105 156 111
98 157 115
105 169 125
95 188 144
71 187 145
74 193 150
68 184 143
63 196 155
36 210 169
39 209 168
0 217 176
0 218 177
0 222 181
0 220 179
0 221 180
0 221 180
0 218 177
0 220 178
0 220 179
0 218 178
0 221 180
0 221 181
0 220 179
0 220 178
0 220 179
0 221 181
0 220 180
0 221 181
0 220 180
0 219 179
0 220 180
0 219 179
0 221 180
0 221 180
0 221 180
0 219 178
0 221 181
0 221 181
0 219 179
0 220 181
0 221 181
0 220 180
0 219 178
0 219 180
0 220 180
0 219 179
0 221 180
0 220 180
0 220 180
0 220 180
0 220 180
0 220 179
0 221 179
0 220 180
0 219 179
0 221 181
0 222 181
0 219 180
0 222 181
0 221 181
0 220 180
0 221 180
0 221 180
0 220 180
0 221 180
0 220 179
0 221 181
0 218 179
0 221 180
0 220 178
0 221 181
0 220 181
0 219 180
0 221 181
0 220 179
0 221 181
0 220 179
0 220 179
0 221 179
0 220 179
0 219 180
0 221 181
0 219 178
0 221 181
0 222 180
0 219 179
0 221 180
0 219 180
0 220 180
0 221 181
0 218 179
0 219 179
0 221 181
0 219 179
0 220 179
0 218 179
0 221 180
0 221 181
0 220 179
0 220 179
0 217 178
0 220 180
0 222 180
0 217 177
0 217 177
0 222 181
0 221 180
0 218 178
0 220 180
0 219 179
0 219 179
0 219 179
0 218 178
0 220 178
0 221 181
0 219 179
0 219 178
0 220 179
0 219 179
0 219 179
0 220 180
0 219 179
0 219 179
0 219 179
0 217 178
0 221 180
0 221 180
0 220 179
0 219 178
0 221 181
0 217 178
0 220 179
0 219 179
0 220 179
0 219 179
0 218 177
0 219 178
0 221 181
0 220 179
0 219 179
0 218 177
0 221 181
0 221 181
0 218 178
0 218 179
0 219 179
0 220 180
0 216 177
0 220 180
0 220 178
0 219 178
0 221 179
0 220 180
0 220 180
0 219 179
0 221 179
0 221 180
0 219 178
0 220 181
0 219 179
0 219 178
0 219 180
0 219 179
5 217 178
0 219 178
18 208 178
20 211 180
27 202 180
29 197 179
37 185 180
43 172 180
51 149 180
54 138 180
55 132 180
59 116 180
58 119 180
60 106 181
60 105 181
61 99 180
61 99 180
61 99 181
61 99 180
61 99 181
62 99 181
61 99 180
62 99 181
61 99 181
61 99 181
62 99 181
62 99 181
62 99 181
62 99 181
62 99 181
62 99 180
62 99 181
61 98 181
61 99 181
62 99 181
62 99 181
62 99 181
62 99 180
62 99 181
61 98 180
61 98 179
61 98 180
61 99 181
61 98 179
61 99 181
62 99 181
61 101 179
60 108 180
58 120 178
57 125 179
51 143 179
50 151 180
44 169 180
40 174 177
36 187 178
28 199 178
27 198 177
18 210 177
13 216 179
0 220 180
0 218 178
0 222 181
0 217 177
0 217 178
0 216 176
0 218 179
0 216 175
0 220 178
0 219 179
0 220 180
0 219 178
0 220 179
0 219 179
0 220 179
0 218 178
0 217 177
0 218 176
0 214 175
0 222 181
0 216 176
0 219 177
0 219 178
0 219 177
0 219 179
0 219 178
0 219 179
0 219 179
0 219 178
0 219 178
17 215 175
18 212 171
42 212 170
32 200 162
54 205 162
60 206 161
67 196 154
79 185 139
86 187 140
76 187 144
98 174 128
98 178 133
100 172 127
92 151 107
128 160 106
123 155 102
107 137 90
114 137 87
135 147 92
135 152 93
132 143 90
140 148 93
131 138 88
137 148 93
152 154 98
139 144 93
137 138 90
145 149 96
138 146 93
150 150 98
150 154 99
150 150 97
148 148 96
141 146 95
141 144 94
153 155 102
151 149 99
149 152 100
153 154 101
151 150 101
157 156 102
154 154 102
159 158 103
154 154 101
161 158 105
158 159 105
163 159 106
155 153 102
160 157 105
157 155 103
161 157 105
160 158 106
154 154 102
163 162 108
168 164 109
161 159 106
163 160 107
167 164 110
166 163 109
162 160 107
167 164 109
165 162 108
160 159 106
165 162 108
164 163 109
167 165 110
161 159 106
167 164 109
167 164 110
168 165 110
166 163 108
165 163 109
167 164 110
169 166 111
169 166 111
167 164 109
165 162 108
167 164 109
167 165 110
166 164 110
168 166 111
169 167 112
169 166 111
165 163 109
170 166 110
162 160 107
170 166 110
170 167 111
169 165 110
167 164 110
172 168 112
168 165 110
169 166 110
175 171 113
170 167 112
166 163 109
163 162 108
165 163 108
163 161 107
168 165 110
174 170 113
163 161 107
165 164 109
169 165 109
166 163 108
169 167 111
166 164 108
162 159 106
169 167 110
165 162 107
171 170 111
169 165 109
162 160 106
170 167 110
165 163 107
165 163 107
163 164 107
165 163 108
159 157 103
162 160 105
161 162 106
158 156 102
165 163 106
153 153 99
163 162 105
163 161 105
158 157 102
155 158 101
144 151 96
154 156 100
153 156 100
153 154 99
159 158 102
139 146 92
145 150 95
151 154 98
148 155 97
150 153 98
140 155 96
130 147 90
147 152 96
154 155 97
139 149 92
137 148 91
138 146 90
138 144 89
140 154 96
120 150 97
126 165 115
116 169 119
103 175 126
97 182 139
69 186 144
80 183 140
69 191 151
65 193 151
62 198 155
46 215 174
53 210 167
37 216 174
18 220 180
0 219 178
0 220 179
0 222 180
0 222 181
0 221 181
0 219 178
0 219 181
0 220 179
0 221 180
0 220 179
0 217 177
0 221 180
0 220 179
0 220 179
0 220 180
0 220 179
0 221 180
0 220 179
0 219 179
0 222 181
0 217 178
0 221 181
0 220 179
0 222 181
0 221 180
0 220 180
0 220 180
0 218 179
0 222 181
0 220 181
0 220 180
0 221 181
0 218 178
0 221 181
0 221 181
0 221 180
0 220 180
0 219 179
0 220 180
0 219 179
0 219 180
0 221 180
0 219 180
0 221 180
0 220 179
0 221 180
0 221 180
0 219 180
0 221 180
0 221 181
0 219 178
0 220 178
0 221 180
0 218 179
0 220 180
0 221 180
0 220 179
0 222 181
0 219 178
0 220 180
0 220 179
0 219 179
0 221 180
0 221 181
0 219 179
0 221 180
0 220 180
0 219 179
0 220 179
0 219 179
0 221 180
0 220 180
0 221 180
0 221 181
0 219 179
0 220 180
0 221 181
0 221 181
0 221 181
0 221 181
0 222 181
0 220 180
0 221 180
0 220 180
0 220 180
0 220 179
0 220 179
0 219 178
0 221 181
0 219 178
0 220 180
0 221 180
0 219 178
0 219 177
0 220 179
0 220 180
0 219 179
0 220 180
0 218 177
0 220 179
0 218 179
0 218 178
0 219 177
0 219 179
0 221 181
0 218 177
0 220 178
0 220 179
0 218 179
0 219 179
0 221 180
0 219 179
0 218 178
0 221 180
0 216 176
0 220 180
0 221 181
0 220 179
0 220 180
0 221 181
0 221 180
0 220 180
0 218 178
0 219 178
0 218 178
0 217 177
0 220 179
0 221 180
0 218 178
0 220 179
0 215 176
0 220 179
0 219 179
0 219 180
0 220 180
0 221 181
0 219 178
0 219 179
0 218 178
0 221 180
0 222 181
0 220 179
0 221 181
0 219 179
0 219 179
0 216 177
0 220 180
0 219 179
6 217 178
18 210 178
21 209 179
26 200 177
33 193 181
37 185 181
43 171 180
54 140 180
56 127 179
57 120 179
60 106 180
61 99 180
62 99 180
61 99 180
61 99 181
61 99 180
61 99 181
62 99 181
62 99 181
62 99 181
61 98 181
61 98 181
62 99 181
62 99 181
61 98 181
62 99 181
62 99 181
62 99 181
61 99 181
61 99 181
61 99 181
61 99 181
61 99 181
62 99 181
61 98 181
61 99 181
61 98 181
61 99 181
62 99 181
61 99 181
61 99 181
61 98 179
62 99 181
61 99 181
61 98 179
61 99 181
62 98 178
61 99 181
62 99 180
61 99 180
61 99 180
62 99 180
60 100 178
61 102 179
59 112 179
54 132 179
51 143 178
48 156 179
43 170 178
38 177 177
29 197 177
33 192 177
20 207 176
16 213 179
5 220 181
0 219 179
0 218 177
0 217 177
0 219 179
0 219 179
0 221 180
0 219 178
0 219 179
0 217 176
0 216 175
0 220 179
0 218 179
0 218 175
0 220 181
0 217 176
0 219 179
0 216 176
0 220 180
0 215 174
0 219 179
0 220 178
0 220 179
0 217 177
0 220 179
0 221 180
0 218 178
42 216 175
42 211 169
32 213 172
48 208 167
56 200 157
73 204 159
64 197 154
91 191 147
84 185 138
87 177 136
90 170 124
91 158 116
111 162 116
110 152 104
118 161 108
121 144 96
131 152 94
129 138 89
143 150 95
132 141 89
136 149 94
147 151 97
133 141 88
135 142 91
142 150 95
128 139 88
139 150 95
139 146 94
133 135 90
140 143 94
139 142 92
134 141 92
151 156 100
152 155 101
146 148 97
143 146 96
155 154 103
150 154 101
151 152 100
159 158 104
150 155 102
156 154 103
153 151 101
159 156 104
147 148 99
154 153 103
162 161 106
162 159 107
156 155 104
155 154 104
156 155 105
161 158 105
160 157 105
163 161 108
164 160 106
167 163 108
164 161 107
165 163 109
163 160 107
154 152 102
162 160 108
167 164 110
168 165 110
167 164 110
161 159 107
167 165 110
171 167 111
168 165 110
168 166 110
164 162 108
166 163 109
168 164 109
170 167 111
166 164 110
169 166 111
169 166 110
162 159 106
168 165 110
170 167 111
170 166 111
163 162 108
170 166 111
173 170 113
164 161 108
171 168 112
168 166 111
172 168 112
168 165 110
171 168 112
172 169 112
172 168 112
173 169 112
166 165 109
167 164 109
169 166 110
170 167 111
170 167 111
167 165 110
168 164 109
168 166 110
165 163 108
166 164 108
170 167 111
173 170 112
162 161 107
162 162 107
167 164 109
165 163 108
169 168 110
167 163 108
166 165 108
164 161 106
169 166 109
162 161 106
167 164 108
161 159 105
163 163 106
164 160 106
172 169 110
163 164 106
160 165 106
155 155 101
161 160 105
160 159 104
160 163 106
161 159 103
150 157 99
152 156 100
151 152 98
162 162 105
155 158 102
155 160 102
143 154 97
152 155 99
148 153 98
160 161 103
153 153 98
145 152 95
137 147 91
134 143 89
135 140 88
140 148 92
135 142 88
132 141 88
135 141 88
136 142 89
111 143 88
125 149 95
125 160 107
129 160 109
108 167 122
90 180 139
95 181 137
95 192 144
82 191 147
63 198 154
70 189 148
62 210 166
31 214 173
32 217 176
19 218 177
0 220 180
0 219 179
0 220 178
0 220 180
0 221 180
0 221 180
0 220 180
0 220 181
0 220 180
0 221 181
0 221 181
0 221 181
0 220 180
0 220 180
0 219 179
0 222 181
0 220 179
0 221 181
0 221 181
0 221 181
0 220 180
0 220 180
0 220 180
0 220 180
0 221 181
0 219 179
0 220 180
0 221 180
0 222 180
0 221 181
0 221 181
0 220 180
0 220 179
0 222 181
0 221 180
0 220 180
0 219 180
0 219 179
0 222 181
0 221 180
0 222 181
0 217 179
0 220 179
0 220 179
0 216 177
0 221 181
0 220 180
0 218 179
0 219 180
0 221 179
0 221 181
0 220 179
0 221 181
0 221 180
0 219 180
0 220 180
0 220 181
0 220 179
0 220 179
0 219 179
0 219 180
0 220 179
0 221 181
0 219 180
0 220 180
0 220 180
0 220 180
0 221 179
0 221 180
0 219 179
0 221 180
0 222 181
0 219 179
0 221 181
0 221 181
0 220 180
0 221 181
0 217 178
0 219 178
0 222 181
0 221 180
0 220 180
0 219 179
0 219 179
0 218 179
0 220 180
0 220 179
0 219 179
0 220 180
0 220 180
0 221 180
0 218 177
0 222 180
0 221 181
0 220 181
0 219 179
0 220 180
0 219 179
0 220 179
0 220 180
0 218 178
0 221 180
0 220 180
0 218 178
0 219 179
0 220 179
0 221 180
0 219 178
0 221 180
0 219 180
0 219 179
0 221 181
0 217 177
0 221 181
0 220 181
0 222 181
0 217 178
0 220 179
0 220 180
0 219 179
0 220 180
0 220 178
0 220 180
0 219 179
0 220 179
0 220 179
0 220 180
0 218 178
0 221 180
0 219 180
0 218 178
0 220 180
0 218 176
0 220 180
0 217 178
0 219 179
0 220 180
0 219 178
0 219 179
0 220 179
0 217 179
0 219 179
0 218 177
0 218 177
0 218 177
6 219 181
11 217 179
22 210 181
27 200 178
37 185 180
39 180 180
45 163 177
51 145 180
55 134 181
60 112 180
61 103 181
62 99 181
61 99 180
62 99 180
62 99 181
61 99 180
61 99 181
62 99 181
61 99 181
61 98 181
62 99 181
61 99 181
61 99 181
62 99 180
62 99 181
62 99 181
61 99 181
61 99 181
62 99 181
62 99 181
61 98 181
62 99 181
62 99 181
61 98 181
61 99 181
61 98 181
61 99 181
62 99 181
61 99 181
62 99 180
61 98 181
62 99 181
62 99 181
61 98 181
61 99 181
61 99 181
62 99 181
61 99 181
61 98 180
62 99 181
61 98 180
62 99 180
61 99 181
62 99 181
61 98 180
61 99 180
61 99 181
61 98 179
60 100 178
61 100 179
60 110 180
59 115 178
53 144 181
45 168 180
46 166 180
38 182 178
32 194 178
28 201 178
18 212 178
8 217 179
0 219 177
0 219 178
0 221 180
0 220 179
0 217 175
0 218 177
0 216 177
0 219 179
0 218 177
0 217 176
0 219 179
0 218 177
0 220 179
0 219 177
0 218 177
0 219 178
0 219 178
0 217 177
0 217 178
0 217 178
0 217 177
0 218 177
0 217 175
0 215 174
0 213 172
38 206 167
50 207 163
65 200 157
54 201 158
62 199 158
58 183 140
74 196 151
74 177 133
76 179 133
106 173 127
110 163 115
100 173 122
114 152 106
113 153 100
125 145 97
140 151 96
127 139 86
136 144 91
133 143 89
139 148 94
134 142 90
138 146 93
137 140 90
138 148 94
139 148 94
139 145 94
151 148 97
148 147 96
145 150 97
155 155 103
144 147 97
151 153 100
157 158 103
151 151 100
153 156 103
140 144 95
150 150 99
144 150 99
152 152 100
147 148 99
153 152 101
159 157 103
155 153 101
153 152 102
155 156 103
162 159 105
161 158 106
158 157 105
155 152 102
161 160 107
162 159 106
157 155 104
161 159 106
160 158 107
166 163 110
159 156 106
159 158 106
161 159 107
167 165 110
162 160 107
167 165 110
162 159 107
162 159 106
168 164 109
165 163 109
163 161 109
167 166 111
167 165 110
169 166 111
165 163 109
173 170 113
167 165 111
164 162 109
166 163 109
167 164 110
168 166 110
166 164 110
168 167 111
169 166 110
174 170 113
171 168 112
170 166 110
173 169 112
169 167 111
170 167 112
168 166 110
169 167 111
172 169 112
171 168 112
168 165 110
171 168 112
169 167 111
171 168 111
165 162 108
173 169 112
170 167 110
166 164 109
169 166 110
169 165 109
168 166 110
169 166 110
170 166 110
164 163 107
165 163 108
169 167 111
169 166 110
167 165 109
169 168 110
166 165 108
163 162 107
164 163 107
168 164 108
163 164 108
169 168 110
166 164 108
162 162 105
170 166 109
157 159 103
158 159 104
162 161 104
158 161 104
158 157 103
161 162 105
159 159 104
155 154 100
153 159 102
157 158 103
152 153 99
162 162 104
147 154 98
159 162 103
150 158 99
151 157 100
146 149 96
145 154 97
151 150 97
137 145 92
144 152 96
147 153 95
143 148 93
134 144 89
126 137 85
131 141 87
119 138 82
136 146 90
136 146 90
126 143 89
121 150 103
114 161 114
121 168 117
93 170 126
91 181 139
93 187 142
73 184 142
84 197 154
78 203 159
59 201 160
28 208 168
37 215 173
18 217 176
0 221 180
0 219 177
0 221 181
0 221 181
0 221 181
0 221 179
0 219 179
0 219 179
0 221 180
0 221 181
0 220 180
0 219 178
0 220 180
0 220 181
0 221 180
0 220 180
0 222 181
0 221 181
0 221 179
0 219 179
0 221 181
0 221 181
0 220 180
0 219 179
0 220 179
0 221 180
0 221 181
0 221 180
0 220 180
0 220 179
0 219 180
0 222 181
0 219 179
0 220 179
0 219 179
0 219 180
0 221 180
0 218 179
0 220 178
0 219 180
0 217 177
0 221 181
0 220 180
0 221 180
0 221 180
0 219 180
0 218 179
0 220 180
0 219 179
0 221 180
0 220 180
0 221 180
0 221 181
0 220 179
0 220 180
0 220 180
0 218 179
0 219 179
0 220 180
0 218 179
0 221 181
0 219 180
0 219 178
0 220 180
0 220 181
0 220 179
0 219 178
0 219 180
0 221 181
0 219 180
0 219 179
0 220 179
0 219 178
0 220 180
0 218 178
0 221 180
0 219 179
0 221 179
0 222 181
0 220 177
0 216 176
0 220 179
0 220 179
0 218 178
0 221 181
0 219 179
0 221 179
0 221 181
0 217 178
0 219 178
0 219 178
0 219 179
0 218 180
0 221 180
0 218 179
0 221 181
0 220 179
0 220 179
0 218 178
0 220 179
0 220 180
0 220 180
0 221 181
0 221 180
0 218 178
0 220 180
0 220 180
0 219 178
0 219 179
0 220 180
0 219 178
0 221 180
0 220 180
0 220 180
0 218 178
0 221 179
0 216 176
0 219 179
0 221 180
0 220 180
0 217 177
0 219 178
0 219 178
0 220 178
0 220 179
0 218 178
0 220 180
0 220 178
0 219 179
0 220 179
0 219 178
0 221 180
0 219 179
0 220 179
0 217 179
0 219 179
0 220 179
0 220 179
0 220 180
0 219 179
0 219 178
0 219 179
0 221 180
9 217 178
10 217 180
25 202 176
36 188 180
35 188 179
44 169 180
51 151 179
57 128 181
61 109 181
61 99 179
62 99 180
62 99 180
61 99 180
61 99 180
61 99 180
61 99 180
62 99 181
62 99 181
62 99 181
61 98 181
62 99 181
61 99 181
62 99 181
62 99 181
62 99 181
61 99 181
61 99 181
62 99 181
61 99 181
61 98 181
61 99 181
61 99 181
61 99 181
61 98 180
62 99 181
62 99 181
61 98 181
61 99 181
61 98 181
62 99 181
62 99 181
61 99 181
61 98 180
61 99 181
61 99 181
61 99 181
61 98 181
61 99 180
62 99 181
62 99 180
61 98 179
61 98 180
62 99 181
61 99 180
62 99 181
61 99 181
61 98 180
62 99 180
61 98 180
62 99 180
61 98 180
61 99 181
61 98 179
60 97 178
61 100 178
60 112 179
59 117 178
53 140 179
46 162 179
44 171 181
33 193 179
25 204 178
21 209 178
12 217 179
8 218 180
0 220 177
0 219 177
0 220 179
0 218 178
0 219 179
0 218 177
0 218 178
0 219 178
0 217 176
0 218 176
0 219 179
0 216 176
0 216 177
0 221 180
0 218 176
0 218 178
0 220 178
0 221 181
0 218 177
0 218 177
26 216 176
33 213 172
41 212 169
56 213 170
64 200 158
69 198 154
60 193 153
87 190 143
66 179 135
93 181 133
96 179 134
100 171 127
108 164 109
103 152 103
105 162 113
121 159 107
122 145 95
141 150 93
119 135 81
123 135 85
131 140 90
139 144 92
139 146 92
135 146 93
131 139 88
137 143 93
141 146 95
143 150 96
145 149 97
148 151 98
138 142 92
143 143 95
147 150 98
149 152 99
153 152 101
151 150 100
143 146 97
152 153 102
151 148 101
150 153 100
150 151 101
159 160 106
151 153 102
152 152 102
144 143 97
156 153 103
158 156 104
156 155 103
164 161 108
155 153 102
158 155 104
160 157 105
162 160 107
162 159 106
160 159 106
170 166 110
161 158 105
163 159 106
155 156 104
158 156 104
161 160 107
160 159 105
163 160 108
163 161 108
167 164 110
169 165 110
163 160 107
163 160 107
170 167 112
169 166 111
161 160 108
169 165 110
169 166 111
169 166 110
165 163 108
168 165 110
168 165 109
170 166 110
167 165 111
167 165 110
168 167 112
168 165 110
174 170 113
169 166 110
167 165 110
173 170 113
170 167 112
171 170 113
169 166 111
170 168 112
168 166 111
171 168 112
170 167 112
167 164 109
170 168 111
172 169 112
167 166 110
163 160 106
167 164 109
170 168 111
166 165 109
170 167 111
170 168 110
168 164 108
167 165 109
169 169 111
161 160 106
163 161 107
166 164 108
168 165 110
168 166 109
157 159 104
168 167 110
162 159 105
163 161 106
157 155 102
163 165 107
170 167 110
164 162 106
165 166 108
162 165 106
155 158 103
163 162 106
152 152 99
164 163 105
163 163 106
154 156 100
156 156 101
156 161 103
148 151 97
159 160 104
152 156 100
151 155 99
153 150 98
152 155 99
159 160 103
156 159 102
150 151 97
144 155 97
143 147 93
151 156 99
150 153 98
153 155 97
146 155 97
144 151 95
141 149 94
137 149 92
130 143 86
129 144 90
135 154 99
119 164 111
114 164 110
111 170 123
97 173 126
100 176 130
80 188 145
76 191 147
62 190 149
68 203 159
62 209 164
32 213 172
26 218 178
0 218 177
0 220 179
0 221 181
0 219 178
0 219 179
0 221 181
0 219 179
0 221 181
0 221 180
0 222 181
0 221 181
0 221 181
0 221 180
0 219 179
0 220 179
0 222 181
0 221 180
0 221 180
0 221 180
0 222 181
0 220 179
0 219 179
0 216 177
0 220 179
0 221 181
0 220 179
0 220 179
0 220 180
0 220 180
0 220 180
0 221 181
0 219 180
0 221 181
0 219 179
0 221 180
0 220 180
0 221 181
0 221 181
0 219 178
0 221 181
0 222 181
0 221 180
0 220 179
0 219 180
0 221 180
0 219 179
0 219 179
0 221 180
0 220 180
0 221 181
0 219 178
0 221 181
0 217 178
0 218 178
0 218 178
0 220 179
0 219 178
0 219 178
0 221 180
0 218 178
0 219 178
0 220 180
0 220 180
0 220 181
0 220 180
0 221 181
0 218 180
0 220 179
0 222 181
0 220 179
0 219 180
0 219 179
0 219 179
0 220 180
0 219 179
0 221 181
0 220 180
0 217 178
0 219 179
0 221 181
0 221 180
0 219 180
0 220 178
0 219 179
0 218 178
0 220 180
0 220 180
0 220 180
0 221 181
0 220 180
0 221 181
0 218 178
0 220 180
0 220 179
0 220 180
0 219 178
0 219 178
0 219 180
0 219 180
0 221 180
0 221 181
0 220 179
0 220 180
0 220 180
0 220 180
0 219 179
0 220 179
0 221 180
0 220 180
0 220 180
0 220 180
0 219 179
0 217 178
0 219 179
0 220 180
0 218 178
0 220 180
0 220 180
0 219 178
0 219 180
0 221 180
0 219 180
0 217 178
0 218 178
0 216 178
0 220 180
0 219 177
0 218 178
0 219 179
0 219 178
0 221 180
0 219 178
0 216 177
0 218 178
0 221 181
0 219 179
0 221 180
0 221 181
0 220 178
0 220 179
0 221 179
9 218 179
16 214 179
30 198 180
33 192 180
42 176 180
50 150 179
57 127 180
59 114 180
61 101 180
62 99 181
61 99 180
61 99 179
62 99 180
62 99 181
61 99 180
62 99 181
62 99 180
62 99 181
62 99 181
62 99 181
61 98 181
62 99 181
61 98 181
62 99 181
61 98 181
62 99 181
61 98 181
61 98 181
62 99 181
62 99 181
62 99 181
61 98 181
61 99 181
62 99 181
61 99 181
62 99 181
61 99 181
61 99 181
61 99 181
62 99 181
61 99 181
62 99 181
61 99 181
62 99 181
61 99 181
61 98 180
62 99 181
61 99 181
61 99 181
61 98 181
62 99 181
61 99 181
62 99 181
61 98 180
61 99 181
61 99 180
62 99 181
61 98 179
62 99 181
62 99 180
62 99 180
62 99 180
62 99 179
61 98 180
61 98 179
62 99 180
61 98 178
62 99 181
61 98 179
61 101 179
60 110 180
54 133 179
49 154 178
46 160 177
37 181 177
33 194 181
27 201 178
10 215 177
9 217 179
0 221 179
0 218 176
0 219 179
0 218 178
0 218 179
0 217 177
0 217 177
0 218 178
0 218 178
0 218 179
0 217 176
0 215 175
0 218 177
0 221 178
0 219 179
0 220 179
0 218 177
19 217 176
18 213 173
18 212 172
33 208 168
39 193 152
51 200 158
74 197 155
60 191 148
75 184 140
72 181 138
88 181 134
110 170 122
112 167 121
126 169 116
111 161 111
113 153 99
114 151 97
134 145 91
131 146 91
134 146 90
131 143 88
125 140 87
139 145 93
136 145 91
138 148 93
144 149 95
150 151 98
143 149 96
135 142 92
143 150 98
144 147 96
147 154 100
142 147 97
151 148 99
148 151 99
148 151 98
150 150 101
148 150 100
159 158 104
148 149 98
147 148 99
154 155 103
153 153 101
146 147 98
147 147 99
145 142 95
160 157 105
166 163 108
160 158 106
158 158 105
159 156 104
152 151 103
153 152 102
163 161 108
161 160 108
163 160 107
163 161 106
162 159 106
160 158 105
158 157 105
156 157 105
166 163 109
166 163 110
169 166 111
165 162 109
165 162 109
170 166 111
164 162 109
174 170 113
166 164 110
167 164 109
162 160 107
168 165 110
169 166 111
173 169 112
169 166 110
167 165 109
172 169 112
168 164 109
168 166 110
169 166 111
166 163 108
167 165 110
169 166 110
175 171 113
167 164 109
167 166 110
171 168 112
166 164 109
169 166 110
173 169 112
166 165 109
166 163 109
166 165 110
172 168 111
166 165 109
169 167 111
163 161 107
168 166 110
163 161 106
172 169 112
171 168 112
173 171 113
162 161 106
162 160 106
164 163 108
165 163 108
162 159 106
169 166 110
163 162 106
167 165 109
168 165 108
160 162 106
164 162 107
163 163 108
166 163 108
167 167 108
163 164 106
170 170 111
165 164 108
150 155 100
155 159 103
162 162 106
163 163 106
163 158 103
159 159 104
163 166 107
164 163 107
156 156 101
156 160 102
155 161 103
153 153 99
160 161 104
155 161 102
141 148 94
151 156 99
146 154 97
147 152 96
148 154 98
151 157 99
142 154 95
150 149 96
141 147 92
148 151 96
133 141 88
127 150 90
137 147 90
136 149 90
134 145 89
135 140 88
118 149 95
127 159 103
114 155 103
117 174 126
106 169 123
84 182 134
79 191 148
82 194 149
80 193 152
52 197 155
32 211 170
37 208 166
17 214 175
0 220 178
0 220 179
0 219 178
0 220 179
0 219 178
0 220 180
0 220 179
0 221 181
0 221 181
0 222 180
0 221 181
0 219 180
0 219 179
0 218 179
0 220 180
0 219 179
0 219 179
0 221 180
0 218 178
0 219 178
0 220 180
0 221 181
0 221 181
0 221 181
0 220 179
0 219 179
0 219 179
0 221 180
0 221 180
0 221 181
0 221 180
0 220 180
0 220 180
0 221 181
0 220 181
0 221 180
0 219 180
0 219 179
0 219 180
0 221 181
0 220 179
0 219 179
0 220 180
0 221 181
0 219 179
0 221 181
0 220 180
0 220 180
0 220 180
0 220 180
0 221 181
0 219 180
0 220 180
0 216 177
0 216 178
0 221 181
0 220 179
0 218 178
0 220 180
0 220 179
0 219 179
0 220 179
0 222 181
0 219 179
0 222 180
0 219 178
0 221 181
0 220 178
0 219 179
0 220 179
0 221 181
0 218 178
0 219 180
0 220 180
0 220 179
0 219 178
0 221 180
0 219 179
0 220 179
0 219 179
0 221 181
0 217 178
0 220 180
0 220 180
0 220 180
0 218 177
0 218 177
0 219 179
0 219 179
0 221 180
0 221 181
0 219 179
0 218 178
0 221 181
0 221 180
0 218 178
0 216 177
0 219 180
0 219 180
0 220 179
0 219 179
0 222 181
0 217 178
0 220 179
0 220 180
0 219 180
0 221 180
0 218 179
0 219 178
0 220 180
0 218 176
0 218 179
0 220 180
0 218 178
0 216 177
0 218 179
0 219 178
0 219 180
0 219 179
0 219 178
0 220 181
0 221 181
0 221 181
0 219 179
0 219 178
0 219 178
0 216 175
0 221 180
0 219 179
0 220 179
0 219 179
0 220 180
0 218 177
0 218 179
0 219 178
0 218 178
0 218 178
0 219 180
0 221 180
10 213 177
8 217 180
29 196 177
37 185 179
48 159 179
48 151 178
59 114 180
60 110 180
61 99 179
62 99 181
60 98 179
62 99 181
61 99 181
62 99 181
61 99 180
62 99 181
61 99 180
62 99 181
61 99 181
62 99 181
62 99 181
62 99 181
62 99 181
61 98 181
61 99 181
61 99 181
62 99 181
61 99 181
62 99 181
61 99 181
61 99 181
62 99 181
61 99 181
61 99 181
61 98 181
61 98 181
61 99 181
61 99 181
61 99 181
61 99 181
61 99 181
62 99 181
61 99 181
61 98 181
61 98 181
62 99 181
61 98 181
61 98 181
61 99 181
62 99 181
61 99 181
61 99 181
61 98 181
61 99 181
62 99 181
62 99 181
62 99 181
62 99 181
62 99 181
62 99 181
61 98 179
62 99 180
62 99 179
61 98 178
62 99 180
62 99 181
62 99 181
61 98 179
61 98 179
62 99 180
61 98 179
61 98 180
62 99 181
62 99 180
60 108 179
58 119 180
53 140 175
48 157 178
39 181 178
37 185 178
23 204 177
18 211 179
6 219 178
5 217 178
0 220 180
0 219 178
0 219 177
0 218 179
0 220 180
0 221 178
0 217 177
0 220 179
0 214 173
0 218 178
0 218 177
0 220 180
0 219 178
0 218 178
18 208 169
26 213 174
33 206 165
47 209 168
59 206 162
51 203 162
72 192 148
56 195 152
59 185 145
97 173 128
99 172 122
88 170 121
102 169 121
99 154 106
94 140 92
125 157 106
121 141 90
135 146 91
132 152 94
137 152 93
119 136 84
132 138 88
132 136 88
141 145 92
139 142 93
137 146 94
143 145 94
138 147 94
145 150 98
141 141 95
139 144 95
150 152 99
141 141 94
146 148 99
141 144 95
152 150 101
146 145 97
148 147 98
162 160 105
145 146 97
147 150 100
151 148 101
153 153 102
154 156 105
157 156 104
160 157 105
152 152 102
154 152 103
155 154 103
151 151 102
159 156 104
155 152 102
162 160 106
168 163 108
158 155 105
152 151 102
163 161 108
163 159 107
159 157 106
166 164 110
162 161 108
161 160 107
163 160 107
162 160 107
163 160 108
160 158 107
161 159 107
169 166 111
163 161 108
167 164 109
170 166 111
166 164 110
164 161 108
168 165 111
169 165 109
173 169 112
171 169 113
169 165 110
173 169 112
167 166 110
171 168 112
171 168 113
169 167 110
166 163 109
170 167 111
169 166 111
171 168 112
169 167 111
173 170 113
170 167 111
172 168 112
168 165 110
174 171 114
171 168 112
172 168 112
167 165 110
169 167 110
171 167 110
169 166 109
168 166 110
166 165 110
167 166 109
166 165 109
167 164 108
167 167 110
168 165 109
163 164 107
166 167 110
170 166 110
168 167 111
169 168 109
163 164 106
166 168 109
164 163 107
160 162 105
160 160 104
169 169 110
158 161 105
165 163 107
159 159 104
162 162 105
169 166 110
164 162 106
162 160 104
165 165 107
163 162 106
152 154 100
154 156 101
162 161 105
157 160 103
148 153 98
156 159 102
160 161 103
135 142 90
150 156 99
155 162 102
146 152 97
152 155 99
151 158 100
143 150 95
143 149 94
142 149 93
152 159 100
139 146 91
144 150 94
143 150 94
135 146 90
147 153 96
135 148 91
145 153 94
128 147 93
119 155 101
125 151 98
98 166 114
92 175 127
96 175 131
92 181 132
80 188 145
67 200 159
50 204 162
46 209 168
49 204 165
38 214 173
0 215 175
0 220 179
0 220 180
0 222 180
0 220 180
0 220 179
0 221 181
0 220 181
0 219 179
0 220 179
0 218 178
0 220 179
0 221 181
0 221 180
0 220 179
0 219 179
0 221 181
0 219 178
0 221 181
0 221 181
0 221 180
0 219 180
0 220 181
0 220 180
0 219 180
0 220 180
0 221 180
0 219 179
0 222 181
0 218 178
0 220 179
0 220 179
0 220 180
0 219 180
0 219 179
0 221 181
0 219 179
0 218 179
0 221 181
0 219 178
0 219 179
0 220 180
0 219 180
0 217 178
0 220 180
0 221 180
0 219 178
0 221 181
0 220 180
0 219 180
0 219 178
0 222 181
0 219 179
0 218 179
0 219 180
0 219 178
0 220 179
0 219 179
0 221 180
0 221 179
0 221 181
0 220 180
0 221 181
0 220 180
0 220 180
0 220 180
0 222 180
0 219 180
0 222 180
0 219 180
0 220 180
0 219 178
0 220 179
0 220 180
0 218 178
0 219 179
0 220 181
0 222 181
0 220 180
0 220 179
0 220 179
0 220 180
0 220 179
0 217 177
0 218 179
0 220 179
0 218 179
0 221 180
0 220 180
0 219 179
0 221 180
0 220 179
0 219 178
0 219 179
0 219 179
0 219 178
0 220 179
0 221 181
0 220 179
0 220 179
0 220 179
0 220 180
0 219 179
0 219 178
0 216 177
0 217 178
0 218 178
0 217 177
0 218 178
0 220 179
0 220 179
0 218 179
0 219 179
0 221 178
0 218 178
0 220 180
0 220 179
0 222 181
0 216 178
0 218 178
0 220 179
0 220 180
0 220 180
0 220 180
0 219 177
0 220 180
0 220 180
0 216 176
0 220 179
0 220 180
0 220 180
0 220 179
0 219 179
0 219 178
0 217 176
0 220 178
0 216 177
5 218 178
17 212 179
24 205 179
31 194 179
46 161 180
55 133 179
59 118 180
61 103 180
61 99 179
62 99 180
62 99 181
62 99 181
62 99 181
61 99 180
61 99 181
61 99 180
62 99 181
63 100 181
62 99 180
61 99 181
61 98 181
62 99 181
62 99 181
61 99 181
61 99 181
62 99 181
61 98 181
61 99 181
61 99 181
62 99 181
62 99 181
61 99 181
61 98 181
61 98 181
61 99 181
62 99 181
61 99 181
62 99 181
61 99 181
61 98 181
62 99 181
62 99 181
61 98 181
61 98 181
62 99 181
61 99 181
61 98 181
61 98 181
61 98 181
61 98 181
61 98 180
61 99 181
61 98 181
61 99 181
61 98 181
62 99 181
61 99 181
61 99 181
62 99 180
61 98 181
61 98 181
62 99 181
62 99 181
62 99 181
61 98 180
61 99 180
61 99 180
62 99 181
62 99 181
62 99 181
61 98 181
61 98 180
61 98 179
61 99 179
61 99 179
61 98 177
61 98 176
61 99 179
61 101 179
58 115 178
52 144 179
46 158 178
38 181 178
33 192 177
24 200 173
14 213 178
12 214 176
0 218 179
0 219 177
0 219 178
0 222 181
0 218 177
0 220 178
0 219 179
0 220 180
0 217 177
0 218 177
0 219 178
0 217 176
0 217 177
26 214 174
38 213 172
25 212 170
46 207 163
42 201 157
59 192 151
87 182 138
78 178 133
64 176 134
97 171 129
88 175 131
91 173 129
105 160 112
115 153 103
122 146 96
121 141 95
122 141 87
132 147 90
122 137 86
125 137 85
131 147 90
123 133 84
133 141 91
138 146 93
136 145 92
132 142 91
138 146 94
142 141 94
139 144 96
151 153 100
141 141 93
147 150 98
144 145 96
155 154 101
151 151 100
155 159 103
154 154 101
150 149 98
138 138 95
140 141 94
142 145 97
154 154 102
146 146 99
151 148 99
150 149 101
150 150 101
154 154 103
149 148 100
154 153 102
159 157 104
151 152 102
154 152 103
162 161 108
157 155 104
164 161 108
160 157 105
161 159 107
163 162 108
154 155 103
162 159 107
162 159 107
170 166 111
161 159 107
164 162 109
163 160 107
166 163 108
162 159 107
159 158 106
170 168 112
168 166 111
166 163 108
171 168 112
164 161 108
168 164 110
169 166 111
164 161 108
167 165 109
171 169 113
170 167 111
170 168 111
164 161 108
171 170 112
169 167 111
173 169 112
169 166 110
171 168 111
170 167 111
168 167 110
173 169 112
168 166 109
163 164 108
172 168 111
168 165 109
168 166 110
170 167 111
166 164 108
171 169 112
171 168 112
163 162 108
170 168 110
167 167 110
169 172 111
172 170 111
174 170 112
166 167 109
163 163 107
170 168 110
168 166 110
171 168 112
167 166 109
164 164 108
171 169 111
158 163 105
160 161 106
164 164 107
163 159 105
165 162 108
169 165 109
164 163 107
163 166 108
160 163 105
166 165 108
158 159 104
158 159 103
158 160 104
163 165 107
160 161 104
160 161 104
159 160 103
150 154 99
155 160 102
142 150 96
150 153 98
149 158 99
150 156 99
155 158 101
149 155 98
148 152 96
150 159 99
156 162 102
146 157 97
143 151 94
139 149 92
145 153 96
154 156 98
143 153 95
135 146 90
138 146 91
144 152 95
135 143 88
128 142 86
118 143 93
98 142 98
109 162 110
119 158 108
107 173 125
96 169 120
79 185 140
77 186 145
52 206 163
64 202 159
41 212 170
41 212 172
19 216 176
0 220 180
0 222 181
0 221 180
0 219 177
0 220 179
0 219 179
0 220 180
0 220 180
0 220 181
0 221 180
0 222 181
0 221 181
0 220 179
0 221 180
0 221 181
0 222 181
0 220 180
0 219 179
0 221 181
0 220 180
0 220 181
0 222 181
0 221 181
0 218 180
0 220 180
0 218 178
0 219 180
0 220 181
0 221 181
0 221 180
0 219 180
0 219 179
0 220 179
0 221 180
0 220 180
0 220 180
0 220 180
0 220 180
0 219 179
0 219 180
0 216 177
0 221 180
0 221 181
0 220 180
0 220 179
0 218 178
0 219 178
0 221 180
0 222 181
0 220 179
0 219 178
0 220 180
0 219 179
0 218 179
0 220 181
0 222 181
0 217 178
0 220 179
0 220 180
0 222 181
0 220 181
0 221 181
0 219 179
0 221 181
0 221 181
0 221 181
0 219 179
0 221 179
0 219 178
0 221 180
0 219 179
0 220 180
0 220 179
0 220 180
0 221 181
0 217 177
0 219 177
0 220 180
0 221 181
0 220 180
0 220 180
0 220 179
0 218 178
0 219 179
0 218 177
0 218 178
0 220 179
0 218 178
0 220 179
0 222 181
0 219 178
0 219 179
0 219 179
0 222 181
0 222 181
0 220 180
0 220 178
0 220 180
0 223 181
0 220 181
0 219 178
0 219 179
0 218 178
0 217 176
0 219 179
0 219 179
0 219 179
0 219 179
0 220 178
0 218 179
0 219 179
0 220 180
0 219 179
0 220 179
0 219 178
0 218 178
0 219 179
0 220 180
0 219 178
0 218 178
0 218 178
0 218 179
0 218 178
0 217 177
0 217 177
0 219 179
0 218 178
0 221 181
0 216 176
0 219 180
0 218 177
0 220 180
0 220 180
0 218 178
9 218 180
18 211 179
27 200 178
40 181 180
46 165 181
54 134 180
59 108 179
62 99 180
62 99 180
63 100 181
62 99 180
61 99 181
61 99 181
62 99 181
62 99 180
61 99 180
62 99 181
61 99 181
62 99 181
62 99 181
62 99 181
61 99 180
61 99 181
61 99 181
62 99 181
62 99 181
61 99 181
62 99 181
61 99 181
61 98 181
62 99 181
61 99 181
61 99 181
62 99 181
61 99 181
61 99 181
61 99 181
61 99 181
62 99 181
61 99 181
61 99 181
61 99 181
61 99 181
61 98 181
61 98 181
61 99 181
61 98 181
61 99 181
61 99 181
61 98 181
61 99 181
61 99 181
61 99 181
61 99 181
61 99 181
61 99 181
61 99 181
62 99 181
61 99 181
61 99 181
62 99 181
61 98 181
62 99 181
61 98 180
62 99 181
62 99 181
61 99 181
61 99 180
61 98 179
62 99 180
62 99 181
61 98 180
62 99 180
61 98 180
61 98 179
62 99 179
62 99 180
61 98 179
61 98 179
62 99 180
61 98 180
60 97 176
60 98 179
60 108 178
54 129 175
47 156 176
41 176 178
33 190 179
24 204 177
13 215 179
7 218 177
0 217 177
0 219 177
0 219 177
0 219 178
0 217 176
0 217 177
0 218 177
0 217 175
0 217 175
0 220 179
0 217 176
32 213 172
38 211 169
32 211 171
54 203 160
51 194 153
62 198 157
76 186 141
89 177 134
73 178 135
93 180 131
102 171 123
101 167 119
103 160 117
116 158 109
113 143 96
121 145 94
124 139 87
131 151 92
130 141 88
127 137 87
126 144 89
133 144 92
129 144 90
147 149 96
147 155 98
135 144 92
138 148 95
141 145 94
141 146 97
134 140 92
142 146 96
148 150 99
145 149 99
147 152 100
142 145 96
144 145 96
145 151 99
155 155 103
148 148 99
139 139 94
143 144 98
147 147 100
158 154 103
151 151 101
152 152 101
159 156 105
158 157 105
155 155 104
149 148 101
155 152 101
156 153 102
159 157 105
156 156 105
164 162 108
155 154 104
161 158 107
159 158 107
162 159 107
161 159 107
161 158 107
164 163 109
160 159 107
165 162 109
170 167 111
163 160 107
167 165 110
166 164 110
166 163 110
165 162 109
168 166 111
171 168 111
170 167 111
170 167 112
167 167 111
170 167 111
165 163 109
169 167 111
167 164 109
171 167 111
165 163 108
172 169 113
170 167 111
171 167 111
174 171 114
170 167 111
169 167 111
173 170 113
172 168 112
165 164 109
171 170 113
172 168 111
169 166 110
168 166 111
170 166 110
168 167 111
167 168 110
169 167 110
168 166 109
166 164 110
174 170 113
171 170 112
169 167 110
168 166 110
169 168 110
164 165 108
168 165 110
164 166 109
169 165 109
171 167 110
169 167 110
165 166 109
171 168 111
167 166 108
166 165 108
169 164 109
166 167 109
162 163 106
167 166 109
162 165 107
160 161 105
164 169 108
164 161 106
166 167 108
150 160 101
157 158 103
155 160 103
162 165 107
155 158 102
164 163 106
153 158 101
155 161 102
164 164 106
159 161 102
156 158 102
160 160 104
156 157 101
153 157 99
154 158 100
157 157 102
149 159 100
150 162 101
145 146 94
144 155 96
141 150 93
150 157 98
134 150 91
133 148 91
139 151 93
139 150 93
131 139 87
134 154 92
117 133 81
118 156 101
114 158 106
114 160 108
103 171 124
93 176 130
72 179 136
60 195 155
60 196 154
46 196 152
61 205 162
40 208 166
25 214 175
26 219 178
0 222 181
0 219 178
0 219 177
0 218 178
0 219 179
0 219 179
0 220 180
0 220 180
0 218 179
0 221 179
0 222 181
0 220 181
0 220 180
0 220 179
0 221 181
0 221 181
0 220 180
0 221 181
0 221 181
0 222 181
0 219 180
0 221 181
0 220 180
0 220 180
0 220 181
0 220 180
0 219 180
0 220 180
0 222 181
0 221 181
0 219 178
0 221 181
0 218 179
0 220 179
0 221 181
0 220 180
0 219 178
0 220 179
0 221 180
0 220 180
0 219 180
0 219 178
0 222 181
0 220 180
0 221 181
0 218 178
0 218 178
0 219 180
0 221 180
0 221 181
0 217 178
0 221 181
0 220 180
0 220 179
0 218 178
0 220 180
0 220 179
0 220 180
0 220 179
0 220 180
0 220 181
0 219 179
0 220 180
0 220 180
0 219 178
0 221 180
0 217 178
0 218 178
0 218 178
0 218 177
0 221 180
0 221 181
0 220 180
0 220 179
0 221 181
0 218 179
0 218 177
0 220 180
0 221 181
0 221 181
0 218 179
0 221 181
0 220 180
0 218 178
0 219 179
0 220 180
0 220 180
0 220 179
0 220 179
0 219 179
0 220 180
0 221 180
0 219 179
0 220 178
0 219 179
0 220 180
0 217 178
0 219 178
0 218 177
0 216 177
0 219 178
0 217 178
0 220 180
0 219 179
0 218 177
0 219 179
0 220 180
0 221 180
0 220 180
0 219 179
0 219 179
0 220 181
0 221 181
0 219 178
0 218 178
0 219 179
0 217 178
0 218 179
0 219 178
0 218 178
0 221 180
0 219 178
0 220 179
0 220 179
0 218 178
0 219 178
0 216 177
0 220 180
0 219 179
0 219 179
0 220 180
9 217 178
14 214 179
27 201 179
42 176 179
47 163 181
50 150 180
60 105 179
61 103 180
62 99 180
62 99 180
62 99 181
61 99 179
60 99 180
61 99 180
61 99 180
61 99 181
61 98 180
62 99 181
61 99 180
61 99 180
62 99 181
62 99 181
62 99 180
62 99 181
62 99 181
61 99 181
62 99 181
62 99 181
61 99 181
61 98 181
61 99 181
62 99 181
61 99 181
61 99 181
62 99 181
62 99 181
61 99 181
62 99 181
62 99 181
62 99 181
61 98 181
62 99 181
62 99 181
61 98 181
61 99 181
62 99 181
61 99 181
61 99 181
61 98 181
62 99 181
62 99 181
61 99 181
61 99 181
61 98 181
62 99 181
62 99 181
61 99 181
61 99 181
61 98 180
61 99 181
62 99 181
61 98 181
61 99 181
62 99 181
62 99 180
62 99 181
61 98 180
62 99 181
61 98 179
62 99 181
61 99 179
61 98 181
61 99 180
61 98 179
61 99 181
61 98 180
61 99 180
62 99 178
61 98 178
61 98 178
61 97 175
62 98 177
61 98 179
61 98 178
61 98 175
61 98 177
61 102 178
58 116 178
54 132 176
48 161 179
40 176 176
33 189 175
22 204 175
18 213 179
0 216 177
0 220 179
0 217 176
0 219 178
0 217 177
0 217 178
0 217 176
0 215 174
0 216 175
27 215 174
33 211 171
32 206 166
48 198 157
58 207 164
51 192 150
80 191 146
70 195 151
96 174 131
90 178 136
76 159 117
110 166 116
107 168 117
107 152 105
103 155 104
120 147 98
129 137 87
127 135 86
126 136 87
130 144 91
134 146 92
137 141 90
130 141 88
137 148 93
130 141 90
143 147 94
139 142 91
143 144 96
144 148 95
136 143 93
140 146 95
144 150 98
138 143 95
138 145 96
150 151 100
149 150 100
153 154 101
156 155 103
148 149 99
149 149 101
159 158 105
152 154 100
150 148 101
154 153 103
150 149 100
156 153 103
157 154 103
155 154 104
157 155 104
162 160 108
157 156 105
159 156 105
160 159 105
155 153 104
160 158 106
159 156 104
160 157 105
159 157 104
157 156 106
164 161 108
164 162 109
165 163 109
171 167 111
166 164 109
164 162 108
165 163 109
168 165 110
162 160 107
169 166 110
165 162 109
168 165 110
162 160 108
174 170 113
165 162 109
170 166 111
171 168 111
171 168 112
162 162 108
167 166 110
171 169 113
170 167 111
167 165 110
171 169 113
165 164 109
173 170 113
170 167 110
171 169 111
174 169 112
172 170 113
169 167 110
172 169 112
174 171 113
169 168 112
169 166 110
172 170 113
167 164 109
169 165 109
169 167 109
172 169 112
170 167 110
167 166 108
167 166 109
168 166 110
170 169 111
168 167 110
170 167 110
170 167 111
167 164 109
170 167 111
172 169 111
169 168 110
168 165 108
171 165 109
172 169 111
170 166 110
169 169 111
164 162 107
167 166 109
163 163 107
164 164 107
160 161 105
158 161 104
171 171 111
159 162 105
163 164 106
159 163 105
160 164 105
167 164 107
155 160 103
151 156 99
156 163 104
161 159 103
157 159 102
159 167 106
160 163 105
156 158 101
162 163 105
148 156 98
153 158 100
150 155 98
142 149 94
142 154 96
148 155 98
147 153 95
144 152 94
131 148 90
143 151 95
137 150 92
137 147 91
131 144 87
141 151 93
132 146 89
128 140 85
117 140 92
121 157 102
119 155 106
104 167 118
82 165 123
82 181 135
75 190 148
78 192 148
63 197 154
64 197 155
31 207 164
38 207 166
27 217 177
28 219 178
0 219 178
0 220 179
0 220 180
0 221 181
0 220 180
0 220 179
0 220 179
0 220 179
0 219 180
0 219 179
0 220 180
0 221 181
0 219 179
0 219 180
0 220 179
0 219 179
0 217 178
0 217 178
0 221 180
0 219 180
0 220 179
0 220 180
0 221 180
0 219 179
0 220 178
0 221 181
0 221 180
0 220 179
0 221 180
0 219 180
0 220 180
0 219 180
0 221 180
0 220 180
0 220 179
0 221 181
0 221 180
0 217 177
0 219 179
0 220 179
0 220 180
0 220 180
0 221 180
0 219 179
0 221 181
0 220 180
0 222 181
0 219 178
0 219 180
0 220 181
0 221 181
0 220 180
0 221 180
0 221 180
0 219 179
0 220 179
0 220 181
0 220 180
0 218 178
0 219 179
0 219 180
0 220 179
0 219 178
0 221 180
0 220 179
0 218 178
0 221 181
0 221 181
0 220 179
0 217 178
0 219 179
0 221 180
0 221 181
0 221 181
0 222 181
0 221 180
0 220 181
0 219 180
0 219 179
0 217 177
0 219 178
0 218 178
0 220 179
0 221 179
0 219 177
0 220 179
0 217 177
0 219 177
0 221 180
0 218 179
0 220 179
0 220 180
0 219 179
0 217 179
0 217 178
0 220 180
0 220 179
0 218 178
0 219 179
0 219 179
0 218 178
0 220 181
0 216 176
0 220 180
0 219 179
0 219 178
0 216 176
0 218 178
0 221 181
0 219 179
0 217 177
0 218 178
0 219 178
0 220 180
0 220 179
0 219 178
0 218 178
0 219 178
0 221 180
0 217 175
0 218 176
0 217 176
0 220 180
0 217 177
0 219 178
0 221 181
0 219 178
0 218 179
0 219 179
10 216 180
22 206 178
35 189 180
42 173 179
54 134 179
58 114 178
61 99 180
62 100 180
61 99 180
62 99 181
62 100 180
61 99 179
61 99 180
62 99 181
61 99 180
62 99 181
61 99 181
62 99 181
61 98 181
62 99 181
62 99 181
62 99 181
62 99 181
62 99 181
61 99 180
61 99 181
61 99 181
61 99 181
62 99 181
62 99 181
61 98 181
61 99 181
62 99 181
62 99 181
61 99 181
62 99 181
61 99 181
62 99 181
61 99 181
61 99 181
61 99 181
61 99 181
61 98 181
62 99 181
61 99 181
61 98 181
62 99 181
61 99 181
61 99 181
61 98 181
61 99 181
62 99 181
62 99 181
61 98 181
62 99 181
62 99 181
61 99 181
62 99 181
62 99 181
62 99 181
61 99 181
61 98 181
62 99 181
62 99 181
61 98 181
61 98 180
61 99 181
61 99 181
61 99 181
61 99 181
62 99 180
62 99 179
61 99 181
61 98 179
61 98 181
62 99 180
62 99 181
62 99 180
61 98 178
61 98 178
61 99 180
61 99 179
62 99 180
62 99 179
61 99 179
61 98 178
61 99 179
61 98 177
61 99 178
61 97 175
57 108 175
54 133 176
49 153 178
41 177 179
29 197 177
21 210 181
10 214 176
6 218 177
0 219 177
0 219 176
0 218 177
0 215 175
0 218 178
28 215 174
19 214 172
26 211 170
46 205 163
48 198 155
37 199 158
59 191 148
45 189 146
75 181 139
88 170 124
88 172 127
88 168 119
93 163 115
106 158 109
116 149 97
108 146 97
124 147 97
124 137 89
118 135 83
140 146 91
120 132 82
140 143 90
131 143 90
131 138 89
125 138 87
141 148 96
134 141 91
136 142 93
139 144 93
141 140 92
137 146 94
136 144 94
141 144 94
134 135 93
146 151 97
146 147 96
153 152 100
144 142 97
154 153 101
146 146 97
150 149 100
156 154 103
149 146 100
154 155 103
149 152 100
151 148 99
153 150 102
144 144 97
162 158 106
149 148 100
152 151 103
160 159 106
157 157 105
166 162 108
155 152 102
152 151 103
157 155 104
152 152 102
162 159 108
157 155 104
161 158 107
159 157 106
164 162 109
162 161 108
164 163 109
163 161 108
167 165 110
165 164 110
162 160 108
160 157 106
169 167 111
164 162 108
162 159 107
166 164 110
171 168 113
169 167 112
168 165 111
174 171 113
170 167 111
167 165 110
170 168 112
172 168 112
167 163 109
173 169 112
175 171 113
171 168 111
172 169 113
169 167 110
174 169 112
172 168 111
169 167 110
167 164 108
173 169 112
172 170 113
168 166 110
173 169 112
175 172 113
171 169 112
165 166 110
168 165 110
165 166 109
169 169 111
169 166 110
174 170 112
166 164 108
171 168 111
167 166 110
169 166 110
169 167 109
170 169 111
170 168 110
171 171 111
163 164 106
161 163 106
165 164 108
169 168 109
166 164 108
165 165 107
165 163 107
168 167 110
166 166 108
166 165 108
163 165 107
167 165 107
161 165 106
164 164 107
163 165 107
153 156 101
160 161 104
153 162 102
160 162 105
158 161 103
157 162 103
155 159 102
157 163 104
155 162 103
155 159 101
155 159 102
143 152 95
140 152 94
149 151 96
155 162 102
155 158 100
148 160 99
140 150 93
151 153 97
146 158 97
134 149 90
135 148 91
140 151 93
136 144 89
123 141 85
133 146 89
127 142 87
117 145 90
121 162 110
104 148 99
108 161 114
87 169 128
97 178 130
68 184 141
83 194 149
67 202 160
65 200 157
56 207 165
46 209 168
26 217 176
18 219 178
0 221 179
0 221 180
0 220 179
0 219 179
0 221 181
0 216 178
0 221 180
0 220 180
0 219 179
0 217 178
0 220 181
0 220 179
0 219 180
0 221 180
0 220 179
0 221 180
0 220 179
0 220 180
0 221 181
0 219 179
0 221 180
0 221 179
0 220 179
0 220 179
0 221 180
0 220 180
0 221 181
0 219 179
0 220 178
0 218 180
0 221 180
0 221 180
0 221 181
0 219 178
0 216 177
0 221 180
0 220 180
0 219 178
0 221 181
0 220 180
0 218 178
0 220 180
0 220 179
0 219 178
0 221 181
0 220 180
0 218 178
0 221 181
0 221 181
0 218 178
0 220 179
0 220 180
0 221 181
0 220 179
0 220 179
0 220 179
0 219 178
0 219 178
0 220 180
0 222 181
0 221 180
0 221 180
0 219 179
0 218 178
0 219 178
0 222 181
0 222 181
0 220 179
0 220 179
0 220 180
0 218 179
0 221 180
0 219 178
0 222 181
0 217 177
0 221 181
0 220 179
0 220 180
0 219 179
0 221 180
0 219 179
0 218 178
0 219 179
0 219 179
0 219 179
0 221 180
0 221 180
0 218 178
0 218 178
0 220 178
0 219 178
0 217 177
0 220 181
0 220 180
0 218 178
0 218 178
0 220 180
0 220 180
0 221 180
0 221 181
0 221 180
0 221 181
0 219 178
0 219 179
0 220 180
0 218 179
0 219 179
0 220 181
0 220 180
0 220 179
0 221 181
0 216 177
0 218 177
0 221 180
0 219 179
0 217 176
0 217 178
0 218 178
0 216 176
0 218 178
0 221 180
0 220 179
0 219 178
0 219 179
0 219 178
0 220 179
0 219 180
0 221 179
19 208 177
26 204 180
34 188 178
50 148 179
58 124 180
61 99 180
60 99 177
62 99 180
61 99 180
61 99 180
61 99 180
62 100 180
62 99 180
62 99 181
61 99 180
61 99 179
62 99 181
62 99 181
61 99 180
61 99 181
62 99 181
62 99 181
61 98 181
61 99 180
62 99 181
62 99 181
62 99 181
62 99 181
62 99 181
62 99 181
62 99 181
61 98 181
61 99 181
61 99 181
62 99 181
61 99 181
61 98 181
62 99 181
61 99 181
62 99 181
61 99 181
62 99 181
61 99 181
61 99 181
61 98 181
61 99 181
61 98 181
61 99 181
61 98 181
62 99 181
61 99 181
62 99 181
61 98 181
61 99 181
62 99 181
61 99 181
61 98 181
61 98 181
61 98 181
62 99 181
61 99 181
61 98 181
62 99 181
61 99 181
62 99 181
61 99 181
61 99 181
61 99 181
62 99 181
61 99 181
62 99 180
61 98 180
61 99 180
61 98 180
62 99 180
62 99 181
62 99 180
61 99 180
61 99 181
62 99 181
62 99 179
61 98 179
61 98 178
62 100 181
61 99 179
62 98 179
61 97 175
61 98 177
61 98 176
61 97 175
61 97 174
62 99 179
61 97 173
57 118 175
53 135 175
45 163 176
33 188 176
29 199 179
19 207 175
6 218 179
0 220 179
0 216 176
0 217 177
0 216 177
18 216 175
26 214 174
37 211 169
54 201 158
42 207 167
59 200 155
63 199 157
63 188 147
70 188 144
87 165 121
95 179 132
97 163 118
94 158 113
95 153 102
118 165 112
122 155 99
118 149 94
122 145 89
133 148 91
117 137 84
129 139 88
127 138 87
126 134 86
127 137 89
136 138 90
127 137 87
139 141 93
134 141 91
132 138 90
142 147 95
133 141 92
136 138 92
142 147 97
145 144 96
132 136 91
134 138 93
148 147 98
150 150 100
144 144 99
141 145 97
151 149 101
151 150 100
150 147 100
159 157 104
145 147 98
134 141 95
151 151 101
155 152 103
151 150 100
160 157 105
146 147 101
156 154 103
164 161 107
160 158 107
157 155 105
157 156 105
157 154 104
162 161 108
154 153 104
158 156 106
162 160 107
164 162 109
159 158 106
164 161 108
165 162 109
164 162 108
165 163 108
158 158 105
165 163 109
172 168 112
168 166 111
168 165 110
163 164 109
166 166 109
162 160 107
169 164 109
170 167 111
169 167 111
168 165 110
172 169 112
168 167 110
167 165 110
166 164 109
168 166 110
169 166 111
168 167 111
170 167 111
171 168 112
170 169 112
174 171 113
171 168 111
168 168 111
171 169 111
172 171 113
171 169 112
169 167 111
170 167 111
173 170 112
169 168 110
174 170 111
175 172 113
165 166 108
168 167 110
167 166 108
170 168 111
171 167 110
172 169 112
172 169 111
168 166 108
170 168 111
167 166 110
162 163 106
161 163 106
168 165 109
161 165 107
165 163 107
166 167 109
156 159 103
165 165 106
163 164 107
168 168 109
162 162 105
169 168 109
165 165 107
151 158 100
160 163 106
164 163 106
156 158 103
163 165 106
164 162 104
160 165 105
160 162 105
155 157 101
163 163 104
157 163 103
143 152 95
152 163 101
153 158 100
159 158 102
152 163 101
153 155 100
146 156 98
151 157 99
146 154 96
156 160 101
145 156 97
150 156 98
141 152 94
140 149 92
148 160 98
132 148 90
137 145 90
133 143 88
117 145 84
123 137 85
114 144 92
103 148 99
111 159 107
102 171 126
78 180 134
96 181 134
65 189 145
71 193 149
55 201 156
53 205 163
37 215 173
26 212 171
0 218 176
0 221 177
0 220 179
0 218 176
0 220 180
0 221 181
0 222 181
0 219 179
0 222 181
0 221 179
0 220 180
0 219 179
0 219 180
0 220 179
0 217 178
0 222 181
0 221 181
0 221 181
0 221 181
0 221 181
0 219 178
0 219 179
0 220 180
0 217 178
0 220 181
0 220 181
0 220 180
0 222 181
0 221 181
0 219 178
0 220 180
0 221 180
0 221 180
0 222 181
0 222 180
0 220 180
0 218 179
0 221 181
0 219 179
0 220 179
0 219 179
0 221 180
0 220 179
0 221 180
0 221 181
0 218 178
0 218 178
0 217 177
0 217 178
0 219 178
0 219 180
0 220 180
0 221 181
0 221 180
0 220 180
0 216 176
0 221 181
0 222 181
0 221 181
0 220 179
0 218 178
0 220 179
0 218 179
0 219 180
0 218 178
0 219 180
0 218 178
0 219 179
0 221 181
0 219 179
0 219 180
0 221 181
0 215 176
0 220 179
0 220 179
0 219 179
0 220 179
0 219 180
0 221 181
0 221 181
0 219 179
0 221 181
0 219 179
0 221 180
0 220 180
0 218 178
0 221 181
0 221 180
0 218 178
0 221 180
0 218 178
0 221 180
0 219 180
0 219 180
0 218 178
0 221 179
0 216 178
0 218 178
0 219 179
0 216 175
0 220 180
0 220 179
0 217 177
0 218 178
0 220 180
0 219 179
0 219 179
0 219 179
0 217 178
0 221 181
0 219 180
0 217 176
0 220 180
0 215 176
0 218 177
0 218 179
0 218 178
0 218 178
0 219 178
0 221 181
0 221 179
0 220 179
0 219 179
0 216 176
0 215 176
0 220 179
0 218 177
12 212 176
21 207 178
36 184 178
47 159 178
58 122 180
61 103 180
60 99 178
62 99 180
62 99 179
61 99 179
62 100 180
61 99 181
62 100 180
61 99 180
62 99 180
62 99 181
62 99 181
61 99 180
61 99 181
61 99 181
62 99 181
61 99 181
62 99 181
62 99 181
62 99 181
62 99 181
61 98 181
61 99 180
62 99 181
61 99 181
61 98 181
61 99 180
61 99 181
61 98 181
61 99 181
61 98 181
61 98 181
61 99 181
62 99 181
61 99 181
62 99 181
61 98 181
61 99 181
61 99 181
61 98 181
61 99 181
62 99 181
62 99 181
61 99 181
61 99 181
61 99 181
62 99 181
61 98 181
62 99 181
62 99 181
61 99 181
62 99 181
61 99 181
61 98 181
61 98 181
61 99 181
61 99 181
61 99 181
61 99 181
62 99 181
62 99 181
61 99 181
62 99 181
61 98 180
62 99 180
62 99 181
61 99 181
62 99 181
61 99 181
62 99 180
61 98 180
61 98 181
62 99 180
61 98 180
62 99 180
61 99 180
62 99 179
61 98 179
61 99 179
61 98 178
61 99 177
62 99 180
61 98 180
62 99 180
62 98 178
62 99 177
61 98 178
62 99 178
61 98 177
61 98 177
61 98 176
61 102 178
55 122 172
44 160 175
39 177 177
27 200 179
25 204 179
13 212 174
0 218 178
0 217 176
0 214 173
0 215 173
36 205 166
37 208 166
46 206 167
42 199 156
49 199 159
85 194 147
78 188 145
79 184 139
76 177 133
90 181 137
105 164 119
104 160 110
106 164 115
114 154 101
115 137 87
116 139 90
126 137 88
118 139 85
121 139 85
127 140 88
137 141 91
144 153 97
120 135 84
131 144 89
130 141 91
138 141 92
128 142 90
136 141 93
145 148 97
138 142 93
129 136 91
143 144 95
134 138 92
146 147 97
131 135 90
136 137 92
134 135 91
148 148 100
143 145 98
148 147 100
144 144 99
150 150 100
152 151 101
145 144 98
147 144 97
148 148 102
150 148 99
149 148 100
145 145 99
148 146 100
160 157 107
155 152 103
159 157 106
157 156 105
159 156 105
158 156 105
157 156 105
156 155 104
159 157 106
166 163 109
164 162 108
159 157 105
160 160 107
160 158 107
159 159 106
161 160 107
165 163 108
166 163 109
159 157 106
166 164 110
167 165 110
167 165 109
168 166 110
164 162 108
170 168 112
166 164 108
169 166 110
168 165 109
166 168 110
170 167 111
169 166 110
169 167 111
168 169 111
169 168 111
172 168 112
172 170 112
174 171 113
164 164 108
174 170 113
167 168 110
170 167 111
172 170 113
173 170 113
167 166 109
172 171 112
171 167 110
169 169 111
175 172 114
172 170 113
172 171 113
172 169 111
167 165 109
166 166 109
168 167 110
173 169 112
173 170 112
173 170 112
170 170 112
166 168 110
166 164 108
168 167 109
167 168 109
172 167 110
161 164 106
165 163 106
169 168 110
167 168 110
163 164 106
165 167 108
156 159 103
162 161 105
168 169 110
162 165 106
157 159 103
166 167 108
164 165 106
161 162 104
158 164 105
155 162 103
164 165 108
156 160 103
165 163 106
160 163 104
153 161 102
151 158 100
166 162 104
160 165 104
152 162 102
151 157 99
155 154 100
149 154 98
147 159 98
155 161 102
136 146 90
133 146 90
144 155 96
136 151 92
136 150 92
138 150 92
136 147 90
132 146 89
131 146 88
130 145 88
131 141 86
115 135 86
128 163 108
103 160 114
92 167 121
102 169 119
76 174 132
65 183 142
66 194 150
52 196 154
62 200 155
32 208 169
0 213 174
0 216 174
0 217 176
0 221 180
0 222 181
0 219 179
0 219 179
0 220 181
0 221 181
0 221 180
0 221 180
0 220 179
0 219 178
0 218 178
0 218 179
0 220 180
0 220 180
0 221 180
0 220 179
0 218 178
0 220 179
0 219 180
0 220 179
0 220 181
0 219 179
0 220 180
0 220 179
0 220 180
0 221 180
0 220 180
0 221 181
0 221 181
0 221 181
0 219 179
0 222 181
0 221 181
0 220 180
0 220 180
0 221 180
0 219 179
0 221 181
0 220 179
0 220 181
0 222 181
0 220 180
0 221 181
0 216 177
0 219 179
0 217 178
0 220 179
0 222 181
0 221 180
0 219 179
0 219 179
0 220 180
0 220 180
0 219 179
0 220 180
0 221 181
0 220 180
0 221 181
0 221 181
0 220 179
0 220 178
0 221 180
0 219 179
0 216 178
0 220 180
0 219 178
0 220 179
0 219 180
0 220 181
0 221 181
0 218 178
0 221 180
0 217 178
0 220 180
0 221 180
0 218 178
0 217 178
0 219 179
0 220 179
0 217 178
0 220 179
0 219 179
0 219 178
0 220 178
0 219 179
0 220 180
0 220 180
0 218 176
0 220 181
0 219 178
0 222 181
0 220 180
0 220 179
0 219 178
0 217 176
0 216 178
0 217 176
0 218 179
0 214 176
0 218 177
0 218 177
0 220 180
0 220 180
0 221 181
0 221 181
0 219 177
0 217 178
0 217 178
0 219 179
0 218 178
0 222 181
0 221 181
0 219 178
0 218 179
0 218 178
0 218 178
0 220 179
0 220 180
0 221 180
0 218 178
0 220 179
0 221 180
0 219 180
11 215 178
14 211 177
30 195 179
41 174 179
50 152 180
58 110 178
62 99 180
61 99 179
62 99 180
61 99 180
62 99 180
62 99 180
61 99 179
62 99 180
61 99 180
62 99 180
61 99 180
61 99 179
61 99 181
60 99 179
62 100 179
61 99 180
61 98 181
61 98 181
62 99 181
61 99 180
62 99 181
61 99 180
61 99 180
62 99 181
61 99 181
62 99 181
62 99 181
62 99 181
61 98 181
62 99 181
61 99 181
61 99 181
61 99 181
62 99 181
61 98 181
62 99 181
62 99 181
62 99 181
62 99 181
61 99 181
62 99 181
61 98 181
61 99 181
61 98 181
62 99 181
61 98 181
61 98 181
61 99 181
62 99 181
61 99 181
61 99 181
62 99 181
61 98 181
61 99 181
62 99 181
62 99 181
61 99 181
62 99 181
61 99 181
62 99 181
61 98 181
61 99 181
62 99 181
61 99 181
61 99 181
62 99 181
61 98 181
62 99 180
62 99 181
62 99 181
62 99 180
61 98 178
61 99 180
61 99 179
62 99 181
61 99 179
62 99 181
62 99 180
61 98 178
61 99 179
62 99 179
62 99 179
61 99 180
61 98 178
62 99 179
61 98 177
61 98 179
62 98 178
62 99 179
62 98 178
61 99 178
61 99 178
60 97 173
61 97 175
59 105 174
55 129 173
45 163 178
37 186 179
24 203 176
13 211 175
8 218 179
19 213 172
38 212 171
31 209 169
17 208 167
49 207 164
31 197 156
63 185 142
64 188 149
74 182 140
75 169 128
93 175 125
96 163 120
90 164 115
92 151 102
104 159 108
110 145 95
123 144 92
116 135 83
124 135 85
131 141 88
116 132 82
121 136 85
135 141 91
128 138 88
128 141 88
138 143 92
124 132 86
144 147 95
137 146 94
135 141 92
131 136 89
137 146 95
127 132 88
139 141 94
145 142 96
145 144 97
141 142 97
143 143 96
139 145 96
138 143 96
141 143 97
152 151 100
149 149 100
145 145 98
152 150 102
154 152 103
147 147 100
151 150 101
149 147 99
149 148 100
159 157 107
148 147 101
154 152 102
154 153 103
152 151 103
161 159 107
154 151 102
159 157 106
164 162 109
158 158 106
155 156 105
160 159 107
161 160 107
164 162 108
159 159 107
160 158 107
163 161 108
163 162 107
167 164 110
160 159 106
170 168 111
165 165 109
165 163 109
165 163 109
159 157 105
167 164 111
171 168 111
164 162 109
164 162 108
161 163 109
169 166 110
174 169 111
167 169 111
170 166 110
170 169 112
170 168 111
170 170 111
169 165 110
170 167 111
172 169 112
172 170 113
170 169 112
168 169 112
170 170 112
166 167 110
168 168 111
170 167 111
172 171 113
169 165 110
168 168 111
170 167 110
172 169 111
172 169 112
172 167 110
170 170 111
172 168 111
171 167 110
171 169 111
163 168 109
163 162 107
166 167 109
163 167 108
159 163 106
172 170 110
161 162 106
169 165 109
169 169 110
167 166 109
171 170 110
164 164 106
169 168 109
163 166 108
164 163 106
162 164 106
166 168 108
167 170 109
155 162 104
160 162 105
158 157 102
155 154 100
159 161 104
148 157 99
156 155 101
150 153 99
159 162 103
161 161 104
161 164 104
155 160 101
158 157 102
155 160 102
159 162 103
152 157 99
147 152 97
152 165 102
147 156 98
142 153 95
149 155 97
149 155 98
138 151 93
136 152 93
141 148 92
137 150 93
142 152 94
145 157 95
114 146 84
119 139 83
136 149 94
129 151 92
109 154 105
122 165 114
104 166 118
87 172 125
83 187 142
68 196 153
63 196 151
45 199 156
42 205 162
26 209 168
27 216 176
18 220 179
0 219 178
0 219 178
0 219 179
0 220 180
0 220 179
0 220 180
0 220 180
0 222 181
0 220 180
0 220 180
0 221 180
0 219 180
0 220 180
0 220 179
0 220 179
0 219 178
0 219 179
0 218 179
0 220 180
0 219 180
0 220 180
0 221 181
0 219 180
0 221 180
0 220 180
0 221 180
0 218 178
0 217 178
0 220 179
0 220 180
0 222 181
0 220 180
0 220 180
0 221 181
0 219 180
0 221 181
0 220 180
0 222 181
0 220 179
0 221 181
0 219 179
0 218 178
0 220 180
0 220 179
0 217 178
0 219 179
0 218 177
0 217 178
0 220 181
0 220 180
0 220 180
0 220 180
0 220 180
0 221 179
0 221 179
0 221 180
0 221 181
0 221 180
0 219 179
0 220 179
0 220 180
0 219 179
0 219 179
0 220 179
0 219 180
0 219 178
0 218 178
0 217 178
0 220 180
0 220 179
0 219 179
0 220 180
0 221 181
0 219 178
0 216 176
0 219 179
0 220 180
0 220 180
0 221 180
0 218 178
0 219 178
0 221 181
0 218 179
0 219 180
0 219 180
0 217 178
0 220 179
0 219 180
0 221 180
0 217 178
0 218 178
0 218 179
0 219 178
0 221 180
0 219 178
0 218 178
0 218 179
0 219 179
0 217 178
0 219 178
0 219 178
0 220 179
0 220 179
0 220 179
0 220 179
0 220 180
0 219 179
0 218 178
0 218 178
0 218 178
0 217 177
0 220 179
0 219 179
0 218 178
0 220 180
0 219 179
0 220 180
0 219 179
0 217 178
0 219 178
0 220 180
0 217 177
12 217 180
24 206 180
31 197 180
45 162 177
57 121 178
61 103 180
62 99 180
61 99 180
62 99 180
61 99 180
62 100 179
62 99 180
61 99 180
61 99 181
61 99 180
61 99 180
60 99 179
62 99 181
62 99 181
62 99 181
61 99 180
62 99 181
62 99 180
62 99 180
62 99 181
62 99 180
62 99 181
61 99 180
61 99 180
62 99 181
62 99 181
62 99 181
62 99 181
61 99 181
62 99 181
62 99 181
61 99 181
61 99 181
61 99 181
61 98 181
61 99 181
61 99 181
61 98 181
61 98 181
62 99 181
61 99 181
61 98 181
62 99 181
62 99 181
62 99 181
62 99 181
61 98 181
61 99 181
61 98 181
62 99 181
62 99 181
61 98 181
61 98 181
61 98 181
62 99 181
62 99 181
61 99 181
61 99 181
61 99 181
61 98 181
62 99 181
61 98 181
62 99 181
61 98 181
61 99 181
61 99 180
62 99 181
61 99 181
62 99 181
62 99 180
61 99 180
61 99 180
62 99 181
62 98 179
61 99 180
62 99 179
61 98 179
62 99 181
61 98 178
62 99 181
61 99 179
62 98 179
61 99 180
62 99 180
61 99 180
62 99 179
61 98 180
61 99 180
61 98 177
61 97 175
61 99 180
61 99 178
62 99 178
61 98 177
62 99 178
61 98 177
61 98 175
62 99 177
58 113 175
49 153 174
41 173 174
31 192 176
20 209 178
12 207 170
18 213 170
19 214 174
45 203 159
36 208 164
59 208 164
56 195 153
78 194 151
86 173 128
85 173 129
93 166 122
92 167 120
81 154 110
113 150 99
122 144 97
102 149 96
120 133 82
118 135 83
113 132 81
130 140 88
123 130 82
125 144 89
116 129 82
131 142 89
120 131 82
126 140 88
127 136 87
136 139 91
135 139 92
140 141 94
135 135 91
137 142 93
120 132 86
148 147 99
138 139 94
136 136 94
152 150 102
140 142 94
140 141 97
147 147 99
141 144 97
140 139 95
147 148 100
147 146 99
142 140 97
151 151 101
152 153 102
138 138 95
151 151 102
155 153 103
152 151 102
145 147 99
155 153 105
153 152 102
156 155 104
164 162 109
148 146 100
162 159 107
164 161 108
156 154 104
150 148 101
160 158 106
164 162 108
155 153 103
155 156 106
160 161 108
168 165 109
160 160 107
157 155 104
163 160 107
158 158 106
159 158 105
169 166 110
168 164 109
165 165 110
167 165 109
168 166 110
168 166 110
168 164 109
166 166 110
172 170 112
168 167 110
164 165 109
172 169 112
165 165 109
164 166 110
172 169 112
170 170 112
175 171 113
171 170 112
166 167 110
170 169 112
169 167 111
174 170 112
172 169 112
172 171 112
169 167 111
170 169 112
169 168 111
168 166 110
164 165 109
168 168 110
168 169 111
170 169 110
168 166 109
173 170 112
170 170 112
169 168 110
167 166 109
168 168 110
164 162 105
170 168 110
168 168 110
159 163 105
163 163 107
165 167 108
164 166 108
158 163 104
162 158 104
163 167 108
164 165 107
165 167 108
161 164 106
165 167 108
156 160 103
163 164 107
165 166 108
168 168 108
164 163 106
163 164 107
159 160 104
155 161 103
165 166 107
162 163 104
154 160 102
155 157 101
155 159 100
153 161 101
152 162 101
157 157 101
144 149 95
154 162 101
153 160 100
160 162 103
156 162 103
154 161 102
132 151 91
142 149 94
146 157 96
133 145 89
145 152 94
139 152 93
138 152 93
131 151 90
128 137 84
133 152 91
135 150 91
123 150 96
94 149 103
98 163 110
109 178 127
94 171 125
95 178 131
81 191 149
79 191 147
69 199 156
46 206 165
42 211 170
36 214 173
18 217 176
0 221 179
0 220 179
0 221 180
0 220 181
0 218 178
0 219 178
0 220 178
0 220 180
0 219 179
0 217 178
0 221 181
0 220 180
0 219 178
0 219 179
0 220 179
0 222 181
0 221 181
0 222 181
0 221 181
0 221 181
0 218 179
0 220 179
0 219 180
0 218 178
0 221 180
0 219 179
0 221 180
0 220 180
0 219 178
0 218 180
0 221 180
0 220 180
0 221 180
0 221 181
0 220 179
0 217 177
0 221 181
0 220 179
0 220 179
0 220 179
0 221 180
0 222 180
0 219 179
0 220 180
0 221 181
0 221 181
0 221 181
0 218 178
0 217 177
0 220 179
0 220 179
0 220 177
0 221 180
0 219 178
0 217 177
0 221 180
0 220 180
0 220 179
0 223 181
0 221 181
0 220 180
0 220 180
0 219 179
0 220 179
0 220 179
0 219 179
0 219 178
0 219 180
0 220 180
0 218 178
0 221 181
0 218 179
0 219 179
0 219 179
0 221 180
0 221 181
0 218 178
0 221 181
0 216 177
0 219 179
0 218 178
0 216 176
0 220 180
0 220 180
0 217 178
0 220 180
0 221 180
0 219 178
0 218 178
0 218 177
0 218 179
0 221 180
0 220 179
0 216 177
0 219 179
0 216 175
0 218 179
0 220 179
0 219 179
0 220 179
0 219 179
0 218 179
0 219 179
0 220 180
0 220 178
0 220 179
0 219 179
0 218 178
0 220 180
0 219 177
0 220 179
0 221 180
0 220 180
0 220 179
0 217 177
0 219 179
0 219 180
0 219 179
0 222 181
0 219 179
0 216 177
16 213 178
30 197 179
41 176 179
51 142 176
59 109 177
62 99 181
61 99 179
60 99 178
62 100 180
61 99 180
60 99 179
62 99 180
62 99 180
61 99 180
62 99 180
62 99 180
62 99 181
61 99 181
62 99 180
62 99 181
61 99 179
62 99 180
62 99 181
62 99 181
62 99 181
61 99 180
62 99 181
61 99 180
62 99 181
62 99 181
62 99 181
61 99 181
61 99 181
61 99 181
61 99 181
61 99 181
61 99 181
62 99 181
62 99 181
61 99 181
62 99 181
61 98 181
61 99 181
62 99 181
61 98 181
62 99 181
61 99 181
62 99 181
62 99 181
61 99 181
62 99 181
62 99 181
62 99 181
61 98 181
62 99 181
61 98 181
61 99 181
61 99 181
62 99 181
62 99 181
61 99 181
62 99 181
62 99 181
62 99 181
61 99 181
61 99 181
62 99 181
62 99 181
61 99 181
62 99 181
62 99 181
61 98 181
61 99 181
62 99 181
62 99 181
62 99 181
61 99 180
61 99 179
62 99 181
61 98 179
62 99 181
61 98 179
62 99 179
61 99 181
62 99 181
61 98 180
62 99 181
60 99 179
61 98 179
62 99 179
61 99 179
62 99 180
61 98 179
62 99 180
62 99 178
60 98 179
60 98 178
61 98 179
63 100 179
63 99 179
61 99 178
60 98 178
61 98 175
60 96 173
62 98 176
58 108 174
50 139 173
45 162 174
41 190 175
21 207 176
40 204 165
47 204 164
53 198 158
48 201 161
71 193 150
67 184 140
69 188 144
83 183 140
94 177 132
87 172 127
96 163 116
95 151 103
92 157 110
100 146 93
115 145 94
132 147 91
116 139 83
130 140 87
124 135 85
122 140 87
133 146 90
131 141 90
119 127 81
129 136 89
122 134 87
124 134 86
124 132 88
132 135 90
136 140 93
141 149 95
137 140 93
140 142 94
136 140 93
136 140 93
138 141 94
144 142 95
135 135 92
140 141 96
144 144 97
141 142 96
143 143 97
142 143 97
144 144 98
146 145 100
147 146 100
150 147 99
151 149 100
144 144 98
147 147 100
149 147 100
156 154 104
149 148 102
151 149 102
149 148 99
156 154 105
158 157 105
160 158 106
152 151 104
162 160 107
162 160 107
164 160 107
162 160 108
159 156 104
164 163 108
160 158 106
161 161 108
169 167 110
163 160 107
159 159 107
168 165 110
164 161 108
162 162 108
169 166 111
166 165 109
168 166 111
170 167 111
169 168 111
167 167 110
169 167 110
170 167 112
169 166 110
168 168 111
171 168 112
172 170 113
172 169 112
173 170 112
171 168 111
169 168 111
170 167 111
169 166 110
169 167 111
174 170 112
170 169 111
173 169 111
170 168 111
171 168 111
174 172 113
172 170 112
170 169 110
170 168 109
174 170 112
169 169 111
167 167 109
169 171 112
169 167 110
170 167 111
171 170 111
166 167 109
170 168 110
164 167 109
166 165 108
171 170 111
164 164 107
166 169 109
171 170 110
167 168 109
159 166 107
168 169 110
168 168 109
165 167 108
160 160 103
157 164 104
157 164 105
158 164 104
160 165 107
161 167 106
162 163 106
164 161 105
159 164 105
165 168 108
161 165 105
157 160 102
155 160 101
168 164 106
154 161 102
152 162 102
152 156 100
154 161 101
145 156 97
144 157 97
146 156 97
144 158 97
153 155 98
154 159 100
142 154 95
144 152 96
156 165 103
147 158 98
142 158 96
133 149 90
139 153 94
135 149 91
132 142 87
131 150 90
127 149 87
116 138 83
116 140 88
116 159 107
118 160 108
101 171 120
98 176 126
83 183 136
88 186 138
79 192 147
49 201 160
43 195 155
17 210 170
36 214 172
19 217 175
0 220 180
0 221 180
0 219 178
0 221 179
0 218 178
0 221 180
0 221 181
0 221 180
0 220 181
0 221 180
0 221 181
0 220 180
0 220 180
0 220 180
0 219 180
0 221 180
0 221 180
0 220 180
0 219 179
0 220 181
0 221 180
0 221 181
0 221 181
0 221 181
0 221 181
0 219 179
0 221 181
0 220 178
0 220 180
0 220 181
0 221 180
0 220 180
0 220 181
0 219 178
0 220 180
0 219 180
0 221 181
0 220 179
0 219 179
0 221 180
0 220 179
0 221 181
0 219 179
0 218 179
0 220 179
0 217 178
0 220 178
0 219 178
0 219 179
0 220 180
0 219 179
0 219 179
0 219 178
0 218 178
0 218 178
0 221 181
0 219 179
0 219 180
0 220 180
0 221 180
0 219 180
0 217 178
0 219 180
0 219 179
0 220 180
0 220 179
0 220 180
0 218 178
0 221 181
0 218 177
0 218 178
0 219 179
0 220 180
0 221 181
0 219 178
0 220 179
0 221 180
0 217 177
0 216 178
0 221 180
0 220 179
0 221 181
0 221 180
0 219 179
0 222 181
0 221 180
0 219 179
0 219 179
0 218 177
0 220 180
0 221 180
0 220 180
0 219 180
0 218 179
0 222 180
0 219 179
0 217 178
0 220 179
0 218 179
0 217 178
0 220 180
0 220 179
0 218 178
0 220 180
0 215 176
0 221 181
0 219 179
0 220 180
0 220 179
0 219 178
0 220 179
0 220 180
0 219 179
0 217 177
0 217 177
0 218 179
0 215 176
0 216 177
0 214 175
8 219 180
20 209 180
31 191 177
42 171 178
57 122 180
59 105 177
60 99 179
61 99 180
61 100 178
61 99 180
61 99 180
61 99 180
60 99 179
62 99 180
61 99 180
62 99 181
62 99 181
61 99 180
62 99 181
61 99 179
62 99 181
62 99 181
61 99 180
61 99 180
62 99 181
61 99 181
61 99 181
61 99 180
61 99 180
62 99 181
61 98 181
62 99 181
61 98 181
62 99 181
61 98 181
61 99 180
62 99 181
61 99 181
61 99 181
62 99 181
61 99 180
61 99 180
61 99 181
61 99 181
62 99 181
62 99 181
61 99 181
62 99 181
61 99 181
61 99 181
61 99 181
61 99 181
62 99 181
61 99 181
61 98 180
61 98 181
61 98 181
61 99 181
62 99 181
61 99 181
62 99 181
62 99 181
61 99 181
62 99 181
62 99 181
61 99 181
61 99 181
62 99 181
62 99 181
61 99 181
61 99 181
61 98 181
61 98 180
62 99 181
61 99 181
62 99 181
61 99 181
61 99 181
62 99 181
62 99 181
61 99 181
61 99 179
62 99 181
61 98 180
62 99 180
62 99 181
62 99 180
61 98 179
61 99 180
62 99 180
62 99 180
61 98 178
61 99 181
61 99 179
62 99 179
61 99 178
62 99 181
62 99 181
61 98 177
60 98 178
62 99 179
61 98 178
61 99 179
61 98 177
61 98 178
60 97 175
61 98 176
61 98 175
61 97 176
54 131 174
50 150 177
41 174 169
43 181 173
36 201 169
43 204 161
50 199 156
59 189 146
65 193 150
61 176 137
78 186 139
79 171 128
102 175 126
94 157 114
97 154 108
115 147 97
107 139 89
124 146 92
118 137 84
125 137 86
129 145 91
124 133 85
123 143 88
129 134 86
131 141 90
124 131 87
123 131 86
126 129 86
134 138 89
148 147 97
126 133 85
126 137 89
125 130 85
140 143 95
134 137 91
131 135 92
139 140 93
142 146 96
136 138 92
135 140 94
148 146 98
139 140 96
149 148 99
139 140 95
142 143 97
139 142 95
142 143 98
149 147 99
150 151 101
148 152 101
147 146 99
147 147 101
153 151 103
157 155 104
159 157 106
156 154 105
157 156 104
156 154 104
158 156 105
151 151 102
162 160 108
154 153 104
159 158 108
159 158 106
159 157 106
160 160 107
163 162 108
160 161 108
163 162 109
166 163 109
168 165 110
159 159 107
171 168 112
167 164 110
161 160 107
169 166 110
166 165 110
168 167 110
171 169 111
173 169 112
166 164 109
168 167 111
169 169 112
172 168 111
170 169 111
175 171 113
173 171 112
170 167 111
169 169 110
172 170 113
169 169 111
171 169 111
166 169 111
168 170 111
173 171 113
170 169 111
167 165 109
170 169 112
169 167 110
170 171 111
171 167 110
172 171 111
172 171 111
170 168 110
176 171 113
169 170 111
168 170 110
170 170 111
162 167 109
168 167 109
167 165 108
163 167 108
168 170 110
168 168 110
163 168 109
168 168 109
163 165 107
166 167 109
166 164 107
170 168 110
155 158 102
166 165 107
161 165 107
171 170 110
168 169 108
169 166 108
167 170 109
157 165 105
165 161 106
157 162 103
159 165 105
163 167 106
153 158 101
164 164 106
161 166 106
160 164 105
159 168 106
154 158 100
156 163 103
152 158 100
158 163 103
161 161 104
149 159 99
146 160 99
151 154 97
143 154 96
149 159 99
147 152 96
143 155 96
146 151 95
136 151 91
142 155 94
150 161 99
138 159 95
119 145 86
127 146 87
134 151 90
119 141 84
131 147 89
110 137 84
110 148 97
104 156 103
102 162 112
95 171 123
87 176 131
71 176 133
70 194 149
56 203 160
72 196 151
32 209 166
44 210 169
0 218 177
0 218 177
0 220 179
0 220 180
0 221 180
0 221 179
0 217 178
0 219 179
0 220 180
0 219 179
0 221 181
0 220 180
0 221 181
0 218 179
0 220 179
0 219 179
0 220 179
0 221 180
0 220 180
0 221 180
0 221 181
0 220 180
0 217 178
0 221 181
0 221 181
0 220 180
0 221 181
0 217 178
0 218 178
0 219 178
0 221 181
0 221 180
0 219 179
0 218 178
0 221 180
0 221 180
0 219 179
0 220 179
0 222 180
0 220 179
0 221 180
0 220 179
0 220 181
0 221 181
0 222 181
0 221 181
0 217 178
0 219 178
0 220 180
0 220 180
0 220 180
0 221 180
0 219 178
0 220 181
0 219 179
0 221 180
0 220 180
0 221 180
0 219 179
0 221 181
0 220 180
0 219 179
0 220 179
0 219 179
0 219 179
0 219 178
0 217 177
0 220 179
0 221 180
0 221 180
0 216 175
0 220 180
0 219 179
0 220 180
0 221 181
0 220 179
0 220 180
0 220 179
0 219 178
0 218 177
0 219 179
0 221 181
0 219 178
0 220 180
0 219 178
0 218 179
0 216 176
0 220 180
0 218 178
0 219 179
0 219 178
0 219 179
0 220 180
0 218 178
0 219 178
0 218 178
0 219 179
0 220 180
0 219 178
0 217 178
0 216 176
0 219 178
0 218 179
0 220 180
0 218 177
0 220 179
0 218 178
0 220 180
0 219 178
0 217 179
0 220 179
0 221 180
0 219 178
0 221 181
0 218 178
0 219 178
0 219 178
0 218 176
0 221 180
12 216 180
22 204 178
39 181 180
48 152 177
59 114 179
61 99 179
61 100 178
61 99 179
61 99 179
62 100 180
61 99 179
62 99 180
61 99 179
61 99 180
62 99 181
62 99 180
62 99 180
61 99 180
61 99 179
62 99 180
62 99 181
62 99 181
61 99 180
61 99 180
62 99 181
62 99 181
62 99 181
61 98 180
61 99 181
61 99 181
61 98 181
61 99 180
62 99 181
61 99 180
61 99 181
61 99 180
61 98 181
61 98 181
61 99 181
61 99 181
62 99 181
61 99 180
62 99 181
61 99 181
62 99 181
61 99 180
61 99 181
62 99 181
62 99 181
62 99 181
62 99 181
62 99 181
62 99 181
62 99 181
62 99 181
61 99 181
62 99 181
62 99 181
61 98 181
61 98 180
61 99 180
62 99 181
62 99 181
61 98 181
62 99 181
61 99 180
61 99 181
61 98 181
61 98 181
62 99 181
62 99 181
62 99 181
61 99 180
62 99 181
61 99 181
61 98 181
61 99 181
62 99 181
61 99 181
62 99 181
62 99 181
62 99 181
61 98 180
62 100 180
62 99 181
62 99 179
62 99 181
62 99 181
61 99 180
62 99 180
62 99 181
61 99 179
62 99 181
61 98 178
61 98 179
60 98 178
62 99 180
62 99 181
61 99 179
62 99 179
62 99 179
60 98 176
60 97 176
62 99 179
62 98 177
62 99 180
61 98 177
60 96 173
60 98 176
61 97 175
61 97 176
58 113 174
60 154 170
47 157 167
51 172 162
53 191 163
56 193 153
45 191 151
65 190 144
77 189 146
84 176 130
92 168 123
73 167 122
92 163 115
95 160 113
113 153 100
110 149 97
123 138 86
112 136 81
124 136 85
119 132 83
109 134 81
134 146 92
134 143 91
128 135 88
118 129 84
122 132 84
133 142 92
130 137 90
117 132 86
123 129 85
135 135 91
129 133 89
144 149 97
133 136 91
138 139 94
144 147 98
132 136 93
131 134 90
140 140 96
142 143 96
144 141 95
141 143 95
133 135 92
145 145 99
139 138 93
140 138 94
142 142 97
142 143 97
144 144 100
142 143 100
145 145 99
155 153 104
145 145 99
147 147 99
159 157 105
151 151 102
153 154 104
160 158 106
157 156 105
154 154 104
153 153 104
160 158 107
159 159 107
157 155 105
159 157 106
163 160 108
164 162 109
162 161 108
164 163 108
166 164 110
164 164 109
168 167 111
166 165 110
158 159 107
164 165 110
167 165 110
167 165 110
169 167 111
165 162 109
166 166 110
166 164 109
163 166 109
169 167 110
170 170 113
168 165 110
168 169 112
168 166 111
173 170 112
168 167 111
173 170 112
170 168 112
167 167 110
173 171 112
171 170 111
172 170 112
172 172 112
172 170 112
168 170 110
169 168 110
174 173 113
172 172 112
172 171 112
172 171 112
171 172 112
170 170 111
170 168 110
174 171 112
169 168 110
166 169 109
165 165 108
169 167 109
170 168 109
168 170 110
168 168 110
173 171 111
164 166 108
171 168 110
161 166 106
163 163 106
166 165 106
162 167 108
157 163 105
167 168 108
162 165 106
160 164 105
162 164 106
160 165 106
164 166 107
158 166 105
155 162 103
158 164 104
163 165 106
151 161 102
162 165 106
156 160 102
157 163 104
165 167 106
160 163 103
146 156 98
152 159 100
140 154 96
144 154 97
152 160 100
152 161 101
148 159 98
140 154 95
145 152 94
143 156 97
142 154 95
147 157 97
132 150 91
142 152 95
137 153 92
136 150 92
139 152 93
124 149 88
134 152 92
121 138 82
117 139 82
123 150 95
112 147 102
101 159 109
99 175 123
70 170 127
71 180 138
59 185 143
76 199 152
52 203 162
27 199 159
16 209 168
27 216 174
0 217 176
0 220 179
0 219 179
0 221 181
0 221 180
0 219 179
0 221 180
0 221 181
0 220 179
0 221 180
0 220 179
0 220 179
0 220 179
0 219 178
0 221 179
0 218 178
0 221 181
0 221 181
0 218 178
0 219 180
0 219 179
0 220 180
0 219 178
0 219 179
0 219 179
0 220 180
0 220 181
0 218 178
0 220 180
0 219 179
0 221 181
0 220 180
0 218 179
0 217 178
0 222 181
0 217 178
0 221 181
0 221 181
0 221 181
0 220 179
0 223 181
0 219 179
0 219 179
0 219 179
0 218 179
0 220 179
0 218 178
0 220 180
0 221 181
0 220 180
0 219 179
0 220 180
0 220 180
0 218 178
0 218 178
0 219 180
0 217 178
0 220 180
0 219 179
0 217 177
0 220 179
0 220 179
0 219 180
0 221 181
0 220 180
0 219 179
0 220 179
0 221 181
0 217 178
0 222 181
0 218 177
0 218 178
0 220 180
0 219 178
0 220 179
0 220 181
0 221 181
0 216 176
0 220 179
0 218 179
0 221 180
0 220 180
0 219 178
0 218 179
0 217 177
0 217 177
0 221 181
0 218 178
0 217 178
0 221 180
0 220 180
0 220 180
0 219 178
0 220 179
0 220 180
0 219 180
0 219 179
0 220 179
0 219 179
0 217 178
0 220 180
0 221 179
0 220 180
0 217 178
0 215 175
0 220 178
0 218 178
0 216 177
0 220 180
0 218 177
0 220 179
0 219 179
0 215 176
0 221 181
0 214 176
0 220 180
0 217 177
5 217 178
19 211 179
39 172 174
51 151 181
58 114 177
60 100 177
61 99 180
60 99 176
61 100 178
60 99 178
61 99 180
62 99 180
62 99 180
62 99 180
61 99 179
61 99 180
61 99 179
62 99 180
61 99 179
60 99 178
61 99 181
61 99 180
61 99 180
62 99 180
61 99 181
61 99 180
62 99 181
61 99 180
62 99 181
62 99 181
62 99 180
61 99 180
62 99 181
62 99 181
62 99 181
62 99 181
62 99 181
62 99 181
62 99 181
61 99 180
61 98 181
61 98 181
61 98 181
62 99 181
61 99 181
61 99 181
62 99 181
61 98 181
62 99 181
61 98 181
62 99 181
61 99 181
61 98 181
62 99 181
61 99 180
61 99 181
61 99 181
61 98 181
61 99 181
61 99 181
62 99 181
62 99 181
61 99 181
61 99 181
61 99 181
61 98 181
62 99 181
62 99 181
61 98 181
62 99 181
61 99 181
61 99 181
61 98 180
62 99 181
62 99 181
62 99 181
61 99 181
62 99 181
62 99 179
62 99 181
61 99 181
61 99 181
62 99 181
62 99 181
61 99 181
61 98 181
62 99 181
61 99 180
61 99 179
62 99 181
61 99 180
62 99 179
61 99 180
61 99 179
60 99 178
62 99 179
61 98 178
61 99 179
61 99 180
61 98 177
61 98 179
61 98 176
61 98 177
61 98 177
62 99 180
61 99 178
61 98 176
60 99 177
62 99 179
62 99 178
61 98 175
60 96 172
59 96 170
58 110 174
52 126 168
61 154 160
40 171 160
65 174 147
68 191 150
44 188 147
74 176 131
84 177 132
90 171 124
86 166 122
78 149 102
111 143 93
120 148 99
119 149 96
110 140 89
122 141 86
112 132 82
118 131 83
127 141 89
124 135 86
124 136 87
117 132 83
110 123 79
141 144 94
124 135 87
122 133 87
127 135 88
130 142 92
129 131 88
130 134 90
132 138 91
138 142 95
134 139 95
141 141 96
133 137 93
147 148 100
129 130 89
140 142 96
134 136 93
138 139 96
145 144 98
137 139 97
143 145 97
138 137 94
137 137 95
153 152 102
146 147 99
138 138 96
152 152 103
140 140 96
155 154 104
142 142 97
151 150 102
153 151 102
156 154 104
153 152 104
151 151 103
159 156 105
159 157 106
163 160 108
160 157 106
161 158 106
156 153 103
155 155 105
170 166 110
159 156 104
162 159 106
165 162 108
166 163 109
158 158 106
165 163 109
165 164 109
167 164 110
161 160 107
159 160 107
162 161 108
164 163 109
165 166 109
170 171 112
169 166 111
167 165 110
176 172 114
170 170 111
169 168 111
170 170 112
171 170 111
160 166 107
168 169 111
169 171 110
168 167 110
172 171 112
169 169 110
173 172 112
165 168 110
167 170 111
167 168 109
174 171 113
173 172 112
163 168 109
170 170 110
170 170 112
170 169 111
172 172 112
169 170 111
168 168 109
168 171 110
165 170 109
160 164 106
166 165 108
171 170 112
166 168 110
166 167 108
168 171 109
169 165 108
157 165 106
166 168 108
161 167 107
161 164 107
161 167 106
166 165 108
159 163 104
154 162 103
164 167 107
167 168 108
160 165 105
154 156 100
166 169 108
161 165 105
163 167 107
161 162 104
158 167 106
147 163 100
157 157 101
153 160 101
157 163 103
157 163 103
155 166 103
158 163 103
163 168 106
148 156 98
144 154 96
148 156 97
157 161 102
138 153 94
144 160 98
154 163 102
142 154 95
148 159 99
140 151 92
135 153 92
137 151 92
134 147 89
139 150 93
137 149 89
138 153 92
130 142 86
125 152 91
102 140 89
113 163 109
107 170 118
88 168 120
92 176 130
89 180 134
60 189 147
74 195 154
67 197 153
52 204 160
18 210 169
24 215 175
0 217 177
0 218 177
0 222 180
0 222 180
0 220 180
0 221 181
0 220 180
0 220 180
0 222 181
0 221 180
0 220 181
0 220 181
0 221 181
0 219 179
0 221 180
0 221 180
0 221 181
0 219 180
0 221 179
0 219 179
0 221 181
0 219 179
0 221 179
0 220 179
0 221 180
0 220 179
0 220 179
0 219 179
0 221 181
0 221 181
0 220 180
0 221 181
0 220 179
0 218 178
0 220 179
0 217 177
0 221 180
0 223 181
0 221 181
0 219 179
0 220 180
0 222 181
0 216 176
0 220 178
0 220 180
0 220 180
0 220 180
0 221 181
0 219 179
0 220 179
0 221 180
0 222 181
0 221 180
0 218 179
0 221 181
0 221 181
0 219 179
0 218 178
0 220 179
0 221 181
0 220 179
0 218 178
0 219 179
0 219 180
0 220 181
0 218 179
0 220 180
0 222 181
0 218 179
0 217 177
0 217 178
0 219 179
0 218 178
0 219 178
0 220 179
0 218 178
0 220 180
0 219 178
0 218 178
0 218 177
0 220 180
0 221 180
0 221 180
0 217 178
0 220 180
0 220 179
0 219 179
0 217 177
0 219 180
0 220 179
0 220 180
0 220 179
0 219 180
0 218 178
0 220 180
0 219 179
0 219 178
0 217 177
0 220 181
0 217 177
0 220 179
0 220 179
0 221 181
0 220 179
0 221 181
0 216 176
0 220 180
0 221 180
0 217 178
0 219 179
0 218 177
0 220 179
0 218 178
0 218 177
0 217 178
6 218 179
14 214 179
29 194 178
41 168 176
56 127 179
61 99 179
61 99 179
61 99 179
61 99 179
60 99 178
62 99 180
62 100 180
62 100 180
62 100 180
62 99 180
61 99 180
61 99 180
61 99 180
61 99 180
61 99 181
62 99 181
62 99 180
61 99 181
61 99 180
61 99 181
61 99 180
62 99 181
62 99 180
61 99 180
61 99 180
62 99 180
60 98 180
61 99 179
61 99 180
62 99 181
62 99 181
61 99 180
62 99 181
62 99 181
61 99 181
62 99 181
61 98 181
62 99 181
61 99 181
61 99 181
62 99 181
62 99 181
61 99 181
62 99 181
61 98 181
61 99 181
62 99 181
62 99 181
61 99 181
61 99 181
62 99 181
61 98 181
61 99 181
61 99 181
61 99 181
61 99 181
61 99 181
62 99 181
61 99 181
62 99 181
62 99 181
62 99 181
61 99 181
62 99 181
62 99 181
61 98 181
61 99 181
61 98 181
61 98 181
61 99 181
62 99 181
61 99 181
62 99 181
61 99 181
61 98 180
62 99 181
62 99 181
62 99 181
62 99 181
61 98 181
62 99 181
62 99 181
61 99 181
62 99 181
61 99 181
61 99 180
61 98 181
62 99 181
61 99 179
61 99 179
62 99 180
61 99 180
61 98 179
61 98 180
61 98 177
62 99 179
61 99 178
60 97 176
61 99 179
61 98 177
62 99 179
61 98 178
61 99 179
62 99 179
60 97 176
60 96 174
61 98 176
61 97 175
61 99 176
62 98 176
62 99 177
62 108 171
58 113 173
55 145 166
69 150 151
76 172 147
88 185 144
66 180 136
97 166 119
84 169 122
95 159 113
90 157 109
111 153 105
117 143 92
119 145 91
134 142 89
123 133 83
103 124 74
124 136 85
116 130 84
120 132 85
127 135 86
137 141 91
123 133 85
110 123 80
132 139 90
120 126 84
123 133 87
119 128 86
123 135 87
138 141 94
118 128 86
135 137 92
125 127 87
123 136 89
137 140 95
132 132 91
128 133 91
143 141 96
145 143 97
137 139 95
143 142 98
140 141 96
140 141 98
146 144 98
140 140 97
147 147 100
145 146 100
150 149 101
143 144 98
138 138 95
144 146 100
147 146 100
141 143 98
148 147 101
161 160 107
151 153 104
152 151 103
162 159 106
156 157 106
156 158 105
159 158 107
159 158 106
165 162 110
159 157 107
167 165 110
161 160 108
156 155 105
163 162 108
164 163 108
164 163 109
166 166 109
168 166 110
167 167 110
166 163 109
162 161 108
167 168 110
168 167 111
161 162 107
169 167 110
166 166 110
168 167 111
172 170 112
167 167 109
171 168 112
171 168 112
172 170 111
170 171 111
168 168 109
165 168 110
168 170 111
168 169 110
169 168 110
174 172 112
170 169 111
164 168 109
168 170 111
169 170 112
169 170 111
167 169 110
165 167 108
172 171 111
170 170 111
171 170 111
172 170 111
166 168 109
165 168 109
164 168 108
165 166 108
166 168 109
171 170 111
166 170 109
165 169 109
169 168 109
162 165 106
162 167 107
164 166 108
169 170 110
170 171 110
158 166 106
157 160 102
163 164 106
163 165 107
159 161 104
161 166 107
161 163 104
164 167 107
157 162 103
162 162 105
156 162 103
158 165 104
157 164 103
155 160 102
156 163 103
160 163 104
159 162 104
152 159 101
157 159 103
152 163 102
157 164 104
151 162 101
146 156 98
148 157 97
145 151 95
137 147 91
147 160 99
142 156 96
149 162 99
143 159 97
145 159 97
139 146 90
120 145 86
130 145 88
126 143 87
126 151 89
131 153 91
134 148 89
118 149 87
121 153 101
117 154 101
118 162 109
94 163 117
89 160 112
94 182 139
81 186 141
55 196 154
56 205 165
49 205 162
46 212 168
26 215 173
0 219 177
0 217 177
0 218 179
0 220 180
0 219 179
0 217 179
0 219 179
0 221 181
0 219 179
0 220 178
0 222 181
0 220 181
0 218 179
0 220 179
0 220 179
0 219 179
0 220 180
0 221 180
0 221 181
0 219 178
0 221 181
0 219 179
0 219 180
0 219 179
0 221 180
0 220 180
0 219 178
0 221 181
0 220 180
0 221 180
0 219 180
0 218 177
0 215 177
0 221 179
0 221 179
0 220 181
0 221 181
0 218 178
0 221 181
0 218 178
0 218 179
0 221 181
0 220 180
0 219 179
0 218 178
0 219 179
0 219 179
0 219 179
0 220 180
0 219 179
0 222 181
0 219 179
0 217 177
0 218 179
0 218 178
0 218 178
0 219 178
0 222 181
0 220 180
0 219 179
0 217 178
0 220 180
0 220 180
0 219 179
0 220 179
0 220 180
0 220 179
0 219 180
0 219 180
0 218 177
0 219 180
0 219 179
0 220 180
0 219 178
0 221 181
0 221 180
0 220 179
0 221 181
0 218 178
0 218 179
0 219 179
0 218 178
0 220 180
0 220 181
0 217 177
0 220 179
0 218 178
0 220 179
0 220 179
0 219 178
0 215 177
0 218 179
0 219 179
0 219 178
0 218 178
0 220 179
0 221 180
0 220 179
0 222 181
0 220 179
0 216 177
0 216 177
0 218 178
0 219 179
0 219 179
0 217 177
0 215 175
0 219 179
0 219 179
0 220 179
0 219 179
0 220 178
0 217 177
0 219 179
0 218 178
18 212 179
32 196 179
44 164 178
56 125 178
61 100 178
61 99 179
60 99 179
62 100 179
61 100 178
60 100 177
62 100 179
61 99 179
61 99 179
62 99 181
61 99 180
62 99 180
62 99 180
61 99 180
61 99 179
62 100 180
61 99 181
61 99 180
62 99 181
61 99 179
62 99 181
61 99 180
62 99 180
62 99 180
61 99 180
62 99 181
61 99 181
61 99 180
61 99 181
62 99 181
62 99 181
62 99 181
61 99 180
62 99 181
62 99 181
61 98 181
62 99 181
61 99 180
62 99 181
62 99 181
61 99 181
61 99 181
62 99 181
62 99 181
61 99 180
62 99 181
61 98 181
62 99 181
61 98 181
61 99 181
62 99 181
62 99 181
62 99 181
62 99 181
61 98 181
61 98 181
62 99 181
61 99 180
62 99 180
62 99 181
61 98 181
62 99 181
62 99 181
61 98 180
62 99 181
62 99 181
62 99 181
62 99 181
61 99 181
62 99 181
62 99 181
62 99 181
62 99 181
61 99 181
61 99 180
62 99 181
62 99 181
61 99 181
62 99 180
62 100 180
62 99 181
62 99 180
62 99 181
61 98 180
62 99 180
61 99 180
62 99 181
62 99 179
61 99 181
61 98 179
61 98 179
61 99 179
62 99 181
61 99 180
62 99 179
61 98 179
63 100 181
61 98 178
62 99 180
61 99 179
61 98 178
61 99 178
61 98 178
61 98 178
61 99 177
61 98 178
60 98 177
61 98 176
60 99 176
61 98 175
62 98 179
62 99 180
60 98 173
61 98 174
60 107 167
62 123 155
78 155 140
73 155 140
96 172 135
68 167 124
79 160 115
91 158 112
80 142 95
104 137 88
118 151 98
109 135 82
104 132 82
111 128 79
117 133 83
109 126 80
139 150 95
122 136 87
115 125 81
118 128 83
122 130 85
122 135 85
122 127 85
122 129 85
123 132 89
134 135 90
135 137 93
140 141 94
132 135 91
120 122 84
128 128 88
141 143 95
128 134 90
135 137 92
141 140 95
138 138 95
126 130 90
126 128 90
137 139 94
141 139 95
138 138 94
141 139 95
147 147 98
146 145 99
152 151 102
146 145 99
150 148 101
152 149 101
148 147 100
145 144 98
150 149 102
152 152 103
144 145 99
159 157 105
150 152 103
157 159 106
154 154 104
152 151 104
153 154 104
158 157 105
161 160 107
160 158 107
157 157 105
163 161 108
158 158 105
160 158 107
158 160 106
165 162 109
156 158 105
167 164 110
151 154 103
165 166 110
161 161 108
167 165 110
163 164 109
158 160 106
165 164 109
167 167 111
170 168 111
163 168 109
167 168 110
169 168 110
169 168 110
168 169 110
171 169 111
171 171 112
173 171 112
170 170 112
170 169 111
171 170 112
173 171 113
173 172 112
169 170 110
166 171 111
168 170 111
165 169 110
170 170 111
169 169 111
170 170 110
171 171 111
170 169 110
170 170 111
171 171 111
172 171 111
164 169 108
168 170 109
170 171 110
162 164 106
169 167 109
167 169 110
170 168 110
171 169 110
166 167 108
160 166 107
163 169 108
160 160 104
158 166 106
164 169 109
164 169 108
166 168 108
156 165 105
159 166 104
152 161 101
159 162 105
159 165 105
161 165 105
155 165 104
158 163 103
159 163 104
153 161 100
157 162 103
155 160 102
155 163 103
154 162 102
154 160 100
152 164 101
145 157 98
153 155 98
154 164 103
143 155 96
136 146 91
143 152 95
142 158 96
143 153 96
142 156 96
143 160 98
148 157 98
126 143 86
136 153 92
121 142 84
138 153 92
133 147 89
119 138 83
127 150 89
124 142 85
109 137 82
109 152 95
95 156 107
104 159 109
89 170 121
92 172 127
63 180 139
66 200 155
55 196 154
47 203 160
43 210 168
18 215 174
18 219 178
0 219 177
0 218 178
0 221 179
0 221 181
0 220 180
0 219 179
0 220 180
0 220 179
0 218 178
0 221 181
0 220 180
0 220 180
0 222 181
0 219 180
0 221 181
0 221 180
0 221 180
0 221 180
0 221 181
0 220 179
0 221 181
0 220 179
0 220 180
0 221 181
0 219 178
0 219 178
0 220 179
0 221 181
0 218 178
0 217 177
0 220 179
0 220 178
0 221 181
0 219 178
0 219 179
0 220 178
0 219 179
0 221 180
0 220 178
0 219 179
0 218 178
0 218 178
0 221 179
0 221 181
0 221 180
0 220 179
0 220 180
0 218 179
0 220 180
0 219 179
0 222 180
0 220 179
0 217 177
0 218 178
0 222 181
0 220 180
0 219 179
0 220 179
0 220 179
0 217 178
0 219 178
0 218 179
0 221 180
0 219 179
0 218 179
0 219 179
0 220 179
0 216 178
0 218 178
0 219 179
0 217 177
0 220 180
0 218 179
0 220 180
0 220 180
0 221 181
0 220 179
0 219 179
0 220 181
0 217 178
0 219 179
0 218 176
0 214 175
0 218 178
0 220 178
0 218 178
0 220 180
0 219 178
0 217 177
0 216 177
0 220 179
0 221 180
0 217 177
0 220 179
0 219 180
0 220 180
0 218 178
0 219 179
0 220 179
0 220 180
0 220 180
0 221 181
0 216 177
0 220 180
0 220 181
0 218 178
0 218 178
0 218 178
0 221 180
0 220 180
0 217 176
0 215 176
9 212 176
13 214 180
28 198 177
44 169 178
57 119 177
61 100 178
60 99 178
61 99 179
61 99 179
61 99 179
62 99 181
61 99 180
63 100 180
62 99 180
61 99 180
62 99 180
60 99 179
62 99 180
61 99 180
61 99 180
61 99 180
62 100 180
61 99 180
61 99 180
61 99 180
61 99 180
61 99 180
61 99 180
62 99 181
61 99 181
61 99 181
61 99 180
62 99 180
62 99 180
62 99 181
62 99 181
61 99 181
62 99 181
61 99 180
61 99 180
61 98 181
62 99 181
62 99 181
62 99 181
61 99 180
61 99 181
62 99 181
61 99 181
62 99 181
62 99 181
62 99 181
61 99 181
62 99 181
62 99 181
61 98 181
61 99 181
61 99 181
61 99 181
61 99 180
61 99 180
61 99 181
62 99 181
62 99 181
62 99 181
62 99 181
61 98 181
61 99 181
61 99 180
62 99 181
62 99 181
61 99 180
61 99 180
61 99 181
61 99 180
62 99 181
62 99 180
61 99 181
62 99 181
61 99 180
61 99 181
61 98 180
62 99 181
61 99 181
61 99 179
62 100 180
62 99 181
62 99 181
61 99 180
62 99 179
61 99 180
62 99 181
62 99 181
61 98 179
60 99 179
62 99 181
61 99 180
61 98 179
62 99 181
61 99 180
62 99 181
61 99 179
62 100 180
60 99 179
61 99 179
62 99 179
62 99 178
61 98 178
62 99 180
61 99 179
62 99 179
60 98 176
61 99 177
61 98 178
60 97 174
61 98 177
62 99 180
61 98 176
61 97 174
61 98 175
60 96 171
61 99 175
73 107 168
59 131 164
89 142 144
89 159 134
83 160 125
91 153 108
90 152 107
80 127 86
100 145 95
104 143 94
106 136 81
109 133 81
109 127 79
115 130 80
101 127 75
106 122 77
107 121 79
121 130 83
131 139 91
130 139 90
124 132 87
125 136 88
125 134 87
126 136 89
133 136 92
126 127 88
127 134 89
130 134 89
129 131 91
119 121 84
137 138 95
125 129 89
133 134 92
132 134 91
124 126 87
131 134 92
142 142 96
131 131 91
134 137 94
152 150 101
144 144 98
140 140 96
144 145 98
150 149 102
142 145 98
153 151 102
142 144 100
138 139 96
144 142 97
153 154 104
150 149 103
151 151 103
147 147 100
153 152 103
150 151 101
161 159 107
149 154 103
154 157 105
152 151 103
152 152 103
156 157 106
161 161 107
157 157 105
163 163 109
163 163 109
165 165 109
165 164 108
164 164 109
161 159 107
164 162 109
163 164 108
169 169 111
162 163 108
163 165 108
165 165 109
168 167 111
166 165 108
161 165 109
169 169 111
167 168 110
171 170 112
169 170 111
170 168 110
166 169 111
168 172 111
172 169 112
168 169 111
166 169 110
168 170 111
166 170 110
170 171 112
166 173 110
167 169 110
170 172 111
173 173 112
168 167 110
169 171 110
172 171 111
169 171 111
171 171 111
176 173 113
170 167 110
168 169 109
172 172 111
167 170 110
163 169 108
176 172 112
167 169 108
170 170 110
163 171 109
158 170 107
166 168 109
171 169 110
164 168 108
166 166 107
163 165 107
162 165 106
160 165 106
165 168 108
161 169 107
168 169 109
157 166 105
163 167 106
158 163 104
160 166 106
157 163 103
158 162 103
150 163 102
155 162 103
137 156 95
160 165 104
152 162 102
156 165 103
160 166 104
156 166 104
158 164 104
149 159 99
142 156 96
146 156 97
145 160 98
137 155 95
145 159 98
137 157 94
142 156 96
138 153 94
150 158 98
133 146 89
135 156 92
124 147 87
140 158 95
130 148 89
129 145 87
124 143 86
122 142 84
124 148 88
115 146 94
114 153 103
94 165 118
88 165 119
83 180 133
87 177 128
74 190 145
75 198 154
60 200 157
38 206 164
33 216 175
0 215 174
0 221 180
0 219 179
0 218 179
0 220 181
0 222 181
0 221 181
0 221 181
0 219 179
0 219 178
0 220 179
0 219 180
0 218 179
0 219 179
0 221 181
0 219 179
0 220 180
0 218 179
0 219 179
0 221 180
0 220 180
0 221 181
0 220 180
0 221 181
0 219 179
0 219 179
0 221 180
0 218 178
0 217 178
0 221 180
0 218 178
0 220 180
0 218 178
0 220 179
0 221 180
0 221 181
0 220 180
0 221 181
0 222 181
0 218 178
0 219 178
0 218 179
0 219 180
0 217 177
0 219 179
0 220 180
0 220 180
0 221 180
0 221 181
0 219 178
0 219 179
0 218 178
0 221 181
0 220 179
0 218 180
0 220 179
0 220 180
0 218 178
0 219 179
0 222 180
0 220 180
0 219 179
0 220 179
0 215 175
0 219 178
0 219 180
0 221 181
0 220 179
0 216 177
0 221 181
0 218 177
0 218 179
0 221 181
0 218 178
0 220 179
0 220 179
0 221 180
0 218 179
0 218 178
0 217 178
0 219 179
0 219 179
0 218 176
0 220 179
0 220 179
0 218 178
0 219 178
0 220 179
0 219 179
0 218 177
0 219 179
0 216 177
0 219 179
0 217 177
0 218 178
0 217 177
0 220 179
0 220 180
0 218 177
0 220 180
0 220 179
0 217 177
0 218 178
0 218 179
0 219 179
0 218 179
0 220 180
0 220 179
0 220 180
0 220 179
0 219 179
0 219 179
11 215 178
19 209 178
35 186 177
48 156 178
55 121 175
61 100 177
60 99 177
60 100 178
60 99 179
60 99 178
62 100 180
61 100 179
62 99 181
60 99 179
62 100 179
62 99 180
61 99 179
61 99 180
62 99 180
62 99 180
62 99 181
62 100 180
62 99 181
61 99 179
61 99 180
62 99 181
62 99 180
61 99 179
61 99 180
61 99 180
62 99 181
62 99 180
62 99 181
61 99 180
62 99 181
62 99 181
61 99 180
62 99 181
61 99 180
62 99 181
61 99 181
61 99 180
61 99 181
62 99 181
61 99 181
61 98 181
61 99 180
61 99 180
62 99 181
61 99 181
61 99 181
61 99 180
61 99 181
61 99 181
61 99 181
62 99 181
62 99 181
61 98 181
62 99 180
61 99 180
61 99 180
61 99 181
62 99 181
62 99 181
62 99 181
61 99 181
62 99 181
62 99 181
61 99 181
62 99 181
62 99 181
61 99 180
62 99 181
62 99 181
61 99 180
61 99 180
61 99 180
62 100 181
62 99 180
62 99 180
62 99 181
62 99 181
62 99 181
62 99 181
62 99 181
61 99 180
62 99 181
62 99 180
61 99 181
61 98 181
61 99 180
61 99 180
61 99 180
61 99 180
61 98 181
60 98 179
61 99 180
62 99 180
62 99 181
62 99 180
62 99 181
61 99 180
62 99 180
61 99 179
61 99 179
61 98 178
62 99 180
61 98 179
61 99 179
60 98 176
61 99 178
61 98 178
61 99 178
62 99 177
62 99 179
61 99 177
61 98 175
60 98 174
61 98 176
60 97 170
60 97 174
61 97 174
60 97 175
60 104 167
69 120 158
72 127 141
85 150 135
96 159 127
95 164 114
93 149 99
96 141 91
114 145 94
107 130 80
121 138 84
105 121 77
133 147 91
117 123 79
119 129 84
117 132 83
118 129 84
123 132 87
138 139 91
126 136 89
111 120 81
119 121 80
128 131 88
130 130 90
132 134 91
130 131 88
121 128 88
124 130 87
131 134 90
129 133 92
128 130 90
129 131 90
128 130 89
128 131 92
133 133 91
131 131 90
137 137 94
137 138 96
131 133 91
143 143 98
145 144 98
140 141 97
143 142 99
142 141 96
139 142 97
146 146 99
148 147 101
148 150 102
147 146 100
154 154 102
155 153 103
150 148 102
153 152 102
153 152 103
156 154 104
161 160 108
150 152 102
158 156 105
156 156 106
149 152 101
157 158 105
161 160 107
165 162 109
163 163 108
163 161 108
166 165 110
166 166 110
169 167 110
164 164 108
160 164 107
167 167 111
161 162 107
163 163 109
166 166 109
161 165 108
169 167 110
166 168 110
166 169 110
168 168 111
168 171 111
175 172 112
167 169 110
167 168 110
168 169 111
172 170 111
171 171 112
168 171 111
172 172 112
168 169 109
166 169 110
175 171 113
167 169 110
168 172 110
172 172 112
171 170 110
173 172 113
169 170 110
165 169 108
163 167 109
169 170 110
172 172 111
163 166 107
172 172 111
174 173 113
162 165 107
174 172 111
173 171 110
165 165 106
171 172 110
169 170 110
168 170 110
171 172 110
164 167 108
164 167 108
166 168 108
160 165 104
165 172 109
163 166 107
161 167 106
163 168 107
146 161 100
160 164 105
153 165 102
157 161 103
154 162 102
162 164 104
157 166 105
156 168 105
152 161 101
155 163 103
149 158 99
145 156 98
155 165 103
142 154 96
151 161 101
149 157 98
152 164 102
151 166 101
144 159 96
132 153 92
143 158 97
140 153 94
138 154 94
128 156 92
128 151 90
143 156 96
138 156 94
131 146 89
137 147 90
115 141 83
130 152 90
133 154 91
122 150 87
121 148 88
130 151 99
102 153 100
99 158 112
87 172 123
89 176 130
85 181 134
60 189 146
69 195 149
39 205 164
42 201 156
41 211 169
24 214 172
0 221 180
0 221 180
0 219 179
0 221 181
0 220 180
0 221 180
0 221 181
0 218 178
0 219 179
0 220 179
0 218 179
0 218 179
0 221 180
0 220 180
0 221 181
0 220 180
0 219 179
0 220 180
0 220 179
0 221 180
0 217 178
0 218 178
0 220 179
0 220 180
0 217 177
0 220 179
0 219 179
0 219 179
0 218 179
0 219 179
0 219 179
0 219 179
0 219 179
0 219 179
0 221 181
0 220 179
0 220 180
0 221 181
0 219 179
0 219 178
0 219 179
0 218 178
0 220 179
0 220 180
0 220 180
0 219 180
0 220 179
0 219 178
0 220 179
0 218 178
0 221 181
0 221 180
0 218 179
0 218 179
0 219 180
0 220 179
0 221 180
0 221 180
0 220 180
0 220 180
0 218 177
0 222 181
0 218 178
0 219 179
0 216 175
0 218 178
0 218 178
0 218 180
0 218 178
0 217 176
0 220 180
0 218 178
0 219 180
0 219 179
0 219 178
0 220 180
0 220 179
0 218 179
0 218 177
0 220 180
0 219 179
0 219 179
0 219 178
0 220 180
0 217 178
0 219 179
0 218 179
0 216 176
0 219 179
0 218 178
0 217 177
0 215 176
0 220 179
0 218 177
0 218 179
0 221 181
0 217 177
0 221 180
0 217 178
0 221 180
0 219 178
0 219 178
0 220 181
0 217 177
0 221 180
0 219 178
0 219 179
0 221 180
0 218 178
0 219 179
0 220 179
25 200 175
34 191 178
52 150 181
59 109 177
59 99 175
61 100 178
60 99 178
61 99 179
61 99 179
61 99 179
62 99 180
61 99 180
62 100 179
62 99 180
61 99 180
62 99 180
61 99 179
61 99 180
62 99 180
61 99 180
62 99 180
62 99 180
62 99 180
62 99 180
62 99 180
61 99 180
62 99 180
61 98 181
61 99 180
62 99 181
63 100 181
62 99 181
61 99 180
62 99 181
62 99 181
62 99 180
61 99 181
62 99 181
61 99 180
63 100 181
62 99 181
61 99 180
62 99 180
62 99 181
62 99 181
62 99 181
61 99 180
61 99 181
62 99 181
61 99 181
62 99 181
61 98 181
61 98 180
61 99 180
62 99 181
62 99 181
62 99 181
62 99 181
62 99 181
62 99 181
61 99 180
62 99 181
62 99 181
61 99 181
62 99 181
61 99 180
62 99 181
62 99 181
61 99 181
62 99 181
62 99 181
62 99 181
62 99 181
61 99 180
62 99 181
61 99 181
61 99 180
62 99 181
62 99 181
62 99 181
61 99 180
62 99 181
62 99 181
61 99 180
62 99 181
61 99 181
61 99 180
62 99 180
62 99 181
61 99 180
62 99 181
61 99 180
61 98 180
62 99 181
62 99 179
60 99 179
62 99 181
62 99 181
62 99 180
61 99 179
62 99 179
61 98 179
61 98 178
62 99 180
62 99 179
61 99 178
61 98 180
61 99 179
62 99 178
61 98 180
61 99 177
60 99 176
61 99 176
60 97 174
62 99 177
60 98 176
62 99 178
61 98 173
61 98 176
60 99 175
61 99 176
60 98 175
60 97 172
60 97 174
61 100 168
82 124 155
84 117 142
90 147 117
93 157 112
110 153 105
87 136 93
111 131 83
117 140 88
120 138 84
116 129 82
119 134 84
107 121 77
117 132 84
125 135 84
112 121 79
122 135 88
123 129 84
122 128 88
122 129 87
112 121 82
129 128 86
119 126 85
124 128 89
120 124 84
130 130 88
133 136 93
120 126 86
121 125 86
129 130 89
131 135 92
123 123 86
136 137 94
133 133 93
136 136 93
130 134 92
116 121 85
144 143 99
136 138 95
140 139 95
148 149 100
142 142 99
139 139 97
147 147 101
138 139 95
148 147 100
148 148 101
142 146 98
144 146 100
140 143 98
147 148 99
149 150 102
151 154 103
147 147 101
148 147 100
149 148 101
153 154 103
154 158 106
158 158 107
159 160 107
160 160 107
156 157 105
151 156 103
161 161 107
157 155 105
155 160 107
163 162 108
158 162 108
164 162 108
163 164 109
165 166 109
166 168 109
162 161 108
167 168 110
166 168 110
165 167 109
168 167 110
168 166 110
165 168 109
171 172 111
168 167 110
171 169 111
165 168 110
169 169 110
165 166 109
171 170 113
167 171 110
172 172 112
168 169 110
170 171 112
164 170 109
168 171 110
166 169 109
169 172 111
172 172 112
168 171 110
169 171 110
169 173 111
172 172 112
170 170 110
171 172 112
167 169 109
164 170 108
171 169 110
168 169 109
166 171 110
170 171 111
162 168 108
164 167 108
165 170 108
167 168 108
166 173 109
160 166 105
163 168 107
165 166 107
169 171 110
166 170 109
167 169 108
163 163 106
164 169 108
161 166 105
156 165 103
162 169 107
161 167 107
160 166 104
161 169 106
163 167 106
159 165 104
153 161 101
154 161 103
152 164 103
153 160 101
153 163 102
148 160 98
150 159 100
148 160 100
162 166 105
150 158 100
142 152 94
137 151 93
145 154 95
147 160 98
135 149 92
137 158 95
124 142 85
134 150 91
136 154 93
135 152 91
127 147 87
135 146 90
135 151 91
120 136 82
123 145 89
110 152 95
117 157 104
95 160 106
103 166 115
73 178 131
96 191 145
90 190 144
63 201 159
52 203 157
31 204 163
27 208 167
0 215 174
0 219 178
0 217 178
0 221 181
0 220 179
0 221 180
0 220 180
0 220 180
0 219 179
0 220 180
0 221 181
0 219 180
0 218 179
0 220 179
0 221 180
0 221 180
0 221 180
0 220 180
0 217 177
0 220 180
0 219 180
0 221 180
0 219 178
0 221 180
0 218 179
0 216 178
0 220 179
0 221 181
0 221 180
0 219 179
0 217 178
0 220 180
0 218 179
0 219 179
0 220 180
0 218 179
0 220 180
0 218 177
0 218 178
0 217 177
0 220 180
0 220 180
0 221 180
0 217 178
0 220 179
0 219 178
0 218 179
0 220 179
0 220 179
0 218 179
0 219 178
0 221 181
0 219 178
0 219 178
0 219 179
0 219 179
0 219 179
0 220 179
0 220 179
0 220 180
0 219 179
0 220 180
0 221 179
0 219 179
0 217 177
0 220 179
0 218 177
0 219 180
0 221 180
0 218 178
0 219 179
0 220 179
0 217 178
0 220 179
0 217 176
0 219 179
0 221 181
0 216 177
0 220 179
0 221 180
0 219 179
0 218 178
0 219 179
0 220 179
0 219 177
0 220 180
0 219 180
0 220 181
0 221 180
0 220 180
0 218 177
0 217 178
0 214 175
0 220 180
0 219 179
0 219 178
0 215 176
0 219 178
0 218 178
0 221 180
0 216 178
0 220 179
0 220 180
0 220 179
0 216 177
0 219 180
0 217 178
0 218 179
0 220 180
0 219 179
5 215 177
23 206 178
35 187 178
48 149 176
58 113 177
60 100 177
62 100 179
62 100 179
61 100 178
61 99 179
62 100 179
62 100 180
62 100 179
61 100 178
61 100 178
61 99 179
61 99 179
61 99 179
61 99 180
61 99 180
61 99 180
61 99 180
62 99 180
61 99 178
61 99 180
61 99 179
62 100 180
63 100 181
61 99 180
61 99 180
61 99 180
61 98 180
62 99 180
62 99 181
61 99 180
61 99 180
62 99 180
62 99 181
62 99 180
61 99 181
61 99 180
62 99 181
62 99 180
62 99 181
61 99 181
61 99 181
60 98 180
63 100 181
62 99 181
61 99 180
61 99 181
62 99 181
62 99 181
62 99 181
61 99 180
61 99 181
62 99 181
62 99 181
61 98 181
61 99 180
62 99 181
61 98 181
62 99 181
62 99 181
62 99 181
62 99 181
61 99 180
61 99 180
62 99 181
61 99 180
61 99 180
62 99 181
61 98 181
61 99 181
61 99 180
62 99 181
62 100 181
62 99 181
62 99 181
61 99 180
61 99 179
61 99 180
62 99 181
61 99 180
61 99 180
61 99 180
62 99 181
62 99 180
61 99 180
61 98 181
62 99 180
62 99 181
61 99 180
62 99 180
62 99 181
62 99 180
62 99 181
62 99 180
62 99 181
62 99 181
62 99 181
62 99 180
61 99 179
62 99 180
61 99 180
62 99 180
61 99 179
61 99 180
61 99 180
61 99 180
62 99 180
61 99 178
62 99 180
61 99 178
61 99 178
61 99 179
61 98 176
60 99 175
61 99 179
60 98 173
62 98 176
60 98 175
61 98 177
60 98 176
61 99 177
60 97 173
59 97 170
58 96 164
73 116 145
82 119 136
98 142 135
90 136 98
108 141 90
107 142 87
103 131 78
110 125 78
113 134 82
116 128 81
123 128 83
117 129 85
110 124 80
120 121 82
109 117 79
122 126 84
110 117 80
124 133 87
114 123 81
128 131 89
113 116 80
123 127 88
120 122 82
114 122 85
128 135 91
117 122 87
132 133 92
128 130 88
129 138 94
130 135 89
135 136 94
130 131 91
135 136 94
137 138 95
136 137 94
138 141 96
146 145 98
130 131 93
139 139 97
135 136 94
145 146 100
127 128 90
139 138 96
140 142 98
145 146 99
149 148 100
145 143 97
152 154 104
142 147 99
142 142 98
152 151 103
146 147 99
149 151 102
157 158 105
156 156 104
154 156 105
161 159 106
156 156 104
162 160 106
155 156 104
158 157 106
159 160 106
167 165 110
161 167 109
163 165 109
161 160 107
165 166 109
164 164 109
163 165 107
166 166 109
163 164 109
166 167 109
162 164 109
168 169 110
169 168 110
165 167 110
172 169 111
166 166 110
168 169 110
165 169 110
169 168 110
168 169 111
169 169 111
164 170 110
168 171 110
170 169 112
172 170 112
169 169 110
167 168 110
170 172 111
167 168 110
169 171 111
168 172 110
166 171 110
171 172 111
167 170 110
172 172 112
165 171 109
172 170 110
161 167 107
162 171 109
171 170 110
167 170 109
160 166 106
163 170 108
156 168 105
167 168 109
164 167 108
164 168 108
163 167 108
168 171 109
161 169 107
169 167 108
155 167 104
155 166 103
167 167 107
162 166 106
170 169 109
167 165 107
166 167 108
162 163 104
162 167 106
156 164 103
155 162 102
152 162 101
157 163 103
145 155 97
151 163 101
160 165 104
154 164 103
153 157 100
150 155 98
144 161 98
148 159 98
151 158 99
150 160 100
143 156 95
134 157 94
137 156 95
138 158 96
135 152 92
131 152 91
143 151 93
125 149 87
129 147 88
120 148 86
138 153 93
131 152 90
132 150 90
117 142 82
123 150 89
92 131 80
113 150 94
122 161 102
100 165 112
89 171 122
58 182 134
86 187 138
81 187 142
52 197 152
41 208 164
18 215 174
34 210 169
0 220 179
0 218 177
0 219 179
0 220 179
0 220 180
0 221 180
0 220 179
0 218 179
0 221 181
0 221 181
0 219 179
0 220 179
0 221 180
0 221 180
0 220 179
0 219 179
0 221 181
0 222 180
0 219 180
0 220 179
0 216 177
0 219 179
0 221 181
0 219 179
0 221 180
0 219 179
0 220 180
0 220 180
0 218 179
0 218 179
0 216 177
0 220 180
0 221 180
0 220 179
0 219 179
0 220 180
0 220 180
0 220 180
0 217 177
0 219 179
0 222 181
0 219 178
0 220 180
0 221 181
0 218 178
0 217 175
0 219 179
0 220 180
0 217 178
0 221 180
0 219 179
0 220 180
0 221 181
0 220 180
0 216 177
0 218 178
0 220 179
0 220 180
0 220 179
0 219 179
0 219 179
0 221 180
0 219 180
0 220 180
0 220 179
0 219 179
0 215 177
0 221 179
0 218 179
0 218 179
0 222 181
0 220 179
0 219 178
0 219 180
0 217 177
0 217 177
0 221 180
0 218 178
0 220 179
0 219 179
0 213 175
0 219 180
0 220 180
0 219 179
0 218 178
0 218 179
0 218 179
0 220 179
0 221 181
0 220 180
0 220 178
0 218 178
0 218 177
0 216 176
0 220 179
0 216 177
0 219 179
0 218 179
0 218 179
0 218 178
0 221 180
0 219 180
0 220 178
0 220 180
0 218 179
0 219 179
0 220 178
0 220 178
6 218 178
21 206 178
36 182 176
49 146 177
58 112 177
61 100 178
59 99 176
60 99 177
63 101 179
59 99 176
60 99 178
61 100 178
63 100 181
61 99 180
60 99 177
60 99 178
61 99 180
62 99 180
62 99 180
61 100 178
62 99 180
62 99 180
61 99 179
62 99 180
61 99 179
62 100 181
63 100 181
61 99 180
62 99 181
61 99 180
62 99 181
61 99 179
62 99 180
61 99 180
62 99 180
62 99 181
62 99 181
62 99 181
62 99 181
61 99 180
61 99 181
62 99 180
62 99 181
62 99 180
61 99 181
61 99 181
62 99 181
61 99 180
62 99 181
61 99 181
61 99 181
62 99 180
61 99 181
61 99 181
62 99 181
61 99 181
62 99 181
62 99 181
62 99 181
62 99 181
61 99 181
62 99 181
61 98 181
62 99 181
61 99 181
61 99 181
61 99 180
62 99 181
61 99 180
61 99 180
61 99 181
62 99 181
61 98 181
62 99 181
61 99 180
62 99 181
62 99 181
62 99 181
61 99 181
61 99 181
61 99 180
61 99 181
62 99 181
61 99 180
62 99 181
62 99 181
62 99 181
62 99 181
61 99 179
62 99 180
62 99 181
62 99 181
61 98 179
62 99 180
61 99 180
61 99 180
61 99 179
62 99 180
62 99 181
61 99 180
61 99 181
61 99 178
62 99 180
61 99 179
61 99 180
61 98 178
62 99 179
62 99 180
62 99 179
61 99 179
61 98 177
61 99 178
61 99 178
62 99 179
61 99 179
62 99 179
61 99 178
60 98 178
60 99 178
59 98 175
60 99 176
60 98 176
59 97 172
58 98 175
62 99 176
59 95 171
59 97 174
60 96 171
60 96 170
66 101 167
80 106 149
81 116 120
102 136 121
104 135 100
116 137 85
111 132 82
100 128 75
108 126 78
113 128 81
109 126 79
121 128 81
112 121 79
105 120 78
106 115 77
111 127 84
110 120 80
103 113 77
111 119 82
125 126 85
122 124 83
125 129 88
120 127 86
122 128 86
122 126 88
125 129 87
113 113 80
122 126 86
132 133 91
126 126 89
132 132 92
130 130 91
139 138 95
138 139 96
128 131 89
139 138 94
135 136 96
132 133 92
134 136 94
138 140 96
142 142 98
140 141 97
150 151 102
148 150 101
145 146 100
144 145 98
150 151 101
141 142 98
147 149 101
145 147 100
148 149 101
156 155 105
159 157 106
152 151 102
150 149 101
152 154 104
159 160 107
153 153 103
157 159 106
162 164 109
159 161 106
164 162 108
163 164 108
156 158 106
162 161 107
165 165 110
167 167 110
165 165 109
160 161 108
165 162 108
164 163 109
168 168 110
161 163 108
163 164 109
171 170 111
163 165 109
169 170 111
165 168 110
167 169 110
167 165 109
169 171 111
167 170 111
167 167 110
166 168 109
169 171 111
166 169 110
167 171 109
171 171 112
165 170 109
173 172 112
172 171 111
169 172 111
168 173 111
171 171 111
165 169 109
166 170 109
172 172 111
169 170 110
167 169 108
168 170 110
165 171 109
166 171 109
165 169 108
161 166 105
163 169 108
163 167 107
168 172 110
171 169 110
162 168 107
169 171 109
165 169 108
168 169 109
166 169 108
162 170 108
159 165 105
165 172 109
159 167 105
164 169 107
161 167 106
158 166 105
151 163 102
157 163 102
148 162 101
155 160 102
155 164 103
158 166 104
152 161 100
155 163 102
161 166 105
153 162 101
151 160 99
147 157 99
151 162 100
150 163 101
154 160 101
156 162 102
141 156 95
139 157 96
144 159 98
141 150 94
130 151 90
135 150 91
136 152 92
137 155 93
134 150 91
134 145 89
134 148 90
122 149 86
131 150 90
117 136 80
129 146 87
122 148 88
115 157 101
108 165 110
97 157 108
88 168 119
80 178 130
64 185 143
67 191 146
51 200 156
25 200 156
35 207 164
27 211 169
17 214 176
0 221 181
0 220 179
0 221 181
0 220 180
0 220 180
0 221 179
0 221 181
0 217 178
0 220 179
0 220 180
0 220 181
0 220 180
0 218 178
0 219 179
0 217 178
0 222 181
0 220 180
0 220 180
0 219 179
0 221 179
0 220 180
0 220 179
0 219 179
0 219 179
0 220 180
0 218 177
0 219 179
0 220 180
0 217 178
0 220 180
0 219 180
0 218 178
0 220 180
0 220 180
0 221 179
0 219 178
0 218 179
0 216 177
0 219 179
0 221 180
0 219 179
0 219 178
0 221 181
0 219 178
0 219 178
0 219 177
0 223 181
0 219 178
0 220 179
0 219 178
0 218 179
0 218 178
0 220 180
0 220 180
0 221 181
0 219 179
0 219 180
0 219 179
0 220 181
0 218 177
0 219 179
0 221 181
0 221 181
0 220 178
0 217 178
0 217 178
0 221 179
0 218 179
0 217 177
0 220 179
0 220 179
0 219 179
0 221 180
0 218 178
0 219 178
0 220 180
0 221 181
0 217 177
0 217 177
0 220 180
0 218 177
0 220 179
0 218 178
0 216 177
0 219 179
0 217 177
0 217 178
0 217 178
0 218 178
0 217 177
0 218 177
0 219 179
0 220 179
0 217 177
0 217 178
0 220 180
0 219 178
0 218 178
0 217 178
0 217 177
0 221 180
0 217 176
0 218 177
0 218 178
0 220 179
0 219 178
6 218 180
23 207 179
33 189 178
47 146 173
59 109 178
60 100 177
60 99 176
59 99 175
60 99 178
61 99 179
61 99 178
61 99 178
62 100 179
60 99 177
60 99 177
61 99 179
62 100 179
61 99 180
62 99 180
62 99 180
62 99 180
62 100 180
62 99 180
61 99 179
62 99 179
61 99 180
62 100 180
63 100 181
61 99 179
61 99 180
61 99 179
61 99 179
61 99 181
61 99 180
62 99 180
62 99 181
62 99 181
61 99 180
62 99 181
61 99 180
61 99 181
61 99 180
62 99 181
62 99 181
62 99 181
62 99 181
62 99 180
62 99 181
62 99 181
62 99 180
61 99 181
61 99 180
61 99 181
61 99 180
62 99 180
61 99 181
62 99 181
62 99 180
61 99 181
62 99 181
62 99 181
61 98 181
62 99 181
61 99 180
62 99 181
61 98 181
62 99 181
62 99 181
61 99 181
61 99 180
61 99 180
61 99 180
62 99 181
61 99 181
62 99 180
61 99 180
62 99 180
62 99 180
61 99 180
62 99 180
62 99 181
61 99 179
62 99 181
61 99 180
61 99 180
62 99 181
61 99 180
61 99 180
62 99 180
62 99 181
60 98 180
61 99 181
60 98 180
62 99 180
62 99 180
61 99 180
61 99 179
62 99 181
62 99 180
62 99 180
61 99 178
62 99 180
61 99 180
61 99 179
62 99 180
62 99 181
61 98 179
61 99 179
62 99 180
62 100 180
62 99 179
63 100 181
61 99 177
61 99 180
61 98 178
61 99 177
61 98 177
62 99 178
61 98 177
61 98 176
61 99 176
61 98 175
61 99 178
60 98 175
62 99 177
60 98 175
61 98 176
59 97 170
61 98 175
60 98 174
57 95 164
63 99 163
65 103 155
96 122 132
82 116 110
107 129 90
114 131 85
103 117 75
109 125 79
109 128 79
118 137 86
122 129 83
124 135 88
117 127 82
115 117 78
118 125 83
106 119 78
124 129 87
113 121 82
131 134 92
108 116 81
119 119 82
131 134 92
117 122 84
116 120 85
131 131 88
126 129 89
116 121 83
125 128 89
119 122 83
120 123 85
118 120 84
134 132 91
132 134 93
133 136 94
132 132 90
138 138 96
135 136 94
136 136 94
130 130 90
145 144 98
149 147 100
148 148 100
131 133 92
138 138 96
135 136 95
140 142 97
139 144 97
147 149 100
155 155 103
149 149 101
156 157 105
161 159 107
150 150 102
149 151 102
152 155 103
149 149 101
159 159 107
163 161 108
165 164 108
155 157 104
161 162 107
153 155 104
162 161 107
160 161 107
158 161 107
158 160 107
160 163 107
161 163 109
165 167 109
160 164 107
165 168 110
166 165 110
168 169 110
165 167 110
168 169 110
163 167 109
165 168 110
166 169 110
164 169 109
162 167 108
166 171 110
167 171 111
167 170 110
168 170 111
163 170 108
166 170 109
168 171 110
172 173 112
172 171 112
164 172 109
174 173 112
166 171 109
167 170 111
165 172 110
169 171 110
167 171 111
163 169 108
166 169 109
166 173 109
164 168 108
169 172 110
168 169 108
161 167 107
167 168 109
168 171 110
168 170 109
163 170 108
167 170 109
162 170 108
167 172 110
168 171 110
160 170 107
161 166 106
168 169 108
155 167 104
162 166 105
161 171 107
166 169 108
161 167 105
163 164 105
162 166 106
154 163 102
149 163 100
154 163 103
153 164 102
146 163 100
144 161 99
144 161 99
146 165 100
148 162 100
145 161 99
142 156 95
144 157 97
143 162 99
146 154 96
143 159 98
141 157 96
152 158 99
137 152 93
144 153 94
139 158 96
133 157 93
139 155 94
129 155 91
140 151 93
129 148 89
141 151 94
119 140 83
123 150 87
115 142 84
110 146 86
121 156 100
115 158 103
116 162 109
93 159 110
82 172 126
80 183 137
61 194 150
53 196 154
60 197 155
43 204 162
17 215 173
19 218 177
0 221 180
0 219 179
0 220 179
0 220 180
0 221 180
0 221 181
0 218 178
0 221 180
0 221 181
0 219 179
0 218 179
0 221 180
0 218 178
0 221 180
0 219 179
0 220 180
0 217 177
0 222 181
0 220 179
0 219 179
0 219 179
0 220 180
0 219 178
0 219 180
0 220 179
0 218 178
0 218 179
0 218 179
0 219 178
0 217 178
0 221 180
0 219 180
0 219 178
0 217 177
0 218 179
0 220 180
0 219 178
0 219 179
0 219 179
0 218 178
0 218 179
0 219 180
0 218 179
0 220 180
0 221 180
0 216 176
0 217 177
0 220 179
0 218 178
0 217 177
0 220 179
0 220 179
0 218 178
0 218 178
0 220 180
0 217 178
0 218 179
0 220 180
0 219 180
0 218 178
0 221 180
0 219 179
0 219 179
0 221 181
0 220 181
0 220 180
0 219 179
0 220 180
0 216 175
0 220 179
0 219 180
0 220 179
0 220 179
0 218 178
0 216 177
0 218 177
0 219 179
0 219 178
0 219 179
0 218 176
0 218 178
0 218 177
0 218 177
0 214 176
0 218 179
0 217 177
0 218 179
0 216 177
0 218 178
0 217 177
0 220 179
0 218 177
0 221 181
0 218 179
0 218 179
0 217 177
0 219 178
0 218 177
0 220 180
0 218 179
0 215 175
0 219 179
0 218 178
0 216 176
0 218 178
6 220 180
18 206 175
32 193 177
50 143 176
57 113 176
60 99 178
61 100 179
60 99 178
63 100 180
61 99 179
61 100 179
62 100 179
61 99 180
60 99 177
59 99 176
61 99 179
61 99 179
62 99 178
61 99 179
61 100 178
61 99 180
61 99 179
61 99 179
61 99 179
62 99 180
61 99 179
62 99 181
60 99 179
61 99 180
61 99 179
60 99 178
62 99 181
63 100 180
61 99 180
61 99 180
62 99 181
62 99 181
61 99 180
62 99 180
62 99 181
61 99 180
62 99 181
62 99 181
61 99 181
61 99 180
62 99 180
61 98 180
61 99 181
62 99 181
61 99 180
62 99 180
62 99 180
62 99 180
62 99 181
61 99 180
62 99 181
62 99 181
62 99 181
62 99 181
61 99 180
61 99 181
61 99 181
61 99 180
61 99 181
62 99 181
61 99 180
62 99 181
62 99 180
61 99 181
62 99 181
61 99 180
62 99 180
61 99 180
61 99 180
62 99 180
60 98 180
61 99 180
62 99 180
62 99 181
61 99 181
61 98 180
62 99 181
61 99 180
62 99 180
62 99 180
62 99 181
61 99 180
61 99 180
62 99 181
62 99 181
63 100 181
62 99 180
60 99 179
61 99 180
61 99 180
61 99 179
62 99 180
62 99 181
60 98 178
62 99 180
62 99 180
61 99 179
61 98 180
60 99 179
62 99 178
61 99 180
60 98 177
61 99 180
62 100 180
62 99 179
61 99 178
58 99 174
62 99 180
62 99 178
62 99 179
61 99 178
61 99 178
61 98 178
60 98 176
60 97 174
61 99 177
60 99 178
60 99 177
61 99 176
60 97 172
62 98 177
61 99 178
60 98 174
61 97 174
60 97 173
60 98 175
60 97 172
60 98 173
67 99 166
77 103 148
93 112 126
81 116 100
98 118 81
122 131 87
108 126 78
101 113 73
116 131 82
115 128 80
107 121 79
116 127 81
111 122 82
112 123 79
123 129 83
111 125 81
130 134 90
122 129 87
121 125 85
120 125 85
120 120 83
119 121 86
117 120 83
122 123 86
126 128 88
117 120 85
128 133 90
125 127 90
126 130 89
124 125 88
128 130 89
125 129 89
136 136 94
119 123 88
136 136 95
138 138 95
139 138 94
138 139 95
137 137 96
131 136 93
151 149 101
145 146 99
142 143 97
139 140 98
149 148 99
147 149 100
146 147 100
145 146 99
140 145 98
145 151 100
151 154 103
154 154 104
151 152 103
156 157 104
157 161 106
162 161 106
161 161 107
159 163 107
163 162 107
151 156 103
155 159 106
158 160 107
158 159 106
166 167 110
159 164 107
162 163 108
161 164 108
161 163 107
163 165 108
164 164 108
162 166 109
157 162 106
164 168 109
158 167 107
160 166 107
165 169 109
167 172 110
169 171 111
166 170 110
175 173 112
171 172 111
160 167 108
171 171 111
166 171 110
171 173 112
161 171 109
166 169 109
170 171 110
169 171 110
165 169 110
164 170 109
167 170 110
173 172 112
166 168 110
172 174 111
163 169 108
170 173 111
168 172 110
165 171 108
161 168 107
165 170 108
172 170 110
168 172 110
164 168 108
160 167 106
158 168 106
165 168 108
160 172 108
167 168 108
164 170 108
158 166 105
163 167 107
157 170 106
153 164 103
154 164 103
154 165 104
155 164 103
152 165 103
161 166 106
159 165 106
156 160 102
161 169 107
156 164 103
159 166 104
145 154 97
153 165 103
155 167 103
155 164 101
141 159 97
152 158 98
150 165 101
149 159 99
147 158 98
149 158 99
132 146 89
134 148 91
152 162 100
145 154 95
140 151 93
134 155 93
139 155 95
129 149 90
124 151 89
132 150 90
132 153 91
130 150 90
123 146 86
120 144 84
131 145 87
112 146 87
112 141 90
97 155 103
102 165 115
86 176 126
97 184 135
76 175 129
75 182 137
74 196 154
56 201 157
36 208 164
19 211 171
0 218 177
0 220 180
0 219 180
0 220 180
0 219 179
0 219 178
0 218 178
0 221 181
0 220 179
0 221 181
0 219 179
0 218 178
0 220 179
0 218 178
0 220 180
0 220 178
0 218 178
0 220 180
0 218 178
0 220 179
0 220 180
0 221 179
0 221 180
0 221 181
0 219 178
0 218 179
0 216 177
0 220 179
0 220 179
0 216 177
0 221 180
0 220 180
0 220 181
0 220 180
0 219 179
0 220 180
0 219 178
0 219 178
0 221 181
0 218 178
0 221 181
0 220 180
0 220 180
0 219 179
0 219 179
0 221 181
0 221 181
0 219 178
0 219 179
0 219 179
0 219 180
0 220 180
0 220 179
0 220 180
0 220 180
0 217 178
0 218 179
0 218 178
0 217 178
0 219 179
0 219 179
0 220 179
0 220 179
0 219 179
0 217 177
0 219 178
0 220 179
0 219 179
0 217 178
0 218 178
0 219 179
0 218 178
0 220 180
0 219 178
0 219 180
0 220 178
0 217 178
0 221 181
0 217 177
0 218 178
0 219 178
0 220 179
0 219 178
0 220 180
0 219 179
0 219 178
0 217 177
0 216 177
0 218 177
0 219 179
0 219 178
0 220 179
0 218 179
0 220 178
0 217 176
0 218 178
0 219 179
0 218 177
0 218 178
0 217 176
0 216 177
0 218 178
0 218 178
0 217 178
0 216 178
0 215 176
16 210 177
32 189 177
44 163 177
55 126 176
61 100 178
60 100 177
59 99 176
60 99 177
62 100 179
61 100 178
62 100 179
61 99 179
60 99 178
62 100 179
60 99 178
60 99 178
61 99 180
61 99 179
62 99 180
61 100 178
63 100 181
62 100 180
60 99 179
60 99 179
62 99 180
62 99 180
62 99 181
62 99 181
62 99 181
62 99 180
62 99 180
61 99 179
61 99 179
62 99 181
62 99 181
62 99 181
61 99 180
61 99 180
61 99 180
62 99 181
61 99 181
63 100 181
61 99 180
62 99 181
62 99 181
62 99 181
62 99 180
61 99 180
62 99 181
61 99 181
62 99 181
62 99 181
62 99 180
62 99 181
61 99 180
62 99 181
61 99 180
62 99 181
62 99 181
62 99 181
61 99 180
62 99 181
62 99 181
61 99 181
62 99 181
61 99 181
61 99 180
61 99 180
61 99 180
62 99 181
61 99 180
62 99 181
62 99 180
62 99 181
62 99 181
61 99 181
62 99 181
61 99 181
61 99 180
61 99 180
62 99 181
61 99 181
61 98 180
61 99 179
61 99 180
61 99 181
60 99 179
62 99 180
61 99 180
61 99 180
62 99 181
61 99 179
61 99 179
61 99 180
61 99 180
61 99 180
61 99 180
61 99 180
61 99 180
61 99 180
62 99 180
61 99 179
62 100 179
61 99 180
61 99 180
62 99 180
61 99 180
62 99 179
61 98 179
61 99 178
61 99 179
60 99 178
61 99 179
59 98 176
61 99 178
62 99 179
61 99 177
60 99 178
62 99 179
61 98 178
60 99 177
61 98 177
60 98 174
62 98 177
59 97 171
61 98 178
60 98 174
60 97 172
61 99 178
59 98 172
58 98 172
61 99 177
58 96 169
60 95 165
67 99 166
79 108 157
95 115 120
86 112 100
105 125 84
100 120 74
119 131 83
102 120 75
113 130 80
124 132 86
116 123 81
114 126 82
102 117 77
117 118 81
117 123 82
106 114 79
110 119 78
103 109 78
121 124 85
112 115 81
116 116 81
112 125 86
118 120 85
103 111 79
128 130 89
120 122 86
123 124 86
123 124 87
122 123 86
113 117 83
124 127 88
129 131 91
128 129 90
129 132 92
129 131 92
129 133 91
132 133 92
131 133 92
135 136 95
140 139 96
140 141 96
148 149 102
140 142 97
151 151 103
150 150 101
146 145 99
151 150 101
155 159 105
150 154 102
153 154 104
150 155 103
147 151 102
148 153 102
154 155 102
155 155 104
148 152 101
151 156 103
154 157 104
154 158 105
152 164 105
156 158 105
158 161 107
163 164 108
166 164 108
158 160 107
160 162 106
164 163 108
165 165 109
167 167 110
163 167 109
161 163 108
169 170 110
160 168 108
168 170 110
165 170 110
162 167 108
165 169 110
167 171 110
160 168 107
167 170 110
169 171 111
168 170 110
167 170 108
168 171 110
164 171 109
169 171 111
166 170 109
162 170 109
166 172 110
174 173 112
171 171 110
168 172 110
161 169 108
168 171 109
162 170 108
164 172 109
169 170 110
166 168 109
163 170 108
166 170 108
165 170 110
164 169 109
165 169 108
163 168 108
167 170 108
163 169 108
158 168 105
163 168 108
160 168 107
159 170 106
162 170 107
165 167 107
165 169 107
149 162 100
161 168 106
161 166 105
157 166 104
156 163 103
148 165 101
155 165 103
149 161 101
151 164 102
160 167 104
152 163 101
152 162 101
159 164 104
152 159 101
146 163 99
148 161 100
150 163 100
147 161 99
141 156 95
151 159 99
143 162 98
141 160 97
137 160 95
139 157 95
135 153 93
129 154 91
138 154 93
142 154 95
130 151 90
121 146 86
133 154 92
124 145 86
125 146 87
122 152 88
114 137 81
122 150 92
112 139 83
111 158 104
102 161 109
88 173 125
69 181 137
77 186 139
80 183 138
59 191 149
53 196 154
43 204 162
49 210 169
18 214 173
0 220 179
0 219 179
0 222 181
0 221 181
0 218 178
0 220 179
0 222 181
0 221 181
0 221 180
0 218 178
0 221 181
0 221 180
0 219 177
0 220 180
0 219 180
0 218 179
0 221 181
0 220 180
0 221 181
0 220 179
0 219 179
0 222 181
0 221 180
0 219 179
0 220 179
0 219 178
0 220 179
0 221 181
0 218 178
0 220 180
0 221 181
0 221 179
0 220 181
0 217 177
0 219 178
0 220 179
0 220 178
0 220 178
0 218 177
0 221 179
0 219 178
0 219 179
0 220 180
0 219 179
0 219 180
0 219 179
0 219 178
0 219 180
0 221 181
0 220 180
0 217 177
0 220 180
0 219 180
0 217 177
0 219 180
0 218 178
0 218 177
0 218 178
0 219 179
0 220 180
0 220 180
0 221 180
0 220 179
0 220 179
0 220 179
0 220 180
0 217 177
0 219 178
0 219 179
0 217 178
0 218 177
0 220 181
0 220 180
0 219 178
0 219 179
0 219 179
0 217 176
0 217 177
0 219 178
0 220 180
0 220 180
0 219 180
0 217 177
0 217 177
0 219 178
0 219 178
0 219 178
0 219 179
0 217 178
0 220 179
0 217 177
0 219 180
0 220 180
0 216 177
0 218 178
0 217 177
0 217 177
0 218 178
0 219 178
0 218 179
0 218 177
0 219 178
0 219 180
0 219 178
8 213 176
30 194 178
41 169 174
59 115 179
60 100 176
61 100 177
60 99 177
62 100 179
61 100 178
60 99 177
61 99 179
60 99 178
60 99 177
62 99 180
61 100 178
61 99 180
61 99 179
61 99 179
62 100 179
62 100 180
61 99 179
62 99 180
60 99 179
61 99 179
61 99 180
62 99 180
62 99 180
62 100 180
62 100 180
62 100 180
62 99 180
62 99 181
61 99 180
62 99 180
62 100 179
61 99 180
61 99 179
61 99 180
61 99 180
61 99 181
62 99 180
62 99 181
61 99 180
60 98 179
61 99 180
62 99 181
61 99 180
60 98 179
62 99 181
61 99 180
62 99 181
62 99 180
61 99 180
61 99 180
62 99 181
62 99 181
61 99 180
62 99 181
61 99 179
62 99 181
61 99 181
62 99 181
62 99 181
61 99 181
62 99 181
62 99 180
62 99 181
61 99 181
61 99 180
61 99 180
61 99 180
61 99 180
62 99 181
61 98 181
60 99 179
62 99 180
61 98 180
62 100 180
61 99 180
62 99 181
61 99 180
61 99 180
62 99 180
61 99 180
61 99 180
62 99 180
62 99 181
60 99 179
62 99 181
62 99 180
61 99 180
62 99 180
62 99 181
61 99 180
61 99 181
62 99 181
61 99 180
62 99 180
61 99 179
62 99 180
61 99 179
61 99 178
62 99 179
60 99 179
61 100 179
60 98 178
61 99 180
62 99 180
61 99 179
61 99 178
62 99 179
62 99 179
60 98 178
61 99 179
61 99 180
62 99 180
60 99 179
61 99 178
62 100 178
61 99 178
60 98 176
62 99 178
61 98 177
60 98 174
61 99 178
60 99 176
61 99 176
61 97 173
61 99 177
59 97 170
61 99 177
61 99 176
60 97 172
60 97 170
61 98 173
58 95 163
61 97 167
84 111 139
82 114 122
114 129 107
105 121 86
105 125 78
103 110 72
112 121 79
113 119 80
102 119 75
107 121 80
106 116 77
113 118 81
106 116 77
102 113 74
122 124 85
111 114 80
117 122 83
102 112 77
119 123 86
110 113 81
120 124 86
119 123 86
121 124 87
126 131 89
124 128 89
121 124 87
124 127 89
120 123 85
129 130 91
131 132 93
138 138 95
126 130 91
123 128 91
133 135 93
130 130 92
137 141 97
135 138 95
134 136 94
139 141 97
144 144 100
138 141 95
146 150 100
151 149 100
147 149 99
155 155 104
143 146 100
144 146 100
147 150 102
151 153 103
151 152 102
159 160 107
155 158 105
158 159 106
152 155 103
155 156 104
153 158 105
154 159 105
151 155 102
162 164 108
157 163 107
158 162 106
156 161 107
162 166 108
153 161 105
163 165 108
156 162 107
166 167 109
162 167 108
160 163 107
161 165 108
172 169 111
161 166 107
165 168 109
167 170 110
168 171 110
164 169 110
168 168 110
163 167 109
163 169 108
167 171 110
168 170 110
169 173 111
166 171 109
165 170 109
159 171 108
167 171 109
162 170 109
162 172 108
167 172 109
161 171 108
169 171 110
166 173 109
166 171 109
168 169 110
169 172 110
168 170 109
163 165 106
164 169 108
173 172 111
161 167 106
159 171 107
163 166 106
164 168 108
164 169 107
163 168 108
147 164 101
157 166 105
161 169 108
167 170 109
163 169 108
148 164 101
162 169 106
164 169 107
164 169 108
159 166 104
161 166 105
156 168 104
143 159 98
155 163 103
156 164 102
148 161 99
159 168 105
152 164 101
149 155 98
147 162 100
146 165 100
143 161 98
141 153 94
132 154 92
146 157 97
149 160 99
141 157 95
140 159 96
140 154 94
140 159 96
132 154 93
142 152 94
141 153 94
128 151 89
133 152 91
122 145 86
123 151 89
137 152 92
130 149 90
113 140 82
126 153 89
120 141 83
125 158 99
121 161 107
109 165 111
90 163 116
70 175 131
73 186 140
70 192 146
60 196 151
42 200 158
49 207 163
18 211 170
33 212 171
0 219 178
0 221 180
0 220 180
0 219 178
0 220 180
0 221 181
0 221 179
0 220 179
0 219 179
0 219 179
0 219 179
0 220 180
0 219 179
0 220 180
0 221 181
0 218 178
0 222 181
0 218 178
0 220 179
0 220 181
0 219 179
0 218 179
0 217 179
0 220 180
0 221 181
0 222 181
0 220 180
0 217 177
0 218 180
0 220 180
0 220 180
0 219 178
0 219 179
0 221 179
0 216 178
0 219 179
0 219 179
0 222 181
0 218 179
0 220 181
0 217 178
0 220 179
0 219 179
0 218 179
0 220 179
0 221 180
0 218 178
0 220 179
0 220 179
0 218 178
0 220 179
0 218 178
0 220 179
0 218 178
0 221 180
0 217 177
0 219 179
0 218 179
0 221 180
0 219 179
0 219 180
0 219 179
0 218 179
0 218 178
0 219 178
0 218 178
0 221 181
0 220 180
0 219 180
0 219 179
0 221 181
0 218 179
0 217 178
0 219 178
0 219 178
0 217 178
0 220 180
0 215 177
0 219 180
0 220 180
0 218 178
0 219 179
0 219 178
0 220 179
0 217 178
0 220 179
0 218 178
0 220 180
0 221 180
0 218 177
0 221 179
0 218 177
0 221 180
0 218 179
0 218 178
0 218 178
0 218 177
0 215 174
0 219 177
0 218 177
0 215 176
0 218 178
0 218 178
6 216 176
30 194 178
43 171 178
56 117 174
58 99 175
60 100 176
58 99 173
59 100 175
61 99 178
60 99 178
61 100 178
61 99 178
61 99 178
60 99 178
62 99 180
61 100 179
61 99 179
60 99 178
61 99 180
60 99 178
62 100 179
61 99 179
61 100 178
61 99 179
62 100 179
60 98 179
62 100 180
59 99 178
62 99 180
61 99 179
61 99 180
61 99 179
61 99 180
61 99 179
62 99 181
61 99 179
61 99 180
62 100 180
61 99 180
62 100 180
61 99 180
63 100 181
62 100 181
61 99 181
61 99 180
61 99 179
62 99 180
62 99 181
61 99 181
62 99 181
61 99 181
62 99 181
61 99 180
62 99 181
62 99 181
61 99 180
62 99 181
62 99 181
62 99 181
62 99 180
62 99 181
62 99 180
62 99 181
62 99 181
61 99 180
61 99 180
61 99 180
62 99 180
61 99 180
61 99 180
61 99 180
62 99 180
62 99 180
61 99 181
62 99 180
61 99 179
61 99 180
61 99 179
61 99 180
61 99 180
61 99 180
62 99 181
62 99 180
62 99 181
61 99 181
61 99 179
62 99 180
61 99 180
61 99 180
61 99 179
61 99 180
61 99 179
61 99 179
61 99 179
61 99 181
62 99 181
61 99 179
61 99 179
62 99 181
61 99 180
62 99 181
61 99 180
62 100 179
62 99 180
61 99 179
61 99 179
60 99 179
62 99 180
62 100 179
61 99 180
61 99 179
61 99 177
61 99 180
62 99 179
60 98 179
61 99 179
61 99 177
60 98 177
61 99 178
62 99 177
61 98 177
61 98 178
61 99 179
60 99 178
61 99 177
61 99 177
60 99 178
61 99 176
60 97 173
60 98 176
59 98 172
62 99 177
61 98 175
61 99 177
59 96 169
60 97 172
61 98 173
59 96 169
65 98 160
59 92 144
82 106 118
106 126 100
110 123 80
103 117 75
110 121 78
109 119 79
113 121 78
97 112 74
125 126 86
110 115 77
115 121 82
109 123 80
119 122 86
120 127 84
126 127 88
103 110 79
104 115 76
114 119 82
124 127 87
126 134 91
120 120 84
111 113 83
114 116 84
117 120 83
123 126 89
108 113 81
129 133 91
121 123 88
122 124 88
124 124 86
136 135 93
131 135 93
134 133 93
143 142 97
145 145 99
138 140 95
143 143 96
144 146 100
142 143 97
140 141 97
138 142 95
144 146 100
152 151 103
141 148 99
146 148 101
143 147 97
151 154 102
148 151 100
149 154 103
150 155 102
157 159 105
148 153 101
152 154 103
154 162 105
158 158 105
157 162 106
162 167 108
162 166 108
161 162 107
155 157 104
159 164 107
155 161 106
147 156 103
162 165 108
160 165 107
157 165 106
165 168 109
164 166 109
164 166 109
168 169 110
160 168 108
162 168 108
168 170 110
154 166 105
163 168 109
170 172 111
165 171 110
169 173 111
169 171 110
166 170 110
173 171 112
169 171 111
170 173 111
169 172 111
165 173 110
163 171 108
169 169 109
164 170 109
163 172 109
159 169 108
168 171 110
169 171 110
165 170 108
160 170 107
159 168 107
164 173 109
163 172 108
165 170 107
169 173 110
154 167 104
164 172 109
166 172 110
161 171 108
167 168 108
167 170 108
164 167 108
166 170 109
156 165 103
162 170 107
162 168 106
163 167 107
156 169 106
157 170 105
156 166 104
159 163 103
146 162 99
153 161 100
150 162 100
151 163 101
156 165 104
154 165 103
150 162 101
148 160 98
146 160 98
154 163 101
146 165 100
157 163 102
147 160 98
143 156 95
141 157 95
139 155 94
139 154 94
129 157 93
134 157 93
129 156 92
138 154 94
133 147 90
129 153 90
142 160 96
117 154 88
129 150 90
128 148 88
121 147 86
120 139 82
107 138 80
111 148 93
99 146 92
99 154 99
88 178 127
83 172 126
71 177 133
75 186 143
44 188 147
49 192 148
38 206 164
36 214 172
19 215 173
0 221 178
0 221 181
0 221 179
0 221 180
0 221 180
0 219 179
0 221 181
0 220 179
0 221 180
0 221 180
0 218 178
0 220 179
0 220 180
0 220 179
0 220 181
0 221 181
0 220 180
0 218 178
0 219 177
0 219 178
0 219 178
0 220 180
0 218 179
0 220 179
0 218 178
0 220 179
0 216 177
0 218 180
0 220 180
0 221 179
0 219 179
0 220 179
0 220 179
0 218 178
0 217 177
0 218 178
0 218 179
0 218 178
0 217 178
0 219 179
0 220 181
0 220 179
0 221 180
0 219 179
0 220 180
0 221 181
0 217 178
0 217 177
0 220 180
0 221 181
0 219 178
0 218 178
0 217 176
0 219 178
0 220 180
0 220 180
0 216 176
0 220 180
0 219 178
0 220 179
0 220 181
0 221 180
0 220 180
0 216 177
0 220 178
0 218 178
0 218 178
0 220 181
0 216 177
0 219 179
0 220 179
0 217 176
0 220 181
0 219 177
0 219 179
0 218 178
0 218 178
0 218 178
0 216 177
0 219 177
0 220 181
0 219 179
0 215 175
0 219 179
0 220 179
0 218 178
0 218 179
0 218 177
0 216 177
0 215 176
0 220 179
0 219 178
0 214 176
0 220 179
0 219 179
0 216 177
0 218 177
0 216 176
0 218 178
0 218 178
0 216 175
0 220 180
6 219 179
22 210 181
39 171 175
56 124 177
59 100 175
60 100 176
59 99 176
59 99 176
60 99 178
61 100 177
61 99 179
61 99 179
61 99 179
60 99 178
61 99 179
60 99 177
61 100 179
60 99 178
63 100 181
60 99 177
60 99 178
61 99 178
62 99 180
61 99 179
61 99 179
62 99 180
61 99 180
60 99 179
62 99 180
62 99 180
62 99 180
61 99 180
62 99 181
61 99 178
61 99 179
62 99 181
62 99 181
62 99 180
62 99 181
61 99 179
63 100 181
62 99 180
61 99 180
62 99 181
62 99 180
62 99 181
62 99 181
62 100 180
61 99 180
61 99 179
62 99 180
62 99 181
61 99 181
61 99 180
61 99 180
62 99 181
61 99 180
61 99 180
62 99 180
62 99 181
61 99 180
62 99 181
61 99 181
62 99 180
62 99 180
61 99 179
62 99 181
61 99 180
61 99 180
62 99 181
62 99 180
61 99 180
62 99 180
61 99 180
61 99 179
62 99 181
61 99 180
62 99 181
61 98 180
62 99 180
61 99 180
62 99 180
62 99 181
61 99 180
61 99 180
61 99 180
62 99 180
61 99 180
62 99 180
61 99 180
61 99 180
61 99 179
62 99 181
61 99 180
60 99 179
62 100 180
61 99 179
61 99 179
61 99 180
62 99 181
61 99 180
61 99 179
61 99 179
61 99 179
61 99 179
62 99 180
61 99 180
62 99 180
62 99 180
60 99 178
61 99 180
62 99 180
62 99 180
61 99 179
61 99 178
62 99 180
61 99 178
61 99 179
61 99 177
62 99 179
61 99 178
62 99 179
60 99 178
61 99 177
60 99 176
61 99 178
61 99 178
60 98 175
60 98 176
61 98 175
61 98 174
62 99 177
62 100 177
59 98 173
58 97 171
62 99 177
60 97 172
60 97 172
59 95 168
58 96 167
77 105 150
87 109 140
89 110 113
103 121 94
100 110 73
112 120 78
106 113 74
104 114 76
106 115 76
113 115 77
113 121 83
102 110 73
115 121 81
108 118 80
103 113 78
105 111 76
121 128 85
116 116 81
111 119 82
115 119 85
111 116 81
99 106 77
120 123 84
122 126 88
110 113 81
116 118 85
122 123 86
122 124 87
120 123 88
113 117 82
119 122 87
130 133 92
133 138 94
130 133 91
127 129 90
133 137 93
133 136 96
138 138 96
124 129 89
134 138 94
137 141 96
140 143 98
143 144 98
156 156 105
152 150 102
142 145 98
153 154 103
149 152 101
150 153 102
149 153 103
159 157 106
154 154 105
156 161 106
152 156 104
150 155 103
158 162 106
153 157 104
153 156 103
151 156 102
159 163 107
159 162 107
156 160 106
152 160 105
161 166 107
161 166 107
163 168 108
161 167 108
156 165 107
163 167 107
155 166 105
170 172 111
159 164 107
168 171 110
161 167 107
159 169 108
165 168 109
159 170 107
168 170 110
169 171 110
165 170 109
163 166 108
164 172 109
162 170 108
170 170 110
163 171 109
170 171 110
167 171 109
167 172 110
170 171 111
167 171 110
167 172 109
170 170 110
172 173 111
163 170 108
162 170 108
163 169 107
167 170 108
164 170 107
168 171 109
161 171 108
165 172 109
164 170 108
163 169 107
159 168 106
157 170 106
162 168 107
157 164 104
160 168 105
157 165 103
155 167 103
158 167 105
152 166 102
165 167 106
156 164 102
158 166 104
156 168 104
158 167 103
146 163 99
156 163 103
155 161 101
150 165 102
155 167 103
146 161 100
157 163 103
142 158 96
150 164 101
139 156 95
134 156 93
143 162 98
147 163 98
137 157 95
130 154 91
148 163 100
151 158 98
146 156 96
140 157 95
133 154 93
125 152 89
141 159 96
125 150 89
122 149 86
130 154 90
126 149 88
125 150 87
117 138 81
116 143 83
114 149 92
104 152 98
91 158 110
103 164 111
85 167 120
81 181 134
66 187 141
50 192 147
58 200 158
36 201 160
26 213 172
0 215 174
0 221 181
0 218 179
0 221 181
0 220 180
0 220 179
0 218 178
0 219 179
0 220 180
0 221 179
0 221 181
0 221 181
0 220 180
0 217 177
0 218 179
0 222 181
0 220 179
0 220 181
0 217 179
0 219 179
0 219 179
0 219 179
0 219 179
0 220 179
0 220 180
0 220 179
0 220 179
0 222 181
0 219 179
0 217 177
0 220 180
0 220 179
0 219 179
0 220 179
0 222 180
0 220 179
0 217 177
0 219 179
0 220 179
0 220 179
0 220 181
0 220 179
0 219 179
0 221 179
0 219 179
0 220 179
0 221 179
0 220 179
0 221 179
0 218 178
0 218 178
0 221 181
0 217 176
0 219 179
0 221 181
0 219 179
0 219 180
0 218 178
0 217 178
0 219 178
0 217 178
0 218 178
0 218 178
0 219 179
0 218 178
0 219 180
0 219 179
0 219 178
0 220 180
0 218 179
0 217 177
0 217 177
0 217 178
0 218 178
0 216 176
0 221 181
0 219 179
0 219 179
0 219 179
0 220 180
0 221 181
0 220 178
0 217 178
0 219 179
0 219 179
0 220 179
0 218 178
0 220 179
0 221 180
0 221 181
0 220 180
0 219 179
0 219 178
0 218 179
0 217 177
0 219 179
0 216 176
0 220 178
0 219 179
0 215 176
0 219 179
0 217 177
0 219 178
24 205 179
37 176 174
51 131 172
60 104 177
59 99 175
60 100 177
59 100 175
61 100 178
59 99 176
61 99 178
62 100 180
60 99 177
61 100 178
61 99 179
61 99 178
62 100 180
61 99 179
61 99 179
62 99 180
61 99 179
61 99 178
61 100 178
62 99 180
62 99 180
62 100 178
62 99 180
62 99 180
61 99 179
61 99 180
60 99 179
61 99 180
61 99 179
61 99 179
61 99 179
62 99 180
63 100 181
61 99 180
62 99 180
62 99 180
62 99 180
62 99 181
61 99 179
62 99 180
62 100 180
61 99 179
62 99 180
62 99 181
61 99 180
61 99 180
62 100 180
61 98 181
61 99 180
62 99 181
62 99 181
61 98 180
61 99 181
62 99 181
61 99 180
62 99 181
61 99 180
60 98 180
62 99 181
62 99 181
60 99 179
61 99 180
61 99 180
62 99 181
62 100 180
62 99 181
62 99 181
60 99 179
62 99 181
61 99 180
62 99 180
61 99 179
62 99 181
62 99 181
62 99 181
61 99 180
61 99 180
62 99 181
62 99 181
61 99 180
61 99 180
62 99 181
62 99 180
61 99 179
62 100 181
61 99 179
61 99 179
62 99 180
61 99 180
62 99 180
62 100 180
62 99 181
61 99 180
62 99 180
61 99 179
61 99 179
61 99 179
61 99 180
62 100 180
62 99 180
61 99 180
60 99 178
61 99 180
60 98 178
62 100 179
61 99 179
62 99 180
61 99 179
61 99 179
60 99 178
61 99 178
61 99 178
61 99 178
61 99 178
60 99 179
61 99 180
60 99 178
60 99 177
61 99 178
61 99 176
60 99 176
60 98 177
60 98 174
59 98 175
60 99 177
61 99 177
61 98 175
59 98 173
60 98 176
61 99 175
60 98 174
60 99 175
60 97 171
58 96 172
60 98 175
61 98 175
60 97 172
63 98 166
67 97 152
82 109 133
97 118 111
97 106 82
96 107 71
102 113 74
107 118 78
101 113 74
104 118 76
99 112 76
108 118 79
98 107 72
112 114 78
98 104 72
105 113 77
95 103 73
113 119 81
114 118 82
112 113 80
112 116 83
106 108 78
123 124 86
118 121 86
109 112 79
120 121 86
120 124 87
129 130 92
121 123 85
125 128 89
119 122 85
127 131 91
130 131 91
129 131 90
130 133 92
135 141 95
128 130 91
138 140 95
144 145 98
131 136 92
142 147 99
143 145 98
147 150 102
146 148 101
141 145 98
147 152 101
142 148 100
137 144 96
138 148 99
147 153 101
147 153 102
155 156 105
142 152 100
144 150 102
151 157 103
150 161 104
160 163 107
159 164 106
165 167 109
154 160 104
153 162 105
159 164 106
160 166 107
163 166 108
155 161 105
166 169 109
153 163 106
159 166 106
157 162 106
161 167 108
166 169 109
164 168 109
167 171 110
155 165 106
160 164 108
161 165 108
160 171 108
173 172 111
160 171 107
161 172 108
168 174 110
167 170 109
160 172 108
163 171 108
163 169 109
169 173 110
165 173 109
164 169 109
163 170 109
166 171 109
164 174 109
165 174 109
159 169 106
167 171 109
169 172 110
160 168 106
164 171 109
159 170 107
160 170 108
162 170 108
163 169 106
158 167 105
159 171 107
153 168 104
161 168 106
149 165 101
158 166 105
158 168 105
159 170 105
164 169 107
150 164 101
154 164 103
157 167 104
153 165 102
154 166 103
150 166 102
159 167 105
154 170 104
155 168 104
147 160 99
150 163 100
152 165 102
144 160 98
149 157 98
140 157 96
145 160 98
145 161 98
136 155 94
146 157 97
151 162 100
143 161 97
134 158 93
132 156 93
135 159 94
139 160 95
139 160 95
123 151 89
125 154 90
134 158 94
125 149 88
118 147 87
132 147 88
124 147 86
117 143 83
130 155 90
112 142 82
112 151 92
106 158 109
93 155 101
84 168 124
86 171 125
60 178 132
56 189 146
53 194 152
42 203 162
49 203 159
46 213 170
26 212 168
0 220 179
0 218 178
0 219 179
0 219 179
0 217 178
0 219 178
0 219 179
0 220 180
0 220 180
0 220 180
0 221 181
0 220 179
0 219 179
0 217 178
0 217 178
0 218 179
0 219 180
0 219 179
0 220 180
0 219 178
0 220 178
0 221 181
0 218 178
0 221 179
0 220 179
0 218 178
0 221 181
0 220 179
0 220 179
0 219 178
0 221 181
0 219 179
0 216 178
0 221 180
0 221 181
0 221 181
0 218 179
0 218 179
0 220 180
0 220 180
0 219 179
0 219 180
0 220 179
0 220 180
0 217 177
0 220 180
0 220 179
0 218 178
0 218 178
0 221 181
0 217 177
0 220 180
0 220 180
0 220 178
0 220 180
0 219 178
0 220 179
0 217 177
0 218 178
0 219 178
0 217 178
0 220 180
0 221 181
0 217 176
0 219 179
0 218 178
0 219 179
0 218 179
0 218 177
0 221 179
0 219 179
0 217 177
0 218 178
0 218 178
0 219 179
0 219 178
0 221 181
0 220 179
0 218 178
0 216 176
0 216 178
0 219 179
0 216 175
0 219 178
0 218 177
0 217 176
0 220 179
0 218 178
0 215 176
0 218 179
0 217 176
0 218 178
0 215 175
0 215 176
0 218 178
0 214 175
0 218 178
0 216 177
0 219 179
0 220 179
0 220 180
8 212 174
29 196 177
53 140 178
60 109 178
59 99 175
61 99 179
61 100 178
59 99 176
59 100 176
61 99 178
62 100 179
62 100 179
60 100 177
61 99 179
61 99 179
61 100 177
59 99 177
60 99 178
62 99 180
61 100 177
61 99 179
61 99 179
62 99 180
61 99 178
61 99 179
62 100 180
62 99 180
61 99 179
60 99 178
61 99 179
61 99 181
61 99 179
61 99 180
61 99 180
62 99 180
61 99 180
60 98 180
62 99 180
61 99 179
62 99 180
61 99 180
62 99 180
62 99 180
62 99 180
62 99 181
61 99 180
62 99 181
62 99 181
63 100 181
62 99 180
61 99 180
61 99 180
62 99 181
62 99 181
61 99 180
61 99 180
62 99 181
62 99 181
62 100 180
61 99 180
61 99 180
63 100 181
61 99 180
62 99 180
62 99 180
61 99 180
61 98 180
61 98 180
61 99 180
61 99 180
62 99 181
61 99 180
61 99 180
61 99 181
62 99 180
62 99 180
62 99 181
61 99 180
61 99 180
62 99 180
62 99 180
61 99 180
62 99 180
61 99 179
59 99 177
61 99 181
62 99 180
62 99 180
61 99 179
62 99 180
61 99 179
62 100 179
62 99 180
62 99 180
62 99 180
62 99 180
62 99 180
61 99 180
62 99 180
61 99 180
61 99 178
61 99 178
62 99 180
60 99 179
61 99 180
61 99 179
60 99 178
61 99 179
61 99 178
62 100 180
60 99 176
61 99 180
60 99 177
60 99 177
62 99 180
62 99 181
62 99 179
62 100 180
60 99 178
61 99 179
60 98 177
61 99 177
61 100 179
61 99 180
61 100 177
61 99 177
60 98 177
60 99 178
60 98 177
60 99 175
60 98 175
61 99 176
60 97 175
61 99 176
60 99 176
60 98 173
61 98 175
60 98 173
59 97 171
60 97 171
60 96 169
58 97 168
59 95 166
76 100 148
90 116 123
85 102 105
88 101 72
103 120 75
87 99 66
114 121 81
89 101 68
108 115 78
107 113 76
102 109 75
107 110 77
103 109 76
105 114 78
106 110 78
106 109 77
113 115 81
114 119 84
118 121 84
103 107 78
113 118 82
120 123 87
117 122 85
108 111 81
121 122 86
127 127 89
128 129 91
131 131 92
119 121 84
132 133 92
126 129 92
129 132 90
117 123 87
125 130 90
122 126 88
140 145 98
140 140 96
136 138 96
144 150 100
139 143 97
134 138 95
131 138 95
147 148 101
146 147 101
142 149 99
139 145 98
141 145 99
135 146 97
150 156 102
150 150 101
147 152 101
147 152 101
153 158 104
154 161 104
150 158 104
156 158 105
154 160 105
154 161 105
164 166 108
153 161 105
162 166 108
167 169 109
162 167 108
164 168 109
154 163 105
156 163 106
155 161 105
163 166 107
162 167 107
162 167 107
164 167 109
162 165 108
163 170 108
164 166 108
166 170 110
166 172 110
164 172 109
160 169 107
165 171 110
167 170 110
167 172 109
165 171 109
155 167 106
164 170 109
167 171 109
164 172 109
169 172 110
164 172 109
163 172 108
165 171 108
159 173 108
167 173 110
156 170 105
161 170 107
161 170 106
161 169 107
161 170 108
168 171 109
165 170 108
146 165 101
157 170 105
159 169 105
159 170 106
161 169 105
160 168 106
162 171 108
163 171 107
158 169 105
147 160 99
154 167 103
156 163 102
150 162 101
146 163 100
154 171 105
152 166 102
141 162 98
153 163 101
141 158 97
142 160 97
140 162 98
144 165 99
136 161 95
137 155 94
146 160 99
144 161 98
148 161 99
146 160 98
157 164 103
138 156 94
138 158 95
144 161 98
135 156 93
135 146 90
137 159 95
131 151 89
131 145 88
141 158 95
130 147 89
129 149 88
133 157 94
130 150 90
126 154 89
112 143 82
106 138 79
110 148 90
111 147 92
113 155 103
100 165 114
62 175 130
89 180 133
67 179 133
65 184 140
46 198 155
26 199 160
42 207 165
27 215 173
0 218 179
0 220 179
0 221 180
0 219 180
0 220 180
0 219 179
0 220 180
0 221 181
0 221 180
0 218 177
0 222 181
0 221 181
0 220 179
0 217 176
0 220 179
0 221 180
0 222 181
0 220 180
0 221 180
0 218 178
0 218 179
0 219 178
0 220 181
0 221 180
0 219 180
0 222 181
0 218 178
0 217 178
0 219 179
0 220 179
0 218 179
0 221 181
0 219 178
0 220 180
0 219 179
0 220 179
0 218 177
0 216 178
0 219 179
0 220 180
0 218 178
0 219 178
0 219 179
0 219 178
0 218 178
0 220 180
0 218 178
0 219 179
0 220 180
0 219 179
0 221 181
0 220 180
0 218 178
0 216 176
0 217 178
0 220 179
0 219 179
0 216 177
0 222 181
0 219 178
0 217 177
0 217 177
0 221 179
0 219 179
0 219 178
0 216 177
0 216 177
0 216 177
0 217 176
0 218 178
0 220 180
0 220 180
0 219 178
0 219 179
0 220 179
0 219 179
0 219 179
0 218 178
0 219 180
0 218 178
0 217 178
0 218 178
0 219 180
0 216 177
0 214 176
0 220 180
0 219 178
0 219 178
0 221 180
0 215 176
0 218 179
0 218 177
0 217 178
0 216 176
0 217 177
0 217 178
0 218 178
0 218 177
0 215 176
0 218 178
14 216 180
30 197 179
47 157 177
59 107 176
59 100 175
58 100 174
59 99 176
61 100 179
62 100 179
61 100 178
60 99 177
61 100 179
62 100 178
60 99 177
60 99 177
60 100 177
60 99 177
61 100 178
60 99 178
60 99 178
61 100 177
61 99 178
60 99 178
61 99 179
62 100 180
61 99 179
62 100 179
61 99 180
62 100 180
61 99 180
62 100 180
61 99 180
62 99 181
62 99 180
62 99 180
62 99 181
62 99 180
61 99 180
62 99 180
61 99 180
61 99 180
62 99 181
62 99 181
62 99 180
62 99 181
61 99 179
62 99 181
61 99 181
62 99 181
62 99 180
62 99 180
61 99 180
61 99 180
62 99 181
61 99 180
62 99 180
61 99 180
61 99 180
61 99 180
61 99 180
61 99 181
61 99 180
61 99 180
62 99 180
62 99 181
62 99 180
62 100 180
61 98 180
61 99 180
62 99 181
61 99 180
62 99 181
61 99 181
61 99 179
62 99 181
61 99 180
61 99 180
61 99 179
62 99 181
61 99 180
60 99 178
62 100 180
62 99 180
62 99 180
61 99 179
62 99 180
62 100 179
61 99 180
62 99 180
62 99 180
61 99 179
62 99 180
61 99 180
61 99 179
61 99 179
62 99 181
61 99 180
60 99 179
60 99 178
61 99 180
61 99 179
61 99 179
61 99 180
59 98 177
60 99 178
60 99 178
62 99 179
62 100 179
61 99 179
62 99 180
61 99 180
61 99 179
61 99 179
62 99 180
60 99 178
61 99 180
60 99 177
62 99 179
61 100 178
61 99 179
61 99 178
62 99 178
61 99 179
61 99 179
60 99 177
60 99 176
61 99 178
61 99 178
60 98 176
62 99 178
61 99 177
61 100 177
61 99 177
61 100 178
60 98 175
58 98 174
58 98 170
60 99 175
60 97 173
61 99 174
60 98 175
60 98 172
60 98 173
56 95 163
59 96 162
74 103 145
94 115 128
93 110 94
99 110 84
104 114 75
107 109 74
98 104 72
93 105 72
95 103 71
103 106 74
103 106 77
108 114 80
97 104 72
95 102 72
91 95 69
96 102 74
116 120 83
100 105 77
112 118 83
112 116 81
119 120 86
125 127 88
110 114 83
126 127 88
115 119 85
110 115 84
115 121 85
117 120 85
121 126 88
125 130 91
139 138 95
130 136 93
132 135 94
129 135 93
135 135 93
134 136 94
133 134 94
140 144 98
139 144 97
137 140 95
140 141 96
144 148 100
143 148 99
134 142 96
145 150 100
143 149 99
144 150 101
158 160 106
145 153 101
141 153 100
147 153 103
154 157 104
154 158 104
154 161 104
147 152 102
153 158 104
162 163 106
165 163 107
153 162 105
158 161 105
155 161 105
166 167 108
156 160 105
147 158 102
163 166 107
156 163 106
152 165 104
152 164 105
163 166 108
161 171 108
165 171 109
162 167 108
164 168 108
162 168 107
169 170 110
163 167 107
161 170 108
161 170 109
163 169 108
158 172 108
166 172 110
164 171 108
159 168 106
165 173 109
158 171 106
167 172 110
155 169 105
161 172 107
160 173 107
164 172 109
161 170 108
163 172 108
165 171 108
164 173 108
167 171 109
158 172 107
158 165 105
159 168 105
162 172 107
163 170 108
161 172 107
170 168 108
158 169 105
164 168 107
157 172 106
162 170 106
156 168 105
143 161 99
150 163 101
161 170 106
160 168 105
147 167 101
154 163 101
155 164 102
147 164 99
145 164 100
141 163 98
156 167 104
147 163 99
151 163 101
140 157 95
143 159 97
142 160 96
148 164 100
149 162 100
146 160 98
141 164 98
137 154 94
147 162 98
135 155 94
142 157 95
136 159 95
128 152 90
125 146 87
133 154 91
131 153 90
126 154 89
121 149 86
142 156 94
126 146 87
122 149 87
124 148 86
110 141 81
116 152 93
104 157 103
96 155 103
91 165 118
80 170 123
71 173 126
75 184 139
62 190 147
33 200 155
63 207 165
49 203 160
33 212 171
0 221 181
0 220 180
0 218 178
0 221 181
0 220 180
0 221 181
0 220 180
0 218 178
0 221 180
0 220 180
0 218 178
0 221 179
0 220 180
0 221 180
0 220 180
0 220 180
0 218 179
0 220 180
0 221 180
0 220 178
0 219 179
0 217 177
0 219 178
0 216 177
0 222 181
0 218 178
0 220 179
0 220 180
0 220 180
0 216 178
0 219 178
0 219 179
0 218 178
0 221 181
0 217 178
0 220 180
0 218 179
0 220 180
0 221 180
0 221 180
0 218 179
0 219 179
0 218 178
0 221 181
0 218 178
0 218 179
0 219 180
0 218 178
0 218 178
0 221 180
0 221 181
0 217 178
0 217 178
0 219 181
0 217 178
0 218 179
0 219 179
0 218 179
0 218 180
0 220 180
0 220 180
0 220 179
0 215 176
0 218 177
0 218 179
0 217 178
0 219 178
0 221 180
0 218 179
0 218 178
0 218 179
0 216 177
0 220 179
0 216 177
0 218 179
0 219 178
0 219 178
0 219 179
0 216 177
0 219 180
0 218 178
0 220 180
0 219 178
0 220 179
0 222 181
0 218 178
0 217 178
0 219 179
0 218 178
0 219 179
0 215 177
0 217 177
0 219 179
0 218 178
0 218 177
0 218 178
0 219 179
0 222 181
0 218 179
8 216 178
25 199 176
40 171 175
55 122 176
60 102 177
59 100 174
60 99 176
60 100 177
60 100 176
61 100 178
59 99 175
62 100 179
60 99 178
60 100 175
60 99 177
62 99 180
60 99 178
61 100 177
62 100 179
61 99 178
62 100 179
61 99 180
61 99 179
61 99 179
62 99 180
62 100 179
61 99 179
62 100 180
62 99 180
61 100 178
60 99 179
62 99 180
62 99 180
61 99 180
61 99 180
62 100 180
62 100 179
62 99 180
61 99 180
62 99 180
62 99 181
61 99 180
62 99 181
62 99 181
62 99 181
62 99 180
62 99 181
62 99 180
62 99 180
62 99 181
61 99 179
61 99 179
60 99 179
61 99 180
62 99 180
61 99 180
61 99 180
63 100 181
62 99 180
62 99 180
62 99 180
61 99 180
62 99 180
62 99 180
62 100 179
62 99 180
62 99 180
62 99 180
62 99 180
61 99 180
62 99 181
61 99 179
60 98 179
62 99 180
61 99 180
61 99 180
62 99 181
62 99 180
62 99 181
62 99 181
61 99 178
61 99 180
62 99 180
62 99 180
61 99 180
62 99 181
62 100 180
62 99 180
61 99 181
62 99 181
61 99 180
61 99 180
60 99 178
61 99 180
61 99 180
61 99 180
61 99 180
62 99 181
62 99 181
60 99 178
61 99 180
62 99 180
62 99 180
62 99 180
62 100 180
61 99 179
61 100 178
62 99 181
60 99 178
62 99 181
61 99 179
61 99 178
60 99 178
62 99 179
62 99 179
61 100 178
61 99 180
62 99 179
61 99 179
61 99 178
61 100 177
60 99 178
61 99 180
61 99 179
60 99 177
61 99 178
61 99 179
61 99 179
61 99 177
62 99 178
61 99 177
59 97 173
59 99 175
58 98 174
60 99 174
61 100 175
61 100 177
60 99 176
61 99 176
60 98 173
59 98 172
59 98 173
60 97 171
59 96 169
60 97 170
59 98 174
67 97 155
98 116 138
81 106 104
100 111 88
109 116 77
101 107 75
96 105 69
100 110 73
94 109 75
101 106 73
91 99 69
95 103 73
103 109 76
100 106 76
101 110 77
121 123 83
108 111 79
100 107 77
110 115 82
85 97 72
121 125 88
118 119 82
108 112 81
113 118 83
116 121 85
117 118 83
119 121 86
127 128 89
119 122 85
127 129 90
124 127 90
126 128 89
116 125 87
120 124 88
121 128 91
139 143 97
122 128 89
142 143 97
140 143 97
131 137 94
136 141 96
138 141 95
143 147 99
139 142 96
140 148 99
133 142 96
148 155 102
138 144 97
145 150 101
158 163 106
143 153 100
142 150 98
140 151 99
151 159 104
141 154 99
152 162 104
149 155 101
159 169 107
152 160 105
163 166 108
152 159 103
157 164 105
157 166 107
164 169 109
158 164 107
151 164 105
160 166 108
164 167 108
154 165 105
168 169 110
156 166 106
162 169 108
162 168 108
162 169 109
154 167 106
162 168 108
165 170 109
158 169 107
160 170 107
167 171 110
162 170 107
163 171 108
161 171 107
167 173 109
159 172 108
172 172 111
159 168 107
163 173 108
169 172 110
168 172 109
160 171 107
160 170 106
164 171 108
158 168 105
164 168 108
163 170 107
162 170 107
154 171 105
147 166 102
162 171 107
159 166 106
157 170 105
154 168 104
167 170 108
155 168 104
156 168 105
163 166 106
153 165 103
157 169 104
154 168 104
163 169 106
143 165 98
154 164 102
149 164 101
154 165 102
161 169 107
151 167 102
142 158 97
141 158 96
150 167 101
149 162 99
135 159 95
137 159 95
152 162 100
145 162 98
146 161 98
140 159 96
131 158 93
141 156 95
137 161 95
133 150 91
136 154 93
139 159 96
135 158 94
134 153 92
135 159 93
130 151 90
131 145 88
126 143 85
133 146 89
112 142 82
115 146 83
116 138 84
108 146 84
97 156 101
97 161 108
77 169 121
83 178 128
68 184 141
83 185 137
37 200 154
70 197 150
49 202 160
42 211 168
25 212 170
0 218 178
0 217 177
0 218 178
0 220 179
0 219 179
0 220 180
0 219 180
0 221 181
0 217 175
0 219 178
0 220 180
0 220 179
0 218 180
0 218 179
0 220 179
0 217 178
0 217 178
0 220 179
0 221 180
0 220 180
0 219 179
0 220 180
0 220 179
0 221 181
0 221 181
0 219 179
0 220 179
0 221 181
0 220 180
0 220 180
0 221 180
0 220 180
0 221 180
0 221 179
0 219 179
0 216 177
0 217 177
0 221 180
0 219 180
0 219 179
0 218 178
0 218 178
0 219 178
0 221 181
0 220 180
0 218 178
0 221 180
0 220 179
0 218 179
0 219 178
0 220 180
0 220 180
0 219 179
0 216 177
0 219 179
0 219 179
0 216 177
0 219 178
0 216 176
0 217 178
0 218 178
0 220 180
0 219 179
0 214 175
0 216 177
0 217 176
0 219 178
0 216 177
0 217 177
0 219 179
0 219 179
0 219 178
0 220 179
0 217 178
0 219 180
0 217 178
0 219 178
0 219 179
0 217 177
0 217 177
0 219 179
0 219 179
0 220 180
0 221 180
0 220 180
0 219 179
0 219 178
0 218 178
0 218 178
0 215 176
0 215 176
0 218 178
0 220 180
0 218 177
0 218 178
0 220 179
0 218 178
0 220 180
0 218 177
21 207 177
37 187 178
49 143 175
59 101 176
59 99 175
60 99 177
59 99 177
58 100 175
61 100 177
60 100 176
61 100 178
60 100 176
62 100 179
61 100 178
62 100 179
60 99 178
60 100 177
61 100 177
61 100 178
62 100 180
61 99 178
62 99 180
61 100 178
61 99 179
61 100 179
62 99 180
61 99 179
62 99 180
60 99 178
61 99 179
62 99 180
61 99 179
61 99 179
61 99 180
61 99 180
61 99 179
61 99 179
61 99 180
61 99 179
61 99 179
61 99 179
62 100 179
60 99 179
63 100 181
62 99 180
61 99 180
62 99 180
62 99 181
62 99 180
61 99 180
62 100 180
61 99 179
62 99 180
62 99 181
62 99 180
62 99 180
61 99 180
62 99 180
62 99 181
62 99 180
61 99 179
61 99 180
62 99 181
61 99 178
62 99 181
62 99 181
63 100 181
61 99 180
60 99 179
60 99 179
62 99 180
63 100 181
62 99 180
61 99 179
61 99 180
61 99 179
61 99 180
61 99 180
62 99 181
60 99 179
62 99 180
62 99 181
62 99 181
62 99 180
62 99 181
61 99 180
62 99 180
61 99 180
62 99 180
61 99 180
61 99 180
62 99 181
62 99 181
62 99 180
61 99 179
61 99 179
62 100 180
62 99 180
62 99 181
62 99 181
61 99 180
61 99 179
61 99 179
61 99 179
60 98 179
60 99 178
63 100 181
61 99 178
61 99 180
62 99 179
60 99 178
61 99 179
61 99 179
60 99 178
62 99 179
60 99 178
58 99 175
60 99 179
61 100 178
61 99 180
60 99 178
61 99 177
62 100 179
61 99 177
61 100 178
61 98 178
61 99 179
61 100 178
60 99 178
61 99 175
59 98 176
60 99 177
59 99 177
60 99 176
61 99 176
61 99 177
60 98 175
61 99 177
59 97 173
61 99 176
59 97 169
61 99 176
60 98 174
58 97 170
58 98 172
59 98 172
58 95 169
64 94 152
72 94 128
80 95 92
102 114 86
99 109 79
103 104 70
97 109 75
103 104 73
100 106 72
91 101 68
96 103 72
97 103 73
103 107 77
105 111 78
99 103 75
104 109 76
95 103 72
102 108 80
125 126 87
114 117 81
116 118 85
105 109 78
109 113 80
100 108 79
105 110 79
125 125 88
123 128 87
118 120 86
112 119 84
122 126 89
128 129 88
120 125 87
120 130 89
128 134 92
130 135 93
137 141 97
128 133 91
139 142 97
130 133 90
137 142 96
146 148 99
136 146 94
137 142 97
130 138 94
141 145 99
146 154 102
151 156 104
141 149 98
140 149 99
146 155 102
154 161 105
151 154 102
156 161 106
152 158 103
149 162 104
154 160 102
155 161 105
150 161 104
159 162 105
156 162 106
164 167 108
158 164 107
162 169 109
159 162 106
147 161 102
160 166 108
160 167 107
157 168 106
152 163 105
165 171 109
165 168 108
163 171 108
164 171 109
172 169 111
164 171 109
165 170 108
162 170 108
160 169 107
163 170 108
162 174 108
153 169 105
156 170 106
166 171 109
165 172 110
159 169 107
168 171 109
170 173 110
162 171 108
166 170 109
160 169 106
167 171 109
159 172 107
162 173 108
163 173 108
159 168 106
155 170 105
159 166 105
165 172 108
157 169 105
148 165 102
167 172 109
165 170 108
149 162 100
157 167 105
145 169 102
153 163 102
152 167 103
149 168 102
152 168 103
154 163 101
146 164 100
157 166 104
144 161 98
132 159 95
153 166 103
144 159 97
154 164 101
145 160 98
137 160 96
154 167 103
133 158 94
137 159 95
133 160 94
149 165 101
139 154 94
139 159 96
138 157 95
126 153 90
144 158 96
136 158 94
131 153 91
137 154 93
129 155 91
124 159 91
132 148 89
125 149 88
115 148 85
125 152 88
125 154 89
110 139 80
128 149 89
116 141 81
110 148 91
87 141 89
110 165 109
90 172 123
99 178 128
79 180 135
66 188 143
56 186 143
59 195 153
42 201 159
32 204 163
28 212 172
0 220 179
0 221 179
0 219 179
0 219 179
0 221 181
0 217 177
0 222 181
0 218 179
0 220 179
0 218 178
0 217 178
0 221 181
0 218 177
0 221 179
0 219 179
0 219 178
0 220 180
0 222 181
0 220 180
0 220 179
0 216 178
0 222 181
0 217 178
0 218 179
0 219 179
0 219 179
0 217 178
0 218 178
0 218 178
0 219 178
0 221 181
0 222 181
0 217 178
0 218 178
0 219 178
0 219 178
0 219 177
0 220 179
0 221 180
0 220 181
0 216 177
0 221 179
0 220 179
0 220 180
0 218 179
0 218 178
0 220 180
0 219 179
0 219 178
0 218 178
0 217 178
0 218 178
0 218 178
0 221 180
0 216 175
0 220 180
0 219 179
0 219 179
0 217 178
0 215 177
0 218 179
0 219 179
0 218 178
0 220 179
0 217 177
0 221 181
0 220 181
0 218 178
0 220 180
0 217 178
0 219 179
0 219 179
0 219 179
0 219 179
0 218 178
0 217 178
0 221 180
0 220 178
0 217 178
0 215 177
0 215 175
0 218 179
0 216 176
0 217 177
0 218 177
0 218 177
0 221 181
0 219 179
0 219 178
0 219 179
0 220 180
0 215 176
0 216 178
0 217 177
0 212 174
0 219 180
0 219 179
0 219 179
8 219 180
32 189 178
42 164 174
58 103 174
58 100 174
60 100 176
61 100 178
59 99 176
59 99 176
60 99 178
61 100 178
60 100 176
60 99 178
61 100 178
61 99 178
62 100 179
61 99 178
60 100 177
61 100 178
61 100 178
61 99 179
62 99 180
60 99 178
61 99 179
62 99 180
61 99 180
61 99 179
60 99 178
61 99 180
61 99 179
61 99 180
62 99 180
62 100 179
62 100 179
62 99 180
62 100 180
62 100 180
62 100 180
61 99 179
62 99 181
62 99 181
62 99 180
61 99 180
62 99 180
62 99 180
61 99 180
61 99 180
61 99 180
62 99 180
60 99 178
61 99 180
62 99 181
61 99 180
62 99 181
62 99 180
61 99 179
61 99 180
61 99 181
61 99 179
61 99 180
61 99 180
62 99 180
61 99 180
62 99 181
62 99 181
62 99 180
62 99 181
62 99 180
61 99 179
62 99 180
61 99 180
62 100 179
61 99 180
62 99 180
61 99 180
62 99 181
60 99 178
62 99 180
62 99 180
62 99 180
60 99 179
61 99 179
62 99 180
61 99 180
62 99 180
61 99 180
62 99 180
62 99 181
61 99 179
62 100 180
61 99 180
62 99 181
62 99 180
62 99 180
62 99 181
61 99 180
62 99 180
62 99 180
61 99 179
61 99 179
62 99 181
61 99 181
60 99 179
62 99 180
62 99 180
61 99 180
62 100 180
60 99 178
60 99 179
61 99 178
61 99 179
61 100 179
61 99 180
61 99 178
61 99 179
62 99 180
61 100 179
62 99 180
61 99 178
61 99 178
61 99 176
61 99 178
62 100 180
60 99 177
60 99 176
61 99 177
61 99 179
60 99 178
59 99 177
60 99 177
61 100 179
60 99 176
61 99 179
61 99 175
59 98 174
59 98 174
60 99 175
58 97 172
61 99 177
60 98 172
61 98 176
60 97 171
61 98 174
60 99 174
60 98 174
61 97 175
58 97 170
59 97 169
60 96 165
76 101 146
84 103 122
103 112 98
89 101 79
96 103 70
87 100 67
93 100 70
102 111 77
88 99 69
93 105 73
102 107 74
86 94 66
85 96 67
98 102 72
117 119 81
101 103 73
105 106 75
109 115 82
104 107 78
93 98 73
103 108 77
106 114 82
117 119 85
113 115 82
116 121 85
122 125 89
120 126 87
120 125 86
119 124 86
127 128 89
125 132 91
129 133 92
134 136 95
124 134 92
129 137 94
133 141 95
139 146 97
139 146 97
131 138 93
140 147 98
134 142 94
154 158 104
137 144 96
130 145 95
144 151 100
136 144 96
147 153 100
151 157 103
146 151 100
153 154 102
153 160 105
155 158 105
162 164 107
145 159 102
153 160 104
153 161 104
158 160 105
155 161 105
153 164 105
160 167 107
162 164 107
157 165 106
158 165 106
156 166 105
159 167 107
154 165 105
153 165 104
152 166 105
161 167 107
159 168 107
161 171 108
156 170 107
163 169 108
162 168 108
165 169 108
161 167 107
154 168 105
160 169 107
155 171 105
164 171 109
154 170 104
161 173 108
159 170 107
163 172 108
159 170 105
156 169 105
163 170 107
161 170 107
161 172 106
158 168 106
154 170 105
162 170 107
160 168 106
164 173 108
160 171 106
163 170 108
164 172 108
153 168 104
153 170 104
163 172 106
156 168 104
165 172 108
149 169 103
151 171 104
152 166 102
153 166 103
151 167 103
150 166 101
154 167 103
143 160 98
150 167 102
149 164 101
146 166 100
140 166 98
149 167 101
141 163 97
144 162 98
151 165 102
149 166 101
149 163 99
133 158 94
140 163 98
142 162 97
141 157 96
140 158 95
132 156 93
135 160 95
137 158 94
120 158 90
136 149 91
131 151 89
135 155 92
142 159 96
137 157 93
125 154 89
128 151 89
123 148 87
115 148 85
124 154 88
111 146 83
113 149 85
105 141 85
102 160 104
100 161 111
94 165 117
87 181 135
62 181 132
59 178 132
36 200 157
53 201 154
45 197 156
46 204 163
18 208 164
0 219 180
0 219 179
0 219 178
0 220 180
0 220 179
0 221 181
0 216 177
0 218 178
0 221 181
0 218 178
0 220 180
0 219 179
0 216 177
0 218 179
0 219 180
0 219 179
0 219 178
0 220 179
0 219 179
0 218 179
0 219 179
0 219 178
0 219 179
0 219 179
0 221 181
0 220 180
0 218 179
0 217 178
0 221 181
0 222 181
0 220 181
0 219 179
0 219 179
0 218 179
0 215 177
0 219 180
0 221 181
0 219 179
0 218 179
0 219 180
0 220 179
0 220 179
0 220 181
0 219 179
0 221 181
0 218 178
0 219 179
0 219 179
0 218 178
0 219 179
0 219 178
0 216 176
0 216 177
0 219 180
0 220 179
0 218 177
0 215 176
0 219 179
0 218 178
0 218 178
0 219 179
0 216 176
0 218 178
0 218 178
0 219 179
0 218 177
0 218 178
0 219 179
0 217 177
0 218 178
0 215 176
0 221 179
0 217 178
0 218 179
0 219 179
0 219 179
0 215 175
0 218 178
0 218 179
0 217 177
0 219 179
0 219 179
0 219 179
0 219 178
0 220 180
0 217 177
0 216 174
0 218 178
0 219 179
0 216 177
0 215 176
0 219 178
0 217 178
0 214 175
0 219 179
0 216 176
0 219 179
5 215 176
21 207 179
44 160 174
56 114 175
60 100 177
61 100 177
61 100 177
60 99 177
59 99 175
59 100 176
60 99 177
60 100 176
60 100 177
60 99 177
60 99 177
61 100 177
61 100 178
60 99 178
60 99 176
59 99 176
61 100 178
60 100 177
60 99 177
62 100 180
62 100 179
61 100 179
61 99 179
61 99 179
61 100 179
61 99 180
61 99 179
62 99 180
62 100 180
61 99 178
62 99 180
62 99 180
61 99 180
62 100 179
62 99 180
61 99 180
62 100 180
61 99 180
62 99 180
61 99 179
62 99 181
61 99 179
62 99 180
62 99 181
61 99 180
62 99 181
62 99 180
61 99 180
62 99 180
62 99 180
62 99 180
62 99 180
61 99 180
61 99 179
62 99 180
61 99 180
61 99 179
61 99 180
62 99 180
61 99 180
62 99 180
61 99 180
62 99 181
62 99 180
61 99 180
62 99 180
62 99 181
62 99 180
62 99 180
62 99 180
61 99 179
62 99 181
61 99 179
61 99 179
62 99 180
61 99 180
61 99 179
62 99 181
62 99 180
63 100 181
62 99 181
62 99 181
62 99 180
62 99 180
61 99 180
62 100 180
61 99 179
62 99 180
62 99 180
62 100 180
61 99 179
62 99 181
61 99 180
62 99 181
62 99 180
60 99 178
60 99 179
62 99 181
62 100 179
61 99 179
62 100 179
60 99 179
61 99 179
61 99 180
62 99 180
62 100 180
61 99 179
62 100 179
61 99 178
61 99 178
60 99 177
62 99 180
61 99 177
60 99 178
61 99 179
61 99 179
60 99 178
60 99 177
60 99 176
61 99 178
62 99 179
59 100 175
61 99 176
61 100 178
61 99 176
61 99 178
60 98 177
61 100 179
61 99 179
61 99 177
59 98 176
59 99 174
59 99 175
61 98 176
61 98 177
61 99 176
61 99 176
58 96 168
61 99 175
59 97 172
59 97 173
60 98 174
58 97 169
58 96 169
61 97 173
59 97 169
62 95 157
69 91 130
80 102 109
87 100 96
80 92 66
90 94 66
88 100 69
88 97 66
86 97 66
89 95 66
86 90 68
96 102 73
93 100 70
89 95 68
102 105 76
107 111 80
108 115 81
94 101 73
113 117 83
107 113 79
102 105 77
110 117 82
104 107 78
118 121 83
128 129 92
118 122 83
124 126 90
127 130 89
119 124 88
116 120 84
132 134 93
122 130 89
124 131 89
138 144 96
131 134 92
140 142 95
135 139 96
131 136 95
137 142 97
130 143 97
137 141 97
134 140 95
147 152 100
139 142 96
140 148 98
150 154 101
135 148 97
145 155 99
145 150 100
146 152 100
135 148 98
147 154 102
146 157 101
152 157 104
150 160 103
151 161 103
159 163 107
151 160 103
149 158 103
155 162 105
144 160 102
154 162 105
152 164 105
158 164 106
159 167 107
160 166 106
161 168 107
153 168 105
156 168 106
171 172 111
160 170 107
166 173 110
161 170 107
152 168 104
165 170 108
169 173 110
158 170 106
163 168 108
163 172 109
163 171 108
158 172 107
164 169 107
160 167 107
159 172 107
156 171 105
166 170 109
159 170 106
163 173 108
162 171 107
166 171 107
163 173 108
160 171 106
157 171 105
163 170 107
157 172 105
159 169 107
156 170 105
161 167 105
158 171 106
165 172 108
157 169 105
161 169 105
149 169 103
163 170 107
155 169 103
154 168 103
156 167 103
149 168 102
154 168 103
147 163 100
138 162 97
160 168 105
150 170 102
140 161 97
155 163 102
147 164 99
157 165 102
148 161 98
152 165 101
146 164 100
165 168 106
146 162 99
137 162 96
146 164 99
140 161 97
134 153 93
134 160 95
147 162 99
140 158 95
147 160 98
138 156 93
135 154 91
127 152 89
126 151 89
132 151 90
128 150 88
115 153 87
116 151 86
103 139 78
117 134 79
116 142 82
123 150 90
94 160 103
91 160 105
90 162 113
83 171 123
86 172 124
53 186 144
71 195 149
56 197 155
25 206 162
17 205 165
25 213 171
0 218 178
0 220 179
0 221 180
0 220 179
0 220 179
0 220 180
0 220 179
0 221 181
0 220 180
0 219 178
0 220 180
0 218 178
0 222 181
0 219 179
0 220 179
0 218 180
0 221 180
0 219 179
0 220 179
0 219 179
0 220 179
0 221 181
0 220 180
0 218 179
0 216 177
0 219 179
0 219 179
0 220 179
0 220 179
0 217 178
0 219 179
0 221 180
0 217 178
0 215 176
0 221 180
0 215 176
0 218 179
0 218 178
0 215 178
0 221 180
0 219 179
0 221 180
0 219 178
0 219 179
0 216 178
0 219 179
0 221 181
0 221 181
0 218 179
0 217 178
0 217 178
0 217 177
0 220 180
0 219 178
0 220 179
0 220 178
0 220 180
0 212 173
0 217 177
0 219 179
0 214 175
0 218 179
0 218 178
0 220 179
0 219 179
0 220 179
0 218 178
0 217 177
0 218 178
0 218 178
0 218 178
0 218 178
0 217 177
0 217 177
0 218 179
0 218 177
0 217 178
0 217 178
0 217 176
0 217 177
0 219 179
0 217 178
0 217 177
0 218 177
0 218 179
0 215 176
0 219 178
0 216 178
0 221 179
0 219 179
0 217 176
0 215 176
0 220 180
0 215 176
0 217 178
0 218 178
0 218 179
26 200 176
38 176 176
48 145 174
59 100 175
57 100 173
61 100 177
61 100 177
59 100 175
60 100 176
61 100 179
59 99 176
60 100 176
60 99 177
59 99 176
61 99 178
60 99 178
62 100 179
61 100 179
61 99 179
60 99 178
60 99 177
60 99 179
62 100 179
61 99 178
60 99 177
61 99 179
61 99 178
62 100 180
62 99 180
61 99 179
61 99 179
62 100 179
61 99 179
61 99 180
61 99 178
62 99 180
62 100 179
60 99 177
61 99 179
61 99 179
61 99 181
61 99 180
61 99 180
61 99 180
62 99 181
62 99 180
62 99 180
62 99 180
61 99 180
62 99 180
62 99 181
62 100 179
62 99 180
62 99 181
62 100 180
62 99 180
62 99 180
62 100 180
62 99 180
61 99 180
62 99 180
62 100 180
61 99 179
61 99 179
61 99 180
61 99 180
61 99 180
62 99 181
62 99 180
61 99 180
62 100 179
62 99 180
62 99 180
62 99 180
61 99 180
61 99 180
62 99 180
61 99 179
62 99 180
62 99 180
61 99 178
62 99 181
62 99 180
60 99 178
60 98 178
62 99 180
61 99 179
61 99 179
61 99 179
61 99 179
63 100 180
61 99 180
61 99 179
62 99 181
62 100 180
62 99 180
60 99 178
60 99 178
61 99 180
61 99 180
61 100 178
61 99 178
62 99 180
61 99 179
60 99 178
60 99 178
61 99 179
61 99 180
61 99 179
60 99 178
61 99 179
60 99 177
62 99 181
61 99 180
61 99 179
62 99 179
61 99 179
61 99 179
60 99 176
62 100 180
61 99 178
60 98 176
61 99 179
59 99 177
61 98 178
62 100 180
60 99 177
60 99 177
60 98 177
62 100 179
60 100 177
62 100 178
59 99 176
61 98 176
61 99 176
60 99 174
60 99 176
61 99 177
62 99 177
61 99 175
61 99 176
60 99 174
57 98 170
58 98 169
59 97 170
60 99 175
59 97 168
59 97 170
58 97 168
60 98 170
59 96 169
73 100 153
78 96 129
81 96 102
67 88 75
85 93 64
93 98 69
96 102 70
98 103 73
91 98 69
85 95 66
70 80 61
83 90 64
85 92 67
94 97 70
90 93 69
88 91 68
103 107 76
101 108 80
86 96 71
114 119 83
96 102 74
103 109 77
107 114 79
116 119 84
117 125 88
110 118 82
128 133 91
123 129 88
118 124 87
125 135 92
123 126 87
124 131 90
135 139 95
124 130 90
121 130 88
135 144 97
136 142 97
137 141 96
139 148 98
144 146 97
134 147 96
136 144 95
127 137 92
142 148 98
152 155 102
148 156 101
140 149 98
147 150 99
144 153 100
150 161 103
136 150 98
146 156 101
152 160 103
141 158 101
151 155 101
153 163 105
148 159 102
155 162 105
156 163 105
154 162 105
149 164 103
159 168 107
156 165 105
159 167 107
154 168 106
147 165 103
157 167 106
157 164 106
159 167 107
161 169 108
160 170 107
165 170 108
155 168 106
166 170 108
157 167 106
157 172 106
156 172 106
158 171 107
160 170 107
154 170 106
163 173 109
157 170 106
161 173 107
157 174 107
158 169 105
167 172 110
162 174 108
157 172 107
165 172 107
158 170 106
160 172 107
153 172 105
154 168 104
161 173 107
162 170 106
165 171 108
154 169 104
159 170 105
166 173 108
159 166 105
153 169 104
149 170 103
151 166 101
159 169 105
147 166 101
153 166 103
150 166 102
157 171 104
150 164 101
156 168 103
159 165 104
143 166 100
157 171 106
150 166 100
145 160 99
154 166 103
145 167 99
139 158 95
139 158 96
142 161 97
138 155 94
142 161 97
133 154 93
134 157 94
139 153 93
139 165 97
136 154 93
140 161 96
147 163 99
125 153 89
147 164 99
121 152 88
121 160 90
126 151 89
124 150 87
126 146 86
118 146 84
114 140 81
105 142 80
115 151 85
116 152 89
112 160 104
84 151 104
78 163 117
76 181 136
82 184 139
70 183 136
56 199 152
57 195 150
26 204 164
19 209 166
32 215 173
0 221 180
0 222 181
0 220 179
0 219 179
0 220 179
0 217 176
0 220 179
0 220 180
0 216 178
0 219 179
0 218 179
0 219 179
0 220 180
0 221 180
0 220 178
0 219 178
0 220 180
0 220 179
0 219 180
0 220 179
0 220 180
0 221 181
0 222 181
0 221 180
0 217 178
0 220 180
0 217 177
0 218 179
0 222 181
0 218 177
0 220 180
0 219 178
0 219 179
0 217 178
0 220 180
0 218 178
0 219 180
0 220 178
0 218 179
0 216 178
0 219 179
0 218 178
0 218 179
0 219 179
0 218 178
0 220 179
0 217 176
0 218 178
0 218 178
0 218 178
0 218 178
0 220 180
0 216 177
0 219 178
0 217 178
0 220 180
0 219 179
0 220 180
0 218 179
0 219 179
0 217 178
0 219 179
0 219 180
0 218 178
0 221 180
0 219 179
0 219 179
0 219 179
0 218 179
0 219 179
0 217 176
0 215 176
0 216 175
0 219 179
0 214 174
0 215 175
0 216 178
0 217 176
0 218 177
0 219 179
0 217 178
0 219 178
0 219 177
0 219 179
0 217 178
0 216 177
0 220 179
0 221 180
0 219 179
0 218 177
0 216 176
0 219 178
0 218 179
0 218 178
0 221 181
0 218 179
14 213 178
33 192 179
45 155 174
60 106 176
60 100 176
61 100 176
59 100 173
59 100 175
61 99 177
59 99 176
60 100 176
62 100 178
60 100 177
60 100 177
62 99 180
60 100 176
60 100 176
60 100 176
61 99 179
60 99 177
62 100 180
61 100 179
61 99 178
61 99 179
62 100 179
62 100 180
61 100 178
60 99 178
61 99 178
61 99 180
60 99 177
62 100 180
61 99 179
63 100 181
62 99 180
62 99 180
61 99 179
62 99 180
62 100 180
61 99 179
61 99 179
61 99 180
61 99 179
62 100 180
61 99 179
62 100 179
61 99 180
61 99 179
62 99 180
61 99 179
62 99 180
63 100 181
61 99 179
62 100 180
62 100 180
62 99 180
62 99 180
62 99 180
62 99 180
62 99 180
62 100 179
62 99 181
61 99 179
61 99 180
61 99 180
62 99 180
62 99 180
61 99 179
62 99 181
62 100 180
62 99 180
62 99 180
62 99 181
61 99 180
61 99 179
61 99 179
60 99 178
61 99 180
62 100 180
62 99 181
61 99 180
62 99 181
61 99 179
62 99 181
61 99 179
62 99 180
61 99 179
62 100 181
63 100 181
61 99 180
62 99 180
61 100 178
61 99 180
62 99 181
62 99 180
61 100 179
62 99 180
61 99 179
61 99 179
61 100 179
62 99 180
61 99 180
62 99 180
62 100 180
62 100 179
62 100 179
62 100 179
61 99 179
61 99 179
60 99 179
61 99 178
61 99 179
61 99 178
62 100 179
61 99 178
61 99 179
62 100 180
61 99 179
60 99 178
62 100 179
60 99 177
60 99 176
61 99 178
61 99 179
61 99 178
61 100 176
63 100 180
60 99 177
60 98 177
61 99 178
60 100 177
60 99 178
61 99 176
60 99 176
59 99 173
60 99 177
60 99 177
60 99 176
59 99 175
59 99 173
61 98 175
61 99 176
61 99 175
59 99 174
59 97 172
59 99 175
60 99 174
60 98 171
60 97 171
61 99 175
58 98 169
58 97 165
65 98 165
72 99 147
69 91 110
72 87 93
88 99 68
86 94 67
84 90 64
86 90 66
91 97 67
87 93 64
89 94 69
89 94 70
97 98 68
84 90 68
94 105 72
100 104 76
94 101 73
99 103 73
101 107 76
96 100 73
96 104 77
92 99 74
90 101 73
111 118 85
118 123 87
110 114 81
122 127 87
117 123 85
110 121 84
120 126 87
131 135 93
127 136 92
130 136 92
121 132 89
125 131 89
130 137 94
133 140 94
126 135 90
137 143 97
131 138 93
139 146 98
135 144 96
145 150 100
138 152 99
134 143 94
146 151 101
152 155 102
142 152 99
138 150 98
151 158 101
142 149 98
144 158 101
142 159 101
149 161 103
153 157 104
151 157 103
151 161 103
156 163 105
147 162 102
151 163 103
154 161 104
149 167 104
156 164 106
157 165 106
150 166 104
152 167 104
154 164 105
158 166 106
160 170 107
148 171 103
158 167 107
156 168 106
160 169 107
150 166 104
159 170 107
156 170 106
154 172 106
159 168 106
161 171 109
168 173 109
161 170 107
163 170 107
156 171 107
152 167 105
151 169 104
162 173 108
161 171 106
161 169 106
163 167 106
154 170 105
160 170 107
157 173 105
156 172 105
151 170 104
154 168 104
149 170 104
149 168 102
157 169 105
156 170 104
153 172 104
154 166 103
148 166 100
153 166 103
148 166 102
150 168 102
141 160 98
145 166 100
146 163 99
149 165 101
149 163 100
154 162 101
138 166 99
137 160 97
152 168 103
145 164 99
146 164 99
137 162 96
144 161 99
148 161 98
149 166 100
143 162 97
142 158 97
147 159 97
139 155 94
143 162 98
146 159 97
139 155 94
130 158 93
137 152 92
131 153 90
131 154 91
116 139 81
118 151 86
126 153 89
120 150 86
128 153 90
123 149 86
123 153 88
120 146 85
116 147 87
101 146 83
101 149 93
95 162 109
77 164 117
79 180 131
79 178 128
66 184 138
73 188 142
49 197 156
43 199 156
27 211 169
31 211 167
0 219 179
0 219 178
0 219 180
0 218 179
0 222 180
0 219 179
0 217 176
0 219 179
0 221 181
0 219 179
0 216 178
0 221 180
0 218 178
0 217 178
0 219 179
0 221 181
0 216 178
0 219 177
0 219 178
0 221 180
0 217 178
0 219 179
0 219 178
0 220 180
0 219 178
0 220 181
0 221 180
0 220 179
0 220 180
0 220 179
0 220 180
0 219 179
0 219 179
0 220 179
0 215 175
0 219 179
0 220 180
0 217 177
0 219 178
0 220 179
0 220 180
0 220 179
0 219 179
0 219 179
0 219 178
0 218 178
0 220 180
0 218 178
0 217 178
0 218 178
0 217 178
0 218 178
0 216 177
0 218 179
0 219 179
0 219 178
0 215 175
0 221 180
0 217 177
0 220 180
0 219 178
0 218 178
0 218 179
0 219 178
0 218 178
0 218 177
0 220 180
0 216 177
0 220 179
0 217 178
0 218 176
0 220 179
0 217 178
0 218 178
0 219 179
0 218 179
0 219 178
0 219 178
0 221 181
0 217 178
0 215 174
0 219 176
0 215 176
0 217 178
0 215 175
0 217 177
0 215 176
0 219 179
0 218 179
0 216 176
0 219 179
0 213 174
0 218 177
0 216 176
0 219 179
6 217 179
29 198 177
39 173 174
55 118 174
60 99 176
58 100 172
60 100 176
60 100 176
61 100 177
58 99 174
60 99 177
60 100 175
61 100 176
61 99 179
61 100 178
60 100 177
62 100 180
61 99 178
60 99 177
60 100 176
62 99 180
60 100 177
62 100 180
60 99 178
60 99 178
62 100 180
61 99 180
62 99 181
60 99 178
60 99 178
61 100 178
60 99 178
61 99 179
61 99 179
61 99 179
61 100 178
61 99 179
61 99 179
62 100 180
62 99 181
61 99 179
62 100 180
62 99 180
62 100 180
62 99 180
61 99 179
61 99 179
61 99 179
61 99 179
62 99 180
62 99 180
62 99 180
62 99 180
62 99 181
62 99 180
61 99 180
60 99 179
62 100 180
62 100 180
62 99 180
62 99 181
61 99 179
62 100 179
61 99 180
61 99 180
61 99 180
62 99 180
60 99 179
61 99 179
61 99 180
61 99 180
61 99 179
61 99 180
62 100 180
62 99 179
62 100 179
61 99 180
61 99 179
62 99 180
61 99 180
62 100 179
62 99 180
61 99 179
61 99 180
61 99 180
61 99 179
61 99 178
60 99 178
61 99 178
61 99 180
61 99 178
61 99 179
63 100 181
62 99 180
61 99 179
61 99 180
61 99 179
61 99 178
62 99 180
61 99 178
60 99 179
61 99 179
61 99 179
61 99 180
62 99 180
61 99 179
60 99 178
60 99 177
61 99 180
61 99 179
61 99 179
62 100 180
61 99 179
60 99 177
61 99 179
61 99 179
60 99 178
63 100 179
62 99 178
62 99 180
60 99 178
61 99 178
60 99 177
60 99 177
61 99 178
61 99 179
60 99 178
61 99 178
62 99 178
61 99 178
60 99 177
62 99 180
60 99 176
62 100 179
61 99 179
61 99 177
60 99 176
59 99 175
58 99 175
60 99 177
60 98 174
60 99 176
59 98 172
61 99 175
59 97 171
60 99 175
61 99 175
59 97 170
59 97 170
58 98 170
60 99 172
59 99 173
58 97 167
57 95 166
66 98 159
75 99 141
83 94 106
96 102 75
85 91 71
90 94 65
87 96 67
85 90 64
90 96 68
89 94 68
92 97 69
69 78 58
105 110 75
87 93 69
86 92 69
93 97 72
100 105 76
112 116 81
112 115 81
88 93 72
93 101 76
114 116 80
89 99 75
109 115 80
105 111 80
114 119 85
108 114 82
122 132 90
128 133 91
124 131 89
124 128 87
124 134 90
121 131 88
131 137 91
124 132 89
123 135 91
135 141 94
119 136 90
128 137 93
125 137 92
134 141 95
132 145 94
141 146 99
145 151 99
142 150 99
143 153 100
148 156 102
133 147 97
129 146 95
147 152 102
141 154 99
146 159 101
149 156 101
150 162 102
153 163 104
154 161 104
156 161 104
156 162 104
148 160 102
148 160 101
149 156 102
156 167 106
155 164 105
155 164 104
158 167 106
152 164 104
149 168 104
154 165 105
151 165 103
162 170 108
158 166 105
155 167 104
158 168 106
171 172 110
162 172 107
153 169 105
159 172 107
159 169 106
167 172 109
154 172 106
165 172 108
161 170 106
157 171 106
163 173 108
156 171 105
157 169 105
171 171 109
158 174 107
147 170 102
158 171 105
160 172 107
157 170 105
159 172 106
157 170 105
156 171 105
157 171 105
147 166 100
151 168 103
155 169 103
146 168 102
151 164 101
147 167 100
150 170 103
161 167 104
155 170 104
141 162 97
155 167 103
143 164 99
153 171 104
158 169 105
135 166 97
146 165 100
141 159 96
150 168 102
133 159 95
146 166 100
147 164 100
144 157 95
150 163 100
146 157 96
149 160 98
136 162 95
133 159 94
137 160 94
133 153 92
130 156 93
129 154 91
118 151 86
135 159 94
123 150 87
127 152 90
126 156 90
123 148 86
115 139 81
117 144 84
108 148 82
105 142 79
119 144 84
101 137 77
106 146 87
95 162 104
92 158 107
80 166 112
96 178 129
67 183 134
63 190 144
52 191 148
27 201 161
28 208 165
19 208 165
0 214 172
0 221 181
0 219 179
0 220 180
0 218 179
0 219 179
0 219 179
0 218 179
0 219 179
0 221 180
0 218 179
0 220 180
0 219 180
0 218 179
0 217 178
0 218 178
0 219 180
0 219 179
0 217 178
0 219 179
0 220 179
0 218 178
0 218 178
0 218 179
0 218 178
0 219 179
0 218 178
0 217 178
0 221 180
0 218 178
0 219 178
0 218 178
0 217 177
0 218 179
0 218 178
0 220 180
0 222 181
0 220 180
0 217 178
0 218 177
0 218 178
0 218 178
0 217 178
0 217 177
0 220 181
0 216 178
0 218 179
0 218 178
0 221 179
0 217 177
0 221 181
0 218 178
0 214 175
0 217 177
0 217 177
0 219 179
0 218 179
0 219 178
0 219 180
0 217 178
0 218 176
0 219 179
0 218 179
0 220 181
0 217 177
0 221 181
0 218 178
0 217 177
0 220 181
0 218 178
0 218 178
0 219 178
0 217 178
0 216 177
0 215 176
0 217 177
0 217 178
0 219 178
0 216 175
0 220 181
0 218 177
0 218 177
0 217 177
0 218 179
0 218 178
0 214 174
0 218 178
0 216 176
0 218 177
0 216 177
0 217 177
0 215 175
0 219 179
0 217 178
0 219 179
0 219 179
16 209 175
34 184 176
49 143 175
57 99 172
58 100 174
58 100 174
60 99 177
59 100 175
62 100 179
59 100 175
61 100 177
61 100 177
58 100 174
60 99 178
60 100 176
59 99 176
60 99 177
60 99 178
60 100 177
62 99 180
61 100 177
61 100 178
61 99 178
63 100 180
62 100 178
61 99 178
61 100 178
60 99 178
61 100 178
62 100 180
62 100 180
61 99 179
59 99 177
61 99 179
61 100 179
61 99 179
61 99 180
61 99 179
61 99 179
61 99 180
62 99 180
61 99 179
62 99 180
61 100 178
62 99 179
62 99 180
62 100 179
62 99 180
61 99 180
61 99 180
62 99 181
62 99 180
62 99 180
61 99 179
62 100 180
62 99 180
61 99 180
62 100 180
62 99 180
62 99 181
61 99 179
61 99 179
61 99 180
63 100 180
62 99 180
61 99 180
62 100 179
62 100 180
61 100 178
60 99 179
61 99 179
62 100 180
62 99 180
61 99 180
63 100 180
62 99 180
60 99 178
61 99 179
61 99 179
62 99 181
61 99 180
62 99 180
61 99 179
61 99 179
61 99 180
61 99 179
62 99 180
60 99 179
62 100 180
62 99 180
61 99 180
62 99 180
62 99 180
61 99 179
61 99 179
62 100 179
59 99 177
62 100 179
61 99 179
61 99 179
61 99 179
61 100 178
61 99 179
59 99 177
62 99 179
62 100 180
61 99 178
60 99 177
61 99 180
61 99 180
59 99 177
62 99 181
61 99 179
60 99 177
61 99 179
62 100 179
60 99 177
61 100 178
61 100 179
61 99 178
61 99 180
61 100 179
59 98 176
61 99 179
60 99 177
57 99 174
61 100 179
60 99 178
60 99 178
60 99 178
62 99 178
59 99 175
59 99 175
61 99 178
60 100 176
59 100 175
60 100 176
60 99 176
61 98 176
60 99 175
60 98 175
60 98 174
60 99 174
58 99 172
59 99 174
59 99 172
58 98 170
58 98 171
60 98 173
60 98 172
59 98 169
60 98 170
59 97 170
59 96 168
54 93 156
68 97 151
72 91 115
62 84 104
84 93 75
98 104 69
80 86 59
73 79 56
83 86 61
79 87 64
88 92 67
92 94 66
79 84 60
89 91 66
97 100 73
89 93 69
102 107 75
103 106 77
102 107 78
97 104 77
106 111 79
119 121 85
102 110 79
111 117 81
110 114 82
103 114 78
114 122 85
108 117 82
117 124 87
113 120 82
121 128 88
120 129 86
119 130 90
124 133 89
132 140 94
134 140 95
124 133 89
130 136 93
129 143 93
135 144 95
140 147 96
131 146 95
136 145 96
136 152 97
145 153 100
150 157 102
142 154 99
140 150 98
141 152 99
147 155 101
144 158 100
141 152 98
148 157 102
148 161 102
146 160 102
153 162 104
149 158 101
149 164 102
153 162 104
153 160 102
148 162 102
154 165 104
160 167 106
160 168 107
153 163 104
158 168 107
162 167 107
159 166 106
156 166 106
154 165 105
156 167 105
156 169 105
162 171 108
165 173 109
148 167 103
162 172 108
161 172 108
164 170 108
157 170 106
160 173 108
158 173 106
159 170 106
152 170 104
168 170 109
146 169 102
159 173 107
163 170 108
153 173 105
161 170 106
168 173 109
165 170 107
156 168 104
154 172 104
148 169 102
151 170 104
159 172 106
146 166 100
145 165 100
154 167 104
154 170 105
152 165 101
141 167 100
154 166 103
152 166 101
149 164 100
154 168 103
154 170 104
145 166 99
143 170 100
138 166 98
147 169 101
145 169 101
146 162 99
144 163 99
138 162 96
148 163 100
144 160 98
147 163 98
134 156 93
149 160 99
129 161 93
154 163 100
137 160 95
142 163 97
133 157 93
129 156 91
137 158 94
113 153 86
128 157 92
128 158 92
126 150 88
125 153 89
124 151 87
109 141 81
119 145 83
110 151 84
102 136 77
122 150 86
111 145 83
104 157 96
98 151 95
83 156 109
83 169 117
80 169 117
69 180 130
63 186 141
60 193 147
53 196 151
42 199 155
32 212 170
26 216 173
0 220 178
0 219 178
0 221 180
0 220 179
0 220 179
0 219 180
0 218 178
0 220 180
0 219 179
0 216 177
0 220 180
0 221 180
0 219 179
0 218 179
0 218 178
0 221 181
0 221 180
0 220 180
0 215 178
0 219 179
0 220 181
0 219 179
0 217 177
0 218 177
0 219 178
0 218 179
0 219 179
0 219 180
0 220 180
0 216 175
0 219 180
0 217 178
0 220 179
0 220 180
0 219 178
0 219 178
0 220 180
0 219 178
0 219 179
0 219 179
0 219 178
0 220 180
0 221 181
0 220 179
0 219 178
0 219 178
0 218 179
0 218 178
0 217 177
0 218 178
0 217 178
0 219 179
0 215 174
0 218 178
0 217 178
0 216 178
0 220 179
0 216 176
0 215 174
0 217 177
0 220 179
0 216 177
0 219 178
0 220 180
0 217 177
0 216 176
0 219 179
0 217 176
0 219 178
0 218 177
0 219 179
0 219 179
0 218 179
0 217 177
0 218 178
0 219 178
0 219 179
0 219 178
0 220 180
0 218 178
0 216 177
0 218 178
0 219 179
0 216 177
0 214 176
0 215 176
0 218 179
0 221 180
0 218 178
0 217 178
0 216 176
0 217 176
0 217 179
0 218 177
8 212 174
30 196 179
44 160 176
58 110 175
60 100 175
56 99 173
60 100 176
59 100 174
56 100 172
61 100 178
60 99 177
60 100 176
61 100 177
61 99 178
61 100 179
60 99 177
60 99 177
61 100 178
61 100 177
60 99 177
61 100 178
60 100 177
62 100 178
61 99 179
62 100 179
61 99 178
60 99 178
62 100 179
61 99 179
61 100 179
61 99 179
60 99 178
60 100 176
61 100 178
60 99 178
61 99 179
62 99 180
62 100 180
62 100 180
60 99 179
62 100 180
61 99 179
61 99 179
62 100 180
62 99 181
62 99 180
60 99 178
62 99 180
60 99 178
62 99 180
61 99 180
62 99 181
62 99 180
61 99 179
62 99 180
61 99 178
62 99 181
61 99 181
60 99 178
60 99 178
60 99 179
60 99 178
62 99 180
62 99 181
62 99 180
62 99 180
61 99 179
61 99 179
60 99 178
61 99 179
61 99 179
62 100 180
62 99 180
62 99 181
61 99 179
62 99 181
61 99 179
61 99 180
61 99 180
61 99 180
62 99 181
62 99 180
62 99 180
61 99 179
61 99 180
60 99 178
61 99 179
62 99 180
62 100 180
61 99 181
60 99 178
62 99 180
62 100 180
62 100 180
61 99 180
62 99 179
61 99 180
61 99 179
61 99 180
60 100 177
61 100 178
61 99 178
61 99 179
60 100 177
60 99 178
61 99 179
61 100 178
61 99 178
60 100 177
61 99 179
61 99 179
60 99 177
60 99 178
61 99 178
61 99 180
60 99 178
63 100 181
61 99 178
61 99 178
61 99 178
60 99 178
59 99 176
61 99 179
62 99 179
61 100 176
61 99 179
60 99 177
61 100 178
61 99 179
61 99 178
61 100 177
60 99 177
62 99 180
60 100 177
60 99 178
62 100 178
60 99 176
60 99 175
60 99 177
60 98 173
60 99 175
61 99 177
62 100 179
58 99 173
59 98 172
59 99 174
60 98 173
59 97 170
57 97 169
59 99 175
60 98 173
60 97 170
58 98 170
58 96 166
59 97 168
57 95 164
65 96 157
71 97 136
78 96 117
65 82 89
76 84 67
84 94 65
76 83 59
82 88 63
71 83 60
77 85 62
85 91 66
89 95 68
91 97 68
87 94 69
90 95 72
81 86 67
96 98 71
107 112 78
93 99 74
103 108 76
108 116 82
101 114 78
108 115 82
104 112 78
108 117 82
114 120 83
113 123 86
107 119 82
105 119 80
113 129 86
119 128 86
118 126 87
127 135 91
122 129 88
130 135 91
126 134 91
128 137 92
127 138 92
136 145 96
138 145 97
135 145 96
130 141 96
130 145 94
139 147 98
143 154 100
141 151 99
156 158 104
141 155 99
141 153 100
148 157 103
138 158 100
145 159 101
145 156 100
143 160 100
162 166 108
151 162 103
146 161 101
147 163 102
156 165 105
151 161 103
154 167 105
152 163 103
157 166 106
146 166 103
158 168 106
163 171 108
154 168 105
158 167 106
153 169 105
149 169 104
158 167 106
149 167 103
159 170 107
159 167 105
148 169 103
157 171 106
153 170 105
160 172 107
154 171 105
156 169 105
164 172 108
160 172 107
157 173 106
146 171 103
156 168 105
159 170 106
163 170 107
162 171 106
155 169 104
164 170 108
158 166 104
142 168 101
149 168 103
153 170 103
168 171 108
158 172 105
152 171 104
149 168 101
162 171 107
152 170 103
146 168 101
159 172 105
148 165 101
141 165 98
148 169 101
154 169 103
146 165 99
151 171 103
153 164 101
143 166 100
145 161 98
139 159 95
142 160 96
142 163 98
135 167 96
145 161 97
149 161 99
153 168 102
141 158 95
133 164 96
132 157 93
135 163 96
134 165 96
139 156 94
134 159 93
137 155 93
133 157 92
126 158 91
113 145 83
128 149 88
122 155 89
113 143 83
123 142 83
115 144 82
121 148 85
99 145 79
119 145 84
110 142 81
100 151 91
81 149 98
94 165 111
81 169 119
72 173 126
85 187 139
61 196 152
38 190 143
56 208 164
46 207 165
18 213 174
19 211 170
0 216 178
0 218 179
0 221 181
0 218 177
0 219 179
0 218 178
0 220 179
0 220 180
0 220 180
0 221 181
0 219 180
0 221 180
0 219 179
0 220 179
0 219 179
0 221 181
0 219 178
0 217 178
0 220 179
0 218 179
0 219 179
0 219 179
0 216 178
0 220 179
0 218 178
0 216 177
0 217 178
0 220 180
0 218 178
0 216 178
0 221 180
0 219 178
0 220 179
0 221 181
0 215 177
0 220 179
0 219 179
0 219 179
0 220 178
0 220 180
0 218 178
0 221 180
0 218 178
0 220 179
0 219 178
0 218 179
0 218 177
0 219 178
0 219 178
0 215 176
0 218 178
0 218 178
0 216 176
0 217 179
0 216 177
0 218 178
0 215 175
0 217 177
0 218 177
0 220 180
0 219 179
0 219 177
0 217 177
0 217 177
0 218 179
0 217 177
0 217 177
0 219 177
0 217 178
0 217 178
0 215 176
0 216 176
0 217 178
0 218 178
0 218 178
0 219 178
0 214 173
0 217 177
0 219 178
0 215 175
0 219 179
0 216 176
0 217 178
0 214 176
0 219 179
0 219 178
0 211 172
0 218 178
0 214 176
0 221 180
0 218 178
0 214 175
0 217 176
6 218 179
18 209 177
41 166 174
54 130 176
59 100 175
58 100 173
59 99 175
59 100 175
60 100 176
57 99 173
59 99 175
61 100 178
59 99 176
58 100 175
59 100 175
61 100 177
60 100 176
61 100 178
60 100 177
61 99 179
61 99 179
61 99 178
61 100 179
60 99 178
61 100 178
62 100 179
61 100 178
60 99 177
61 100 178
60 99 177
60 99 178
61 99 179
61 99 179
62 99 180
61 99 179
61 100 177
62 99 180
62 99 180
61 99 180
61 99 179
60 99 178
62 99 180
63 100 181
61 99 179
61 100 178
61 100 178
63 100 181
62 99 181
62 100 179
62 99 180
62 99 180
62 99 179
61 99 179
62 99 180
62 99 180
60 98 179
62 99 179
61 99 179
61 100 178
62 99 180
62 99 180
61 99 179
61 99 180
62 100 179
61 99 179
63 100 181
59 99 176
61 99 180
62 99 180
61 99 180
62 99 180
61 99 179
62 99 180
61 99 179
62 100 180
62 99 180
59 99 178
61 100 178
61 99 179
61 100 178
60 99 178
59 99 176
61 99 179
62 99 180
61 99 179
61 99 179
61 99 180
60 99 178
61 99 179
61 99 179
61 99 179
62 99 180
61 99 179
60 99 178
62 99 180
61 99 179
61 99 179
61 99 179
62 99 180
62 99 180
62 99 180
61 99 179
61 99 180
61 100 179
61 99 178
61 99 179
62 99 180
60 99 178
62 100 179
61 99 178
59 99 177
61 99 178
61 99 178
61 99 178
61 99 179
62 100 180
62 99 180
61 99 178
61 100 177
60 99 178
59 99 177
60 99 176
60 99 178
62 100 179
59 99 176
62 100 178
61 99 178
60 100 177
60 100 176
60 99 177
62 100 178
60 98 177
59 99 176
60 100 177
60 99 177
59 99 175
61 100 178
61 100 178
59 100 174
62 100 177
60 99 175
60 99 175
60 99 177
60 99 177
59 99 175
59 98 173
58 98 174
60 98 173
59 98 173
59 98 174
59 98 170
59 99 174
58 97 169
60 99 175
60 98 174
58 96 166
57 96 165
57 93 160
59 93 154
61 93 131
77 91 101
63 76 80
92 93 67
78 84 61
73 82 61
86 93 68
73 79 58
84 88 65
70 74 56
82 91 66
86 93 67
92 97 71
82 92 67
94 103 72
89 95 69
94 102 73
86 96 69
102 109 75
104 115 79
112 120 83
103 111 78
107 116 81
106 119 82
105 115 79
127 132 91
112 118 84
116 129 87
117 131 86
115 129 87
111 124 85
120 131 85
117 131 87
127 135 90
132 140 94
136 142 96
128 142 92
136 146 97
132 140 94
136 143 94
137 149 98
136 148 97
144 150 99
145 154 101
148 160 102
147 156 103
146 155 101
150 161 102
145 151 100
133 151 96
148 161 103
148 160 103
149 159 102
150 157 102
152 166 104
146 159 102
146 162 102
145 159 101
148 165 102
152 162 103
149 164 103
160 171 107
147 164 102
155 165 105
165 171 109
154 168 105
156 166 104
152 166 104
158 170 107
155 170 105
152 169 104
153 170 105
148 169 103
159 172 108
159 171 107
152 172 105
159 171 106
166 171 109
158 173 106
162 169 106
150 171 104
159 170 105
160 171 106
152 169 104
163 174 108
152 171 103
150 168 103
155 171 105
153 166 103
145 167 101
162 169 106
156 170 104
144 167 101
153 170 104
149 165 101
151 169 104
148 166 102
153 170 103
148 164 100
144 166 100
149 169 103
155 162 102
138 165 98
140 166 99
146 162 99
140 163 97
149 168 101
151 166 101
150 164 100
151 167 102
144 164 98
137 159 94
140 163 97
138 152 92
136 161 95
141 165 98
134 158 93
130 154 92
135 157 94
126 158 91
131 162 94
131 164 95
127 157 91
128 157 92
139 160 94
130 151 89
125 156 90
134 159 94
132 159 93
125 159 91
117 147 85
104 139 78
108 147 83
119 151 86
125 153 88
109 139 81
99 153 92
93 152 93
101 168 114
77 170 119
63 179 134
80 185 138
77 188 142
57 194 147
51 203 162
26 206 165
43 207 164
33 212 171
0 218 178
0 220 179
0 221 181
0 219 180
0 218 178
0 220 180
0 220 181
0 220 179
0 219 178
0 219 179
0 222 181
0 221 181
0 220 180
0 217 177
0 220 180
0 221 178
0 221 181
0 220 181
0 218 179
0 219 179
0 219 178
0 217 177
0 217 177
0 220 180
0 218 178
0 218 178
0 217 178
0 218 178
0 217 179
0 218 178
0 219 179
0 218 178
0 216 176
0 215 177
0 219 179
0 220 179
0 220 179
0 220 179
0 220 180
0 220 179
0 218 179
0 220 180
0 218 178
0 220 180
0 219 179
0 219 180
0 220 180
0 220 179
0 218 178
0 219 178
0 219 178
0 218 178
0 214 176
0 219 178
0 219 179
0 215 176
0 218 178
0 218 178
0 218 179
0 219 178
0 220 179
0 221 180
0 216 177
0 216 176
0 218 178
0 221 181
0 218 179
0 216 176
0 218 179
0 218 179
0 217 178
0 217 177
0 217 178
0 219 180
0 218 177
0 218 176
0 218 179
0 220 179
0 219 178
0 219 179
0 213 175
0 219 179
0 218 179
0 217 178
0 219 179
0 217 176
0 219 179
0 212 171
0 209 171
0 216 177
0 215 177
0 217 177
0 220 179
8 217 180
30 198 178
48 152 175
59 104 175
58 100 174
59 100 175
60 100 175
60 100 176
60 100 176
59 100 175
61 100 177
60 100 176
59 99 176
59 99 175
60 100 177
59 99 176
59 100 176
60 100 176
61 99 178
59 99 176
60 99 177
59 99 176
60 100 177
59 99 176
61 100 178
60 99 177
60 99 178
62 100 179
60 100 177
61 99 179
61 100 178
61 99 178
61 99 179
61 99 179
62 100 180
61 99 179
61 100 178
62 99 180
60 99 178
62 99 181
62 100 178
60 99 177
62 100 180
63 100 181
61 99 178
62 99 181
61 100 179
61 99 179
62 100 180
62 99 180
61 99 179
62 99 180
61 100 179
62 99 180
61 99 179
61 99 179
62 99 181
60 99 178
60 99 178
61 99 179
61 99 179
62 100 180
61 99 179
60 99 178
61 100 179
62 100 180
61 99 180
61 99 179
62 99 180
62 99 180
62 99 180
61 99 179
62 99 180
62 99 180
62 99 180
61 100 178
62 99 180
61 99 179
61 99 179
61 99 179
60 99 178
61 99 178
61 99 179
61 99 179
61 99 179
62 100 180
61 99 180
61 99 179
63 100 180
62 100 181
61 99 179
62 100 179
61 99 180
61 99 179
62 99 180
60 99 178
61 100 179
61 99 178
62 100 180
62 99 180
61 100 178
60 99 178
60 99 178
60 99 177
63 100 180
62 100 179
61 99 178
61 100 178
61 99 179
59 99 177
61 99 179
61 99 179
60 99 178
59 99 177
61 100 178
61 100 179
62 99 179
62 100 180
61 99 178
61 100 177
60 99 177
60 99 176
61 99 178
59 99 176
61 99 179
62 100 179
61 99 179
62 100 178
61 100 178
59 99 176
60 99 176
59 99 176
59 98 175
59 99 175
62 100 179
60 99 177
59 99 173
59 99 176
60 99 177
60 99 176
60 99 175
59 99 175
59 98 175
60 98 174
61 99 175
60 98 174
58 98 173
60 99 175
59 98 172
60 99 174
61 98 176
60 98 172
59 97 168
59 98 170
60 99 173
59 97 169
61 97 170
59 97 169
55 94 159
58 85 127
69 84 111
78 90 84
81 86 63
65 72 53
64 73 54
86 91 64
83 87 64
86 93 69
85 88 64
79 85 62
85 89 64
92 97 67
87 93 67
95 100 74
85 95 67
95 102 72
103 107 75
87 98 70
102 109 80
97 103 75
109 119 83
112 121 84
121 124 86
106 115 82
105 118 83
112 124 84
106 114 81
109 129 84
119 125 86
119 131 88
122 137 90
126 132 88
119 129 85
127 138 92
133 145 93
126 137 91
132 142 94
125 137 92
137 148 97
123 137 90
141 149 98
148 157 102
135 149 97
137 151 98
146 158 102
146 157 100
138 152 98
139 153 98
150 159 101
133 151 96
154 161 103
154 162 104
158 165 105
145 161 101
159 167 106
149 160 102
154 166 104
149 163 102
147 161 102
148 161 102
153 164 105
151 167 104
152 165 104
158 169 107
156 170 106
148 164 102
153 170 105
156 169 105
145 165 101
160 169 107
161 174 107
164 170 108
160 169 107
153 169 105
153 171 105
159 173 107
157 173 106
160 173 106
156 169 104
157 173 105
165 173 108
153 171 105
161 171 106
154 171 104
159 174 107
158 171 107
153 167 102
142 169 100
153 172 104
150 167 102
146 169 102
150 169 103
143 168 100
151 168 102
139 169 100
148 171 103
143 162 99
140 166 99
145 164 99
150 165 100
147 169 101
152 167 102
136 165 97
145 163 99
150 167 100
142 167 100
136 163 96
151 165 101
139 164 98
146 167 101
151 165 100
135 161 95
142 161 97
128 157 92
132 157 93
140 162 96
128 158 92
133 151 91
137 158 94
133 157 92
139 159 94
136 154 92
117 154 88
124 160 92
133 161 94
118 154 88
123 158 90
116 151 86
131 150 90
113 144 81
117 147 85
113 151 85
115 146 83
114 142 81
111 143 81
101 144 90
89 154 96
92 160 110
79 164 115
73 160 114
56 178 132
66 191 145
53 189 148
57 200 156
38 204 162
27 210 167
19 208 168
0 221 180
0 220 180
0 218 178
0 220 179
0 218 179
0 219 179
0 220 180
0 220 180
0 218 178
0 219 179
0 217 178
0 217 178
0 217 178
0 220 180
0 218 179
0 220 180
0 222 181
0 220 180
0 220 179
0 218 177
0 218 179
0 218 179
0 221 180
0 221 180
0 219 179
0 219 178
0 219 179
0 217 178
0 217 178
0 220 180
0 219 179
0 220 179
0 221 179
0 217 177
0 219 179
0 220 179
0 220 179
0 219 178
0 216 177
0 220 179
0 219 178
0 219 179
0 219 179
0 217 179
0 220 180
0 216 177
0 219 180
0 215 176
0 219 179
0 218 178
0 221 179
0 219 179
0 219 178
0 220 179
0 218 179
0 218 179
0 217 177
0 220 179
0 216 177
0 220 179
0 215 175
0 219 179
0 218 178
0 220 180
0 213 174
0 220 180
0 218 178
0 214 175
0 219 179
0 219 179
0 219 178
0 216 176
0 216 178
0 219 179
0 220 179
0 217 176
0 218 178
0 216 176
0 221 181
0 219 179
0 216 177
0 215 177
0 218 176
0 216 176
0 215 176
0 215 176
0 216 177
0 218 178
0 217 178
0 218 178
0 219 179
0 217 177
0 215 177
23 201 175
39 172 174
52 133 173
59 100 175
59 100 175
60 100 175
58 100 174
59 99 176
61 100 177
59 100 175
59 99 175
58 99 175
61 101 176
59 99 175
61 100 178
60 99 177
60 100 177
61 99 178
60 100 177
58 100 175
62 100 179
62 100 179
61 99 178
60 100 177
60 100 177
60 100 176
61 99 179
62 99 180
61 100 179
60 99 178
61 100 179
60 100 177
61 99 179
61 99 179
62 100 179
60 99 178
61 99 179
63 100 181
61 99 179
61 100 178
61 99 179
61 100 178
61 99 179
62 99 180
61 99 178
60 99 177
62 100 179
59 99 176
61 99 179
61 99 179
62 100 179
62 100 180
62 100 179
61 99 179
62 99 180
62 99 181
62 100 180
61 99 179
61 99 179
61 99 179
63 100 181
60 100 177
61 99 180
62 99 180
61 99 180
62 100 180
61 99 179
62 100 180
62 100 180
61 99 179
61 100 179
61 99 179
61 99 179
61 99 179
61 99 180
62 100 181
61 99 178
61 99 179
62 99 180
60 99 177
61 100 179
60 99 177
60 99 178
62 99 180
61 99 180
61 100 178
62 100 180
62 99 180
61 100 178
62 100 179
61 99 179
63 100 180
62 100 179
60 99 178
61 99 180
62 99 180
61 99 178
61 99 180
60 99 179
61 99 179
61 99 178
62 99 180
61 99 178
61 99 179
61 99 179
62 100 180
60 99 178
61 100 178
61 99 179
62 99 180
61 100 179
61 99 178
60 99 177
61 99 179
61 99 178
60 99 178
61 99 179
61 100 178
61 100 178
61 100 177
60 100 176
59 100 175
60 99 176
60 100 177
61 99 178
60 99 176
61 100 177
61 99 178
59 99 176
62 99 178
59 99 176
61 100 178
62 100 179
61 100 179
59 99 175
60 100 176
61 99 175
61 99 178
59 98 174
59 100 175
60 99 177
60 99 177
59 98 173
61 100 177
61 99 178
58 98 173
61 99 177
60 99 174
59 98 172
60 99 175
60 98 175
58 98 173
59 99 171
56 96 165
60 98 172
59 97 170
58 97 167
58 96 168
58 95 164
55 89 149
66 88 124
77 90 95
59 73 71
57 70 50
78 86 61
69 73 55
74 85 64
69 77 56
76 86 63
69 78 58
86 94 67
80 89 69
94 99 70
77 90 66
89 97 70
86 96 67
80 92 66
98 101 72
98 108 77
91 100 72
109 118 83
109 115 81
105 117 81
104 111 79
99 117 80
109 116 81
107 121 81
121 135 89
110 122 83
123 137 90
129 143 93
120 132 89
115 128 87
119 134 88
131 144 93
132 141 95
125 137 92
129 141 95
140 148 97
140 151 98
134 145 94
134 144 95
136 146 95
137 148 96
139 150 97
131 155 95
145 161 102
139 154 98
147 160 101
139 150 97
148 164 101
151 162 102
144 160 100
149 161 103
145 160 101
149 167 103
149 163 103
149 163 102
141 163 100
150 163 103
150 165 103
157 168 106
154 166 105
148 166 103
152 170 104
159 170 106
156 164 105
156 167 106
145 168 103
149 167 103
145 170 103
142 167 102
158 168 105
153 170 105
149 170 103
152 170 104
154 171 105
159 173 107
158 172 106
147 171 104
147 170 103
148 170 103
145 170 102
152 170 104
156 174 106
156 172 105
159 169 105
151 169 103
152 170 103
154 171 105
155 168 103
147 168 101
143 167 100
138 166 98
145 168 101
149 170 102
152 162 101
154 170 103
147 170 101
151 171 104
147 165 99
144 164 99
134 166 97
140 164 99
151 166 101
140 162 97
147 161 97
134 166 97
139 165 98
142 163 98
146 162 98
139 159 95
132 162 95
142 161 97
142 165 98
145 160 97
147 169 101
134 153 91
134 161 94
130 158 92
129 154 90
126 151 89
113 152 86
122 157 89
127 150 89
132 158 93
119 147 84
107 145 82
124 156 90
113 146 83
111 146 83
114 152 86
109 147 82
119 149 85
121 151 93
100 148 89
88 152 96
77 164 112
64 165 119
79 175 122
60 175 131
50 190 147
53 203 159
28 201 160
32 202 158
17 205 160
0 216 173
0 219 180
0 219 180
0 220 179
0 219 180
0 216 177
0 221 180
0 219 180
0 218 179
0 219 179
0 221 181
0 216 178
0 218 178
0 220 180
0 220 179
0 219 179
0 218 178
0 220 179
0 218 177
0 221 180
0 221 181
0 222 181
0 220 180
0 219 178
0 218 178
0 217 178
0 218 179
0 218 178
0 219 179
0 219 178
0 218 179
0 219 179
0 220 180
0 218 178
0 218 178
0 220 180
0 220 180
0 220 180
0 217 178
0 222 181
0 217 177
0 217 177
0 219 178
0 220 180
0 218 177
0 216 177
0 219 178
0 216 177
0 220 178
0 220 180
0 213 175
0 217 177
0 218 178
0 217 176
0 219 179
0 218 178
0 218 177
0 220 180
0 215 176
0 215 175
0 219 179
0 219 178
0 217 178
0 217 177
0 216 177
0 217 177
0 217 178
0 219 179
0 215 177
0 216 177
0 217 178
0 214 174
0 218 178
0 220 179
0 219 179
0 217 178
0 217 178
0 214 175
0 220 179
0 217 177
0 218 178
0 216 176
0 216 176
0 215 177
0 219 179
0 217 177
0 217 177
0 216 176
0 216 176
0 217 177
0 216 176
0 216 175
0 216 177
12 216 179
29 191 175
46 154 174
55 102 170
59 100 175
57 100 172
59 99 174
58 100 174
59 100 175
61 100 178
59 100 175
58 99 174
60 100 175
59 100 175
59 100 175
60 99 176
59 100 175
60 100 177
61 100 177
59 99 175
61 100 177
60 99 177
61 100 178
61 99 178
62 100 179
62 99 179
62 100 180
61 100 178
61 100 178
61 100 179
61 100 178
61 100 178
61 99 178
60 99 178
62 100 180
61 99 179
61 99 178
61 99 178
61 99 179
61 99 180
61 99 179
61 99 179
62 100 180
61 100 178
62 99 180
61 99 179
62 99 180
62 100 179
62 99 180
61 100 178
62 99 180
61 99 180
62 99 180
63 100 180
61 100 178
60 99 178
61 99 179
61 99 179
61 99 180
61 99 179
61 100 178
61 99 179
61 99 178
61 99 180
61 99 180
62 99 179
62 99 179
61 100 179
60 99 178
61 99 178
60 99 178
61 99 178
61 99 179
62 99 180
62 100 179
62 100 179
61 99 179
61 99 180
62 100 179
62 99 180
60 99 178
61 99 179
61 99 179
61 99 180
61 99 180
61 99 180
59 99 177
62 99 180
62 99 180
61 99 179
61 99 179
61 99 179
62 99 180
61 99 179
62 100 179
61 99 180
62 100 180
61 99 179
61 99 179
60 99 178
61 99 178
61 99 179
60 99 178
62 100 179
60 100 177
60 99 178
61 99 179
62 99 180
61 99 180
60 100 177
60 99 178
60 99 178
58 99 175
59 99 177
60 99 178
61 99 179
61 99 179
62 99 180
60 99 178
60 99 177
60 99 178
60 99 178
61 100 178
59 99 176
60 100 177
61 100 179
61 100 177
60 100 176
62 100 179
59 99 176
60 99 176
61 99 177
60 99 177
59 99 176
59 99 174
61 100 178
60 100 176
58 99 173
59 99 175
60 100 175
59 99 175
58 99 175
62 100 178
61 100 178
60 99 176
60 98 173
60 100 175
61 99 175
60 99 175
59 98 171
60 98 175
57 98 170
60 99 173
58 97 170
57 99 170
58 97 167
58 97 169
60 98 173
57 95 166
55 94 159
55 94 160
61 92 144
68 88 113
72 87 86
56 68 55
77 83 57
68 80 59
72 82 57
76 84 60
79 85 63
83 93 68
71 79 60
84 92 67
82 93 68
90 96 69
87 94 68
89 97 71
97 108 76
74 88 64
96 109 75
93 104 74
104 119 82
98 109 75
104 119 82
111 118 81
116 124 86
108 117 81
107 120 83
117 123 86
109 119 82
120 130 88
114 125 85
124 137 91
127 139 91
118 132 87
123 136 92
133 139 93
127 144 93
128 140 94
129 142 93
124 138 92
126 145 92
136 151 97
134 151 96
138 150 96
145 153 99
145 155 100
144 158 100
136 149 97
147 159 101
144 159 100
143 155 99
143 160 100
148 161 102
137 156 97
143 157 99
153 164 104
150 165 102
150 166 104
143 161 100
147 163 101
145 163 102
147 167 102
154 166 104
142 165 102
148 168 103
148 168 103
150 164 103
160 171 107
156 168 105
157 170 105
158 170 105
155 171 104
144 169 102
153 169 103
151 171 104
148 168 103
155 170 105
138 165 98
146 170 102
149 170 103
150 170 103
157 173 105
162 171 107
153 168 104
142 168 100
149 169 101
154 171 104
148 166 101
150 164 101
150 169 104
151 168 102
159 169 106
148 168 101
143 169 100
155 168 103
142 166 99
150 166 101
148 172 103
145 170 101
144 168 100
144 165 98
141 164 98
145 163 99
145 164 99
143 169 100
140 163 98
145 167 100
142 168 100
150 163 99
138 162 97
138 158 94
133 161 94
145 162 98
144 167 100
121 163 92
131 158 92
136 156 93
121 158 90
128 155 90
140 163 97
118 151 86
115 144 84
127 158 92
123 153 89
120 150 87
123 152 88
118 152 87
113 144 82
122 149 85
113 152 86
115 151 85
121 147 85
116 143 83
106 147 81
97 152 87
87 151 97
98 160 106
62 161 111
86 167 118
85 174 124
68 192 146
69 193 146
49 191 150
38 199 155
30 207 165
19 209 167
25 214 169
0 220 179
0 220 180
0 218 179
0 219 178
0 217 178
0 219 179
0 219 179
0 220 179
0 220 180
0 219 178
0 219 178
0 220 181
0 217 178
0 219 179
0 216 177
0 220 181
0 220 180
0 218 179
0 220 180
0 221 181
0 217 178
0 218 178
0 220 179
0 220 180
0 219 178
0 216 177
0 219 179
0 220 180
0 217 177
0 221 181
0 221 181
0 218 179
0 216 178
0 217 177
0 213 175
0 217 177
0 219 179
0 221 180
0 217 177
0 214 176
0 221 181
0 219 178
0 217 178
0 216 177
0 218 178
0 216 177
0 217 178
0 220 179
0 217 177
0 219 179
0 219 178
0 215 177
0 217 177
0 217 177
0 216 177
0 219 179
0 215 178
0 215 177
0 217 178
0 220 179
0 216 177
0 219 179
0 217 177
0 214 176
0 220 179
0 213 174
0 219 178
0 219 180
0 219 179
0 218 178
0 219 178
0 220 178
0 218 179
0 215 176
0 218 179
0 214 175
0 218 178
0 219 179
0 217 176
0 217 178
0 221 179
0 217 177
0 219 179
0 216 176
0 219 179
0 213 172
0 218 178
0 215 177
0 215 176
0 219 180
0 219 179
0 217 177
21 204 177
35 176 173
53 117 171
59 99 175
59 100 174
58 100 173
58 99 174
59 100 175
58 99 175
61 100 177
60 100 176
59 99 175
60 100 176
61 100 177
61 100 178
61 100 177
60 99 176
60 100 176
61 100 178
60 99 177
60 100 176
59 100 175
60 100 176
62 100 178
61 99 179
61 100 178
61 100 178
61 100 178
60 99 179
62 100 179
62 100 179
61 100 178
61 100 178
60 99 177
61 99 178
60 99 176
61 100 179
60 99 178
61 99 179
61 99 178
60 99 178
60 99 178
62 100 178
61 99 179
62 100 179
61 99 178
60 100 177
61 99 179
61 99 179
61 99 179
62 100 180
60 100 177
59 99 178
61 99 179
62 100 180
61 99 179
62 99 180
62 100 180
61 99 179
62 99 181
61 99 180
61 100 178
61 99 179
62 99 180
60 99 178
62 99 180
61 99 181
61 99 180
61 99 178
60 99 177
61 100 178
62 100 179
62 100 179
62 99 180
61 99 178
62 99 180
62 99 180
60 99 178
60 99 177
61 99 179
61 99 179
61 99 179
61 99 178
61 99 178
61 99 179
62 99 180
62 99 180
61 99 178
61 99 178
61 100 179
62 99 180
61 99 179
61 100 178
60 99 176
61 100 179
61 100 179
60 99 177
59 99 177
60 99 178
62 99 180
62 100 180
61 99 179
61 99 179
61 99 179
61 99 179
61 99 179
61 99 179
61 100 177
61 100 178
62 100 180
62 99 180
62 99 180
61 100 178
59 99 176
61 99 179
60 100 175
60 99 178
61 100 178
61 99 179
60 99 178
59 99 175
60 99 178
61 100 178
60 99 177
60 99 178
61 100 178
60 100 177
61 100 179
60 99 179
60 100 177
60 99 177
59 100 176
60 100 177
61 100 177
59 99 175
61 100 177
60 99 178
61 99 178
60 100 177
58 99 172
60 99 175
62 100 180
59 99 175
60 100 175
60 99 176
59 99 176
60 99 175
60 98 173
58 99 174
59 99 175
59 98 170
60 99 174
59 98 172
59 99 172
58 97 170
59 98 170
57 98 168
55 96 163
57 98 170
57 97 167
56 94 159
61 94 151
65 87 122
75 90 109
55 66 64
61 68 54
56 67 52
74 79 57
66 79 60
65 73 55
74 85 64
61 71 52
74 82 58
90 94 66
90 98 68
83 96 68
88 92 67
81 90 65
84 97 69
88 99 71
103 110 78
90 100 72
108 113 78
104 118 81
90 105 72
110 125 84
106 113 79
111 120 82
110 123 82
120 131 87
113 122 85
117 132 88
124 133 90
124 135 90
112 125 86
119 131 88
119 139 89
125 132 89
117 135 89
118 145 92
119 133 89
133 145 95
121 140 91
130 144 93
132 146 94
135 148 95
136 154 97
145 161 101
141 153 99
138 149 98
140 155 98
146 159 101
138 159 98
150 159 102
153 165 103
150 162 102
148 164 102
147 161 101
151 171 104
149 166 104
152 165 104
140 163 102
147 165 101
148 164 102
150 167 104
144 164 101
159 168 105
149 169 103
160 169 106
152 167 104
151 168 104
153 169 103
149 169 103
160 172 108
156 171 105
158 170 106
149 170 104
148 167 101
150 168 103
146 167 100
148 173 103
151 173 104
151 171 103
142 168 101
151 171 103
151 170 104
143 170 102
159 172 105
150 171 103
149 171 104
152 171 103
129 167 97
152 171 103
145 168 100
151 166 102
147 166 100
150 167 102
142 170 101
139 165 98
142 167 99
150 170 102
151 169 102
140 163 98
144 169 100
139 164 98
142 164 98
137 163 96
133 165 96
137 160 95
152 166 101
139 164 97
136 161 95
140 168 99
133 166 96
135 163 94
130 161 93
138 163 96
130 155 91
116 153 86
134 161 94
137 158 94
128 153 90
135 155 92
132 163 94
131 160 93
125 148 87
127 151 88
123 156 89
111 145 83
119 148 85
107 143 81
103 145 81
117 154 87
117 146 84
87 132 72
109 152 92
107 155 96
93 155 103
85 167 113
87 175 126
81 189 140
66 178 131
65 192 146
41 191 149
34 207 162
26 210 168
0 211 169
0 216 176
0 219 179
0 216 176
0 219 179
0 220 179
0 220 179
0 217 177
0 221 180
0 220 180
0 219 179
0 218 178
0 218 179
0 216 177
0 219 179
0 219 179
0 220 180
0 219 179
0 220 180
0 220 181
0 219 178
0 221 180
0 218 177
0 219 179
0 219 179
0 221 180
0 220 180
0 217 177
0 220 179
0 219 179
0 220 180
0 218 178
0 217 178
0 220 180
0 220 179
0 218 178
0 218 178
0 218 178
0 219 179
0 219 179
0 218 178
0 219 179
0 219 179
0 218 178
0 222 181
0 218 178
0 216 176
0 217 178
0 215 177
0 219 179
0 220 179
0 218 179
0 218 179
0 216 177
0 220 179
0 217 177
0 220 179
0 215 176
0 219 178
0 215 175
0 216 177
0 219 178
0 220 179
0 221 180
0 217 177
0 219 178
0 219 179
0 219 179
0 215 176
0 220 179
0 218 178
0 215 177
0 216 176
0 216 175
0 214 175
0 217 178
0 219 179
0 217 177
0 216 177
0 220 179
0 212 173
0 219 178
0 220 179
0 217 177
0 216 177
0 218 177
0 215 176
0 215 175
0 216 176
0 216 177
0 218 178
0 218 178
0 217 177
12 214 178
33 188 177
42 153 170
56 106 171
58 100 173
58 100 173
59 99 176
59 100 174
61 100 177
60 100 178
57 99 174
60 100 175
60 100 176
59 99 176
61 100 176
60 100 176
60 100 176
58 99 175
60 100 177
63 100 180
59 100 175
62 100 179
61 99 179
60 99 176
61 99 178
63 100 180
62 100 179
60 99 178
61 100 178
61 100 178
60 99 178
61 99 178
61 99 178
61 99 179
62 99 179
62 100 179
63 100 180
61 100 178
60 99 178
60 99 178
62 100 179
61 99 179
62 99 179
60 99 178
62 99 180
61 99 178
61 99 179
61 99 179
60 99 176
61 99 179
61 99 178
62 100 180
62 100 179
63 100 180
61 100 179
62 100 180
61 99 179
62 100 179
61 99 180
61 99 179
61 100 179
61 99 179
62 99 180
61 99 180
62 99 178
60 99 178
61 99 179
61 99 180
62 100 180
61 100 179
61 99 180
60 99 178
62 100 179
61 99 179
61 99 179
60 99 179
62 100 179
60 100 177
62 100 180
61 99 179
62 100 179
62 100 180
60 99 178
63 100 180
62 100 180
60 99 177
61 100 179
62 100 179
62 99 180
61 100 178
61 100 179
60 99 178
61 99 179
61 100 179
60 99 177
62 99 181
62 100 179
61 99 179
61 99 179
60 99 178
60 99 177
61 99 179
61 99 178
61 99 178
61 99 179
61 99 179
60 99 177
60 99 178
61 100 178
60 99 178
61 99 178
61 99 179
61 99 178
61 100 178
60 99 178
61 100 177
61 99 178
62 100 179
60 99 178
61 99 179
60 100 176
61 99 178
61 100 179
60 99 178
61 100 178
61 100 177
59 99 176
57 99 174
61 99 178
61 100 177
59 100 175
59 99 176
60 99 175
62 100 179
60 100 176
61 99 177
61 100 177
60 99 177
60 99 176
60 99 176
60 99 176
61 99 176
59 99 175
59 99 175
60 99 174
61 100 177
59 99 172
61 100 176
58 98 171
62 99 175
56 98 169
57 98 171
58 98 173
58 99 172
59 99 171
59 98 172
60 99 171
58 98 169
58 96 168
57 98 170
58 96 168
56 94 161
55 95 162
51 90 144
57 81 115
71 85 93
69 75 57
62 74 54
62 73 54
68 73 56
65 74 55
71 79 60
68 75 59
81 89 65
74 84 62
80 88 63
78 97 66
71 89 64
88 97 70
83 92 66
92 108 73
97 110 76
103 108 75
76 97 68
110 118 82
98 107 76
108 120 82
97 111 77
109 119 82
112 120 81
109 119 82
115 130 86
108 124 85
114 125 85
117 132 87
120 134 89
125 137 90
133 148 95
123 144 92
130 140 92
124 146 91
113 131 86
132 149 95
132 148 95
142 151 99
136 153 97
135 149 96
133 148 95
131 148 95
137 155 97
149 157 102
146 159 101
142 157 99
137 155 98
147 161 102
136 160 98
145 162 101
154 165 104
143 164 100
149 164 103
150 165 103
155 168 104
143 163 100
156 166 104
148 166 102
146 165 102
156 169 104
151 170 103
158 169 105
143 168 101
153 169 104
145 168 103
150 170 103
148 169 103
141 166 100
148 168 103
144 167 101
142 168 101
160 170 106
149 165 101
158 171 105
142 168 100
149 170 102
151 170 103
144 166 100
148 167 102
149 170 102
149 169 102
158 169 104
147 170 102
147 168 101
155 172 105
155 170 103
151 170 101
142 171 100
146 170 102
151 165 101
143 169 100
145 167 100
143 169 100
133 164 95
147 170 101
139 167 99
146 168 102
144 165 99
135 162 96
139 164 98
135 163 96
139 164 97
148 166 99
142 166 99
141 163 97
138 162 96
125 159 91
127 156 91
122 156 90
131 160 93
131 161 94
125 160 92
121 158 90
138 158 94
134 161 94
123 157 90
133 162 95
135 161 95
120 157 89
117 151 86
131 158 92
113 151 85
118 151 86
129 151 89
111 141 81
109 148 83
113 148 84
102 141 78
99 141 78
107 157 96
95 147 95
96 156 101
99 170 121
86 175 123
71 183 132
78 184 135
53 193 150
52 204 159
42 205 161
19 200 159
0 213 171
0 214 174
0 219 179
0 217 177
0 221 181
0 220 180
0 218 178
0 219 179
0 218 179
0 219 178
0 219 178
0 217 177
0 220 179
0 219 179
0 219 178
0 219 178
0 219 179
0 217 177
0 219 179
0 215 177
0 218 179
0 217 178
0 218 178
0 218 179
0 219 179
0 219 180
0 214 175
0 220 180
0 217 178
0 218 178
0 219 179
0 220 179
0 221 180
0 220 179
0 219 179
0 219 179
0 220 180
0 220 180
0 220 179
0 218 179
0 220 179
0 217 177
0 215 175
0 217 177
0 220 179
0 220 179
0 217 177
0 219 179
0 218 177
0 219 178
0 218 178
0 217 177
0 220 179
0 215 177
0 218 179
0 217 178
0 216 177
0 221 180
0 216 177
0 218 178
0 218 178
0 218 178
0 219 179
0 218 179
0 216 177
0 217 177
0 217 176
0 218 178
0 218 179
0 219 177
0 216 177
0 215 175
0 220 180
0 219 179
0 216 177
0 218 179
0 216 176
0 214 175
0 217 178
0 215 177
0 216 177
0 218 179
0 218 177
0 218 178
0 213 174
0 217 176
0 219 178
0 220 179
0 214 177
0 218 177
0 218 178
0 218 177
0 217 176
16 211 177
37 176 173
52 129 173
59 101 174
58 100 172
57 100 172
60 100 176
60 100 176
60 100 175
60 100 176
59 100 174
60 99 177
59 100 175
59 99 175
59 99 175
59 99 175
59 100 175
61 99 178
62 100 178
61 100 178
61 99 178
60 100 177
61 99 179
61 100 177
60 100 177
61 100 178
60 100 176
61 100 179
60 99 178
60 100 176
60 99 178
60 99 176
62 99 178
61 100 178
61 100 179
62 100 179
61 99 179
61 99 179
61 99 179
60 100 176
63 100 181
60 99 177
62 100 180
62 100 180
60 99 177
61 100 178
62 100 178
62 100 179
62 100 179
62 100 180
61 99 179
60 99 178
61 99 178
60 99 177
62 100 180
61 99 179
62 99 180
62 100 180
61 99 178
61 100 179
60 99 178
59 99 176
62 99 180
61 99 179
61 99 178
60 99 179
62 99 181
62 99 180
61 99 179
61 99 180
60 99 179
60 99 178
62 99 180
62 100 180
61 99 180
61 99 180
61 99 179
61 100 178
62 99 180
61 99 178
60 99 178
60 100 176
61 99 178
61 100 177
60 99 178
61 100 179
62 100 180
61 99 179
61 99 179
61 100 178
60 100 177
61 100 178
60 99 179
60 99 178
62 99 180
62 99 180
60 100 177
61 100 178
60 99 178
60 99 178
61 99 179
62 99 180
60 99 178
62 100 179
59 100 176
61 99 179
61 99 178
61 100 177
61 99 179
61 99 178
62 100 179
61 100 179
61 99 178
61 100 178
62 100 179
61 99 178
61 100 177
61 100 177
62 100 179
62 99 179
60 100 177
62 100 179
60 100 177
60 99 177
60 100 177
60 99 177
59 99 176
61 100 177
61 100 178
61 99 178
60 99 176
59 99 176
60 99 176
59 100 174
59 99 176
58 99 175
60 99 176
60 100 177
61 100 178
61 100 177
60 99 175
59 99 175
60 99 175
61 100 176
58 98 172
59 99 172
61 99 175
58 98 170
60 99 176
58 99 173
59 98 173
61 99 175
60 100 174
59 100 173
59 96 169
58 98 169
57 98 171
60 98 173
55 96 162
58 96 166
56 95 164
54 92 157
57 95 161
60 94 157
59 84 124
64 81 102
71 80 63
66 78 55
62 73 54
63 72 52
58 70 51
57 66 49
69 76 59
70 83 58
72 81 59
89 99 72
75 85 61
83 94 70
83 96 70
101 109 75
81 95 69
93 105 76
91 106 72
95 108 76
100 112 77
89 99 73
103 119 81
98 118 79
113 120 82
114 127 83
108 121 84
110 128 86
126 136 89
112 126 83
123 135 88
124 143 91
119 139 88
126 140 93
132 144 93
127 139 91
120 137 89
127 146 93
132 146 94
135 150 95
127 144 91
133 150 95
128 148 94
133 150 96
141 153 98
139 156 98
140 155 97
133 158 96
133 152 95
134 156 97
149 163 102
141 161 98
138 159 99
129 158 97
144 161 100
145 165 101
152 167 104
153 164 103
150 165 104
144 168 102
151 166 103
146 168 102
151 167 104
141 164 99
137 163 98
145 165 102
154 166 104
152 167 104
155 170 105
134 166 98
144 171 102
139 168 100
152 171 104
152 171 104
150 170 103
148 171 102
159 168 105
147 170 102
141 167 99
149 172 104
151 172 103
160 173 107
147 171 101
149 170 103
149 170 103
136 165 97
146 168 101
153 168 103
156 170 104
147 167 101
145 168 100
146 167 100
151 167 101
141 162 97
146 168 101
137 165 97
142 167 99
150 168 101
150 167 101
136 167 98
143 164 98
138 163 97
143 168 100
122 157 91
148 163 100
139 163 97
139 163 96
144 160 97
135 162 96
136 162 95
132 161 94
122 158 90
130 158 92
126 162 93
124 155 89
134 155 92
124 158 90
125 156 90
126 154 90
123 157 89
120 156 89
127 156 91
118 152 86
120 150 87
117 150 85
111 148 83
117 145 83
112 147 83
116 143 83
106 145 81
103 146 81
100 146 80
96 142 85
90 150 93
86 171 116
77 169 116
73 172 121
72 183 137
66 195 150
48 187 144
26 202 161
50 206 163
33 213 170
33 211 171
19 216 171
0 219 179
0 219 179
0 220 179
0 215 176
0 220 180
0 221 181
0 219 178
0 215 176
0 220 180
0 220 180
0 219 180
0 215 177
0 221 180
0 217 178
0 220 179
0 219 178
0 217 176
0 219 179
0 219 179
0 220 180
0 221 180
0 216 177
0 219 178
0 219 179
0 216 177
0 217 178
0 217 178
0 218 178
0 218 178
0 216 177
0 219 178
0 220 179
0 220 179
0 220 180
0 217 179
0 220 178
0 213 175
0 220 180
0 220 179
0 216 177
0 219 179
0 220 180
0 217 178
0 219 178
0 218 179
0 215 177
0 219 179
0 217 176
0 219 180
0 217 178
0 215 176
0 220 181
0 217 178
0 217 178
0 216 178
0 218 179
0 218 179
0 217 177
0 218 179
0 217 177
0 216 176
0 213 175
0 216 177
0 218 177
0 216 177
0 217 177
0 216 176
0 217 178
0 219 179
0 218 179
0 217 178
0 218 179
0 216 177
0 219 179
0 219 178
0 219 178
0 216 177
0 216 176
0 213 174
0 215 175
0 215 176
0 219 177
0 216 177
0 213 175
0 217 177
0 220 178
0 219 179
0 218 178
0 213 175
0 219 178
8 219 180
28 198 178
43 166 175
61 105 179
59 100 175
57 100 172
57 100 171
58 100 173
58 100 173
61 100 177
60 100 175
59 100 175
58 100 174
59 100 175
60 100 177
59 99 175
61 100 177
60 100 176
61 100 178
60 100 176
61 100 177
60 99 177
59 100 176
59 99 176
61 99 179
60 100 176
60 99 177
61 100 178
61 100 177
60 100 176
62 99 180
60 99 177
63 101 179
61 99 179
62 100 178
62 100 179
61 99 179
61 100 178
61 99 179
61 100 178
61 99 179
62 100 179
62 99 180
63 100 180
61 99 179
61 99 179
62 99 180
62 100 178
63 100 180
61 99 179
61 100 178
61 99 179
60 99 179
61 100 178
60 99 178
61 100 178
62 100 180
62 100 180
61 99 179
61 100 177
60 99 178
61 99 179
61 99 179
62 100 179
62 99 180
60 100 177
61 99 179
62 100 180
62 99 180
60 99 179
62 100 179
62 99 180
62 99 180
61 99 179
61 99 179
61 99 179
61 99 180
62 99 180
60 99 177
61 100 178
61 99 178
61 99 180
62 99 180
61 99 178
61 99 180
61 99 179
62 100 178
62 100 179
61 99 179
60 99 178
61 100 178
63 100 181
61 99 179
59 99 177
60 99 178
61 100 178
62 99 180
61 99 179
61 100 178
60 100 177
61 99 178
62 99 180
61 100 179
61 100 179
60 99 178
61 100 178
60 100 176
61 99 178
60 99 176
60 99 178
61 99 178
61 99 179
60 99 178
60 99 177
60 99 178
62 100 179
61 99 178
60 99 177
59 99 176
61 99 179
60 99 178
60 99 177
62 100 179
60 99 177
59 99 177
60 99 177
62 99 180
60 100 177
59 100 176
61 100 177
59 99 175
61 100 178
59 100 175
61 100 179
59 99 174
59 99 174
61 99 176
59 100 175
57 99 174
61 100 177
61 99 178
62 99 179
60 99 177
60 100 177
60 99 176
60 100 175
59 98 172
60 99 176
61 100 177
58 99 173
58 99 174
59 98 172
58 99 173
61 100 174
59 99 174
59 99 173
58 99 173
58 99 172
59 98 171
57 97 169
55 95 158
59 97 168
59 95 165
58 97 165
55 92 159
63 91 143
49 74 111
54 69 78
68 75 62
52 60 46
65 74 54
62 74 56
61 76 56
68 78 57
71 88 62
84 91 66
66 77 57
95 103 72
79 93 63
87 96 71
91 100 70
98 106 75
93 106 74
97 103 73
91 100 69
89 105 76
90 104 71
97 109 74
96 113 77
107 126 81
110 122 83
104 118 81
106 132 84
115 130 86
130 141 93
108 127 84
122 139 91
120 131 86
123 138 90
118 131 88
123 140 91
134 145 94
114 139 88
120 146 91
126 141 91
121 147 90
123 143 92
132 149 93
127 151 93
137 153 96
137 156 98
142 151 97
133 153 97
139 157 99
132 157 97
138 156 98
132 155 95
133 153 97
141 161 99
132 155 96
141 161 100
155 165 105
140 159 99
142 167 100
139 165 99
141 162 99
135 166 99
150 169 104
151 168 104
151 171 104
154 170 104
147 167 102
157 172 106
145 167 101
144 168 100
147 167 102
157 168 104
145 169 102
153 173 105
157 172 105
160 173 106
151 167 103
141 166 99
158 172 105
145 170 101
142 165 99
141 167 99
153 173 104
150 166 101
149 169 102
144 165 100
146 169 101
148 171 103
139 171 100
137 169 98
144 167 101
149 168 102
137 167 98
144 170 101
137 161 96
142 169 99
146 167 101
140 166 98
148 169 101
148 172 103
153 169 102
143 165 98
142 165 98
139 163 97
142 165 98
144 161 97
132 161 94
141 162 96
121 165 93
135 157 93
129 158 92
130 156 93
123 158 91
123 160 91
129 161 93
128 161 93
132 161 94
134 162 95
138 160 94
128 154 90
124 162 92
125 150 87
128 155 89
120 153 87
123 153 88
117 154 87
116 147 83
119 148 85
108 149 83
114 147 83
96 146 79
104 144 83
80 140 83
98 158 101
90 156 105
76 161 116
78 171 120
63 192 146
75 182 135
47 191 148
54 205 160
37 201 158
0 215 173
0 216 172
0 215 171
0 220 180
0 220 179
0 220 180
0 220 180
0 218 179
0 219 178
0 218 178
0 218 179
0 220 180
0 220 181
0 219 179
0 218 180
0 219 180
0 218 178
0 217 177
0 215 176
0 220 180
0 221 180
0 218 178
0 221 180
0 219 179
0 221 180
0 218 179
0 220 179
0 220 179
0 219 179
0 219 179
0 219 179
0 222 181
0 217 177
0 219 178
0 220 180
0 217 178
0 220 180
0 214 176
0 219 180
0 218 178
0 218 180
0 215 177
0 216 178
0 217 177
0 221 181
0 220 180
0 219 180
0 219 179
0 220 179
0 215 176
0 219 178
0 215 176
0 217 178
0 219 178
0 218 178
0 217 176
0 217 177
0 218 178
0 216 177
0 216 176
0 220 180
0 217 175
0 218 179
0 215 175
0 217 178
0 219 179
0 218 178
0 220 180
0 215 176
0 218 178
0 218 178
0 217 178
0 217 177
0 219 179
0 219 178
0 218 177
0 220 180
0 219 178
0 221 180
0 216 177
0 214 175
0 215 175
0 217 178
0 218 179
0 217 178
0 215 177
0 216 177
0 217 177
0 217 175
0 214 176
0 214 175
0 217 178
0 216 176
14 209 175
35 175 173
51 135 173
59 100 175
55 99 169
59 100 174
59 100 175
61 100 176
60 100 175
60 100 175
59 100 174
58 99 175
58 99 174
60 100 176
59 99 176
57 100 173
62 100 178
61 100 178
61 100 177
61 100 178
62 100 177
59 99 175
59 100 175
61 100 177
62 100 178
60 99 177
60 99 177
60 100 177
60 100 177
62 100 179
61 100 178
61 99 178
61 99 179
62 100 179
60 99 178
60 100 177
63 100 179
60 100 177
62 100 180
60 100 177
61 100 178
61 100 178
62 99 179
61 99 178
61 100 178
60 99 178
60 99 178
61 99 178
62 100 180
61 99 179
62 100 179
62 100 179
61 100 177
61 99 178
62 100 180
62 100 179
61 100 178
62 100 180
61 99 179
61 99 179
62 100 179
61 100 178
60 100 177
61 99 179
61 99 180
61 99 179
62 100 180
60 99 178
62 99 180
61 99 179
62 100 180
62 99 180
60 99 178
61 100 178
62 100 180
61 100 179
61 100 178
62 100 180
60 100 177
62 99 180
62 100 180
61 100 179
60 99 179
61 99 179
61 99 178
61 100 178
60 100 177
61 100 179
60 99 178
62 100 179
62 100 179
61 100 178
60 99 178
62 100 180
62 100 179
60 99 178
61 100 178
60 99 178
63 100 180
61 99 179
60 99 177
60 99 178
61 100 179
61 99 178
61 99 178
62 101 178
61 99 178
59 99 176
61 99 179
62 100 179
60 99 178
61 99 179
61 100 179
60 99 177
61 100 178
60 99 178
60 99 178
60 100 176
62 100 178
61 99 180
60 100 176
61 100 178
61 100 178
60 100 175
59 100 175
61 100 178
59 100 175
61 100 178
61 99 178
61 100 176
59 100 175
59 100 176
60 100 177
60 100 177
59 100 175
62 99 178
61 100 177
59 100 175
59 100 174
60 99 177
60 99 175
58 99 174
59 100 175
59 99 174
59 99 174
57 98 172
61 99 177
60 100 175
60 100 176
60 99 174
59 99 171
59 99 172
60 98 175
59 99 173
59 100 174
57 98 169
58 99 172
59 98 170
57 98 170
58 97 167
55 96 162
59 98 169
57 96 167
57 95 164
58 98 166
58 91 150
56 78 104
67 85 110
61 73 63
62 72 51
75 83 59
63 74 56
64 76 54
63 74 57
62 81 61
76 88 61
83 88 64
76 88 61
90 101 71
72 87 66
83 90 65
82 102 69
94 110 77
89 103 71
88 101 70
104 113 77
95 106 75
91 101 72
94 117 78
107 118 80
105 117 80
99 115 78
116 129 85
115 129 83
125 138 90
111 130 85
118 134 88
115 132 85
117 130 84
117 133 88
131 146 93
137 150 96
110 133 85
128 147 93
119 144 91
132 146 94
129 149 95
130 148 93
138 157 98
134 155 97
131 152 96
144 154 99
131 152 95
130 155 95
137 156 96
138 156 97
143 160 100
136 156 98
134 164 97
145 159 100
138 159 98
141 161 99
136 160 98
149 163 101
144 168 101
147 167 102
152 168 103
143 164 100
149 170 103
146 170 102
147 172 103
146 165 101
141 169 100
145 168 101
144 170 102
152 168 103
144 165 100
154 169 103
143 168 100
155 173 105
146 167 100
156 174 105
151 171 103
153 166 102
150 168 101
146 173 102
144 169 101
141 170 100
147 170 102
145 169 101
151 169 102
144 171 101
150 171 103
156 170 104
145 167 101
152 171 104
148 166 101
148 169 101
147 166 100
134 167 97
150 166 101
139 163 97
136 165 97
147 169 101
132 168 97
138 163 96
120 159 91
130 163 94
142 171 100
135 165 97
131 162 96
130 157 93
133 163 95
138 162 96
122 152 89
135 161 95
133 158 93
138 163 96
138 165 97
122 157 89
112 149 84
127 155 90
118 151 86
123 162 91
124 155 90
122 154 89
110 144 81
127 152 88
109 143 80
98 152 82
118 151 86
105 139 78
113 141 81
101 142 78
110 141 80
94 140 77
98 145 88
98 152 89
100 153 98
90 166 111
67 160 111
74 178 128
71 187 140
71 184 140
47 190 143
42 192 149
17 206 164
28 207 162
27 211 167
18 214 173
0 216 176
0 220 181
0 218 178
0 218 178
0 221 180
0 216 177
0 216 178
0 219 179
0 220 180
0 219 178
0 217 178
0 218 178
0 222 181
0 219 177
0 219 179
0 219 179
0 220 180
0 220 180
0 218 179
0 218 178
0 218 179
0 217 178
0 220 180
0 221 179
0 218 179
0 218 178
0 220 181
0 215 176
0 220 179
0 215 176
0 218 179
0 215 177
0 218 179
0 215 177
0 217 177
0 221 180
0 217 177
0 222 181
0 221 181
0 219 178
0 215 177
0 219 179
0 217 178
0 220 179
0 217 178
0 217 177
0 221 179
0 217 179
0 220 179
0 218 178
0 219 179
0 218 178
0 219 179
0 220 180
0 217 178
0 219 178
0 221 179
0 220 180
0 217 178
0 218 178
0 215 175
0 218 178
0 215 176
0 217 177
0 218 178
0 216 176
0 215 175
0 214 175
0 217 177
0 220 179
0 216 177
0 218 178
0 217 177
0 218 178
0 216 177
0 218 178
0 218 177
0 216 177
0 216 175
0 217 178
0 217 177
0 217 177
0 220 178
0 218 179
0 220 179
0 216 177
0 217 177
0 216 176
0 212 174
12 214 177
26 201 178
45 159 175
54 105 170
58 100 173
58 100 174
60 101 174
59 100 175
59 100 175
59 100 175
59 100 175
58 99 174
58 100 173
58 100 174
60 100 176
57 99 174
61 100 179
59 100 175
61 99 178
60 99 177
60 99 177
61 99 178
61 100 178
58 100 174
59 100 175
58 99 174
61 100 177
59 99 177
60 99 178
60 100 177
60 99 177
61 99 178
60 99 178
61 99 179
63 100 180
61 100 177
59 100 175
60 99 177
62 100 178
60 99 177
61 99 179
61 100 178
61 100 178
60 99 177
59 99 176
62 100 179
60 99 176
59 99 177
61 99 179
60 99 178
61 99 179
61 99 178
61 100 178
61 99 180
62 100 180
60 99 178
62 99 180
62 100 179
62 99 180
61 99 179
60 99 177
61 100 178
62 100 180
61 99 179
62 100 179
60 99 177
60 99 178
60 99 178
61 99 178
59 99 177
63 100 181
61 99 178
62 100 180
61 99 179
60 99 178
60 100 177
60 100 177
62 99 180
62 99 181
61 100 177
61 99 179
61 100 179
61 99 179
61 99 179
62 99 180
61 100 177
61 100 178
61 99 178
60 99 179
61 99 179
62 99 180
62 99 180
61 100 178
61 99 178
62 100 180
62 99 180
61 99 179
62 100 179
59 99 177
60 99 176
60 99 178
61 100 178
61 99 179
61 99 178
59 100 175
61 99 178
61 99 178
62 100 179
60 100 176
59 99 176
62 100 179
60 100 176
61 99 178
61 100 178
61 99 180
61 99 179
61 100 178
60 99 177
61 99 179
60 99 178
60 99 178
60 99 177
61 100 178
62 99 179
60 99 177
60 100 176
61 99 179
59 100 176
60 100 177
58 99 174
61 100 176
60 100 177
60 100 175
59 100 175
61 99 178
60 100 177
60 99 176
60 99 176
59 99 176
58 99 172
61 100 177
60 99 175
59 99 175
58 99 175
59 99 175
58 100 174
59 100 175
61 99 178
58 99 173
57 99 172
60 99 174
59 99 173
58 99 171
57 98 169
58 98 169
59 99 172
60 99 176
58 98 171
58 99 174
59 99 171
60 99 175
59 98 172
58 98 170
58 97 168
55 94 159
59 97 168
58 95 164
54 86 138
47 72 98
47 63 75
59 68 53
64 75 50
69 74 56
53 68 49
61 78 56
63 75 56
74 84 58
73 86 62
76 89 63
79 90 63
73 90 62
73 86 63
85 99 70
91 104 72
78 93 66
96 113 79
91 103 72
108 117 78
108 122 79
106 119 79
103 118 80
111 120 82
106 121 81
99 119 78
117 136 89
112 128 84
109 121 83
115 133 86
125 134 90
124 138 91
119 132 86
120 142 89
119 137 87
113 135 87
119 140 88
129 145 92
126 148 93
141 150 97
116 144 89
123 145 92
133 159 97
140 151 96
135 152 97
137 157 99
135 153 97
135 156 97
136 159 98
142 158 99
135 158 96
134 160 97
133 160 98
134 158 97
133 153 95
140 162 100
136 161 99
150 163 102
139 160 98
146 167 101
144 166 102
146 166 100
140 162 99
143 165 101
151 167 103
149 165 102
149 170 103
142 171 101
143 171 102
148 169 103
136 171 99
155 173 105
152 169 103
146 170 101
146 170 101
146 170 102
143 172 101
153 171 103
143 167 100
140 171 100
145 167 100
150 171 103
146 168 101
140 165 98
141 168 99
141 168 99
136 163 95
147 166 100
139 166 98
152 170 102
144 166 99
138 164 96
146 167 100
136 167 98
140 165 97
139 169 99
143 166 99
143 166 98
143 166 99
142 166 98
149 170 101
135 165 97
135 163 95
137 168 98
133 158 93
134 165 96
139 162 96
138 165 97
142 160 96
137 160 94
124 160 91
132 158 93
131 162 94
136 159 94
119 148 85
119 154 88
126 156 90
114 156 87
112 154 85
134 157 92
132 162 94
117 154 87
124 151 88
109 146 82
101 145 80
109 143 81
102 136 76
108 145 82
114 151 85
102 147 92
94 145 88
61 158 110
84 166 114
63 167 122
67 176 130
60 185 140
73 189 143
41 197 155
42 205 164
33 207 165
32 213 170
27 215 172
0 219 177
0 220 179
0 220 180
0 220 180
0 219 179
0 220 179
0 216 177
0 217 178
0 220 180
0 215 177
0 220 179
0 218 178
0 219 179
0 221 180
0 219 179
0 219 180
0 221 181
0 219 179
0 219 179
0 219 179
0 219 179
0 221 179
0 215 177
0 219 179
0 216 178
0 217 178
0 218 178
0 220 179
0 218 178
0 220 179
0 217 177
0 215 175
0 215 176
0 219 179
0 221 180
0 219 179
0 220 179
0 216 177
0 219 178
0 218 179
0 219 179
0 219 179
0 218 179
0 220 179
0 220 179
0 219 179
0 217 176
0 214 176
0 217 178
0 219 178
0 219 179
0 218 177
0 221 180
0 219 179
0 219 178
0 218 178
0 218 178
0 217 178
0 216 176
0 214 176
0 219 179
0 221 180
0 213 174
0 214 175
0 218 179
0 219 179
0 219 179
0 214 177
0 217 176
0 218 179
0 217 178
0 216 177
0 215 176
0 219 178
0 218 178
0 212 173
0 215 174
0 218 178
0 214 176
0 213 174
0 216 178
0 212 175
0 218 178
0 214 174
0 218 178
0 215 176
0 215 176
0 216 178
0 216 177
0 217 177
22 203 176
34 184 175
51 129 171
58 104 174
57 100 172
55 99 170
61 100 176
61 101 176
58 100 174
59 100 175
59 100 174
60 100 176
60 100 175
60 100 177
59 100 175
60 99 177
61 99 178
58 100 174
60 99 177
61 100 177
61 99 178
63 101 179
61 100 177
60 99 177
60 100 176
60 100 177
61 100 178
60 100 177
61 100 178
60 100 176
62 100 179
61 100 178
61 100 178
61 100 177
59 99 176
61 99 178
59 100 175
61 100 178
60 99 178
61 100 177
61 100 178
61 99 179
61 100 178
61 99 178
63 100 180
60 99 178
60 99 178
62 100 179
62 100 179
60 99 177
61 99 179
61 99 179
62 100 180
62 100 180
61 100 178
61 99 179
61 100 178
61 99 179
62 100 179
62 99 180
62 99 180
61 99 179
61 99 179
60 99 178
60 99 177
61 100 177
61 99 179
62 100 178
62 100 180
61 99 178
61 99 178
62 100 180
61 100 178
61 99 179
60 99 178
62 99 180
61 99 179
61 99 179
60 99 179
60 100 178
60 99 178
60 99 178
61 100 179
60 100 178
59 99 176
61 99 178
62 100 179
62 99 180
62 99 179
62 100 179
61 100 179
60 99 177
61 100 178
60 99 176
61 99 179
61 99 178
61 100 177
61 99 179
61 99 178
60 100 176
61 99 180
60 99 177
61 100 178
62 100 179
59 99 176
60 100 176
60 99 178
61 100 178
60 100 177
59 99 176
60 100 176
61 100 179
60 100 176
62 99 181
60 99 178
60 99 176
59 99 176
61 99 178
60 100 176
60 99 177
61 100 177
60 100 176
61 100 178
59 99 176
60 99 176
62 100 179
62 100 178
58 99 175
60 100 177
60 99 176
59 99 176
60 100 176
61 100 178
60 99 177
60 100 176
60 99 176
59 99 175
59 99 175
59 99 174
60 99 176
60 100 175
59 99 175
60 100 176
58 98 172
59 99 176
60 99 175
58 99 172
60 100 175
58 98 172
59 99 174
60 99 174
57 99 171
59 99 174
59 99 173
59 98 172
58 98 172
56 98 167
58 99 172
59 99 171
59 98 171
59 98 172
60 98 169
59 98 171
58 96 166
56 97 164
53 95 160
55 92 156
56 92 152
58 84 118
44 62 72
56 65 52
53 66 49
50 61 47
68 83 54
63 70 53
62 76 56
77 85 61
65 79 57
70 90 62
83 96 66
81 90 67
79 97 67
83 95 67
80 95 66
80 96 66
93 104 75
80 97 68
99 115 75
92 115 74
96 115 77
105 116 79
103 122 81
103 121 80
99 113 78
114 132 85
105 123 79
112 136 86
109 131 83
102 128 80
112 135 86
119 134 88
121 139 89
125 144 91
124 143 91
114 139 89
141 152 97
133 147 93
124 147 92
128 155 95
116 148 90
137 153 96
125 151 93
144 158 101
133 161 97
140 157 99
130 155 95
148 164 101
131 156 97
143 163 100
126 155 95
137 159 98
146 162 102
131 159 97
142 161 100
138 162 99
132 158 97
141 166 99
148 163 101
146 162 101
150 166 102
142 166 100
138 168 100
150 169 103
150 165 102
148 165 100
152 171 103
153 169 104
148 170 101
147 170 102
141 168 99
140 167 100
144 169 102
140 167 100
149 167 102
137 170 98
154 168 103
144 169 101
145 170 101
144 167 100
145 171 101
154 172 105
145 167 100
153 173 104
147 170 101
141 166 99
154 169 104
144 167 99
150 171 102
147 169 101
131 164 96
139 167 98
136 166 98
148 165 99
139 163 97
134 164 95
143 169 100
131 165 96
153 167 101
139 166 97
133 165 95
134 166 97
133 161 94
138 168 97
135 162 95
134 163 94
125 161 92
123 160 91
127 159 92
128 162 94
116 164 91
132 156 92
119 159 88
117 151 86
113 151 85
119 154 87
128 157 90
115 149 84
116 151 84
128 155 90
120 151 86
105 149 83
120 154 87
101 147 80
100 139 76
102 148 81
100 138 76
92 139 78
90 146 87
95 151 94
84 154 99
76 166 112
82 174 127
61 178 132
75 181 135
42 188 144
32 198 150
33 202 159
41 204 160
31 213 169
19 217 176
0 218 175
0 219 178
0 220 180
0 217 178
0 217 177
0 219 179
0 220 180
0 219 179
0 215 176
0 218 178
0 219 178
0 220 179
0 219 179
0 218 178
0 221 181
0 217 177
0 220 180
0 218 178
0 215 177
0 219 178
0 218 179
0 220 179
0 217 177
0 218 177
0 217 176
0 220 180
0 217 177
0 218 178
0 217 178
0 221 181
0 220 180
0 220 180
0 220 180
0 219 179
0 219 178
0 219 179
0 215 176
0 218 178
0 218 178
0 222 181
0 220 179
0 222 180
0 220 180
0 215 176
0 217 178
0 217 176
0 221 180
0 219 179
0 215 176
0 219 180
0 219 179
0 217 178
0 217 178
0 216 176
0 214 176
0 217 178
0 216 176
0 219 178
0 217 177
0 215 176
0 219 179
0 217 178
0 219 178
0 219 178
0 217 177
0 214 175
0 217 178
0 218 179
0 219 179
0 216 177
0 218 178
0 221 180
0 220 181
0 217 178
0 220 179
0 217 177
0 217 176
0 218 179
0 218 178
0 215 176
0 214 174
0 215 177
0 217 177
0 217 177
0 212 173
0 215 175
0 214 175
0 215 176
0 218 178
6 217 178
25 196 173
40 171 175
53 121 171
58 100 173
58 100 173
57 100 171
57 99 174
57 99 172
57 99 173
60 100 175
59 100 174
59 100 175
58 100 174
58 100 173
58 100 174
60 100 175
61 100 177
60 99 177
60 100 176
59 100 175
60 99 176
60 99 177
63 100 179
59 100 175
60 99 177
60 100 176
59 99 175
62 100 178
60 99 177
60 100 176
61 99 179
59 100 175
61 100 178
61 99 178
61 99 179
62 100 179
61 100 178
61 100 178
60 99 178
60 99 177
61 99 179
60 99 177
61 99 178
61 100 178
61 99 178
61 100 179
62 99 180
61 100 178
59 99 176
59 99 176
61 99 178
63 100 181
61 100 179
61 99 179
61 100 178
61 100 178
61 100 178
61 100 178
62 99 179
62 100 180
61 99 179
61 99 179
61 99 178
59 99 176
63 100 180
61 99 179
61 100 178
60 100 177
62 100 180
62 100 179
62 100 180
61 100 178
60 100 177
61 99 178
60 99 179
60 99 178
62 100 179
60 99 177
60 99 177
60 100 176
60 99 177
59 99 175
61 99 179
61 99 179
61 99 178
62 100 179
62 100 180
60 99 178
59 99 176
60 99 177
60 99 178
60 99 178
62 99 180
62 100 179
61 99 178
61 99 178
60 99 178
59 100 175
61 99 178
61 100 179
59 99 176
61 99 179
62 100 179
60 99 178
60 100 177
61 99 179
60 100 176
59 99 177
60 100 177
61 100 178
61 100 177
59 99 176
59 100 175
61 100 178
60 100 176
59 99 176
59 100 175
60 100 176
59 99 176
60 100 176
60 100 176
60 100 175
61 100 178
60 100 176
58 99 175
62 100 179
61 100 179
62 100 178
61 100 178
58 99 175
60 100 176
59 99 175
58 99 175
60 100 177
57 99 173
60 100 175
60 99 176
59 98 174
61 100 177
59 99 174
62 100 179
60 100 176
59 99 174
60 99 176
58 99 174
59 100 175
60 100 175
60 99 175
61 99 176
58 98 173
59 100 175
58 98 173
58 98 171
60 99 175
59 99 174
57 100 172
59 99 174
58 99 171
58 97 169
58 99 172
57 99 169
59 99 172
60 98 170
57 97 167
59 97 168
57 96 165
57 95 160
56 93 158
59 89 123
52 76 102
56 72 64
47 59 46
59 69 48
50 68 50
51 70 52
63 75 55
53 76 52
60 80 58
72 93 61
62 86 61
75 94 64
75 95 68
69 88 64
84 95 68
72 85 60
83 103 68
94 107 73
96 107 75
93 111 75
101 125 81
95 113 77
104 121 82
90 120 75
104 127 82
100 123 79
105 126 80
111 127 83
110 135 86
120 135 89
123 139 89
102 128 82
117 133 87
108 138 85
121 142 90
125 144 92
122 147 91
125 145 92
130 145 93
123 152 91
124 149 93
121 141 90
121 146 92
132 155 95
129 154 94
131 155 96
135 156 97
144 161 100
130 148 93
131 161 97
142 165 100
140 161 98
134 161 97
147 163 101
133 163 98
144 163 100
147 166 101
132 160 96
145 166 100
144 163 101
148 168 102
139 168 101
142 166 100
141 165 99
140 169 100
150 168 102
153 170 104
149 170 102
143 167 99
156 171 105
144 170 101
151 174 103
140 170 100
141 167 99
148 167 101
139 166 98
148 169 101
141 167 99
141 169 100
138 166 98
148 167 100
143 166 98
140 169 100
135 167 97
130 167 96
145 169 101
140 165 98
136 166 98
139 168 99
149 168 101
146 167 99
137 169 98
139 167 98
134 167 97
151 169 103
133 163 95
128 156 91
130 163 94
141 167 98
125 162 93
134 158 94
125 163 93
135 166 97
128 163 93
114 157 88
130 163 94
132 159 93
132 165 96
127 163 93
123 162 92
111 154 85
116 158 88
128 164 94
129 158 91
113 154 85
114 154 87
140 167 97
116 152 86
113 157 88
124 154 89
118 156 88
123 152 87
122 148 85
125 151 87
103 150 82
104 149 82
93 141 78
97 140 80
88 152 93
94 156 108
80 162 106
89 172 121
77 178 127
65 178 128
71 185 138
49 191 147
42 198 154
33 205 161
41 203 162
18 211 168
27 217 174
0 215 171
0 217 176
0 217 178
0 218 179
0 220 180
0 218 178
0 215 176
0 220 180
0 219 179
0 218 178
0 221 179
0 218 178
0 219 178
0 219 179
0 220 179
0 218 179
0 219 179
0 216 176
0 216 177
0 217 178
0 218 178
0 220 180
0 219 179
0 216 177
0 216 177
0 218 178
0 220 179
0 220 179
0 218 178
0 220 180
0 219 178
0 218 179
0 219 178
0 217 178
0 219 180
0 221 180
0 216 178
0 218 179
0 218 178
0 217 178
0 221 180
0 218 179
0 218 178
0 216 177
0 218 178
0 218 179
0 215 176
0 218 179
0 219 179
0 216 176
0 220 179
0 217 178
0 217 177
0 220 180
0 216 177
0 218 178
0 215 177
0 217 178
0 217 177
0 215 177
0 217 178
0 219 179
0 217 177
0 217 177
0 217 176
0 217 176
0 218 179
0 219 179
0 216 178
0 217 177
0 221 181
0 218 178
0 218 178
0 211 174
0 216 177
0 219 179
0 218 177
0 217 177
0 218 178
0 216 177
0 217 178
0 214 175
0 218 179
0 214 176
0 217 178
0 216 178
0 217 177
0 219 180
0 212 174
6 214 176
31 194 178
47 146 173
55 102 169
57 100 171
59 100 175
60 100 175
59 100 175
59 100 175
58 99 174
60 100 175
60 100 176
60 100 175
59 100 174
58 100 173
59 100 175
59 100 175
60 99 176
58 100 174
61 100 177
60 100 177
61 100 176
61 100 177
60 100 177
60 100 176
60 100 176
60 99 176
60 100 177
60 100 176
60 99 177
61 100 178
62 100 180
57 100 173
61 99 179
60 99 177
60 99 177
61 99 179
62 100 180
61 99 178
60 100 177
60 99 177
61 100 178
62 100 180
62 100 179
61 99 178
59 100 175
61 100 179
62 100 179
61 99 179
61 100 178
62 99 180
60 99 177
60 99 176
61 100 178
62 100 179
62 100 178
60 99 177
60 99 178
61 99 179
62 100 180
62 100 180
62 100 179
60 99 178
61 99 179
61 99 178
61 100 179
62 100 180
60 99 177
62 99 180
62 99 180
61 99 178
60 99 178
62 99 180
61 100 178
61 100 178
62 100 178
62 99 179
61 99 180
60 99 177
61 100 177
59 99 175
59 99 176
62 100 178
61 100 177
61 99 178
60 100 177
60 99 177
61 100 179
61 100 179
61 100 179
60 99 178
62 100 179
61 100 179
62 100 180
61 100 178
61 99 179
61 99 178
61 99 177
60 99 177
61 100 177
59 99 176
61 99 179
61 100 178
58 99 175
61 100 178
59 100 175
60 99 178
60 100 177
61 100 177
61 99 178
60 100 177
59 99 176
61 100 177
61 100 177
60 100 175
59 99 176
60 100 177
59 99 176
61 100 178
62 99 180
59 99 176
60 99 178
62 100 180
58 99 175
59 100 175
61 100 178
60 99 177
60 100 176
59 100 176
59 100 176
60 99 177
59 99 176
60 100 176
60 100 176
60 100 177
60 100 176
58 99 175
59 99 176
59 99 174
60 99 175
56 100 171
59 99 175
60 99 176
59 99 176
58 100 174
59 99 176
61 100 177
60 100 176
61 100 177
60 100 175
56 98 170
57 99 170
58 98 169
58 99 172
58 100 171
60 99 175
59 100 172
57 99 170
57 100 172
64 100 177
59 98 173
59 99 174
57 97 166
58 98 167
57 97 167
59 96 167
54 96 161
56 97 165
54 96 161
53 86 140
50 71 100
57 73 84
56 68 50
41 63 44
44 55 41
59 71 53
52 65 49
69 81 59
56 75 53
57 76 58
60 81 58
72 87 63
81 99 67
75 87 62
62 92 59
71 91 66
92 106 73
77 100 68
87 104 72
99 114 79
104 124 79
88 111 75
93 117 78
90 116 77
109 128 83
112 128 81
94 117 77
98 122 80
102 134 81
105 124 82
107 127 84
113 130 87
123 137 90
123 135 88
125 143 91
102 134 82
124 144 92
116 137 88
126 145 92
122 154 94
116 148 89
127 149 92
127 152 92
127 151 93
129 153 94
122 149 92
142 159 98
130 154 95
131 155 96
138 158 97
141 153 98
142 160 99
138 163 98
130 159 96
131 157 95
138 163 98
148 165 101
137 161 97
128 160 96
145 162 100
145 162 100
145 164 101
144 166 100
144 167 100
146 167 100
138 167 98
146 170 102
138 166 100
153 172 104
134 166 96
146 170 101
136 164 98
144 170 100
142 168 99
140 168 100
137 168 99
135 168 97
147 168 100
142 171 100
152 170 103
146 169 101
139 166 98
149 168 101
135 170 98
134 165 96
139 167 98
150 171 101
140 165 98
134 169 98
144 168 100
142 167 99
135 163 95
138 170 99
142 168 99
131 165 95
140 167 99
140 161 96
135 167 97
133 165 95
124 163 93
121 160 91
134 165 96
140 169 99
123 158 90
120 158 90
127 161 93
142 164 97
126 164 94
126 160 92
134 161 94
138 161 95
120 162 92
123 158 90
118 154 88
120 156 89
99 144 80
121 152 87
102 143 79
118 150 85
110 152 85
122 153 88
123 153 88
118 153 86
92 138 74
96 141 76
109 135 77
105 140 79
112 150 85
93 155 101
75 161 103
103 158 102
80 174 123
83 179 129
71 179 128
69 186 140
63 196 148
53 196 154
19 204 161
32 211 168
19 211 170
20 218 176
0 215 172
0 220 180
0 220 180
0 221 181
0 220 179
0 219 179
0 216 177
0 218 177
0 218 178
0 217 178
0 218 179
0 219 178
0 217 178
0 220 180
0 217 178
0 216 177
0 219 179
0 218 178
0 221 180
0 219 179
0 217 178
0 218 179
0 218 178
0 218 179
0 219 179
0 215 176
0 220 180
0 215 176
0 219 179
0 221 180
0 218 179
0 216 177
0 220 179
0 218 178
0 219 179
0 219 179
0 217 178
0 215 176
0 218 178
0 217 178
0 219 179
0 218 178
0 217 177
0 216 176
0 221 179
0 222 181
0 220 179
0 220 180
0 218 177
0 221 181
0 215 176
0 219 179
0 219 180
0 220 180
0 218 178
0 214 176
0 219 179
0 216 177
0 218 178
0 212 176
0 215 177
0 214 176
0 219 178
0 215 176
0 221 179
0 220 180
0 213 174
0 214 175
0 215 177
0 215 175
0 219 179
0 216 176
0 219 178
0 215 177
0 213 174
0 216 177
0 216 177
0 216 176
0 219 179
0 215 176
0 214 176
0 216 178
0 213 175
0 214 175
0 216 177
0 217 176
0 219 178
0 216 178
0 212 173
14 209 176
35 178 173
54 121 173
58 100 173
58 100 173
57 99 172
57 100 171
56 100 172
59 100 175
58 99 173
58 100 173
58 99 174
60 100 176
58 100 174
58 100 174
60 100 176
60 100 175
59 99 176
61 100 176
60 100 175
60 100 177
60 100 176
60 100 176
58 99 175
60 100 176
60 99 178
61 100 178
59 99 177
60 100 176
59 100 175
61 100 178
60 99 177
61 100 177
62 100 179
61 100 177
60 100 176
60 99 177
60 99 177
61 99 178
57 99 173
61 100 178
60 99 178
61 100 179
60 99 178
60 100 177
61 99 178
62 100 180
61 99 179
61 100 178
61 99 179
60 100 177
61 100 177
60 99 178
61 99 178
59 99 177
60 99 178
62 100 179
61 100 178
60 100 176
61 99 179
60 99 178
61 99 179
62 100 179
61 99 178
60 100 176
61 99 179
61 100 178
62 100 178
60 99 178
61 99 179
61 99 179
61 100 178
61 99 180
61 100 178
61 99 179
61 99 178
62 100 179
61 100 179
61 100 178
61 100 179
60 99 177
61 100 179
61 99 179
62 100 179
60 99 178
59 99 176
61 99 179
60 99 177
60 99 176
60 100 177
61 99 179
61 99 178
61 100 177
60 99 177
61 99 179
60 99 177
60 99 177
60 100 176
61 99 178
60 100 177
61 100 178
60 99 176
59 99 175
60 99 177
59 99 176
61 99 179
60 99 178
62 100 179
59 99 175
61 100 178
59 99 177
61 100 178
60 99 178
60 99 178
60 100 176
60 99 176
61 100 178
61 100 178
59 99 177
61 99 178
61 99 178
60 99 177
60 99 176
60 99 177
60 100 177
60 99 177
60 100 176
62 100 179
60 100 176
60 99 178
57 99 173
61 100 177
61 100 178
61 100 178
59 99 176
60 100 177
59 100 175
60 99 177
58 99 175
59 100 175
59 99 176
57 99 173
61 99 175
59 100 174
59 99 175
60 100 175
59 100 175
58 99 172
60 99 175
61 100 175
60 99 175
62 100 179
58 99 173
58 99 173
58 98 172
58 99 173
59 99 174
59 99 171
60 98 172
59 99 172
58 99 173
57 98 170
56 97 166
58 98 171
57 99 168
56 97 166
58 96 166
56 96 161
58 96 164
53 93 155
53 82 109
54 77 98
53 67 64
50 67 45
52 74 53
49 68 48
52 68 49
56 70 54
62 77 54
57 70 52
59 76 56
55 74 55
62 77 55
70 91 64
82 104 67
58 80 59
90 110 75
90 106 72
89 104 68
81 107 69
99 113 76
96 114 75
100 121 80
87 120 75
109 125 80
116 130 85
112 128 84
106 124 82
103 128 83
97 123 79
108 128 82
114 135 86
119 139 89
112 135 86
117 137 88
122 137 87
110 134 84
118 146 89
131 151 94
113 137 87
119 141 90
117 144 89
114 147 89
130 151 94
139 154 97
123 151 92
120 153 92
131 153 94
143 162 100
142 160 99
137 159 96
130 157 96
134 156 94
130 160 95
136 155 96
139 161 99
123 159 93
136 160 97
131 162 96
145 165 101
140 165 100
129 168 96
142 167 100
135 167 99
132 167 97
136 168 99
133 166 97
128 163 94
143 168 100
144 169 101
141 169 101
144 167 100
144 166 100
143 169 100
137 168 98
140 167 99
139 169 99
141 167 99
132 169 97
140 170 100
138 169 99
134 166 96
136 167 98
144 168 100
138 166 98
141 167 98
140 163 96
141 171 100
140 166 98
143 167 98
136 167 97
137 165 97
131 166 96
119 169 94
140 165 98
128 166 95
130 164 94
141 164 97
132 168 96
130 162 94
150 167 100
133 167 96
136 165 95
128 166 95
136 160 95
131 161 93
133 162 94
121 155 88
130 160 92
119 160 89
124 155 89
122 153 88
120 158 89
122 159 91
114 154 86
116 154 87
117 152 85
122 151 88
111 139 79
97 146 79
121 158 89
116 145 83
115 148 83
114 149 84
111 152 84
100 140 77
92 143 77
86 143 84
87 155 100
97 150 95
85 154 100
82 169 114
80 183 132
65 179 131
51 184 138
58 195 150
50 198 153
46 208 164
33 209 166
0 218 175
0 215 173
0 218 177
0 220 180
0 218 179
0 219 180
0 217 178
0 218 178
0 219 178
0 219 179
0 216 177
0 214 176
0 220 181
0 220 180
0 217 178
0 218 178
0 220 180
0 216 176
0 219 178
0 217 178
0 217 177
0 220 179
0 217 178
0 217 177
0 221 181
0 218 177
0 220 179
0 218 179
0 218 178
0 220 179
0 219 179
0 217 178
0 220 179
0 220 180
0 218 178
0 217 177
0 216 177
0 216 176
0 219 177
0 218 178
0 216 177
0 217 178
0 218 178
0 219 179
0 217 178
0 220 179
0 216 178
0 216 177
0 216 178
0 217 178
0 216 178
0 218 179
0 215 176
0 217 177
0 219 179
0 215 174
0 217 178
0 219 178
0 219 179
0 215 177
0 218 179
0 219 178
0 217 176
0 216 176
0 214 175
0 217 177
0 217 178
0 216 176
0 219 179
0 214 175
0 217 178
0 217 177
0 215 176
0 214 175
0 217 178
0 219 179
0 217 176
0 214 175
0 212 175
0 215 176
0 217 177
0 216 175
0 214 175
0 220 180
0 214 176
0 212 173
0 213 175
0 217 178
0 213 175
0 218 178
0 214 174
20 200 174
37 174 174
54 112 172
56 100 171
61 100 176
57 100 171
58 100 173
60 100 175
58 100 172
59 99 174
57 99 171
59 100 175
58 100 174
60 100 176
59 100 175
59 100 175
59 99 176
61 100 177
61 100 176
60 100 175
61 100 177
60 100 176
59 99 177
59 100 175
59 100 175
60 99 177
60 100 176
60 99 177
59 99 175
61 100 177
61 100 178
62 100 179
61 100 178
61 100 179
57 99 174
60 99 176
61 100 178
60 99 177
61 99 179
62 100 179
60 99 177
61 100 178
60 99 177
60 99 177
62 100 179
61 99 178
61 100 178
61 100 178
61 100 178
61 99 178
61 100 177
61 99 179
61 99 179
61 99 179
61 99 178
61 100 178
59 99 176
62 99 180
60 99 177
61 100 179
60 100 177
60 100 177
61 100 178
62 100 179
60 99 178
61 99 179
61 100 178
61 99 178
61 100 178
60 99 177
58 99 174
59 99 176
62 100 179
58 99 175
60 99 178
62 99 180
59 99 176
61 99 178
60 99 178
61 99 179
61 100 178
61 99 179
61 100 178
60 100 176
60 99 178
63 100 180
61 100 177
60 99 178
61 100 178
61 99 179
61 100 177
61 100 177
60 99 178
60 99 179
61 99 179
60 99 178
61 99 179
61 100 178
60 100 177
60 100 176
60 99 177
60 99 177
62 100 179
61 99 179
60 100 175
60 99 177
62 100 178
60 99 177
60 99 178
58 99 175
61 100 177
60 99 177
61 99 178
59 99 175
60 99 177
60 99 178
61 100 179
59 99 175
60 100 177
60 100 176
61 99 178
60 100 176
61 100 178
61 100 178
62 100 179
61 100 178
60 100 176
61 100 177
61 100 178
59 99 174
61 100 178
59 99 176
60 100 176
60 100 177
57 99 173
59 99 175
61 100 176
60 100 176
59 99 176
60 100 177
61 100 177
61 100 175
61 100 176
60 100 175
60 100 175
59 99 175
59 100 174
59 99 175
61 100 177
59 100 172
57 99 172
61 100 176
58 100 171
58 98 172
59 99 174
54 99 168
58 99 172
60 98 173
59 99 174
60 98 172
54 97 165
58 98 171
58 98 170
57 97 169
59 97 170
58 97 165
57 99 168
57 94 159
57 97 168
55 92 154
50 85 131
49 72 100
37 65 68
46 61 50
45 61 44
53 70 50
57 71 50
55 73 52
52 81 53
49 65 52
59 84 57
62 88 60
64 88 58
71 86 62
79 95 65
65 86 60
81 102 67
89 110 70
87 106 72
92 109 73
87 110 72
90 114 77
101 112 79
91 117 76
109 126 83
94 116 76
111 123 81
109 131 86
99 129 82
106 131 82
115 134 86
105 129 82
111 137 86
109 134 85
120 135 87
118 142 90
124 144 89
119 148 91
118 138 88
112 145 89
130 147 92
118 139 87
116 146 90
115 149 90
131 156 95
122 150 92
137 158 98
131 158 96
125 151 92
129 153 94
129 157 95
140 159 97
125 157 93
131 157 95
139 160 98
137 164 98
139 164 98
126 160 95
137 167 99
135 166 98
138 163 99
142 168 100
140 167 98
146 169 101
142 161 98
138 164 98
143 167 100
141 169 100
150 169 103
136 168 98
134 168 98
142 167 100
147 170 102
145 170 101
150 169 102
132 167 96
135 161 95
137 164 97
134 167 97
134 168 97
137 166 96
132 168 97
140 172 100
143 170 100
139 170 99
136 164 96
138 167 97
131 163 94
131 166 96
129 169 97
131 168 95
139 168 98
135 164 95
129 156 92
136 167 97
135 165 96
130 163 93
131 164 95
137 163 96
131 166 95
130 163 93
144 160 96
128 165 94
124 161 92
117 159 89
133 162 94
124 161 92
127 164 93
122 162 92
125 158 91
120 161 90
125 157 90
119 154 87
123 158 89
109 153 84
105 147 82
121 155 88
124 154 89
106 147 81
104 147 81
93 152 81
94 150 80
103 148 81
110 154 85
91 141 76
74 134 69
110 151 89
96 149 85
77 150 95
86 153 99
62 159 104
58 164 119
72 168 121
41 184 138
49 184 142
37 198 152
49 198 156
30 201 158
18 206 164
25 212 168
19 215 171
0 217 177
0 216 176
0 219 178
0 220 179
0 221 180
0 219 179
0 219 179
0 218 179
0 217 178
0 219 179
0 218 179
0 220 179
0 219 179
0 219 178
0 219 179
0 220 180
0 220 180
0 218 179
0 216 178
0 220 179
0 219 179
0 219 179
0 216 176
0 219 179
0 218 178
0 221 181
0 220 180
0 219 179
0 217 178
0 219 179
0 218 178
0 215 175
0 217 177
0 217 177
0 218 179
0 219 179
0 216 177
0 215 176
0 218 178
0 219 179
0 220 179
0 217 178
0 221 180
0 217 176
0 219 179
0 220 179
0 216 176
0 215 174
0 219 180
0 219 180
0 218 178
0 220 180
0 220 178
0 217 177
0 218 178
0 217 177
0 220 180
0 216 177
0 214 175
0 216 177
0 216 176
0 213 174
0 217 177
0 214 175
0 219 178
0 218 178
0 216 177
0 217 178
0 214 176
0 214 175
0 216 177
0 215 176
0 215 177
0 218 178
0 217 177
0 218 177
0 213 173
0 218 178
0 219 179
0 215 177
0 217 178
0 219 178
0 216 178
0 214 176
0 211 173
0 217 176
0 218 178
0 219 179
14 206 174
35 183 176
45 143 169
58 100 172
55 100 169
57 99 172
57 100 172
58 99 174
58 100 174
61 100 176
56 100 171
59 100 175
59 100 175
58 100 174
61 100 176
59 100 176
58 100 174
60 99 177
59 100 175
59 99 175
61 100 178
59 100 175
59 99 176
61 100 178
58 99 174
60 101 175
59 100 176
59 99 176
59 100 175
60 100 176
60 100 176
59 99 175
60 100 175
59 100 175
57 99 173
61 100 177
61 100 178
61 100 179
60 99 177
61 100 178
61 100 179
61 100 177
59 99 177
61 100 178
60 99 177
59 99 176
61 100 178
61 99 178
62 100 179
60 100 177
62 99 180
60 99 178
60 99 177
61 100 178
60 99 177
58 99 175
60 99 177
60 100 177
61 99 179
59 99 177
61 100 178
60 99 177
60 99 178
61 99 179
60 100 176
60 100 178
61 99 179
61 99 179
61 99 179
61 100 177
61 100 178
61 99 179
60 100 177
61 99 179
61 100 177
61 100 178
60 99 177
62 100 178
60 99 178
60 99 179
61 99 178
62 100 179
63 100 181
60 99 177
60 99 177
60 99 178
60 99 178
60 99 177
61 99 178
59 99 176
60 100 177
60 100 177
62 100 179
61 99 180
60 99 177
61 100 178
60 100 176
60 99 177
61 100 178
61 100 178
60 99 178
60 100 176
61 99 179
60 100 176
60 99 178
60 99 176
60 99 177
59 100 176
60 99 178
60 100 176
60 100 177
58 99 174
61 99 178
60 99 177
60 100 176
59 99 175
60 99 177
59 100 176
59 100 176
59 99 176
58 99 175
60 99 177
59 100 175
59 99 175
60 100 175
60 100 176
61 100 177
59 99 175
61 100 178
58 99 175
61 99 179
61 100 177
60 100 176
60 100 176
60 100 177
60 100 176
60 100 175
59 100 175
61 100 177
60 100 176
59 99 174
60 100 176
60 99 176
60 99 176
60 99 177
60 100 177
59 99 176
60 99 175
58 99 174
59 99 174
60 99 175
59 99 175
60 99 176
59 99 173
61 100 177
61 100 176
60 100 175
57 99 170
59 99 174
57 99 170
60 99 174
59 100 173
57 97 168
56 98 167
57 98 168
60 98 171
57 97 167
57 96 166
54 97 162
57 97 168
54 93 158
53 88 139
45 82 117
36 64 80
51 64 59
36 68 45
41 59 41
51 74 51
37 61 44
50 75 50
55 81 55
59 87 57
59 81 56
60 82 57
65 93 59
72 102 65
68 88 59
81 104 68
84 102 71
78 102 68
77 103 68
81 107 72
93 112 73
86 113 71
95 118 77
88 119 76
101 115 79
102 123 80
93 121 77
104 132 83
118 141 90
103 124 82
112 134 86
102 136 82
118 142 88
118 143 89
110 134 86
118 141 89
111 140 85
128 145 91
108 145 86
120 151 91
129 150 93
108 145 86
116 152 89
121 148 91
129 158 95
133 160 97
134 154 96
131 154 95
124 156 92
135 159 96
132 154 94
127 160 94
120 152 91
130 164 96
140 163 98
143 164 99
129 163 95
145 169 101
139 162 98
135 163 96
135 167 97
131 157 95
141 167 99
139 164 97
125 164 96
139 170 99
138 171 100
147 166 100
135 165 98
132 164 96
142 167 100
145 168 100
145 168 100
142 168 100
144 171 101
142 167 99
144 173 101
140 165 98
139 169 99
130 170 96
139 167 98
129 167 96
123 161 92
135 169 98
145 168 99
142 168 99
134 167 97
134 169 97
136 169 99
138 166 98
128 170 96
136 166 97
131 165 95
140 164 97
133 167 96
132 164 94
117 160 90
139 167 97
127 164 94
122 162 91
120 161 91
124 164 93
131 166 95
124 163 93
116 160 90
123 156 89
109 162 89
121 155 89
135 161 94
126 164 94
117 157 89
115 151 85
116 153 86
112 150 84
113 154 87
120 154 88
118 155 87
119 149 86
108 154 86
109 153 85
108 153 84
109 145 81
101 142 77
94 145 78
117 151 87
108 153 86
98 151 92
99 148 90
74 166 115
83 163 113
77 173 123
64 176 127
42 188 143
62 194 149
37 201 158
27 208 165
0 208 168
19 212 168
0 217 175
0 217 175
0 217 173
0 219 179
0 218 178
0 220 180
0 218 179
0 220 179
0 219 180
0 219 179
0 221 181
0 219 179
0 219 179
0 218 178
0 218 178
0 220 179
0 220 179
0 217 177
0 217 178
0 218 178
0 220 180
0 215 176
0 221 180
0 219 179
0 220 180
0 214 176
0 216 178
0 218 178
0 219 179
0 218 177
0 220 180
0 221 180
0 219 178
0 217 177
0 219 180
0 221 179
0 218 179
0 218 179
0 216 176
0 217 178
0 216 178
0 217 176
0 218 178
0 217 178
0 219 179
0 216 176
0 216 175
0 217 176
0 219 178
0 217 176
0 214 176
0 215 175
0 219 179
0 215 176
0 216 176
0 218 177
0 217 177
0 219 179
0 215 176
0 218 177
0 215 175
0 218 178
0 213 175
0 217 178
0 216 176
0 219 178
0 219 179
0 216 176
0 214 176
0 218 178
0 215 176
0 220 178
0 218 179
0 219 179
0 212 174
0 217 178
0 216 176
0 214 176
0 218 178
0 217 178
0 219 179
0 217 178
0 215 174
0 212 174
0 213 175
0 217 178
0 214 175
0 216 176
0 217 178
0 216 176
20 201 175
35 179 174
53 121 171
57 100 172
57 101 171
54 99 168
58 100 173
59 100 175
59 100 173
58 100 173
59 100 174
60 101 175
58 100 173
56 100 171
60 101 175
61 100 178
60 100 177
59 100 175
59 99 175
59 100 175
58 100 174
60 100 175
60 99 177
60 99 177
61 100 178
60 100 177
57 99 173
62 100 180
59 99 177
60 100 176
59 100 175
58 100 175
59 100 175
61 100 178
59 99 175
61 100 178
61 99 178
60 99 177
61 100 178
61 99 179
59 100 175
60 100 177
61 100 178
59 100 176
60 100 177
62 99 180
61 99 179
60 100 177
60 99 177
61 99 178
60 99 177
62 100 179
61 100 178
60 99 178
62 100 179
60 99 178
61 99 179
60 99 177
61 100 178
62 100 178
62 100 179
60 100 176
59 99 176
61 100 178
62 100 179
59 99 176
61 100 178
61 99 179
60 100 177
60 99 177
60 99 178
62 100 178
59 99 176
60 99 178
61 99 179
61 99 178
61 100 178
61 99 180
59 99 176
62 100 179
61 99 178
61 99 178
60 99 178
59 99 176
61 99 179
61 100 178
60 100 177
60 99 177
61 100 178
61 99 178
61 99 179
61 100 178
62 99 180
60 99 177
60 100 176
61 99 178
60 99 178
59 99 177
60 99 178
58 99 175
61 99 179
58 99 174
58 99 175
61 100 178
61 99 178
60 99 177
60 100 177
59 99 176
61 100 178
61 100 178
59 100 175
59 99 176
59 99 176
61 99 178
62 100 179
62 100 179
60 100 177
60 99 176
61 100 177
58 99 175
61 99 177
61 100 178
62 100 179
62 100 178
60 100 177
60 100 177
60 100 176
59 99 174
62 99 179
59 99 176
58 100 174
60 100 177
58 99 174
61 100 177
59 100 176
61 100 176
61 100 177
60 100 176
59 99 176
60 100 176
59 100 174
59 99 174
60 100 175
60 100 176
59 100 175
59 99 174
62 100 177
59 99 176
55 99 169
60 99 176
60 100 175
58 98 172
61 99 175
61 100 177
57 98 170
60 100 176
58 99 171
56 100 169
60 99 174
58 98 171
55 97 166
58 98 170
57 98 168
58 99 171
55 98 167
56 98 164
57 95 163
57 97 166
57 97 164
57 96 164
55 94 159
57 94 154
47 79 118
52 79 86
59 79 74
47 66 45
46 70 48
51 70 50
55 74 50
58 78 54
61 76 55
70 89 61
61 88 58
80 98 66
70 90 62
60 94 60
73 95 65
76 101 66
75 99 67
89 109 73
83 109 69
93 111 76
91 115 73
85 112 72
97 114 76
97 122 78
101 125 80
97 120 78
96 117 75
86 117 73
115 127 84
96 131 80
123 140 90
121 140 88
95 128 79
120 137 86
109 145 87
112 141 88
114 138 85
117 147 90
114 141 88
123 148 91
119 146 91
112 139 86
122 152 91
120 152 91
132 157 95
125 152 92
124 149 93
131 158 94
139 158 98
138 161 99
132 161 96
126 156 94
131 160 96
146 164 101
145 161 98
137 164 98
139 163 98
138 164 98
137 159 96
139 164 99
131 158 94
138 162 97
141 169 101
133 167 97
138 168 99
143 166 99
135 164 96
141 168 100
140 167 98
138 162 97
146 168 101
128 164 94
143 169 100
135 166 97
141 170 99
131 170 97
143 167 100
140 164 97
147 171 102
132 162 95
146 167 100
137 168 98
139 168 98
146 167 101
132 167 96
139 167 97
144 168 98
137 166 96
133 164 95
118 164 92
127 162 94
135 165 96
153 168 101
132 167 96
139 169 97
148 166 99
136 168 98
115 162 90
123 166 94
122 160 91
124 163 93
126 163 93
124 160 91
124 159 91
124 159 90
129 149 88
123 158 90
118 156 88
120 157 89
110 154 86
110 152 84
113 153 85
117 154 87
108 152 84
124 155 89
115 150 85
109 151 84
118 153 86
100 153 82
90 147 78
98 139 77
102 141 77
102 144 79
86 137 72
95 138 75
97 140 80
93 156 96
79 160 104
74 178 121
96 174 122
77 175 124
65 175 131
50 191 145
31 186 142
38 202 157
28 202 158
34 207 162
0 210 165
0 217 173
0 217 175
0 219 176
0 217 178
0 221 181
0 220 180
0 218 178
0 221 181
0 218 179
0 220 180
0 221 180
0 220 180
0 218 179
0 218 178
0 218 178
0 220 179
0 218 179
0 217 178
0 221 181
0 218 179
0 221 180
0 220 179
0 218 178
0 218 178
0 218 178
0 218 178
0 219 179
0 220 179
0 221 179
0 218 179
0 217 178
0 215 176
0 218 179
0 218 179
0 217 177
0 215 176
0 218 179
0 220 178
0 218 178
0 215 177
0 217 176
0 217 177
0 217 178
0 220 179
0 215 176
0 214 176
0 214 176
0 218 178
0 219 179
0 218 177
0 214 175
0 216 177
0 218 179
0 214 174
0 220 180
0 218 177
0 216 175
0 218 177
0 216 176
0 218 179
0 217 178
0 216 176
0 214 175
0 218 178
0 216 177
0 216 176
0 214 174
0 216 175
0 217 178
0 214 176
0 216 178
0 216 178
0 219 180
0 214 176
0 214 175
0 215 176
0 218 178
0 219 180
0 217 177
0 217 178
0 214 175
0 218 178
0 214 176
0 214 176
0 217 176
0 217 177
0 219 179
0 217 177
0 217 178
0 216 177
30 192 175
42 162 173
55 107 171
56 100 171
54 99 169
59 100 174
56 100 171
58 99 173
59 100 175
57 100 171
61 101 175
58 100 174
57 99 172
59 100 175
56 99 171
60 99 177
57 99 173
61 100 178
59 100 175
60 100 176
59 100 175
60 100 176
59 100 175
61 99 177
59 100 175
60 100 176
61 100 177
61 99 178
61 100 178
60 99 176
60 100 177
59 99 176
62 100 178
60 100 177
61 100 179
62 100 179
60 99 177
59 99 176
61 100 178
60 99 178
61 100 178
60 100 177
62 99 179
60 99 178
60 100 177
60 99 177
60 100 176
61 99 178
61 100 178
61 100 178
60 99 178
61 99 178
60 99 177
62 100 179
60 99 178
62 100 180
59 99 176
61 100 178
61 99 178
59 99 176
62 100 179
60 100 177
60 100 176
61 100 178
61 100 179
60 99 177
61 99 178
61 100 178
61 100 177
60 99 178
60 100 176
59 100 176
61 100 178
61 100 179
60 99 177
60 99 177
61 100 178
61 100 179
60 99 177
59 99 176
60 100 177
59 99 175
59 100 175
61 99 178
60 99 178
61 99 179
60 99 177
60 100 176
61 99 178
61 100 177
60 99 176
61 99 180
59 99 176
60 99 178
61 99 178
60 99 178
61 100 178
61 99 179
60 99 177
60 99 177
60 99 177
60 99 176
62 100 179
60 100 177
61 100 176
61 100 177
60 100 176
60 99 177
62 100 179
61 100 178
61 99 179
61 100 178
59 99 176
62 100 178
60 99 176
59 99 176
58 100 174
61 100 178
60 100 177
60 100 176
60 99 177
59 99 176
58 100 173
62 100 178
59 100 175
60 99 176
60 100 176
60 100 177
59 99 175
59 99 175
58 100 174
59 99 176
60 99 175
60 100 176
60 100 177
59 100 175
58 99 174
60 100 176
59 99 176
57 99 172
59 99 174
60 100 176
60 100 176
59 100 174
59 99 175
60 100 175
58 100 174
56 99 171
59 100 174
57 100 172
61 99 176
58 99 172
61 99 177
58 99 174
58 99 172
60 100 174
60 99 173
58 99 172
60 100 174
57 99 169
57 100 171
58 99 170
55 97 164
55 98 168
57 98 166
57 98 168
57 98 166
58 97 166
57 98 169
55 96 161
56 97 163
53 92 149
55 90 137
56 80 105
46 64 62
28 51 42
31 53 40
40 66 45
47 66 46
43 59 46
52 80 56
46 74 48
57 76 54
67 92 62
62 86 57
70 92 61
70 96 62
70 94 63
73 101 65
70 103 67
87 108 71
83 108 72
79 103 66
89 116 76
90 117 77
101 119 77
98 121 79
103 125 77
112 129 83
95 127 80
101 129 79
102 125 79
120 134 85
106 135 83
107 138 86
116 140 88
113 132 84
112 147 88
119 133 87
117 140 86
122 147 90
128 150 92
137 156 96
124 149 91
120 143 89
123 149 91
126 155 94
136 160 96
123 153 89
117 143 87
115 157 91
134 160 97
125 152 90
127 152 92
129 158 94
124 157 92
134 160 97
133 162 96
132 165 98
120 160 93
136 164 96
140 163 98
132 164 97
123 161 93
133 167 97
132 164 95
128 161 94
127 163 94
137 168 98
133 165 97
134 164 96
140 165 97
140 169 99
143 166 100
144 163 98
139 167 97
139 164 96
134 168 97
141 168 99
134 168 97
146 171 100
130 167 96
140 168 98
136 169 97
136 166 97
129 168 96
119 162 90
122 164 92
139 164 97
131 160 95
130 163 95
131 165 95
131 168 96
127 162 93
125 165 93
133 166 96
133 161 94
120 163 91
125 159 92
120 161 91
120 159 90
120 161 90
121 161 91
133 166 96
127 161 92
132 162 93
119 163 91
116 161 90
122 157 89
134 156 92
125 161 91
102 153 83
111 158 87
117 157 89
107 158 85
117 151 85
111 154 85
108 141 79
113 158 87
98 151 81
108 147 82
117 153 86
97 149 81
110 137 78
98 140 76
94 143 78
101 138 76
83 140 83
82 149 93
77 162 111
61 176 126
77 173 124
87 185 135
19 183 137
61 186 141
46 185 143
37 199 155
45 199 152
50 205 159
32 214 170
0 211 169
0 215 172
0 215 172
0 216 177
0 221 179
0 219 179
0 218 179
0 218 178
0 219 179
0 220 180
0 219 179
0 217 178
0 217 177
0 219 179
0 217 178
0 218 179
0 216 175
0 220 180
0 219 179
0 217 178
0 216 177
0 214 176
0 217 178
0 221 180
0 219 180
0 219 179
0 215 177
0 218 177
0 217 178
0 221 181
0 220 179
0 220 180
0 220 180
0 219 178
0 215 176
0 218 177
0 220 179
0 217 177
0 217 177
0 220 180
0 219 179
0 218 178
0 218 178
0 220 180
0 219 179
0 218 178
0 218 179
0 218 178
0 218 179
0 216 177
0 218 179
0 216 176
0 219 180
0 211 173
0 217 177
0 217 177
0 218 179
0 217 177
0 217 178
0 218 178
0 219 178
0 215 176
0 216 176
0 217 178
0 214 176
0 216 178
0 213 174
0 211 173
0 216 176
0 219 178
0 217 178
0 218 178
0 214 175
0 217 177
0 215 176
0 218 176
0 218 178
0 219 180
0 212 173
0 214 176
0 213 173
0 218 178
0 217 178
0 214 175
0 212 174
0 218 179
0 215 176
0 213 175
0 218 176
15 208 175
26 197 176
43 158 173
56 101 171
56 100 170
60 100 175
57 100 170
57 100 171
58 100 173
58 100 173
57 99 172
58 100 174
60 100 175
58 100 173
58 100 174
60 100 175
59 100 175
59 100 175
61 100 178
60 100 175
59 99 174
59 99 176
58 100 173
60 100 176
61 100 177
60 100 176
60 100 177
59 100 175
61 100 177
61 100 178
60 99 177
60 100 176
62 100 179
60 100 176
59 99 175
61 100 177
59 100 176
62 100 178
60 100 177
62 99 180
60 99 177
62 100 179
61 100 178
60 100 176
61 99 179
58 99 174
60 100 176
62 100 178
61 100 178
61 100 178
60 100 176
62 100 179
61 100 178
60 100 177
60 99 177
61 99 178
60 99 178
62 100 180
60 100 177
60 99 177
61 100 178
63 100 181
61 100 177
61 99 179
61 100 177
61 99 178
61 100 178
60 100 177
61 99 179
61 100 178
60 100 176
60 99 177
60 100 177
61 100 178
62 100 180
61 99 177
60 100 177
60 100 177
61 100 178
60 99 177
60 100 177
59 100 175
61 100 178
59 100 175
61 100 178
61 100 178
60 99 177
61 99 179
60 99 177
60 100 176
59 99 176
60 99 178
59 99 176
61 100 178
61 100 176
60 100 175
62 100 179
59 100 175
62 100 179
59 99 176
62 100 180
60 99 177
60 99 177
59 99 176
60 99 178
60 100 176
58 99 174
62 100 180
59 99 176
59 100 175
59 99 176
60 100 176
59 100 175
60 99 178
61 99 178
60 99 178
60 100 176
60 99 177
59 99 175
61 100 178
59 100 175
61 100 177
60 99 177
58 99 175
59 100 175
60 100 176
60 99 178
59 100 175
59 100 176
58 99 174
61 100 176
59 100 175
59 99 175
60 99 175
61 99 178
60 100 177
59 99 175
57 99 173
58 99 174
60 99 175
61 100 176
60 99 176
61 100 177
58 99 174
60 99 175
58 99 173
58 100 172
58 99 174
60 100 176
58 99 172
60 100 176
59 99 175
57 100 172
56 99 170
59 99 175
59 99 174
59 100 175
55 99 169
59 100 173
57 99 170
59 100 174
57 99 169
58 99 172
58 98 169
59 97 167
56 97 164
57 98 166
56 97 164
57 97 166
54 96 159
56 97 163
53 96 161
55 97 161
48 87 140
48 79 113
33 65 74
33 57 45
42 55 40
42 65 46
58 67 51
47 68 48
43 79 52
51 83 52
69 91 62
62 94 61
64 85 58
80 103 65
66 95 62
62 89 59
80 99 70
66 97 63
71 108 67
50 94 58
83 108 68
71 108 69
70 103 67
96 118 77
79 111 72
100 125 80
98 131 81
104 132 81
98 129 80
95 124 78
100 131 81
97 134 81
117 140 88
117 138 87
101 131 80
127 140 91
111 139 85
124 145 92
111 142 87
114 139 88
112 148 88
121 144 89
113 143 87
127 154 93
121 157 92
129 158 94
127 158 94
120 151 90
136 158 96
129 153 93
133 160 95
119 152 91
143 164 99
129 160 94
132 157 94
126 162 95
130 161 94
130 168 97
129 162 95
121 163 94
137 167 98
144 167 99
137 166 98
127 163 94
132 165 96
137 166 98
129 162 95
136 168 97
137 166 98
133 170 98
139 168 99
137 168 99
138 167 98
137 164 96
126 165 94
138 169 98
129 162 93
145 172 101
120 167 93
130 170 97
125 167 94
133 169 97
127 165 95
132 166 96
127 168 95
115 164 90
127 162 93
130 172 97
136 159 93
126 163 93
132 163 94
133 167 96
120 161 91
119 162 91
125 161 92
114 154 87
136 162 94
139 167 97
128 164 94
129 156 91
134 166 95
131 165 94
125 164 93
131 164 94
119 158 89
116 157 88
122 158 89
124 154 88
117 160 88
113 153 86
106 155 85
115 154 87
127 152 89
108 150 83
100 153 83
105 145 81
123 150 87
112 150 83
87 137 74
110 149 83
85 135 71
102 145 80
98 142 76
110 145 81
106 154 87
79 146 87
77 147 95
66 162 106
81 173 123
63 173 122
60 179 129
66 181 135
37 200 152
50 198 156
31 201 157
19 202 160
18 206 165
20 217 175
0 212 167
0 217 174
0 216 174
0 219 179
0 219 179
0 220 179
0 218 179
0 217 178
0 219 179
0 218 178
0 218 179
0 218 177
0 218 178
0 217 178
0 218 179
0 215 175
0 217 178
0 216 176
0 217 178
0 217 177
0 217 178
0 217 177
0 216 177
0 221 179
0 216 178
0 220 180
0 220 180
0 219 179
0 218 178
0 219 180
0 220 180
0 216 176
0 220 180
0 218 177
0 217 178
0 215 177
0 219 179
0 221 180
0 219 178
0 218 179
0 216 176
0 215 176
0 217 178
0 219 178
0 218 177
0 216 177
0 220 179
0 216 177
0 220 180
0 217 176
0 217 178
0 215 176
0 219 178
0 216 176
0 216 177
0 216 177
0 217 178
0 215 176
0 211 173
0 213 174
0 220 179
0 214 176
0 219 178
0 219 179
0 220 179
0 213 174
0 217 177
0 215 177
0 215 178
0 215 176
0 218 177
0 215 176
0 216 178
0 217 177
0 217 178
0 218 178
0 217 176
0 215 176
0 215 176
0 217 177
0 216 177
0 216 176
0 215 176
0 214 176
0 218 179
0 217 177
0 217 175
0 212 174
0 213 175
18 206 176
37 165 170
51 131 172
56 99 170
56 100 170
58 100 173
57 100 171
58 100 172
58 100 172
60 100 176
56 100 169
59 100 175
59 100 174
55 99 169
58 99 174
57 100 172
57 99 173
59 100 175
59 100 173
59 99 176
60 100 176
59 101 174
60 100 176
61 100 177
60 100 176
61 100 177
60 100 175
61 100 178
58 99 175
60 100 177
58 100 173
61 99 179
58 99 175
60 100 177
61 100 177
60 99 177
60 100 176
59 99 176
60 99 177
61 100 178
59 100 175
60 99 177
60 99 177
61 100 178
59 99 176
59 99 177
60 99 178
62 100 178
59 99 176
60 100 176
61 99 178
62 99 180
61 99 179
61 100 178
59 99 176
61 99 178
59 100 175
60 100 177
61 100 178
60 99 177
60 100 176
62 100 178
62 99 180
60 100 176
62 100 179
60 99 177
62 100 180
60 99 177
62 99 180
60 99 178
60 100 175
60 99 177
61 99 178
62 100 180
62 100 179
60 99 177
61 99 179
62 100 180
60 99 177
59 99 177
61 100 178
62 100 179
61 99 178
61 100 178
61 100 177
60 99 177
61 100 178
61 100 177
62 100 179
61 100 179
61 99 179
61 99 179
61 100 178
61 99 179
61 99 179
61 100 177
60 100 176
60 100 177
60 100 177
60 99 177
61 100 178
61 100 178
63 100 180
60 100 176
58 100 175
61 100 178
59 99 176
61 100 178
61 100 178
58 99 174
60 100 176
59 100 175
60 99 176
60 99 177
59 99 177
59 99 175
61 100 177
58 99 175
60 100 177
60 99 177
59 100 175
61 100 178
60 100 176
60 100 176
60 99 177
57 99 173
59 100 175
60 99 177
59 100 176
61 100 177
61 100 177
60 100 176
60 100 177
57 100 172
60 100 175
60 100 175
59 99 175
60 100 176
58 100 174
60 100 176
61 100 178
57 99 173
61 100 177
59 100 175
59 100 175
57 99 172
59 100 175
60 100 175
59 100 174
56 100 171
58 100 172
59 100 174
58 99 175
59 100 174
58 98 171
57 98 170
56 99 170
57 99 172
60 100 175
58 99 172
59 98 174
57 99 171
56 97 167
59 99 172
55 96 162
57 99 170
59 98 168
55 99 166
57 98 167
55 98 164
54 96 162
55 95 162
56 95 162
54 87 147
45 82 123
44 76 91
36 62 52
29 68 43
41 66 47
45 67 45
54 70 54
57 74 51
42 74 50
65 84 58
59 79 53
52 80 54
63 94 59
69 101 64
66 90 59
76 100 65
78 105 65
67 108 65
70 103 66
75 104 67
96 131 80
86 116 73
89 116 73
93 129 78
96 134 80
91 122 77
93 123 78
106 127 82
92 126 78
102 126 80
109 141 84
109 138 83
110 139 85
111 133 84
111 142 86
115 140 88
108 140 86
123 147 89
112 145 88
124 147 92
104 137 84
113 155 90
125 155 93
133 155 95
112 154 89
128 155 93
120 155 91
128 155 93
128 156 93
107 146 85
122 153 90
117 153 89
126 157 93
126 160 94
125 161 94
126 159 94
125 163 95
134 160 96
138 167 99
131 159 95
128 163 95
133 164 96
124 165 96
123 163 92
131 166 96
135 164 96
135 167 97
134 160 96
123 167 94
130 167 96
139 169 99
129 167 95
131 171 96
133 165 96
127 166 95
139 168 98
135 169 97
136 168 97
127 163 93
126 164 93
135 169 98
131 166 94
118 166 92
131 168 96
131 170 97
116 166 92
141 168 98
129 167 95
133 167 97
133 166 96
126 165 93
123 166 93
117 165 92
119 159 89
127 161 92
121 168 94
128 163 93
129 162 92
124 161 92
130 164 94
107 154 85
111 149 84
123 162 91
127 156 90
116 150 85
120 156 88
124 158 90
118 163 90
115 148 84
112 154 86
109 155 85
106 153 84
112 158 88
117 151 85
114 159 88
121 152 86
114 147 84
104 149 82
112 144 81
101 146 80
114 147 83
92 147 79
103 153 86
90 151 91
85 148 94
75 166 110
66 168 115
49 163 112
68 171 123
60 172 121
69 179 128
61 193 144
42 200 156
43 200 158
26 200 155
18 210 167
0 213 169
0 214 172
0 209 166
0 214 172
0 220 179
0 219 178
0 219 179
0 221 181
0 221 181
0 219 178
0 221 179
0 219 179
0 216 177
0 219 179
0 219 178
0 214 178
0 216 177
0 217 178
0 218 178
0 215 176
0 221 180
0 218 178
0 217 178
0 218 178
0 217 179
0 219 178
0 219 179
0 215 176
0 218 177
0 218 177
0 219 179
0 216 176
0 217 178
0 218 177
0 219 179
0 217 177
0 216 178
0 216 178
0 216 178
0 218 179
0 220 180
0 215 176
0 217 177
0 218 178
0 218 179
0 216 178
0 214 176
0 215 175
0 215 175
0 220 179
0 219 179
0 215 176
0 217 177
0 214 176
0 217 178
0 217 178
0 214 176
0 216 177
0 216 177
0 220 179
0 219 179
0 217 178
0 213 175
0 216 176
0 215 176
0 215 177
0 219 180
0 213 175
0 214 176
0 217 177
0 215 176
0 219 179
0 217 177
0 219 178
0 213 173
0 218 178
0 216 177
0 219 180
0 215 175
0 215 177
0 216 177
0 216 177
0 215 177
0 209 172
0 213 175
0 219 178
0 212 175
0 213 174
0 214 174
0 216 177
16 203 172
37 170 172
55 116 172
55 99 169
57 100 170
57 100 172
58 100 174
57 100 172
55 100 169
55 100 170
57 99 172
61 100 177
57 99 172
57 100 172
55 100 170
60 100 176
58 99 172
58 100 173
58 100 174
60 100 176
57 100 172
58 99 175
60 100 176
60 100 177
60 100 176
59 99 175
60 100 177
60 100 176
62 100 178
59 100 175
60 100 177
60 99 176
59 100 175
58 100 174
60 100 176
60 99 177
58 100 173
61 100 177
61 100 177
59 99 175
59 100 175
59 100 176
60 100 176
60 99 177
59 100 175
59 100 174
59 99 175
61 100 178
59 99 176
61 100 178
60 100 176
61 99 179
59 100 175
61 99 179
61 100 177
57 99 174
60 100 177
61 99 178
59 99 175
61 99 178
61 100 178
62 100 179
61 100 178
61 100 178
59 99 175
61 99 178
59 99 176
60 100 177
61 100 178
62 100 179
61 100 178
59 99 176
59 99 177
58 99 175
62 100 178
58 99 174
61 99 178
60 100 176
61 100 178
61 100 178
61 100 179
60 99 177
61 100 178
60 99 178
61 99 178
61 100 177
60 100 177
60 100 176
62 100 180
61 100 178
59 99 176
60 100 177
60 99 177
61 99 178
62 100 179
61 100 178
61 100 178
58 100 174
58 100 174
59 100 176
61 100 178
60 99 177
60 99 178
61 100 177
60 100 176
61 100 177
60 100 176
60 99 177
61 100 178
60 100 177
58 100 174
60 100 177
61 100 178
60 100 176
59 99 175
61 99 178
60 100 176
61 100 177
61 100 178
60 100 176
59 99 176
59 99 176
60 100 176
60 99 177
60 100 175
60 99 175
57 99 173
58 99 175
60 100 175
59 100 175
59 100 175
58 100 174
59 100 175
58 99 174
58 100 173
57 100 172
56 100 171
57 100 172
58 99 175
57 99 171
59 99 175
61 100 177
61 100 177
58 99 174
58 99 173
59 99 175
59 100 173
59 100 174
61 101 176
58 99 172
59 100 174
57 98 171
59 99 176
59 100 175
60 99 174
58 98 172
57 98 170
57 99 169
59 100 172
58 100 172
57 99 169
58 99 170
58 99 171
58 98 170
57 98 170
58 99 170
58 98 168
58 99 168
57 98 168
55 98 166
55 96 161
55 96 162
56 96 161
51 91 152
48 84 126
39 75 98
33 69 60
26 58 39
46 74 48
41 67 43
34 61 43
43 66 47
47 67 47
55 75 50
69 89 59
70 87 59
55 84 56
68 98 64
70 99 63
73 99 66
72 100 67
67 107 67
81 108 69
75 114 68
63 107 67
77 112 69
80 106 67
81 116 70
96 127 78
92 121 76
90 121 74
106 127 81
91 121 76
84 130 79
102 132 83
114 141 86
91 129 79
97 136 80
119 149 89
109 145 86
106 139 83
102 134 80
102 144 84
114 148 89
124 149 91
122 151 90
113 152 89
117 150 91
120 149 90
114 152 87
121 153 90
126 156 93
121 163 94
130 157 93
126 155 93
128 156 94
132 158 95
132 159 95
125 157 93
134 161 95
122 163 93
137 160 96
133 166 96
135 163 97
127 164 94
128 165 95
137 169 99
141 164 98
131 163 96
143 169 99
130 169 98
129 165 95
146 166 99
131 162 94
130 162 95
131 166 95
141 165 98
134 169 97
136 167 97
127 162 94
140 169 99
125 166 94
127 168 95
117 167 92
146 167 99
140 165 97
137 168 97
129 166 95
144 169 99
123 165 92
124 164 93
133 163 95
128 170 96
123 161 91
136 165 96
129 165 95
115 160 89
135 165 95
126 166 94
123 158 90
111 155 86
120 156 88
125 160 91
123 155 89
127 161 92
127 165 93
113 162 89
119 156 89
107 160 87
116 154 87
115 151 85
110 148 83
109 151 84
111 154 85
113 160 88
116 157 88
118 154 86
113 153 86
104 152 83
107 151 83
99 140 77
105 151 83
102 150 81
92 139 75
92 149 79
90 133 71
85 141 81
81 143 79
77 160 99
77 164 111
78 173 112
63 175 131
72 172 124
59 180 133
51 187 141
27 197 152
43 200 156
43 198 155
0 209 167
0 213 169
0 213 171
0 209 168
0 214 171
0 216 174
0 220 180
0 220 179
0 218 178
0 217 178
0 216 175
0 222 181
0 220 179
0 219 180
0 218 177
0 217 177
0 218 179
0 218 178
0 218 177
0 220 180
0 218 179
0 217 177
0 217 178
0 218 178
0 215 176
0 217 176
0 218 179
0 216 176
0 219 179
0 218 178
0 218 179
0 218 178
0 215 176
0 216 177
0 217 177
0 217 179
0 220 180
0 218 178
0 214 175
0 218 179
0 217 177
0 218 179
0 218 178
0 217 177
0 218 178
0 221 181
0 221 180
0 215 177
0 214 176
0 216 177
0 217 178
0 217 178
0 220 179
0 216 177
0 216 177
0 219 179
0 218 178
0 218 177
0 217 177
0 216 177
0 217 178
0 219 178
0 218 179
0 217 177
0 215 177
0 215 176
0 217 177
0 217 177
0 218 178
0 215 176
0 217 177
0 215 176
0 216 177
0 218 178
0 217 177
0 217 177
0 220 180
0 216 176
0 216 177
0 216 177
0 215 176
0 216 177
0 217 178
0 215 176
0 218 177
0 214 176
0 210 173
0 213 175
0 217 177
0 219 179
0 211 172
0 214 175
27 199 177
44 153 171
55 103 170
55 100 168
59 100 174
57 100 171
58 100 172
56 100 170
59 100 174
60 100 175
56 100 171
57 100 172
59 100 174
57 100 171
59 100 175
59 100 175
58 100 174
59 100 175
58 100 173
59 100 175
59 99 175
60 100 175
57 100 172
58 100 173
60 100 175
60 100 176
60 100 177
58 100 173
59 100 175
59 100 176
60 100 177
59 99 176
61 100 178
60 100 176
61 100 178
60 100 176
59 100 176
61 100 177
60 100 176
60 99 177
61 100 177
60 99 178
62 100 179
61 99 178
61 100 177
59 100 176
61 100 177
61 100 177
60 100 175
61 100 178
60 99 177
60 100 176
61 100 177
60 99 177
61 99 178
61 100 177
60 99 178
61 100 178
59 99 176
60 99 177
60 100 176
61 100 178
60 100 176
61 100 179
61 100 178
60 100 176
60 99 177
61 100 178
59 99 175
58 100 175
61 100 178
60 99 177
61 100 177
60 100 176
61 100 178
61 99 178
62 100 179
60 99 177
60 100 176
60 99 177
60 100 177
60 100 176
61 99 178
58 100 173
61 99 178
60 99 177
59 99 175
61 100 178
61 100 178
60 100 177
60 100 176
59 99 177
62 100 179
62 100 179
59 99 175
59 100 176
60 100 176
60 100 177
59 99 176
61 99 178
60 100 175
61 100 177
61 100 178
60 99 176
59 99 176
62 100 180
59 100 175
62 100 180
60 100 177
60 100 176
59 99 175
61 100 177
60 99 178
59 100 175
59 100 175
61 100 177
60 99 178
59 100 175
60 100 175
59 100 175
61 100 178
60 99 177
59 99 176
60 99 176
59 99 175
61 100 177
60 100 176
61 100 177
60 100 177
60 99 178
58 100 174
60 100 176
59 100 175
61 100 176
62 100 179
59 100 175
59 99 175
56 99 171
60 100 176
58 99 173
59 100 173
59 99 176
58 100 173
58 100 174
60 100 175
60 100 175
59 100 175
60 100 176
57 98 171
59 100 174
59 100 175
59 99 174
57 100 171
60 99 174
58 99 173
59 100 174
56 100 171
57 99 170
59 99 170
58 99 173
55 100 169
56 99 169
56 99 169
55 98 167
57 99 170
54 98 164
58 99 172
58 96 167
59 98 170
56 98 166
58 98 167
54 94 158
56 96 164
52 94 153
52 89 136
43 80 105
31 70 77
29 62 39
27 62 41
46 70 45
32 57 42
38 63 39
53 80 53
45 84 54
48 76 51
54 83 53
62 92 59
65 96 60
62 91 58
78 94 61
79 103 66
83 104 68
72 105 64
82 109 68
83 121 75
85 111 71
86 117 74
82 118 73
82 126 76
97 128 78
87 121 76
96 124 77
101 129 80
105 139 82
90 133 79
114 140 85
101 133 82
95 132 77
111 138 85
118 147 90
116 140 85
113 144 88
100 138 83
116 149 89
134 159 97
99 150 86
109 151 87
120 153 91
113 154 90
114 149 87
136 157 95
117 158 91
138 161 98
129 157 94
116 154 89
132 156 94
132 156 94
137 164 99
129 161 95
135 162 96
132 163 96
121 159 92
128 161 95
131 165 95
123 165 95
143 169 100
113 162 90
121 166 93
121 162 91
129 163 95
140 167 98
135 164 95
122 160 91
116 166 92
131 167 97
134 168 97
127 169 97
133 168 97
129 164 94
126 164 93
124 167 94
121 164 92
134 168 97
128 168 96
138 165 97
123 164 93
128 159 92
126 167 95
123 166 93
143 168 99
128 165 94
128 165 94
132 163 94
127 167 94
112 163 90
129 163 93
117 162 91
126 165 93
121 161 91
131 166 93
124 167 93
124 158 90
138 164 95
117 159 89
120 163 91
126 167 94
110 150 84
127 160 91
119 158 89
120 154 88
107 153 84
94 152 82
108 154 85
110 152 84
93 149 79
118 160 88
106 152 83
109 149 82
108 155 83
113 151 84
101 146 79
98 136 75
108 140 79
98 143 78
96 147 79
87 146 82
90 150 89
66 144 86
74 150 93
85 162 111
66 169 117
53 171 117
75 180 132
60 183 136
50 180 136
43 198 154
33 206 163
0 201 158
27 210 169
0 207 164
0 218 175
0 212 169
0 214 172
0 213 167
0 218 180
0 216 176
0 217 178
0 214 175
0 218 178
0 218 179
0 219 178
0 220 179
0 217 178
0 219 179
0 216 178
0 216 178
0 221 181
0 218 178
0 219 179
0 218 177
0 219 178
0 217 179
0 219 178
0 219 179
0 219 178
0 215 176
0 220 180
0 218 178
0 217 177
0 215 177
0 216 176
0 218 179
0 216 177
0 217 178
0 217 179
0 218 178
0 216 176
0 218 178
0 218 179
0 218 180
0 217 177
0 217 178
0 217 178
0 214 176
0 219 179
0 218 178
0 218 179
0 218 179
0 219 179
0 215 176
0 218 179
0 217 178
0 220 179
0 219 178
0 218 178
0 212 174
0 216 177
0 216 177
0 219 178
0 214 174
0 217 177
0 219 180
0 215 176
0 217 178
0 217 178
0 215 176
0 214 176
0 219 178
0 216 176
0 214 174
0 217 178
0 215 174
0 214 176
0 216 177
0 213 175
0 214 175
0 217 177
0 215 175
0 219 178
0 218 178
0 217 177
0 211 173
0 218 178
0 217 178
0 213 175
0 214 175
0 216 176
0 217 178
0 217 177
9 211 176
26 193 175
47 139 169
58 100 171
53 100 166
58 100 171
57 100 173
55 99 169
57 100 171
58 100 172
55 100 167
60 100 175
58 100 173
57 100 172
57 100 172
58 99 174
57 100 172
57 100 173
57 99 172
56 100 172
59 99 175
57 99 173
58 100 174
58 100 174
61 100 177
58 100 174
59 100 175
60 100 176
59 100 175
59 100 175
61 100 177
60 100 176
62 100 179
58 99 174
60 99 177
59 100 175
61 100 177
60 100 176
61 100 178
60 100 177
60 100 176
60 99 177
60 99 176
62 100 178
60 100 176
58 99 175
61 100 177
62 99 179
58 100 174
61 100 177
60 99 177
60 99 177
58 99 175
60 100 177
62 100 178
60 100 176
60 99 178
61 100 178
61 99 178
62 100 180
60 99 178
61 100 177
62 100 179
60 100 177
60 99 177
61 100 178
60 99 177
60 99 177
61 100 178
60 100 177
61 100 178
60 100 176
61 100 178
59 99 176
59 99 175
61 100 177
60 100 177
60 99 177
60 100 176
63 101 179
61 100 178
60 99 177
61 100 178
61 99 178
60 99 177
60 100 176
61 99 179
60 99 178
60 100 176
59 99 176
60 100 177
60 99 176
61 100 177
61 100 178
59 100 175
59 100 175
58 100 174
61 99 179
61 99 178
60 99 177
60 100 176
60 100 177
59 99 176
59 99 176
59 100 176
58 100 174
57 99 173
60 99 176
61 99 178
59 100 175
59 100 175
61 100 177
62 100 178
60 99 178
61 100 178
61 100 177
59 100 175
59 99 176
59 99 176
59 99 175
62 100 179
59 99 176
61 99 179
59 99 175
62 100 178
60 100 175
60 100 175
61 100 178
61 100 178
59 100 175
59 100 175
60 100 175
59 100 174
59 100 175
60 99 177
60 100 176
59 100 175
61 100 176
57 100 172
59 99 175
59 100 175
58 99 174
59 99 174
60 100 176
58 100 174
60 100 176
57 99 173
58 100 173
58 100 173
58 100 173
58 99 174
58 99 174
59 100 175
59 100 174
58 100 173
58 100 172
59 100 174
60 100 174
59 100 175
57 99 171
57 99 172
58 99 170
59 100 173
60 100 173
57 99 170
59 99 171
55 98 165
53 98 164
56 97 164
57 99 168
57 99 170
56 98 166
58 99 168
54 94 159
56 96 160
49 89 146
42 81 120
41 73 88
30 68 48
35 75 46
44 72 46
27 73 41
39 70 46
42 73 48
45 78 50
61 94 58
54 79 51
55 96 59
63 96 59
60 94 62
63 101 61
65 100 64
68 114 67
78 108 68
78 112 69
88 109 70
87 116 73
78 109 70
82 122 72
70 110 67
89 125 75
92 122 76
87 131 79
85 134 77
110 132 83
107 134 82
92 140 81
98 132 81
96 133 80
103 134 82
111 143 85
108 142 86
112 148 89
118 158 91
108 146 86
108 146 86
123 151 91
107 145 85
134 158 95
112 149 88
110 149 88
122 155 92
130 157 93
120 152 90
123 157 90
121 153 90
125 158 92
121 157 92
129 157 94
122 158 93
125 161 94
138 163 97
131 160 95
126 159 93
122 157 92
124 160 91
136 165 97
129 162 94
127 161 94
141 164 99
128 159 93
134 166 97
124 162 93
129 164 95
124 165 94
134 166 96
127 169 95
137 168 97
123 169 95
142 167 98
136 166 96
126 162 93
127 166 94
128 166 95
119 165 93
119 159 89
126 164 93
124 168 93
115 159 89
122 161 91
112 165 90
130 166 95
129 166 94
126 163 92
118 163 90
125 160 92
112 158 88
115 156 87
117 166 91
124 164 93
131 160 92
122 162 91
110 162 88
122 164 92
114 155 87
116 157 87
108 152 83
130 163 94
112 154 85
122 152 88
117 158 88
120 151 86
118 155 86
103 155 84
115 148 83
112 155 86
119 158 89
108 150 83
120 158 89
97 154 82
98 151 81
84 139 73
110 146 82
107 149 82
84 146 76
107 143 80
79 143 77
70 139 81
92 154 93
80 153 101
72 166 110
68 168 112
65 174 120
46 176 126
46 185 135
46 188 140
41 200 154
50 198 154
43 205 161
27 209 167
0 211 168
0 218 175
0 213 167
0 216 172
0 214 171
0 217 178
0 218 180
0 217 178
0 216 176
0 221 180
0 218 179
0 218 178
0 218 178
0 218 177
0 219 178
0 220 180
0 218 178
0 217 176
0 219 179
0 217 178
0 218 180
0 218 178
0 217 178
0 218 179
0 220 179
0 219 179
0 217 178
0 219 178
0 218 178
0 219 178
0 220 178
0 218 178
0 218 178
0 213 174
0 217 177
0 215 176
0 219 179
0 217 178
0 218 178
0 220 180
0 217 178
0 214 175
0 216 177
0 218 178
0 219 179
0 218 178
0 219 179
0 218 179
0 217 178
0 216 178
0 214 176
0 216 177
0 216 176
0 217 176
0 215 175
0 218 178
0 215 176
0 213 174
0 218 177
0 216 176
0 213 173
0 216 177
0 217 177
0 218 178
0 218 179
0 218 178
0 214 176
0 217 177
0 215 176
0 214 177
0 216 176
0 214 175
0 216 176
0 218 178
0 214 176
0 219 180
0 209 170
0 213 175
0 212 173
0 216 176
0 215 176
0 218 179
0 212 174
0 216 176
0 214 175
0 215 176
0 217 178
0 215 176
0 215 176
0 215 176
18 206 177
31 183 173
50 130 171
58 100 171
56 100 170
56 100 170
59 100 173
55 99 168
59 100 175
57 100 171
59 100 175
56 100 170
60 100 176
58 100 173
59 100 174
59 100 174
59 99 174
58 100 173
59 100 174
57 100 173
58 100 174
59 99 175
60 100 175
58 99 175
59 100 175
58 100 174
60 100 176
61 100 178
58 99 175
60 100 177
60 99 177
60 100 175
60 100 175
58 99 175
61 100 178
59 99 175
59 100 175
60 99 176
60 100 177
59 99 175
59 100 175
60 99 176
59 100 175
60 99 178
61 99 178
59 99 176
60 100 177
59 100 176
61 99 178
61 100 177
60 100 177
62 100 178
60 100 177
61 100 178
62 99 180
62 100 180
60 100 177
59 99 176
60 100 177
60 100 177
62 100 180
60 100 177
60 99 176
61 100 178
61 100 177
60 99 178
62 100 178
60 99 177
60 100 176
61 100 178
60 99 177
61 99 179
58 99 175
61 99 178
61 100 178
61 99 178
59 99 176
59 100 175
62 100 179
58 99 175
58 99 175
61 100 177
62 100 180
58 99 174
62 100 179
61 100 178
62 100 178
62 100 178
59 99 175
60 99 177
59 100 176
61 100 177
61 100 178
61 100 178
60 99 177
60 99 178
61 100 178
59 100 175
61 100 176
60 99 177
60 99 179
59 99 176
61 99 178
60 100 177
60 100 176
61 100 176
61 100 178
60 99 178
62 100 178
61 100 178
60 100 176
60 100 177
60 100 177
62 100 178
60 100 176
60 100 176
60 100 176
60 100 177
59 100 175
60 99 177
57 99 174
61 99 178
61 100 177
58 99 174
60 100 176
58 100 174
59 100 175
58 100 174
59 100 175
60 100 177
59 100 176
58 99 174
60 101 175
59 100 175
62 100 178
58 100 173
61 100 176
59 99 175
59 100 175
59 100 174
62 100 178
59 100 175
59 100 175
57 100 171
59 100 175
58 100 174
58 100 174
58 99 174
59 100 174
59 99 174
57 99 171
59 99 173
57 101 171
60 100 175
59 99 173
58 100 173
59 100 174
60 100 174
57 99 170
58 97 171
57 100 170
58 99 173
56 98 169
58 99 172
54 98 166
58 98 168
57 100 171
55 97 164
56 96 163
56 97 166
57 98 166
53 95 156
54 95 160
57 97 164
54 95 159
51 90 149
48 83 122
38 82 86
40 69 60
40 76 49
54 84 50
26 73 47
42 76 49
52 80 53
38 78 47
47 88 53
54 91 60
54 89 56
66 94 59
58 97 59
58 97 62
59 98 62
79 105 66
75 109 68
76 111 69
76 111 71
87 114 71
76 107 69
82 105 69
82 122 72
87 119 76
96 123 75
91 125 77
97 124 79
97 123 77
80 127 74
95 137 80
97 130 79
104 141 83
103 141 82
112 141 85
105 138 83
100 140 81
117 149 89
102 143 83
113 148 88
105 146 86
119 148 88
118 146 88
119 149 90
107 145 85
111 152 88
117 149 88
107 144 86
111 155 89
117 157 91
112 157 90
125 159 92
118 160 92
122 158 92
109 164 90
127 158 93
130 165 96
128 159 93
135 167 97
113 162 91
126 161 93
132 165 96
116 162 91
121 164 93
138 163 96
132 163 96
122 163 93
127 166 95
136 169 97
130 165 95
122 167 93
122 163 92
141 166 97
128 167 95
126 163 93
126 166 95
124 164 92
119 165 92
132 166 95
129 168 96
138 166 97
128 168 95
127 168 95
129 163 94
126 167 94
113 159 88
138 165 96
122 167 93
131 165 94
112 157 87
109 160 87
120 162 90
118 162 89
123 158 90
111 164 90
116 160 89
117 161 89
113 158 88
123 156 89
116 156 87
124 157 90
124 160 91
111 157 87
119 159 90
96 156 83
100 155 83
96 151 81
96 150 80
103 148 81
117 150 86
103 157 84
102 156 83
105 151 82
117 150 85
106 151 83
113 148 83
95 146 79
114 148 82
87 144 76
96 144 78
92 139 85
89 136 78
80 148 92
82 168 116
90 165 113
66 163 110
73 178 129
71 186 136
38 184 140
51 193 145
38 202 157
26 204 159
38 203 158
0 210 162
0 213 170
0 214 170
0 214 173
0 209 166
0 214 171
0 218 178
0 215 175
0 218 179
0 216 178
0 221 181
0 217 177
0 218 178
0 214 175
0 218 178
0 218 178
0 219 179
0 217 177
0 212 173
0 219 180
0 219 178
0 218 179
0 215 176
0 218 178
0 218 178
0 219 179
0 219 179
0 218 177
0 217 177
0 220 180
0 214 176
0 218 178
0 219 179
0 218 179
0 217 178
0 218 179
0 215 178
0 216 175
0 217 178
0 217 178
0 218 178
0 213 174
0 217 177
0 218 177
0 214 175
0 220 180
0 213 175
0 216 177
0 220 181
0 219 180
0 218 178
0 215 176
0 217 179
0 218 179
0 216 176
0 216 177
0 210 172
0 215 176
0 220 179
0 217 178
0 216 176
0 220 180
0 216 177
0 216 177
0 217 179
0 216 178
0 217 178
0 217 178
0 216 177
0 215 176
0 214 176
0 216 176
0 217 177
0 213 175
0 215 176
0 213 175
0 214 175
0 217 177
0 216 175
0 216 178
0 217 177
0 216 177
0 213 174
0 215 176
0 213 175
0 215 175
0 214 175
0 213 174
0 212 173
0 211 173
0 217 178
11 207 174
41 160 171
55 106 171
54 100 166
56 100 169
56 100 171
57 101 169
57 99 171
57 100 171
54 100 167
58 100 173
55 100 170
58 100 172
59 100 175
56 99 171
58 100 174
57 100 172
57 99 173
58 100 174
59 100 174
58 100 174
56 100 171
60 99 175
59 100 175
60 99 176
58 99 174
61 100 177
60 100 177
55 100 170
58 100 174
59 100 174
59 99 176
60 100 176
60 99 177
58 99 174
58 100 174
60 100 176
59 99 176
60 100 176
60 100 176
57 99 173
60 100 176
61 100 177
61 100 177
61 100 177
61 100 178
61 100 178
61 100 178
59 100 175
58 99 175
61 100 178
60 100 176
61 100 177
60 100 177
59 99 176
60 100 176
60 100 175
61 100 178
59 100 175
61 100 178
61 99 178
61 100 178
61 100 178
59 99 176
61 100 178
62 100 179
61 100 178
60 100 177
60 100 177
60 99 177
60 99 177
58 99 175
60 100 177
61 100 178
58 99 175
63 100 180
60 99 177
60 100 177
61 100 177
60 99 177
60 100 177
60 99 177
62 100 178
59 100 175
60 100 175
61 100 178
60 100 177
60 100 174
60 100 175
61 99 179
62 99 180
60 99 176
60 99 176
60 100 177
61 99 178
62 100 178
60 100 176
61 100 178
60 99 176
61 100 178
60 100 176
60 100 177
60 100 176
61 100 177
59 100 175
61 100 177
58 100 174
61 100 178
60 100 176
60 100 176
57 99 174
62 100 178
59 100 175
60 100 176
62 100 179
60 99 177
61 100 177
57 99 174
59 99 174
58 100 174
62 100 178
60 100 176
61 99 178
61 100 177
60 100 176
59 99 176
59 100 175
58 99 174
58 99 174
59 99 175
58 100 174
60 99 177
58 100 173
61 100 177
59 100 176
60 99 177
61 101 176
58 100 174
57 100 172
59 99 175
59 100 175
59 100 175
57 100 173
59 100 174
59 100 174
59 100 175
59 100 175
60 100 175
57 99 172
58 99 173
57 100 172
59 100 173
60 100 175
56 100 171
61 100 175
59 100 176
60 100 173
57 99 169
57 98 171
54 99 168
57 99 169
57 98 168
58 100 171
54 99 165
56 98 167
57 99 171
57 99 168
54 96 163
55 96 162
55 97 162
56 98 165
54 97 162
57 96 164
54 96 159
57 97 166
52 94 153
46 83 126
44 80 97
33 67 53
31 66 41
26 61 40
39 72 43
41 85 50
34 81 48
32 72 45
48 89 54
52 81 53
53 97 57
60 85 53
60 91 59
79 98 65
58 93 59
67 104 66
80 108 66
72 112 66
64 106 65
85 107 70
76 115 71
85 118 72
86 116 72
82 111 69
86 124 74
91 124 73
91 126 77
99 130 80
89 120 76
82 123 72
105 136 83
95 135 80
101 142 84
97 134 80
100 135 82
108 148 86
103 134 82
101 140 81
111 145 86
101 154 85
107 148 86
118 152 89
115 155 90
115 149 88
117 155 89
109 155 89
124 154 91
117 154 90
109 150 86
104 154 88
119 162 93
121 158 91
137 161 97
132 166 96
104 163 88
121 156 91
123 155 91
143 168 99
135 165 96
128 165 95
123 157 91
126 164 94
106 156 86
127 162 93
127 166 95
132 164 95
122 162 92
123 160 91
123 163 92
110 165 90
117 161 90
108 160 88
127 163 93
126 162 93
123 165 94
125 169 94
114 165 89
127 166 94
120 159 90
123 165 92
125 166 94
137 167 97
119 161 90
122 153 87
120 163 91
122 164 92
106 160 87
133 167 96
110 157 86
130 164 94
123 161 91
116 157 88
107 162 88
103 159 84
118 158 89
111 157 87
121 155 88
108 159 87
126 158 91
106 153 84
115 158 87
120 154 87
114 159 87
100 152 82
103 155 84
122 155 88
113 155 86
108 150 83
120 157 88
93 149 80
104 149 82
98 147 80
103 151 82
97 145 78
99 148 81
90 143 76
103 152 82
96 137 75
95 144 81
82 145 84
86 157 99
67 159 100
64 158 109
59 166 110
58 176 124
46 180 132
60 179 130
54 188 140
38 196 152
37 197 154
42 204 158
0 210 167
0 209 166
0 215 173
0 214 169
0 212 170
0 219 175
0 216 173
0 216 177
0 216 178
0 220 180
0 219 179
0 219 179
0 220 179
0 217 178
0 216 177
0 214 175
0 219 179
0 219 179
0 219 178
0 220 180
0 218 178
0 214 176
0 221 181
0 218 178
0 219 179
0 218 179
0 221 181
0 220 180
0 216 178
0 218 179
0 218 178
0 217 178
0 214 174
0 219 179
0 215 177
0 217 178
0 217 177
0 218 178
0 220 179
0 220 180
0 220 180
0 220 180
0 214 176
0 217 177
0 219 180
0 215 176
0 216 177
0 214 175
0 215 176
0 217 178
0 217 178
0 217 177
0 217 177
0 219 179
0 218 178
0 217 176
0 215 177
0 219 178
0 216 177
0 214 175
0 215 176
0 217 178
0 214 176
0 214 176
0 216 177
0 216 176
0 216 177
0 215 177
0 213 174
0 213 175
0 212 174
0 219 178
0 212 174
0 212 174
0 218 179
0 214 177
0 217 177
0 211 173
0 217 178
0 217 178
0 215 176
0 216 178
0 214 175
0 214 174
0 212 174
0 215 174
0 217 178
0 213 175
0 217 176
0 213 174
0 218 179
8 209 173
27 190 171
41 157 170
52 108 166
55 99 170
58 100 172
59 100 174
60 100 175
56 100 169
59 100 174
58 100 173
52 99 165
56 100 170
58 100 172
56 100 170
59 100 175
59 100 175
56 100 171
60 100 176
59 99 174
58 100 174
59 100 175
58 99 174
60 100 175
60 100 176
56 99 171
59 100 175
59 100 175
59 100 175
60 100 175
60 100 176
58 100 174
60 100 176
58 99 174
58 99 175
61 99 178
58 100 175
60 99 177
59 100 175
60 99 177
60 100 176
60 100 176
60 100 176
62 100 180
59 99 175
61 100 177
59 100 174
61 100 177
60 99 177
62 100 178
60 99 177
61 100 177
60 99 176
60 100 175
62 100 179
61 100 177
58 100 174
59 99 176
60 100 177
61 100 178
59 99 175
60 99 179
60 100 177
59 99 175
60 100 176
60 100 177
59 99 176
60 100 177
59 99 176
60 100 175
59 100 175
59 99 176
61 100 177
61 100 178
60 100 177
61 100 179
60 99 177
61 100 178
60 100 176
61 100 179
61 100 178
62 99 179
58 99 174
58 100 174
61 100 177
61 100 178
60 100 176
61 100 178
61 99 177
60 100 177
59 99 176
61 99 179
60 100 176
61 100 177
61 100 177
60 100 176
59 100 176
57 99 171
58 99 174
61 100 178
60 100 177
60 99 177
61 100 177
60 100 176
61 100 178
60 99 177
60 100 176
61 100 176
58 99 175
58 99 175
57 99 173
61 100 177
59 100 175
59 100 175
60 99 177
60 99 176
62 100 178
59 100 175
60 100 177
59 100 175
59 99 176
59 100 175
60 100 176
56 99 172
59 100 175
60 99 175
61 100 178
60 100 175
59 100 175
58 99 175
58 100 175
61 100 176
57 100 172
59 100 175
59 100 175
60 100 176
58 100 173
59 100 175
59 99 175
59 100 175
57 99 172
60 100 176
60 100 176
59 100 174
59 100 174
61 100 177
57 99 173
59 100 175
58 99 172
56 99 171
59 101 174
59 99 175
59 99 174
56 99 170
58 99 173
59 100 173
59 99 175
57 100 171
59 100 174
56 99 169
56 100 169
57 100 170
58 99 173
57 100 170
57 97 168
58 99 173
55 97 165
55 97 163
57 97 167
59 99 171
55 98 165
56 96 162
53 97 162
55 96 162
54 97 160
54 95 160
53 95 157
49 84 133
44 76 101
37 74 78
25 56 39
35 77 48
28 75 44
38 83 48
43 75 49
35 84 51
48 81 53
47 92 55
34 86 51
66 100 64
59 105 63
68 101 61
65 95 62
69 101 64
63 102 64
68 108 65
77 111 68
66 112 69
73 112 69
87 122 74
68 110 69
80 122 72
103 132 80
90 121 75
82 126 74
72 114 68
77 124 74
99 135 79
99 139 80
102 135 82
105 142 83
93 136 80
100 135 82
99 140 82
110 147 87
122 146 89
109 146 86
109 147 85
119 150 89
108 146 86
114 148 87
138 157 96
124 160 92
117 150 88
128 157 92
111 151 87
120 155 90
126 156 93
125 156 92
115 158 90
132 161 94
118 156 90
112 158 88
113 156 89
124 161 93
129 163 94
111 162 90
137 164 96
123 164 93
120 158 90
121 164 93
124 162 92
129 163 94
122 161 92
128 165 95
116 165 91
121 160 91
112 160 88
129 164 93
128 161 93
123 165 93
100 161 87
126 162 93
120 161 91
141 168 97
108 159 87
124 162 92
125 162 92
124 157 90
122 167 94
125 165 93
120 159 89
117 160 89
124 164 92
128 162 93
127 160 91
118 162 91
118 163 91
115 160 89
110 159 88
112 156 86
107 158 86
118 156 87
105 158 85
101 151 81
117 161 90
106 153 84
98 154 83
119 158 89
118 160 90
115 156 86
102 153 83
100 155 82
96 151 81
105 157 85
109 158 86
94 148 80
110 148 82
110 153 85
109 153 84
104 149 82
90 136 73
102 144 79
102 141 77
91 130 71
97 146 81
80 136 76
76 140 82
62 152 96
77 162 103
75 166 109
56 172 120
67 176 124
62 176 123
46 187 139
50 195 148
27 190 144
33 195 150
36 209 164
19 211 170
19 214 169
0 212 168
0 216 172
0 216 172
0 214 171
0 214 171
0 216 178
0 218 179
0 219 179
0 220 179
0 218 178
0 219 179
0 221 180
0 216 178
0 219 179
0 216 178
0 217 178
0 219 179
0 219 179
0 219 179
0 218 178
0 217 178
0 217 177
0 215 177
0 218 179
0 216 177
0 216 177
0 215 177
0 219 179
0 220 180
0 219 179
0 216 176
0 220 180
0 216 178
0 220 180
0 218 178
0 218 179
0 216 177
0 220 179
0 216 176
0 213 176
0 214 175
0 218 179
0 219 179
0 213 176
0 218 178
0 221 181
0 219 179
0 218 178
0 216 177
0 216 178
0 219 178
0 216 177
0 217 176
0 218 177
0 216 177
0 209 173
0 217 177
0 217 178
0 216 178
0 217 177
0 218 179
0 215 177
0 218 177
0 217 177
0 214 177
0 213 175
0 215 176
0 217 178
0 215 176
0 218 179
0 216 176
0 215 175
0 216 176
0 218 178
0 212 174
0 215 177
0 217 177
0 216 178
0 215 177
0 217 176
0 215 178
0 213 173
0 218 178
0 216 176
0 216 177
0 216 176
0 215 176
0 215 177
0 216 177
6 213 176
26 189 170
46 141 169
58 100 172
54 100 168
60 100 176
56 100 170
57 100 171
56 100 171
57 100 171
55 100 169
55 100 169
56 99 172
58 99 174
60 100 176
59 100 174
57 100 173
57 99 172
59 100 175
61 100 177
57 100 172
58 99 174
58 100 174
60 100 175
58 100 173
58 99 174
58 100 174
60 100 175
59 100 175
58 99 174
61 100 177
60 100 175
58 100 174
60 100 176
59 100 175
61 100 178
58 100 173
58 100 174
59 100 176
57 99 174
60 100 176
59 100 176
61 100 177
60 99 177
59 100 175
60 100 177
61 100 178
61 100 178
62 100 178
61 99 180
62 100 178
60 99 177
60 99 177
57 99 173
62 100 180
61 100 179
61 99 177
60 100 176
60 100 177
61 100 178
58 99 174
61 100 178
61 100 177
60 100 176
61 100 178
60 99 176
60 99 177
60 100 176
57 99 174
59 99 175
60 100 177
60 100 178
60 101 175
59 99 175
60 100 176
61 100 177
59 100 175
60 100 176
61 100 178
60 100 176
59 100 175
60 100 177
59 100 175
61 100 178
59 99 176
61 100 177
58 99 176
59 99 176
60 100 177
60 100 177
60 99 177
60 100 176
57 100 173
61 99 177
60 99 176
60 100 175
59 100 175
59 99 175
59 100 175
59 100 175
59 99 176
61 99 178
60 99 178
60 99 177
58 100 173
60 100 176
61 100 177
59 100 175
59 99 175
60 99 177
59 100 175
61 100 178
60 100 176
58 99 174
60 100 176
60 100 177
60 100 176
59 100 175
60 100 176
61 100 177
59 100 174
60 100 176
61 100 176
61 100 177
59 99 176
55 99 170
60 100 175
60 99 176
60 100 176
59 100 174
61 100 176
59 99 175
60 100 175
60 100 175
58 100 173
61 100 177
59 100 173
57 99 172
59 100 175
60 100 176
59 99 174
58 100 173
57 100 171
57 99 172
61 100 176
61 100 175
59 100 173
59 100 174
58 100 173
57 100 171
62 101 177
57 99 172
59 100 174
58 100 174
59 100 173
59 100 172
60 100 175
60 99 174
57 99 170
58 99 172
56 99 169
58 99 172
60 100 175
57 99 169
56 99 167
55 99 167
57 98 167
58 99 170
58 98 170
59 99 173
55 97 164
58 98 167
57 98 168
55 98 167
53 95 157
52 94 155
52 95 156
49 87 141
42 84 114
37 71 76
42 75 56
32 81 47
30 73 44
46 81 50
32 78 47
47 81 51
54 82 56
59 85 54
34 88 53
59 98 62
46 99 57
69 97 63
50 100 59
57 105 61
67 99 61
61 110 66
74 110 65
76 106 67
63 120 69
83 121 71
75 119 70
75 113 67
91 128 76
78 120 69
81 120 72
96 134 80
99 128 77
90 123 75
90 122 74
98 142 82
109 130 82
116 142 88
117 148 88
107 147 86
97 140 82
98 138 80
105 147 85
113 147 87
109 143 84
118 151 89
120 151 90
114 147 86
113 147 87
127 156 91
106 147 84
127 153 91
94 151 84
128 158 94
123 157 91
117 157 89
133 159 94
128 163 94
128 160 93
119 159 91
112 153 88
113 159 89
124 164 93
122 159 90
139 167 98
130 160 93
121 163 92
124 160 92
115 163 91
124 164 93
127 165 94
109 164 90
121 159 91
121 164 92
125 164 93
114 160 89
125 167 94
106 159 87
125 164 93
111 163 90
121 164 92
114 162 90
122 164 92
115 159 89
127 167 95
125 163 92
124 163 92
117 160 90
122 160 90
117 162 90
120 161 89
119 153 87
116 160 89
108 166 90
121 160 90
113 156 87
110 153 84
125 166 93
124 155 88
119 157 88
112 155 86
125 160 91
102 152 83
113 157 87
113 153 85
114 150 84
97 157 84
96 153 81
101 157 84
104 157 85
101 152 82
115 155 86
109 155 85
104 152 82
91 146 77
105 146 80
104 145 79
98 148 80
84 144 75
95 142 77
85 151 78
102 147 83
89 140 78
87 156 93
76 151 97
63 159 104
64 172 121
46 158 107
46 182 133
63 181 133
49 189 145
46 196 151
42 203 160
0 210 167
0 206 163
27 210 165
0 216 173
0 211 168
0 216 172
0 213 169
0 213 168
0 211 167
0 218 178
0 219 179
0 218 178
0 217 177
0 217 178
0 220 179
0 220 180
0 218 178
0 221 178
0 219 179
0 214 176
0 218 178
0 219 179
0 218 179
0 218 178
0 217 178
0 218 178
0 218 177
0 219 178
0 219 178
0 219 179
0 216 178
0 216 178
0 215 176
0 214 176
0 219 179
0 217 178
0 218 179
0 217 177
0 217 177
0 216 177
0 218 179
0 218 177
0 219 179
0 222 181
0 218 178
0 219 179
0 217 178
0 216 177
0 219 179
0 215 176
0 219 179
0 217 178
0 215 176
0 219 178
0 217 177
0 219 179
0 216 176
0 213 175
0 219 179
0 215 177
0 217 178
0 216 178
0 218 178
0 214 175
0 215 176
0 219 179
0 215 177
0 217 177
0 216 175
0 216 175
0 213 176
0 216 176
0 213 174
0 216 176
0 217 178
0 209 170
0 213 174
0 215 176
0 215 175
0 217 177
0 216 176
0 214 175
0 213 174
0 214 175
0 205 169
0 213 176
0 220 180
0 216 176
0 215 178
0 213 175
0 215 176
0 220 178
0 214 176
13 211 175
27 187 172
50 128 170
56 100 170
55 99 168
54 100 167
57 100 170
56 100 171
56 100 171
58 100 174
59 100 174
57 100 172
58 100 172
60 100 175
56 100 171
56 100 171
57 100 173
59 100 175
57 99 172
56 99 171
56 100 170
59 100 175
59 100 175
61 100 176
60 99 176
61 99 177
59 100 174
57 99 172
61 100 177
60 100 176
59 100 175
60 100 175
58 100 175
60 100 176
60 100 176
60 100 177
60 100 176
59 100 175
60 99 176
58 100 174
59 99 176
61 100 177
60 100 177
61 100 177
62 100 179
61 100 178
61 100 178
58 99 175
61 100 178
59 100 175
60 99 177
59 100 175
61 100 178
61 99 179
62 100 178
61 100 178
60 100 175
59 99 176
60 100 176
60 100 177
59 99 176
61 100 177
60 100 177
61 100 177
60 99 177
59 100 175
59 100 175
59 99 176
61 100 178
58 99 175
62 100 179
58 99 175
61 100 178
60 100 177
62 99 179
59 100 175
59 99 175
60 99 177
60 100 176
59 99 176
61 100 177
61 100 177
60 99 177
59 100 175
60 100 177
60 99 178
60 100 176
60 99 176
61 100 177
60 100 176
60 100 176
59 99 175
59 100 175
60 100 177
59 100 175
60 100 175
60 100 176
58 100 174
60 99 177
60 100 176
61 100 177
59 100 175
61 100 177
59 100 176
59 99 175
59 100 175
61 100 177
58 99 175
61 100 178
60 100 176
60 100 176
60 100 176
60 100 176
59 100 175
60 100 175
60 100 176
58 99 174
60 100 175
59 100 175
61 100 177
62 100 180
59 100 175
59 99 175
60 99 176
59 100 174
58 99 174
61 100 177
58 100 174
59 99 174
58 100 174
58 100 173
60 100 176
60 100 175
61 101 176
59 99 175
58 99 175
57 100 172
57 100 172
59 99 175
58 99 173
61 100 178
60 100 176
59 100 174
58 100 173
59 100 175
59 100 174
55 99 168
60 100 176
59 100 175
60 100 175
61 100 177
55 99 169
59 100 174
56 99 171
58 99 172
59 100 175
58 100 172
58 99 173
56 100 171
58 98 171
56 99 171
59 99 172
59 100 174
56 98 167
56 98 166
57 98 169
57 99 169
57 100 168
54 97 164
57 99 170
56 97 167
56 98 166
51 97 159
55 98 166
55 97 165
55 97 164
52 95 155
51 94 144
43 82 121
35 76 91
26 82 56
36 79 47
20 65 39
43 80 47
54 84 53
34 86 49
51 87 55
47 91 51
41 89 53
49 89 54
55 96 60
53 93 56
66 101 62
62 111 65
68 101 65
71 95 62
77 112 69
63 107 65
59 124 69
71 111 67
77 120 70
93 123 74
77 121 71
77 128 75
89 133 78
99 135 79
85 132 76
92 131 78
97 130 78
82 120 71
95 130 79
101 130 79
115 144 86
100 141 81
98 136 82
119 152 88
108 149 85
94 145 82
111 150 86
101 148 85
108 156 88
99 149 84
102 144 82
109 149 86
117 154 90
110 153 88
111 154 87
110 148 86
112 155 89
116 156 91
117 154 89
96 146 81
127 162 93
126 162 94
116 156 90
118 158 90
126 160 93
122 160 91
112 162 90
115 159 89
124 162 92
129 164 95
122 166 92
111 163 90
125 161 92
111 158 88
124 163 92
133 166 96
134 165 96
111 161 90
103 156 86
116 160 89
133 164 95
128 164 92
111 164 90
120 165 91
130 163 93
123 162 92
113 164 89
107 158 87
110 164 90
120 162 91
118 164 91
117 160 89
124 161 91
124 163 91
112 158 88
100 157 85
116 162 90
120 161 89
96 153 82
117 159 89
106 158 86
111 156 86
111 154 85
113 160 88
125 160 91
95 150 79
103 151 83
110 155 85
104 156 84
105 157 85
98 153 83
113 156 86
108 153 84
111 157 86
106 151 83
114 152 85
90 138 74
104 148 81
95 140 75
98 143 78
97 147 78
90 142 75
96 143 80
84 140 81
67 145 84
63 153 100
81 163 108
80 164 112
68 174 125
47 169 119
70 182 128
42 188 141
41 195 149
46 193 147
32 206 162
26 205 161
28 204 155
0 212 169
0 212 169
0 209 166
0 214 171
0 216 174
0 215 172
0 215 172
0 218 179
0 220 179
0 219 179
0 218 178
0 218 178
0 217 176
0 218 179
0 218 179
0 217 178
0 220 180
0 216 178
0 220 180
0 216 177
0 220 179
0 218 179
0 218 178
0 218 179
0 216 177
0 219 178
0 219 178
0 218 178
0 216 178
0 219 179
0 220 180
0 216 176
0 217 176
0 216 177
0 218 177
0 215 176
0 219 179
0 219 178
0 218 179
0 219 179
0 213 175
0 219 178
0 216 177
0 218 177
0 214 176
0 220 179
0 214 176
0 214 176
0 219 178
0 216 176
0 217 178
0 217 177
0 215 175
0 217 177
0 216 176
0 215 177
0 215 177
0 216 176
0 211 172
0 215 175
0 215 175
0 214 175
0 217 178
0 215 176
0 214 174
0 218 178
0 219 179
0 215 176
0 217 176
0 216 175
0 218 177
0 216 176
0 213 175
0 212 175
0 214 175
0 212 174
0 216 177
0 217 178
0 215 176
0 215 176
0 213 175
0 216 176
0 213 174
0 214 176
0 215 177
0 215 178
0 210 174
0 211 174
0 212 174
0 212 175
0 214 174
9 212 175
35 172 171
54 121 172
53 100 167
57 100 171
56 100 170
57 100 172
58 100 173
57 99 172
53 100 166
56 99 171
59 100 174
54 99 169
57 99 170
58 100 173
60 100 175
56 100 171
58 100 172
59 100 175
56 100 170
57 99 173
59 100 175
59 100 175
59 100 175
56 99 172
59 99 175
61 100 176
59 100 175
56 99 171
60 100 175
59 100 174
61 100 177
57 100 171
59 100 175
56 99 172
59 99 176
60 100 177
61 100 177
60 100 176
61 100 177
59 99 174
61 100 177
58 100 174
60 100 176
59 99 175
62 100 179
60 99 177
59 99 175
60 99 176
58 99 174
59 100 175
59 100 175
61 100 177
60 100 177
61 100 177
60 100 176
60 100 177
60 100 176
59 99 176
60 100 176
59 100 175
60 100 176
60 99 177
61 100 178
60 99 177
60 100 177
59 100 175
61 100 179
59 100 176
61 99 178
61 100 177
59 100 175
59 100 176
59 100 176
61 100 177
59 99 175
60 100 177
60 99 176
60 99 176
61 99 178
59 99 175
58 99 174
59 100 175
60 100 176
60 100 176
61 100 177
61 100 178
61 99 179
60 100 176
59 100 175
58 100 174
61 100 177
59 100 175
59 100 176
58 100 174
60 100 176
60 100 176
61 100 176
59 100 175
58 100 174
61 100 177
62 100 179
60 100 175
61 100 178
62 100 178
60 99 177
60 100 177
59 99 176
58 100 175
56 99 172
60 100 175
60 100 177
59 100 175
60 100 177
61 100 177
59 99 175
60 100 177
59 100 175
59 100 175
60 100 176
58 100 174
59 100 175
60 100 176
59 100 174
60 99 177
60 100 176
58 99 174
60 100 175
60 100 176
56 99 171
57 99 174
60 100 176
58 100 173
59 100 175
57 99 173
59 100 175
58 100 173
57 100 172
57 100 172
57 100 173
59 100 175
59 100 175
60 100 176
58 99 174
58 99 174
59 100 175
59 100 174
58 100 173
60 100 175
57 100 173
59 99 173
58 99 173
60 100 175
57 99 171
58 99 173
59 98 172
58 100 173
57 99 170
57 98 169
57 99 171
56 98 168
57 99 168
58 99 173
59 99 173
54 99 167
57 100 169
59 98 172
59 98 172
56 98 167
55 99 164
56 96 164
56 96 164
56 98 165
54 98 164
52 98 159
50 96 156
54 97 160
52 93 152
40 87 115
41 86 86
39 72 57
36 65 44
39 82 47
28 78 42
34 84 49
42 85 53
36 80 47
36 74 49
37 86 51
48 88 53
46 90 56
58 97 59
52 103 60
70 114 68
49 100 59
60 104 59
55 101 59
83 117 69
57 111 63
60 116 67
86 118 72
59 110 65
74 121 70
71 122 69
82 125 73
79 125 73
94 132 78
89 134 77
96 138 81
93 134 77
87 127 76
106 140 84
80 133 77
93 136 79
107 138 84
98 141 83
110 148 87
105 147 84
96 146 84
106 147 85
111 153 87
106 150 85
112 149 88
108 148 85
121 155 90
114 149 86
116 148 87
122 158 91
126 160 93
109 154 89
105 158 88
111 152 87
112 153 87
112 157 88
123 165 93
119 164 93
119 159 90
102 155 86
116 160 89
123 164 92
108 157 87
121 159 90
116 164 91
113 157 88
110 168 91
133 162 94
109 161 89
107 161 87
121 161 91
120 162 92
116 164 91
119 158 90
121 165 92
105 159 86
118 162 89
123 166 93
130 164 93
121 160 90
122 164 91
117 162 90
113 161 88
121 163 91
106 155 85
114 157 88
123 162 91
119 158 89
120 164 91
107 157 86
109 162 88
106 160 86
104 156 84
117 164 90
113 157 87
117 162 90
104 160 86
102 154 83
108 156 85
98 152 81
108 157 86
97 152 81
99 150 81
96 149 81
93 149 79
91 147 78
105 149 81
105 146 80
114 152 85
99 143 78
101 151 81
96 147 78
105 143 79
88 142 76
81 143 75
82 132 70
87 138 75
73 150 87
83 151 99
89 165 106
65 143 89
73 169 116
60 172 122
65 183 137
57 172 119
43 186 138
56 193 147
18 197 155
27 201 157
0 206 160
19 215 170
0 210 167
0 213 167
0 211 166
0 216 173
0 211 168
0 216 173
0 211 167
0 219 179
0 220 179
0 218 178
0 217 178
0 217 177
0 218 179
0 217 177
0 217 177
0 222 180
0 216 177
0 218 178
0 218 179
0 220 179
0 215 176
0 216 177
0 217 177
0 215 176
0 215 175
0 215 177
0 220 180
0 219 179
0 216 176
0 218 178
0 212 175
0 217 178
0 218 177
0 216 177
0 218 175
0 216 178
0 216 176
0 219 179
0 217 178
0 216 178
0 215 175
0 218 179
0 216 176
0 216 176
0 218 178
0 219 180
0 219 179
0 220 180
0 213 174
0 217 178
0 218 178
0 217 177
0 218 179
0 216 178
0 216 178
0 217 178
0 216 178
0 218 178
0 217 177
0 216 176
0 213 175
0 213 175
0 215 177
0 216 177
0 218 178
0 218 178
0 217 178
0 217 178
0 211 173
0 218 177
0 216 176
0 218 176
0 215 176
0 216 176
0 215 176
0 209 170
0 215 176
0 217 177
0 215 176
0 217 178
0 216 177
0 216 177
0 219 179
0 215 175
0 212 172
0 212 175
0 212 174
0 213 176
0 213 175
0 214 176
0 213 175
20 198 172
44 157 171
56 112 172
54 100 167
57 100 171
58 100 172
56 100 169
55 100 169
56 100 171
57 100 172
57 100 172
58 99 173
57 100 172
61 100 178
59 100 174
55 99 170
57 100 173
60 101 175
55 100 169
61 100 177
59 100 175
58 100 175
57 99 172
58 99 174
57 100 173
61 100 177
60 100 175
59 100 175
59 99 175
60 100 175
60 100 175
58 99 175
61 99 178
59 99 176
59 99 176
60 100 177
59 100 175
60 100 175
57 100 173
61 100 178
59 99 176
59 100 175
61 100 177
61 100 177
59 99 176
59 99 176
60 99 177
61 100 177
60 99 176
59 100 175
58 100 174
59 99 176
61 100 178
60 100 175
60 99 176
60 100 177
60 100 176
58 100 174
60 100 176
60 100 176
59 100 175
60 100 176
60 99 177
60 99 177
60 100 176
60 99 176
59 100 175
61 100 177
61 100 178
60 100 176
62 100 178
59 100 175
60 100 177
61 100 178
60 99 177
61 100 177
60 99 177
59 100 175
61 100 177
60 99 176
60 100 176
61 100 177
60 100 177
61 100 178
60 100 176
59 99 175
61 100 177
57 100 173
61 100 179
61 100 178
60 100 177
61 100 177
58 99 174
60 100 176
59 99 175
60 100 175
60 100 176
58 99 175
59 100 175
59 99 176
59 100 175
60 99 177
60 99 176
58 99 175
60 100 175
61 100 177
61 100 177
60 100 176
61 100 177
60 99 177
60 100 175
59 99 176
58 99 174
58 100 174
59 100 175
60 100 176
59 100 175
60 100 176
60 100 176
60 100 177
60 100 175
59 100 175
59 100 175
60 100 176
59 100 174
60 100 176
57 100 173
60 99 176
60 100 176
60 100 175
59 100 175
59 100 175
63 101 178
59 100 174
59 100 175
58 100 174
58 100 174
57 99 173
60 99 176
61 100 177
59 100 175
59 100 175
59 100 175
59 99 175
57 100 172
58 100 173
57 100 172
61 100 176
57 100 172
58 100 172
55 100 169
59 100 175
57 100 171
55 98 168
55 99 168
59 99 174
57 99 172
58 100 173
56 99 170
57 100 171
59 99 172
60 99 174
58 100 172
56 98 168
56 99 169
58 100 173
56 99 168
55 98 164
56 98 167
57 98 169
57 99 170
56 99 167
56 98 163
53 97 160
56 97 165
52 96 156
54 95 160
51 94 152
49 89 137
38 78 89
24 67 58
29 63 39
33 78 46
19 74 40
26 75 42
38 79 49
31 82 49
28 80 49
51 80 48
54 87 54
50 97 57
57 95 58
52 97 58
45 94 55
56 100 61
52 97 60
60 115 66
69 116 69
70 112 65
79 120 72
66 114 66
66 113 67
80 125 72
59 113 63
73 122 69
82 129 75
105 134 80
93 131 78
98 127 78
101 140 82
81 135 77
102 135 80
88 129 76
83 138 77
115 144 85
105 142 83
87 133 76
96 140 81
104 136 83
93 134 79
100 146 82
111 147 85
99 147 84
97 145 83
101 150 84
105 152 86
109 151 87
107 152 85
119 157 90
101 150 85
107 158 87
109 155 86
112 160 89
105 155 88
128 158 93
125 160 91
125 158 90
106 157 87
119 160 90
118 161 91
115 164 90
120 163 91
121 164 92
122 162 92
111 161 88
120 162 91
108 162 88
120 162 91
103 160 87
127 166 94
132 165 95
117 164 91
121 164 92
117 160 90
113 164 90
113 164 90
107 164 89
118 164 90
119 164 91
111 163 89
127 165 94
116 159 88
122 163 91
107 155 85
125 166 93
109 163 89
114 162 89
112 160 88
112 158 86
100 160 85
115 160 89
101 154 83
110 156 85
107 160 86
91 160 83
108 154 84
117 159 89
99 153 82
105 153 83
109 155 85
90 154 81
98 145 78
85 145 75
93 154 81
104 151 82
88 145 76
100 152 82
97 146 78
83 157 80
74 145 73
86 146 77
86 149 78
100 151 81
80 139 71
91 141 81
72 147 84
78 149 89
62 158 101
56 151 100
54 168 121
65 170 123
43 187 137
50 181 134
47 186 140
19 195 153
32 207 163
27 202 156
19 209 165
0 211 169
0 212 167
0 207 165
0 213 169
0 213 168
0 216 171
0 214 172
0 214 170
0 214 173
0 213 176
0 217 178
0 219 180
0 216 177
0 218 179
0 217 176
0 219 180
0 216 178
0 219 179
0 218 177
0 216 177
0 220 180
0 217 178
0 219 178
0 218 177
0 216 177
0 217 178
0 220 179
0 220 179
0 218 178
0 218 178
0 216 176
0 217 177
0 216 177
0 216 177
0 215 176
0 218 179
0 218 178
0 217 178
0 216 176
0 213 174
0 217 178
0 218 180
0 218 178
0 215 175
0 220 179
0 215 177
0 214 175
0 217 177
0 214 175
0 218 177
0 217 178
0 214 176
0 216 176
0 218 178
0 215 176
0 213 174
0 217 177
0 215 175
0 213 174
0 216 177
0 219 178
0 212 175
0 214 176
0 208 173
0 215 176
0 217 176
0 218 178
0 215 175
0 214 176
0 214 175
0 216 176
0 216 177
0 214 176
0 213 175
0 215 176
0 216 176
0 217 177
0 218 178
0 216 174
0 212 173
0 214 175
0 215 177
0 217 177
0 214 174
0 215 176
0 210 173
0 215 174
0 213 175
0 214 176
0 214 173
0 216 176
0 206 169
30 189 174
43 155 170
52 113 168
53 100 166
58 101 171
52 99 166
59 100 174
55 99 168
57 99 171
55 100 169
55 100 169
58 100 173
57 100 172
58 100 173
58 99 174
59 100 175
57 99 172
58 100 173
56 100 170
58 100 173
60 100 176
56 99 170
59 100 175
59 99 175
58 100 174
57 99 173
60 100 176
60 99 176
60 100 177
60 100 175
59 100 175
60 100 176
58 100 174
59 99 176
59 100 176
59 100 174
58 100 174
59 99 176
61 100 176
59 99 175
60 100 176
59 100 175
61 100 178
60 100 176
61 100 178
59 100 175
60 100 177
59 99 176
60 99 177
60 99 177
59 99 175
61 100 176
59 99 176
61 99 179
62 99 179
61 100 175
60 100 175
60 100 175
60 100 176
59 99 175
59 100 175
59 100 175
60 100 176
61 100 177
60 100 176
58 99 174
60 99 177
61 100 176
60 99 177
60 100 176
61 100 177
60 100 175
60 99 176
58 99 175
60 100 175
59 99 175
61 100 178
60 100 177
59 99 176
58 100 174
60 100 176
61 100 178
60 99 177
59 99 175
61 100 178
61 100 178
59 100 175
59 99 176
57 99 173
60 100 176
58 100 173
59 100 175
62 100 178
60 100 175
60 100 177
61 100 178
59 100 174
60 100 176
59 99 175
58 99 174
59 100 174
58 100 173
59 100 174
59 99 176
60 100 176
59 99 175
61 100 176
60 100 176
61 100 177
61 100 177
59 99 175
60 99 177
62 100 178
57 100 172
60 100 177
58 99 173
59 100 175
59 100 175
60 100 175
60 100 177
59 100 175
59 100 174
60 100 176
58 100 174
59 100 175
60 100 175
59 100 175
58 100 174
60 100 177
59 100 174
59 100 174
58 100 174
60 100 175
61 100 177
58 100 174
58 99 173
59 100 175
58 99 173
57 100 172
58 100 173
57 100 172
59 100 174
59 100 175
56 99 171
58 100 173
60 100 176
57 100 171
59 100 174
57 99 171
59 100 174
57 100 173
59 99 174
58 100 172
60 99 174
58 101 172
55 99 170
58 99 172
54 99 166
59 100 173
59 100 174
60 99 175
58 100 171
56 99 170
57 99 169
58 99 172
55 99 167
55 100 168
55 98 166
58 99 171
56 99 167
55 100 169
55 98 168
55 99 166
58 97 163
56 97 162
53 97 159
56 98 167
53 94 154
40 90 125
37 81 104
22 73 62
30 81 47
25 86 46
38 81 50
26 80 43
25 80 48
33 83 52
43 95 55
34 94 52
42 90 54
44 92 53
37 93 53
69 107 65
50 104 59
54 105 59
74 112 66
63 108 65
61 108 61
79 116 67
78 118 70
76 119 71
77 122 72
73 117 70
84 123 72
81 121 73
74 118 68
91 135 77
88 133 78
87 128 75
78 125 70
76 133 73
88 127 76
104 140 82
85 133 76
99 140 79
88 131 76
104 141 83
108 145 85
116 151 87
112 150 85
102 151 86
108 149 84
102 152 86
110 158 88
118 158 90
110 157 89
99 146 82
103 148 83
110 151 86
109 154 87
114 163 91
102 151 83
108 155 87
103 154 86
111 155 87
116 157 90
113 161 89
117 159 90
110 157 87
107 161 89
105 163 87
109 158 86
102 158 86
116 157 88
114 161 90
105 156 85
137 164 96
107 159 87
121 163 91
118 157 88
113 162 89
119 160 90
118 163 91
117 163 91
111 160 88
117 157 88
124 162 91
121 160 89
102 161 86
119 165 91
103 162 87
124 163 92
111 157 87
124 166 92
105 158 86
114 157 86
101 155 83
89 152 80
107 159 85
100 156 83
120 159 89
116 164 90
117 158 87
110 160 88
111 154 86
101 153 83
103 154 84
102 156 84
108 152 84
119 155 88
105 148 81
104 155 83
100 158 84
103 155 83
110 152 83
100 151 81
91 143 76
98 151 80
108 146 80
87 148 77
84 146 77
92 144 77
102 149 80
78 134 75
88 144 80
82 156 97
70 159 101
86 168 111
60 171 121
50 172 120
54 185 137
37 181 132
43 190 144
46 192 145
0 195 148
47 201 157
19 206 160
0 211 168
0 211 167
0 213 171
0 210 165
0 214 168
0 207 160
0 211 165
0 211 169
0 216 172
0 220 180
0 220 180
0 217 178
0 218 179
0 220 179
0 218 178
0 216 177
0 215 177
0 219 179
0 219 178
0 216 178
0 218 179
0 218 178
0 220 180
0 220 179
0 219 178
0 217 176
0 217 178
0 216 177
0 217 177
0 213 175
0 216 177
0 218 179
0 218 179
0 217 177
0 220 179
0 216 177
0 218 178
0 216 177
0 217 177
0 218 178
0 216 177
0 216 177
0 217 178
0 214 175
0 217 177
0 215 176
0 217 178
0 216 176
0 217 177
0 214 175
0 218 178
0 214 176
0 218 179
0 218 179
0 217 176
0 214 175
0 215 175
0 216 178
0 212 174
0 214 176
0 218 178
0 215 175
0 217 177
0 217 178
0 217 177
0 215 176
0 217 178
0 214 175
0 214 175
0 215 176
0 216 177
0 217 178
0 214 174
0 214 176
0 209 173
0 215 176
0 215 178
0 215 175
0 216 177
0 216 177
0 216 177
0 217 176
0 219 179
0 215 176
0 216 177
0 213 174
0 215 176
0 214 175
0 214 175
0 217 177
0 212 173
0 212 173
7 210 173
29 192 175
46 146 172
55 102 167
53 99 166
54 99 167
54 100 166
54 99 167
58 100 172
55 99 170
56 101 169
57 100 171
57 100 171
60 100 176
56 100 171
56 100 170
58 100 173
59 100 174
57 100 172
57 100 172
56 100 171
60 100 176
55 99 169
57 100 173
58 100 173
59 100 175
57 100 173
59 99 175
59 100 174
59 100 175
60 100 176
59 100 175
59 100 175
59 100 174
59 100 175
60 100 175
60 100 177
59 100 175
58 100 174
59 99 175
57 99 173
59 100 175
59 99 176
60 100 176
60 100 177
58 100 174
61 99 177
59 99 176
60 100 176
61 99 179
58 100 174
57 99 174
60 100 176
61 100 176
61 100 178
62 100 178
60 100 176
60 99 176
60 100 176
61 100 177
59 100 175
60 100 177
60 100 177
60 100 176
61 100 177
60 100 175
59 99 176
60 99 177
59 99 176
61 100 179
60 100 176
62 100 179
60 100 176
60 99 177
59 99 176
61 100 176
59 100 175
61 100 179
59 100 174
59 99 176
58 99 174
59 100 175
60 100 176
61 100 177
60 100 177
60 99 176
59 99 176
62 100 178
59 99 175
57 100 173
59 100 175
61 100 177
61 100 178
59 99 176
60 100 176
60 99 177
59 99 175
61 100 177
59 100 175
58 100 173
61 100 178
59 99 176
60 100 176
59 99 175
57 100 173
59 100 175
58 100 174
60 100 176
59 100 175
61 100 178
58 99 174
60 100 177
59 100 174
59 100 174
60 100 176
59 99 176
59 100 175
59 99 176
59 100 175
61 100 177
59 100 175
57 100 172
57 100 173
60 100 176
59 99 175
60 100 176
57 99 173
56 99 172
58 99 175
58 100 174
59 100 175
60 100 175
60 99 174
58 100 174
59 100 175
57 100 172
58 100 174
59 100 174
58 100 173
59 100 175
58 100 174
58 100 174
59 100 174
57 99 171
61 101 176
58 100 173
59 100 174
57 100 172
61 101 176
57 99 172
56 99 171
58 100 174
58 100 171
58 100 173
57 100 172
58 99 172
58 100 173
58 101 171
56 99 170
59 100 174
57 98 171
58 100 171
56 99 171
57 100 168
58 99 171
58 100 170
56 99 169
57 99 168
56 98 167
54 97 164
57 99 169
54 97 161
54 99 165
54 96 161
56 99 167
53 99 165
53 95 156
56 95 160
47 96 150
48 92 141
39 85 114
25 85 71
21 73 49
20 81 43
21 77 43
38 77 47
26 76 42
33 85 46
34 72 45
50 92 55
37 93 53
31 96 50
56 98 58
36 91 52
61 109 63
40 98 56
60 114 64
62 120 66
66 108 66
67 109 64
82 121 71
71 108 63
78 122 70
72 124 70
85 121 70
76 117 68
87 129 73
81 129 73
87 127 73
82 129 75
71 130 71
96 133 76
89 136 76
101 141 80
97 138 80
99 135 79
94 138 80
103 138 81
100 137 81
103 142 81
103 146 82
99 140 81
106 146 83
98 149 84
118 156 89
114 148 87
96 150 83
99 151 83
113 158 89
105 156 86
102 149 83
105 154 85
102 155 86
109 158 87
119 161 92
121 156 89
115 155 88
109 156 86
114 158 89
112 161 89
117 157 89
109 157 87
110 159 87
101 156 84
127 164 94
105 153 85
111 160 89
108 160 87
95 161 86
125 168 94
126 164 93
117 161 90
112 163 90
107 159 86
110 161 88
102 156 84
118 164 91
112 158 88
109 159 87
118 161 90
115 160 88
120 158 88
110 156 86
104 157 85
111 160 87
106 161 88
103 159 85
96 161 85
99 158 84
98 157 83
98 157 84
109 158 87
101 159 85
104 152 83
105 156 84
115 155 86
99 156 83
108 153 85
83 153 79
111 147 81
95 150 80
95 148 80
89 138 74
93 152 79
91 147 78
95 149 80
96 145 78
92 145 77
72 145 74
86 139 73
96 145 79
100 147 80
79 145 74
96 144 81
82 145 81
78 148 87
69 157 102
87 163 109
47 164 108
61 168 119
71 172 123
51 180 132
54 192 143
42 185 139
34 189 142
33 202 155
0 203 156
18 204 159
0 206 163
0 208 161
0 212 168
0 214 170
0 213 169
0 215 171
0 215 172
0 210 164
0 211 168
0 219 179
0 219 179
0 217 178
0 218 178
0 219 179
0 214 176
0 217 179
0 218 178
0 219 178
0 216 176
0 213 174
0 216 176
0 218 178
0 219 179
0 215 177
0 220 179
0 218 179
0 221 180
0 214 177
0 217 178
0 219 179
0 216 178
0 219 178
0 217 177
0 215 177
0 219 179
0 212 174
0 217 178
0 219 178
0 216 177
0 216 177
0 217 178
0 217 178
0 215 176
0 217 178
0 217 178
0 216 177
0 218 177
0 220 180
0 217 178
0 219 178
0 220 179
0 216 177
0 212 173
0 219 178
0 214 175
0 216 177
0 216 176
0 216 175
0 216 176
0 217 178
0 213 174
0 216 177
0 213 173
0 214 175
0 210 173
0 211 173
0 216 177
0 215 176
0 218 178
0 217 177
0 213 176
0 213 175
0 215 175
0 214 175
0 214 175
0 215 176
0 217 178
0 219 179
0 216 177
0 214 175
0 215 176
0 211 173
0 216 176
0 213 174
0 215 176
0 214 176
0 217 177
0 209 173
0 215 174
0 211 173
0 217 178
0 212 174
7 216 177
30 187 174
39 153 167
55 100 169
56 100 170
58 99 172
57 99 171
56 100 169
57 100 171
57 99 172
56 99 171
58 100 172
59 100 175
56 100 170
58 100 173
59 100 173
55 99 169
58 100 174
59 100 175
56 99 171
58 100 173
58 99 173
60 100 176
57 100 172
59 100 174
59 100 174
57 100 172
58 99 174
58 99 174
59 100 175
57 100 172
57 100 172
58 100 174
58 99 173
59 100 176
57 99 171
60 100 177
60 100 175
58 100 173
60 99 177
60 99 177
61 100 177
58 99 174
58 99 175
60 100 176
59 100 175
60 100 176
59 100 176
60 99 177
60 100 175
59 99 176
61 100 178
60 100 176
60 99 177
62 100 178
60 100 175
60 100 176
59 100 175
58 99 175
61 100 177
60 99 177
59 99 176
60 100 176
59 100 175
60 99 177
59 100 175
58 99 174
59 99 175
59 99 176
60 99 176
60 99 178
58 99 174
59 100 175
57 99 173
60 100 176
58 99 175
60 100 176
62 100 178
60 100 176
59 99 175
61 100 176
60 99 177
60 100 176
59 100 175
58 99 174
60 100 176
60 100 176
60 100 176
60 100 175
59 100 176
61 100 178
59 100 175
59 100 175
61 99 177
59 99 175
60 100 176
58 99 175
59 100 175
59 100 174
58 99 175
59 100 176
59 99 175
60 100 176
61 100 177
59 99 176
59 99 176
59 100 175
59 100 174
60 100 176
58 99 174
60 100 177
62 99 180
58 99 175
60 100 175
59 100 175
59 99 176
57 100 172
57 99 172
60 100 175
61 100 176
59 100 175
61 101 176
60 100 176
57 100 171
58 99 174
58 100 174
57 99 173
60 100 175
60 100 176
58 100 174
59 100 174
57 99 173
60 100 176
59 100 174
61 100 177
60 100 175
58 100 173
59 100 174
59 100 174
58 100 173
56 99 171
60 100 175
58 100 173
57 100 172
61 101 176
58 100 172
59 100 174
57 100 170
58 100 172
56 100 171
57 100 171
57 100 172
56 100 170
54 99 168
58 99 172
58 99 172
56 99 170
58 99 174
58 100 172
56 100 170
55 99 169
58 100 172
58 100 172
55 99 168
55 98 166
57 99 168
57 99 169
54 99 166
56 99 169
53 99 164
54 98 163
55 96 164
54 97 162
56 96 164
55 99 166
53 98 162
54 97 161
51 93 150
50 95 151
46 92 140
41 91 111
25 87 79
29 67 54
25 70 39
29 77 43
32 70 46
33 94 51
39 86 50
34 90 52
45 93 56
48 95 55
46 89 52
48 93 54
55 95 56
47 100 59
64 105 61
56 104 60
48 107 59
63 123 66
73 118 71
63 107 63
54 108 62
81 122 70
63 114 65
77 129 72
63 125 70
76 127 72
97 124 75
84 126 74
77 133 72
76 133 75
88 140 78
75 127 72
106 145 82
100 138 81
81 135 75
95 144 82
101 140 82
101 148 84
88 135 76
103 144 83
105 149 84
100 149 85
84 143 78
99 150 83
101 153 86
109 155 88
105 157 87
118 158 89
97 150 82
100 151 85
113 149 85
96 153 84
110 161 89
109 157 88
109 159 87
108 152 84
127 160 92
115 154 87
90 144 78
97 158 85
121 163 92
112 161 90
111 156 87
105 160 86
121 164 92
108 158 87
106 159 86
115 165 90
107 164 88
109 165 89
115 163 89
113 163 88
107 158 86
95 157 83
121 164 91
111 164 90
96 161 85
105 163 88
117 157 87
116 159 89
115 156 87
111 159 87
96 159 84
101 153 83
98 153 82
103 158 85
111 162 88
112 160 88
109 159 87
101 156 84
117 155 86
105 153 83
90 156 81
97 155 83
100 151 82
106 157 85
102 150 81
115 165 90
101 158 84
90 144 77
99 149 80
79 146 74
101 148 80
108 155 84
98 142 77
78 140 72
87 145 76
87 142 74
97 150 80
85 145 75
76 143 73
89 141 75
65 140 76
71 139 79
82 167 109
82 155 102
57 167 107
54 156 102
57 179 130
53 179 128
18 184 137
39 189 139
0 194 151
33 198 153
32 200 154
19 202 157
0 205 162
0 212 170
0 213 170
0 210 167
0 213 168
0 215 171
0 215 172
0 210 168
0 211 167
0 209 165
0 217 178
0 216 177
0 219 180
0 218 178
0 220 180
0 218 178
0 215 177
0 220 180
0 219 179
0 217 176
0 216 177
0 215 176
0 221 180
0 217 176
0 215 177
0 217 178
0 217 178
0 217 177
0 212 175
0 219 178
0 215 178
0 217 177
0 218 179
0 216 178
0 215 174
0 217 178
0 215 176
0 218 178
0 216 177
0 218 178
0 215 176
0 214 176
0 214 175
0 220 180
0 218 178
0 217 178
0 214 173
0 218 178
0 217 177
0 210 173
0 215 177
0 216 177
0 219 178
0 213 174
0 217 177
0 214 176
0 215 176
0 218 178
0 215 176
0 218 178
0 215 176
0 218 177
0 217 178
0 218 178
0 216 176
0 212 173
0 213 175
0 213 174
0 217 177
0 218 178
0 216 177
0 211 173
0 216 177
0 209 173
0 212 175
0 211 172
0 214 175
0 215 177
0 215 176
0 214 175
0 216 177
0 214 174
0 210 172
0 218 178
0 211 172
0 208 170
0 212 174
0 214 175
0 214 176
0 212 175
0 208 169
0 209 171
0 212 173
12 210 176
32 187 174
46 130 164
53 100 165
54 99 166
51 100 163
57 99 171
54 99 168
53 99 166
55 99 169
57 99 172
57 99 171
56 100 170
57 99 173
53 99 167
56 99 171
57 99 173
57 100 171
56 99 171
56 100 171
59 100 174
56 99 171
57 99 173
57 100 172
59 100 174
59 99 174
59 100 175
55 100 170
59 100 175
58 99 173
59 100 175
59 99 176
60 100 176
59 99 175
59 100 175
61 100 177
58 99 174
61 99 178
59 100 175
60 100 176
60 100 175
59 100 176
58 99 175
60 100 175
60 100 176
59 99 175
61 100 177
60 100 175
64 101 180
60 99 176
60 100 176
61 100 178
60 99 177
58 99 173
60 100 177
61 100 178
60 100 177
60 99 176
59 100 174
59 99 176
58 100 174
59 99 175
61 100 177
60 100 176
60 100 176
58 100 173
59 100 176
59 100 175
60 100 176
59 99 175
60 100 177
60 100 175
60 100 176
61 100 177
61 100 178
60 99 175
58 99 175
60 99 176
60 100 177
57 100 172
58 99 175
58 99 175
61 100 178
60 100 176
59 99 176
60 100 176
60 100 177
59 100 174
57 99 172
60 100 176
59 100 175
59 100 175
58 99 174
61 100 177
59 100 174
61 100 177
56 100 171
60 100 177
60 100 176
57 100 171
60 100 177
59 100 175
59 100 174
59 100 174
59 100 175
59 99 175
58 100 173
59 99 175
60 100 176
60 100 175
59 99 175
57 100 172
60 100 176
59 100 173
57 100 173
60 100 175
58 100 173
59 100 174
61 100 177
60 100 175
60 100 176
60 100 175
58 99 173
59 100 175
59 100 175
58 100 174
61 100 177
58 100 174
57 100 172
57 100 172
58 100 173
59 99 175
58 100 173
57 99 173
60 100 175
58 100 174
59 100 174
60 99 175
59 100 175
60 100 175
57 100 172
58 100 172
58 100 174
56 99 168
57 100 173
58 100 172
58 100 173
55 99 169
59 99 174
58 99 172
58 99 173
57 99 170
57 99 170
56 99 171
59 100 173
59 100 173
57 99 172
55 99 168
58 99 171
55 100 168
58 100 172
56 99 167
57 99 169
56 99 166
55 99 168
57 99 171
52 99 163
55 98 166
56 98 167
57 99 167
56 98 167
56 99 166
53 98 162
55 99 166
52 96 160
53 97 161
55 96 162
53 96 157
50 95 155
51 90 150
38 83 114
36 87 89
30 85 60
17 73 38
30 86 48
27 82 46
34 95 52
23 75 43
41 88 50
34 89 51
38 101 54
51 89 51
57 107 61
55 97 56
58 106 62
48 103 57
53 105 60
58 103 59
48 102 58
61 112 63
59 107 61
69 124 68
66 122 69
59 118 64
62 113 60
80 132 74
76 118 68
71 122 70
68 130 71
79 120 70
79 131 72
91 140 78
87 140 78
96 139 81
80 136 76
86 139 77
87 134 77
102 152 84
114 148 84
101 143 82
75 143 77
91 145 80
100 148 84
93 143 81
92 147 80
107 152 86
96 141 80
106 152 85
114 153 88
114 155 88
92 155 82
113 157 88
97 149 82
110 154 86
107 159 88
103 151 85
100 153 84
99 152 85
109 153 85
108 162 88
88 157 83
122 166 92
109 162 88
113 161 90
110 153 85
110 159 87
118 163 91
117 161 89
118 161 91
115 157 88
117 158 89
109 159 87
117 159 89
103 162 87
120 159 89
108 163 88
108 161 88
95 157 83
105 159 86
98 154 83
112 162 88
96 156 83
110 156 85
97 155 83
104 160 86
115 164 89
111 155 86
96 154 82
103 155 83
109 159 88
106 154 84
101 153 83
101 157 85
109 156 86
85 158 81
98 148 79
92 153 81
98 153 82
107 154 84
101 160 85
78 142 74
96 144 78
82 150 77
88 157 81
91 149 79
89 142 75
89 139 73
88 151 78
85 141 74
88 148 77
83 136 72
79 141 75
85 147 79
78 148 82
71 152 92
82 153 97
73 159 101
61 164 117
42 176 124
60 176 127
51 181 130
50 190 140
18 189 142
27 191 144
0 199 155
19 201 159
0 207 160
18 211 167
0 210 165
0 208 163
0 210 166
0 212 167
0 212 167
0 215 171
0 210 169
0 210 167
0 215 171
0 216 177
0 216 177
0 218 178
0 219 179
0 219 179
0 214 175
0 218 178
0 217 177
0 218 178
0 218 179
0 220 180
0 220 180
0 216 177
0 218 179
0 217 178
0 220 180
0 214 175
0 217 178
0 216 176
0 216 177
0 215 175
0 217 178
0 215 176
0 219 179
0 216 176
0 215 176
0 218 178
0 214 173
0 214 175
0 216 177
0 219 179
0 218 179
0 215 177
0 217 177
0 218 178
0 216 176
0 217 177
0 216 177
0 215 177
0 217 177
0 214 175
0 218 179
0 216 177
0 220 179
0 219 178
0 217 178
0 212 175
0 215 176
0 216 176
0 215 176
0 213 176
0 214 175
0 218 178
0 218 178
0 211 174
0 214 175
0 213 175
0 210 172
0 218 179
0 216 175
0 215 176
0 213 174
0 213 176
0 216 176
0 218 179
0 216 176
0 211 174
0 210 172
0 213 174
0 216 177
0 212 173
0 216 177
0 211 171
0 215 175
0 216 176
0 216 177
0 214 175
0 210 172
0 207 170
0 219 179
0 212 176
0 212 173
0 211 174
15 205 173
31 176 170
48 126 168
52 100 165
58 100 173
55 100 168
54 99 167
55 100 168
55 99 170
55 99 169
55 99 167
57 100 171
58 100 173
56 100 171
54 100 168
57 100 171
58 100 171
58 100 174
58 100 173
56 100 169
58 99 172
58 100 174
59 100 175
58 100 174
59 99 176
58 99 173
57 100 172
60 100 176
60 100 177
57 100 172
57 99 173
55 99 170
59 100 175
58 99 174
60 100 176
57 100 171
58 100 173
60 100 175
59 99 174
58 100 174
58 100 174
58 99 174
59 100 175
58 99 175
59 100 175
60 100 176
59 99 176
59 100 175
60 100 176
60 99 176
59 99 176
59 100 175
58 99 174
60 100 175
59 100 175
60 100 177
59 99 176
59 100 175
61 99 178
58 99 174
60 100 176
58 99 174
59 99 176
58 99 175
61 100 177
60 100 176
57 99 173
58 99 174
57 100 173
59 100 174
59 100 176
61 100 177
59 100 175
61 99 177
59 99 176
60 100 177
60 100 175
59 100 175
58 99 174
59 99 176
60 99 176
58 100 172
58 100 174
60 99 177
60 99 176
59 100 176
60 100 177
61 100 178
58 100 174
59 99 176
59 100 175
60 99 176
58 99 174
60 100 175
61 100 176
59 100 175
60 100 176
59 100 174
59 99 174
61 100 177
59 100 176
60 100 176
59 99 175
57 100 173
59 100 175
59 99 175
59 99 176
58 100 173
59 100 175
59 100 175
60 101 174
59 100 175
60 100 176
58 100 173
61 100 176
60 100 176
60 100 175
59 100 175
60 100 176
58 100 174
59 100 175
59 100 175
59 100 175
59 99 174
57 100 171
61 100 177
61 100 177
57 100 172
59 100 175
59 99 175
59 100 174
60 100 175
59 100 176
58 100 174
58 99 174
56 100 171
57 100 172
58 100 173
60 100 175
57 99 172
56 100 172
60 100 176
56 99 170
57 100 172
59 100 175
57 99 172
59 100 173
60 101 174
58 100 173
55 99 170
55 100 169
56 99 170
60 101 175
56 100 169
55 99 167
55 100 168
57 100 170
58 100 170
59 99 172
56 99 169
56 99 167
55 98 164
55 99 167
57 100 170
57 99 168
57 99 171
55 98 167
57 100 169
54 100 166
55 98 164
58 100 169
55 99 165
56 99 165
54 98 164
53 98 162
55 99 167
54 98 163
54 97 160
54 96 160
53 95 148
45 92 124
31 75 80
22 85 63
27 81 44
23 75 40
29 91 49
33 87 48
33 88 47
35 104 57
34 86 49
25 89 49
53 97 57
61 95 57
45 101 56
50 105 57
49 95 56
60 106 62
53 111 64
56 109 60
39 111 61
52 106 62
67 116 67
62 125 70
68 119 66
74 123 71
80 120 69
68 121 67
76 127 72
82 128 73
90 137 76
82 131 72
100 138 79
79 138 76
85 133 75
101 145 81
95 145 81
107 144 83
95 133 78
94 142 81
113 151 86
99 149 83
90 140 78
88 142 79
95 152 83
94 149 82
105 145 83
104 161 87
109 153 88
107 154 86
119 154 87
108 148 85
107 150 85
110 154 85
102 155 85
103 153 83
104 156 86
102 157 84
113 160 88
109 157 87
119 158 89
106 158 86
100 159 85
117 158 88
119 161 90
122 158 89
117 162 90
109 158 87
99 162 86
111 162 88
111 156 87
99 155 83
118 157 88
102 152 82
108 163 88
99 164 87
104 153 84
101 161 85
102 159 86
96 160 84
94 158 82
105 158 85
107 157 85
99 159 84
100 156 83
99 151 81
86 152 79
94 152 80
99 156 83
96 155 82
92 154 81
109 157 85
96 159 84
94 154 81
96 157 83
98 156 83
94 155 82
103 155 83
94 152 81
91 149 79
106 155 84
97 153 81
98 151 80
97 149 80
71 149 74
87 155 79
97 148 79
84 148 77
86 147 77
82 144 75
69 139 69
89 146 77
76 140 74
75 152 84
64 151 90
81 150 94
68 161 107
60 164 110
82 172 119
65 169 123
39 174 123
46 186 139
32 183 133
34 195 151
26 198 154
47 202 155
33 206 162
0 205 164
0 210 165
0 211 168
0 212 167
0 212 170
0 211 167
0 214 169
0 216 172
0 216 170
0 215 172
0 211 166
0 219 178
0 220 179
0 218 179
0 219 179
0 218 178
0 219 179
0 218 178
0 217 178
0 216 177
0 218 178
0 219 178
0 217 178
0 220 180
0 218 178
0 219 178
0 218 178
0 216 177
0 218 179
0 218 179
0 218 179
0 217 177
0 216 177
0 216 175
0 217 178
0 215 176
0 218 178
0 216 177
0 218 179
0 215 176
0 217 177
0 217 177
0 215 176
0 216 177
0 214 176
0 215 175
0 212 174
0 217 177
0 216 178
0 214 175
0 211 174
0 216 177
0 215 177
0 216 177
0 212 174
0 218 178
0 219 178
0 214 174
0 215 176
0 214 176
0 216 177
0 216 178
0 214 176
0 216 177
0 217 177
0 214 177
0 211 173
0 213 174
0 216 176
0 214 175
0 215 178
0 215 176
0 210 173
0 210 173
0 216 177
0 211 172
0 209 173
0 213 174
0 217 178
0 218 178
0 214 175
0 214 175
0 211 171
0 212 175
0 214 176
0 212 175
0 212 172
0 216 177
0 214 176
0 214 176
0 216 177
0 213 174
0 215 175
0 206 168
20 202 174
37 173 171
55 110 170
56 100 170
57 100 170
57 100 172
57 100 172
53 99 166
58 100 172
57 100 171
53 100 167
56 100 170
56 100 170
56 100 169
55 100 169
55 100 169
57 99 172
57 99 171
57 100 171
55 99 169
58 99 173
57 100 172
56 99 170
56 99 171
56 99 172
58 100 173
58 100 173
57 100 172
57 100 171
60 100 176
59 100 175
56 100 171
58 99 174
59 100 175
60 100 176
59 99 174
60 100 176
59 100 174
58 99 174
58 100 174
56 100 171
59 100 175
57 99 172
58 98 173
58 100 174
57 99 174
60 100 175
57 99 173
59 100 175
57 99 171
58 99 175
57 99 172
58 100 174
59 100 175
59 100 174
61 100 178
59 100 175
58 99 175
58 100 174
59 100 174
62 100 178
57 99 173
60 100 176
60 100 175
59 100 175
59 100 175
60 100 175
59 100 175
59 100 175
62 100 178
61 100 178
59 100 175
59 100 174
60 100 176
59 100 175
59 100 175
59 99 177
60 100 176
60 100 176
60 99 176
58 100 174
61 100 177
60 99 176
60 100 176
59 100 175
61 100 177
59 100 175
59 100 175
58 100 174
58 100 174
56 99 171
58 99 175
59 100 175
57 99 173
59 99 175
59 100 175
62 100 177
60 100 176
59 100 175
61 100 178
62 100 178
59 100 174
59 100 175
60 100 176
60 100 176
58 99 174
59 100 175
58 99 174
59 99 175
59 100 175
58 100 174
60 100 175
60 99 175
58 100 173
59 99 175
58 99 174
57 99 174
58 100 174
56 99 172
59 100 175
59 100 174
58 100 174
58 100 174
59 100 174
60 100 176
60 100 175
59 100 175
60 99 176
59 100 175
60 100 176
58 99 174
59 100 174
58 100 173
58 100 173
59 100 175
58 100 172
56 100 171
59 100 174
59 100 175
56 100 170
58 100 172
57 100 173
55 99 171
59 100 173
57 100 172
57 100 171
57 100 171
60 100 175
59 100 174
59 100 175
56 99 169
57 100 170
56 99 169
56 100 170
57 100 170
56 99 170
57 100 173
58 100 172
57 99 170
57 100 171
59 100 173
56 100 171
56 99 169
57 100 170
58 99 169
57 99 169
53 99 164
55 98 165
55 99 166
58 98 168
55 99 167
54 98 164
55 99 166
55 97 164
56 97 163
52 96 158
50 95 154
54 94 158
52 96 157
53 95 152
40 82 115
32 86 95
29 71 60
20 75 44
27 70 38
27 85 45
29 80 45
34 76 46
37 101 51
26 92 48
39 90 50
44 93 52
43 105 55
31 104 56
58 104 59
52 101 61
52 105 57
63 116 66
52 108 59
54 108 61
64 124 69
61 117 65
65 116 65
64 114 63
67 107 63
82 129 73
63 125 68
64 118 66
71 127 69
88 121 71
94 131 75
88 138 78
89 138 78
67 126 69
93 147 81
85 140 78
95 141 78
86 142 79
88 142 78
94 142 80
92 144 80
93 144 80
92 144 81
99 150 83
101 149 83
82 142 77
104 152 85
105 152 85
91 150 80
107 153 86
89 157 82
113 153 86
115 153 87
103 157 87
104 155 85
112 153 87
103 152 84
110 158 87
96 157 85
114 163 90
107 164 88
111 163 88
89 155 82
119 164 91
101 158 84
110 163 88
110 165 89
100 156 84
108 161 87
107 158 86
103 162 86
90 159 83
110 155 85
111 159 88
105 163 88
112 161 87
104 157 85
111 160 88
94 161 84
98 161 85
101 155 83
98 154 82
90 154 81
108 154 84
91 151 79
88 159 82
91 153 82
97 159 84
105 161 87
100 160 85
101 156 84
104 156 84
99 154 82
111 152 83
96 156 83
82 148 77
95 150 80
94 150 80
93 149 79
97 146 78
96 139 75
93 149 78
84 143 75
89 146 77
87 150 78
71 140 71
91 146 77
103 149 80
89 137 74
94 149 79
69 138 72
61 144 80
74 149 91
73 162 103
63 160 100
86 165 108
66 161 114
57 162 113
48 172 122
53 182 129
49 184 135
53 191 146
42 192 146
33 197 153
26 198 153
20 208 163
17 211 166
0 211 165
0 210 163
0 212 170
0 211 167
0 217 174
0 210 165
0 213 166
0 216 173
0 209 168
0 208 164
0 214 174
0 217 178
0 212 174
0 219 179
0 213 175
0 216 177
0 219 180
0 215 176
0 218 177
0 215 175
0 218 178
0 217 178
0 215 176
0 219 179
0 217 178
0 216 178
0 215 177
0 218 179
0 216 177
0 215 177
0 215 176
0 216 177
0 216 177
0 215 176
0 218 179
0 215 176
0 212 174
0 218 178
0 220 179
0 217 179
0 217 178
0 216 177
0 215 176
0 215 177
0 217 177
0 216 177
0 217 179
0 214 175
0 217 178
0 216 177
0 212 173
0 217 177
0 215 176
0 217 178
0 218 178
0 213 175
0 219 179
0 209 171
0 215 175
0 215 175
0 216 176
0 217 178
0 212 175
0 214 176
0 215 176
0 213 174
0 213 174
0 217 178
0 214 175
0 211 173
0 217 177
0 213 175
0 213 175
0 214 173
0 216 177
0 211 174
0 212 174
0 215 177
0 211 172
0 217 177
0 217 177
0 216 177
0 213 173
0 214 174
0 216 177
0 213 173
0 210 172
0 214 175
0 213 175
0 214 175
0 214 175
0 217 176
0 216 178
10 201 169
34 176 171
49 119 166
54 100 167
54 100 165
53 99 166
54 99 167
56 100 169
54 100 168
58 100 172
55 100 169
58 101 171
60 100 175
59 100 173
54 99 168
55 100 169
55 99 169
55 98 168
58 100 173
56 99 171
53 100 167
59 100 174
57 100 171
58 100 173
59 100 175
61 100 176
58 99 173
58 100 173
56 99 171
60 100 175
59 100 174
60 100 175
58 100 174
60 100 176
59 100 174
57 99 172
58 100 173
60 100 176
60 100 176
58 100 174
58 100 173
58 100 174
59 99 175
60 100 176
59 100 175
59 100 174
60 100 177
59 99 176
60 100 176
61 100 177
59 100 175
61 100 177
60 100 175
58 100 174
59 99 175
57 99 173
61 100 178
58 99 175
60 100 176
59 99 175
58 100 174
61 100 177
59 100 175
59 100 175
61 100 177
60 100 176
59 100 174
59 100 175
61 100 177
60 100 176
57 100 172
61 100 177
59 100 175
59 100 176
60 100 176
60 100 176
60 100 177
61 100 177
60 99 177
59 100 175
58 99 174
58 100 174
60 100 176
60 100 177
59 99 176
58 100 173
56 100 171
58 99 174
57 99 173
59 99 175
59 100 174
60 100 177
58 99 175
61 100 177
59 99 174
60 100 176
58 100 174
57 100 172
61 100 177
58 100 174
61 100 176
61 100 178
58 99 174
60 100 175
60 100 176
59 100 175
59 100 175
60 100 177
58 100 174
57 100 171
58 99 175
58 100 173
59 99 175
56 100 171
59 100 174
63 100 179
57 100 173
59 100 174
58 100 174
58 99 173
60 100 176
58 100 172
59 100 175
59 100 175
56 100 171
57 100 173
58 100 172
58 100 173
59 100 173
58 99 173
60 100 175
59 100 175
59 100 175
59 100 175
60 100 175
58 100 172
58 99 173
58 100 173
60 100 175
59 100 175
60 100 175
57 100 172
57 100 171
56 100 171
59 100 174
56 100 170
58 100 172
59 100 173
56 100 170
60 100 174
59 100 174
58 99 172
60 99 174
58 99 173
58 100 173
59 100 174
54 99 166
57 100 171
56 100 168
59 100 175
58 100 174
55 99 169
56 99 169
56 100 168
56 99 168
56 98 169
57 99 168
56 100 169
52 98 162
53 99 165
59 99 171
55 99 166
53 98 161
54 98 162
57 98 165
56 98 162
53 96 161
51 96 157
57 98 164
55 99 153
40 86 123
38 88 105
22 94 67
18 80 41
17 91 47
38 94 52
33 83 46
43 96 53
32 100 49
37 85 50
29 86 47
29 84 48
57 97 56
51 91 55
46 95 54
42 95 55
48 104 55
46 110 58
55 111 62
60 115 62
50 109 60
71 127 70
37 106 56
65 111 63
66 121 66
70 122 69
60 113 63
78 131 71
82 129 72
78 125 70
73 129 71
78 134 75
84 141 77
84 134 74
89 142 78
73 122 69
87 138 78
91 141 79
71 135 74
98 141 79
102 144 82
77 141 76
90 146 78
100 148 81
112 155 88
77 143 75
108 151 85
101 147 82
102 152 84
90 143 78
94 150 80
94 159 85
113 160 89
98 153 83
95 153 82
111 161 89
103 148 82
117 160 89
94 155 83
100 154 83
120 158 89
116 155 88
100 158 84
100 163 87
111 158 87
98 162 86
105 163 87
105 155 84
110 162 87
100 159 85
103 161 87
102 153 81
107 162 87
100 158 84
97 151 81
100 154 82
109 161 88
95 159 84
94 155 81
96 156 83
110 158 86
96 158 83
95 157 83
105 151 82
103 159 86
104 164 87
90 155 81
100 152 82
84 155 80
101 159 85
107 153 83
98 150 81
95 155 81
102 158 84
105 156 85
91 156 82
103 155 84
91 149 78
88 153 79
97 152 81
93 150 80
85 145 76
74 142 72
100 149 80
93 149 78
83 139 73
94 152 80
82 140 72
65 131 65
70 135 69
78 139 79
83 149 87
68 150 93
78 155 97
69 159 105
70 162 108
64 169 113
66 180 130
50 183 130
28 188 141
38 186 138
27 187 139
27 203 158
26 206 158
0 202 156
0 199 155
0 210 163
0 214 168
0 211 166
0 208 161
0 214 169
0 208 162
0 213 171
0 211 168
0 213 170
0 208 163
0 212 169
0 217 178
0 217 177
0 220 179
0 220 178
0 217 178
0 220 180
0 219 178
0 219 179
0 219 180
0 218 179
0 219 180
0 218 178
0 217 178
0 215 177
0 219 179
0 219 180
0 212 175
0 216 177
0 218 177
0 217 177
0 217 178
0 218 179
0 217 177
0 217 178
0 215 177
0 215 176
22 213 175
0 217 177
0 214 175
0 217 178
0 213 173
0 219 179
22 219 180
22 217 178
39 215 180
22 217 178
22 213 175
0 219 179
0 216 176
22 217 178
0 214 176
31 216 178
0 216 176
0 212 174
22 219 181
22 219 181
0 217 176
31 217 179
0 218 178
0 208 173
0 219 179
0 214 176
0 212 175
0 213 176
0 218 178
0 215 176
0 217 178
0 218 179
0 214 177
0 214 176
0 214 177
0 210 174
0 214 176
0 217 178
0 213 174
0 210 172
0 217 178
0 215 177
0 208 172
0 217 178
0 216 176
0 211 173
0 211 173
0 210 171
0 217 176
0 211 173
0 210 172
0 213 173
0 217 178
0 214 177
0 215 176
0 213 174
0 209 172
19 199 171
40 163 170
52 116 169
56 101 168
57 100 171
53 99 165
54 100 167
57 100 169
52 99 164
56 100 169
57 100 172
57 100 171
54 99 168
59 100 173
58 100 173
58 100 172
58 99 173
55 99 169
57 99 171
59 99 175
59 100 175
60 100 175
58 99 173
58 100 172
58 100 173
57 100 172
57 99 172
58 100 174
57 99 172
59 100 175
58 100 173
60 100 175
59 100 174
58 100 174
58 99 175
57 98 171
58 99 175
57 100 173
56 100 171
57 100 172
59 100 175
58 100 173
60 100 177
56 99 171
61 100 177
61 100 177
59 100 175
60 100 176
60 100 176
57 99 173
58 99 174
61 99 177
60 100 176
59 100 174
61 100 177
60 100 176
59 100 175
61 100 177
59 99 175
57 100 172
60 100 176
57 100 173
59 100 175
59 100 175
58 100 174
60 100 177
59 100 176
59 100 174
59 99 175
60 100 176
57 100 172
59 100 174
60 100 176
59 100 175
59 100 175
60 100 176
60 100 175
59 100 175
60 100 176
59 100 175
59 100 175
58 100 173
58 100 174
58 99 175
58 100 174
58 100 174
57 100 172
58 100 173
60 100 176
59 100 174
60 100 176
58 99 174
58 99 173
60 99 175
58 100 174
58 100 173
60 100 176
58 100 174
59 99 175
58 100 174
60 99 175
60 100 176
58 100 173
58 99 174
60 100 176
58 100 174
58 99 173
58 100 173
57 99 172
59 99 174
59 100 175
57 99 172
59 100 175
58 100 173
58 100 174
57 99 173
59 100 174
58 100 174
58 100 173
59 100 174
58 100 173
60 100 175
58 100 173
57 99 172
60 100 177
58 100 174
60 100 175
60 100 176
61 101 175
60 100 175
57 99 173
57 100 172
59 99 174
58 100 174
56 100 170
59 100 175
55 100 170
59 100 175
57 100 172
58 100 172
58 100 173
59 100 175
54 98 168
58 100 172
60 100 175
57 99 172
59 100 175
57 99 170
57 100 172
57 100 170
56 100 170
57 100 170
57 100 171
58 100 172
59 100 174
55 99 169
58 100 173
58 100 173
58 99 170
57 100 171
59 100 171
55 100 168
56 99 168
58 100 171
59 100 173
57 100 169
52 98 165
54 98 166
57 98 166
56 98 166
55 98 166
53 100 165
56 99 166
55 99 167
57 98 166
52 97 160
53 95 158
55 97 159
57 98 165
48 93 149
45 92 134
30 77 92
30 88 66
27 89 48
27 91 48
19 77 42
28 81 47
30 93 45
26 88 47
25 95 49
42 92 48
47 95 52
32 101 53
43 95 52
48 99 56
48 114 62
33 101 53
43 106 58
33 100 53
64 117 66
62 111 63
56 111 61
65 112 64
76 129 71
67 121 68
57 115 62
74 119 69
62 118 68
75 126 73
72 128 69
80 137 76
74 130 71
76 140 77
86 133 76
107 146 83
97 142 81
69 140 75
86 132 73
91 139 77
79 137 75
98 142 79
88 134 75
101 147 81
90 143 79
88 148 81
80 146 78
76 148 78
75 139 74
104 152 85
81 149 77
102 147 81
92 150 80
86 152 79
108 162 89
98 149 81
77 148 77
88 155 82
96 156 84
101 154 83
91 153 81
95 155 82
104 157 85
111 158 87
114 155 86
95 159 84
116 158 88
94 157 83
93 155 81
104 162 86
114 160 88
98 159 84
121 164 91
105 159 85
116 159 88
101 157 84
104 164 87
106 154 83
78 156 80
99 149 80
98 161 85
108 160 86
91 153 80
97 155 82
81 155 78
102 159 85
98 151 81
96 156 82
112 161 88
102 153 83
96 157 83
97 155 82
93 151 78
105 153 83
91 156 81
84 154 80
93 147 78
92 149 78
81 143 73
89 141 75
85 145 74
80 145 74
77 151 77
85 144 75
86 149 78
85 132 70
97 148 80
82 137 72
79 135 70
71 141 72
81 142 75
66 148 83
79 146 87
78 146 83
63 161 99
53 167 113
57 172 122
55 177 128
42 174 127
53 173 127
47 182 133
27 186 138
0 201 155
0 193 147
32 196 151
19 207 162
19 208 163
20 210 162
0 206 161
0 209 164
0 211 167
0 215 172
0 207 162
0 207 159
0 212 166
0 213 170
0 211 166
0 210 167
0 216 177
0 217 178
0 216 178
0 217 177
0 218 180
0 218 179
0 216 176
0 214 176
0 218 178
0 215 177
0 218 178
0 216 177
0 219 179
0 215 177
0 217 176
0 220 180
0 217 178
0 213 175
0 220 179
0 219 179
22 217 179
0 217 178
31 216 179
0 220 179
31 221 182
22 215 177
22 217 178
31 215 178
31 217 179
31 214 177
38 218 179
45 216 181
31 219 179
0 213 176
45 220 183
45 219 182
45 220 182
31 216 179
39 215 179
31 215 177
45 218 181
31 213 176
31 217 178
39 215 178
0 214 174
50 216 181
22 216 178
22 216 178
31 216 178
22 213 176
39 219 181
32 218 180
22 211 174
0 215 175
0 211 175
0 218 179
0 213 173
22 215 177
0 216 177
0 215 175
0 211 173
0 215 175
0 215 177
0 207 171
0 215 176
0 216 178
0 214 175
0 214 175
0 211 173
0 211 172
0 210 174
0 217 177
0 217 178
0 212 174
0 215 176
0 211 173
0 214 176
0 211 173
0 210 172
0 212 174
0 213 175
0 215 177
0 207 170
24 200 175
38 158 168
52 115 168
53 107 168
52 106 164
55 102 170
55 100 168
55 100 169
56 100 169
58 100 172
55 99 169
55 99 169
57 100 172
55 99 169
54 99 168
56 100 171
56 100 171
56 99 171
57 100 171
57 100 171
56 100 170
58 100 172
58 100 173
56 100 170
57 99 172
59 100 175
55 99 171
56 99 170
58 100 174
58 99 174
57 100 173
59 100 174
59 100 175
58 99 173
59 99 175
58 99 174
60 100 175
61 100 177
58 100 173
57 99 173
61 100 176
56 99 172
59 100 175
59 100 175
59 100 174
59 100 175
59 100 174
59 100 175
58 100 172
59 100 175
58 100 173
58 100 174
60 100 177
59 99 175
57 100 172
59 100 175
60 100 176
58 99 174
61 100 177
59 99 176
59 100 176
58 100 174
60 99 177
59 100 175
60 100 175
58 99 173
61 100 177
58 99 174
57 99 172
59 100 176
59 100 175
59 100 175
58 100 175
57 99 173
57 99 173
59 100 175
59 100 174
60 100 175
57 100 173
57 99 172
57 99 172
61 100 178
57 99 174
56 99 172
59 100 175
59 100 175
59 100 175
60 100 176
60 100 176
61 100 177
59 100 175
58 100 174
58 100 174
59 100 174
60 100 175
59 100 175
59 100 175
60 100 175
60 100 176
60 100 177
58 99 173
59 100 175
57 100 171
57 99 171
57 100 172
58 99 174
57 99 173
59 100 173
59 100 174
61 100 178
58 100 173
58 99 175
55 99 170
60 100 176
57 100 171
62 100 178
57 100 172
57 100 172
57 100 172
58 100 174
59 100 175
61 100 177
59 100 175
58 100 173
58 100 174
59 100 174
59 100 175
56 100 170
60 100 176
57 100 171
59 100 175
59 100 175
58 99 173
58 100 173
58 100 173
55 99 170
60 100 175
59 100 174
55 100 169
58 100 174
58 100 173
57 100 170
57 100 172
56 100 171
58 100 173
59 100 175
58 100 171
56 100 169
58 100 173
56 100 170
58 100 172
58 100 173
58 100 172
56 99 170
58 100 173
59 100 173
56 100 170
59 100 173
56 99 169
56 99 169
57 99 171
56 100 169
56 99 169
57 99 171
58 100 171
54 98 165
56 99 168
59 99 171
57 99 168
52 98 162
55 98 167
54 99 165
50 98 160
56 98 164
55 99 163
55 95 160
49 96 154
53 96 159
52 98 160
54 99 159
40 90 127
38 90 109
39 106 80
16 84 42
24 93 49
34 86 47
15 85 44
47 102 55
27 97 51
19 98 50
29 100 54
40 86 48
18 97 51
41 111 60
27 100 52
49 100 54
35 108 59
51 113 63
45 111 61
56 111 61
49 110 61
64 124 67
68 109 63
61 116 64
54 114 62
80 126 70
69 127 69
61 115 64
82 124 70
75 122 71
72 128 70
72 137 73
80 135 72
93 144 80
95 138 77
88 143 77
91 147 80
86 139 76
83 140 75
67 141 74
81 137 74
84 144 77
87 144 78
92 151 82
92 148 80
98 152 84
93 147 80
111 154 85
105 154 84
106 151 83
108 148 84
99 150 82
92 150 81
90 152 80
86 156 81
88 144 78
101 154 84
92 150 80
86 154 80
99 152 82
91 157 83
90 155 81
99 156 83
96 160 85
90 154 82
105 162 86
104 160 86
116 159 88
93 157 83
97 153 83
93 157 83
92 158 83
94 154 81
103 153 82
107 159 86
101 161 86
99 159 85
111 159 87
93 163 85
106 154 84
94 165 86
109 160 86
85 149 78
106 158 85
99 151 81
96 155 82
90 146 78
106 147 82
78 153 78
98 151 81
83 145 75
79 145 74
89 152 79
98 152 81
89 146 77
99 143 78
98 149 79
85 144 75
99 147 79
90 147 77
100 150 81
81 144 74
91 145 76
103 145 79
88 133 72
80 138 71
80 149 76
76 144 75
74 141 78
79 129 71
74 139 81
67 150 92
57 147 97
60 163 105
62 166 107
54 163 115
53 166 116
37 180 128
57 181 130
57 191 144
37 193 141
26 197 153
18 200 155
0 197 147
20 207 161
0 209 162
0 206 159
0 213 171
0 215 169
0 209 163
0 213 169
0 214 170
0 210 166
0 212 164
0 212 166
0 213 168
0 209 166
0 220 179
0 218 179
0 217 177
0 217 177
0 217 176
0 217 177
0 220 180
0 219 178
0 216 178
0 219 180
0 214 176
0 217 178
0 217 177
0 217 176
0 217 178
0 218 178
0 214 175
31 219 180
0 214 177
22 218 179
0 218 179
22 221 181
31 217 179
22 217 178
39 214 178
38 221 183
38 215 179
44 215 180
22 216 178
31 214 176
38 213 178
50 220 184
44 216 180
31 219 179
38 215 179
59 219 184
38 216 178
45 216 181
50 216 181
59 217 183
55 216 182
67 220 187
59 216 183
63 218 185
38 214 177
44 215 180
55 218 183
31 213 175
38 219 182
44 217 181
55 219 184
38 215 178
31 213 176
39 215 179
39 212 176
0 215 175
31 212 176
31 215 178
0 213 175
22 219 179
0 218 179
0 210 174
0 213 175
0 215 176
0 214 175
0 211 174
0 213 176
0 212 173
0 212 174
0 209 172
0 210 173
0 212 175
0 214 176
0 212 174
0 213 176
0 212 174
0 210 172
0 214 176
0 216 177
0 213 173
0 212 174
0 216 175
0 212 174
23 196 173
36 167 169
52 113 168
51 107 164
51 108 164
54 105 169
54 101 168
56 102 169
54 100 167
52 99 166
56 100 170
58 100 172
57 100 171
54 99 167
56 100 170
55 100 169
55 99 169
56 99 170
56 99 171
55 100 170
59 99 174
58 99 174
56 100 170
56 100 170
55 99 169
58 100 174
56 99 171
59 100 174
59 100 175
58 100 173
59 100 174
57 99 172
57 99 172
59 100 175
58 100 172
58 100 174
59 100 174
58 100 173
57 99 172
60 100 176
55 99 171
60 99 177
59 99 175
59 99 174
59 100 175
59 100 175
57 100 172
58 100 173
58 100 174
58 100 174
58 99 173
58 100 174
59 100 175
60 99 177
59 100 175
59 100 175
59 99 173
59 99 175
58 99 174
59 100 175
59 100 175
62 100 178
57 100 171
58 99 174
60 100 176
60 100 176
58 100 174
58 99 174
58 99 174
60 100 175
58 100 173
61 100 177
60 100 177
58 100 173
59 100 175
58 100 174
59 99 175
60 100 176
57 99 171
58 99 175
59 100 175
60 100 176
58 100 174
57 100 173
60 100 177
61 100 178
60 100 175
56 100 170
60 100 176
60 100 175
59 100 175
60 100 176
59 100 175
58 100 173
58 100 173
58 100 172
59 100 175
56 100 171
57 99 172
60 100 177
59 100 175
58 100 174
60 100 175
59 100 173
58 100 173
57 100 172
57 99 172
58 100 173
59 100 174
59 100 175
60 100 176
60 100 175
58 100 174
57 100 173
58 99 172
60 100 176
57 100 171
59 101 173
57 100 171
57 100 172
56 99 171
57 100 172
56 100 170
58 100 173
57 100 172
60 100 175
58 100 174
59 100 174
57 100 172
58 100 173
59 100 175
55 99 169
56 100 171
58 99 173
61 101 175
60 100 175
58 99 174
60 101 175
58 100 173
56 100 171
59 100 175
59 100 174
58 100 172
58 100 173
57 100 172
57 100 170
57 100 171
59 100 175
57 99 172
54 100 167
59 100 173
55 99 168
58 99 172
58 101 173
55 100 167
54 99 167
55 99 169
56 98 168
53 100 166
59 100 173
55 99 166
56 99 169
57 100 172
58 100 172
57 99 169
55 100 168
56 98 168
52 99 163
57 100 170
54 98 163
54 99 165
54 98 163
50 98 158
55 95 159
53 99 163
56 98 166
51 98 161
55 98 164
53 95 155
50 96 154
46 91 129
35 91 101
25 79 72
16 66 36
16 93 50
18 90 47
24 90 46
33 83 46
20 94 51
25 85 45
38 79 49
40 100 54
27 103 51
44 99 52
53 104 55
42 109 57
43 97 51
34 99 55
49 103 57
57 114 63
54 111 62
57 117 62
60 114 64
64 115 64
65 120 66
76 132 72
66 121 64
76 123 70
64 126 69
65 137 70
74 128 70
81 133 74
76 136 75
65 115 64
82 129 72
86 144 78
76 138 75
76 146 78
73 135 73
88 143 78
86 138 74
83 143 78
81 139 76
90 141 76
86 138 76
89 138 75
83 142 75
100 148 83
101 148 81
94 154 82
95 145 80
91 155 81
103 160 86
104 151 83
105 156 85
106 156 86
85 150 78
111 157 86
102 153 84
94 155 81
102 152 83
102 154 83
102 158 85
103 163 88
110 158 86
102 154 83
98 162 85
89 154 81
104 157 84
98 158 84
97 150 80
101 153 83
98 150 81
99 157 83
102 155 83
105 158 85
103 159 85
107 155 84
92 162 84
101 152 82
100 152 81
94 155 82
84 148 77
98 156 82
106 161 86
78 150 76
97 151 80
97 151 81
85 150 78
96 152 80
63 147 73
92 155 82
92 146 77
78 150 77
89 145 76
84 145 75
85 140 74
77 149 76
76 149 76
80 151 77
75 139 71
95 150 80
65 142 71
76 138 71
54 141 69
87 139 73
77 139 71
79 146 74
82 141 77
70 153 87
68 150 90
62 149 88
69 159 105
58 160 106
55 158 100
42 174 127
50 184 134
31 188 138
54 190 141
27 191 140
25 188 137
26 200 149
0 205 157
0 211 163
0 205 157
0 215 170
0 205 161
0 214 168
0 210 166
0 210 162
0 202 158
0 215 170
0 205 157
0 214 172
0 213 168
0 212 167
0 212 169
0 218 179
0 218 178
0 217 178
0 218 179
0 215 177
0 217 179
0 220 178
0 216 177
0 216 178
0 216 178
0 216 176
0 217 178
22 218 179
22 217 178
0 218 179
31 215 178
31 218 179
22 212 175
22 217 178
39 219 181
31 215 176
50 218 183
44 217 180
38 219 181
31 219 181
59 221 185
54 216 182
54 214 181
63 218 184
77 220 189
31 217 179
49 215 180
67 218 186
54 220 185
50 216 180
74 216 186
50 219 183
59 220 185
86 218 190
63 218 185
67 219 186
54 217 183
50 215 181
63 218 184
59 214 181
74 216 185
80 219 189
45 216 180
63 221 187
50 218 183
63 211 179
44 214 179
59 217 184
44 212 177
55 211 179
50 215 179
44 217 180
31 214 177
38 210 176
45 216 180
38 217 180
31 217 179
31 218 179
0 214 175
39 216 180
0 214 176
0 214 175
0 215 176
0 214 175
0 214 176
0 214 175
0 213 174
0 214 176
0 212 175
0 213 175
0 214 175
0 210 174
0 212 175
0 214 175
0 210 173
0 213 175
0 209 173
10 203 171
15 204 172
38 164 170
52 117 168
51 116 167
54 103 167
49 116 164
56 102 170
56 101 170
52 103 165
54 105 167
55 104 169
53 99 166
58 100 173
56 100 170
57 100 172
58 100 172
53 99 167
57 100 171
56 99 171
57 100 171
55 100 169
59 100 173
57 100 173
57 100 172
58 100 174
56 99 170
57 100 171
60 100 175
57 100 172
57 100 172
59 100 174
58 100 173
58 99 174
59 100 176
59 100 175
57 99 172
55 99 170
57 99 173
60 100 175
58 100 172
58 99 173
59 100 175
58 99 174
61 100 177
57 99 173
58 99 174
59 100 175
56 99 172
55 100 170
57 99 172
58 100 173
59 100 174
59 100 175
61 100 177
58 99 174
60 100 175
60 100 176
59 100 175
58 99 175
58 99 174
59 100 175
59 99 173
58 99 174
59 100 175
58 99 174
59 99 176
59 100 175
58 100 173
58 100 174
60 100 175
59 99 176
59 99 176
61 99 177
58 99 174
58 100 174
59 99 176
60 100 176
57 99 172
59 100 175
59 100 175
59 100 175
59 100 175
58 100 174
59 100 175
59 100 175
59 100 175
60 100 177
58 100 174
61 100 177
58 100 174
61 100 178
59 100 174
58 100 174
59 100 175
59 99 175
59 100 175
60 101 175
56 99 171
59 100 175
57 100 172
59 100 175
58 100 174
59 100 175
60 100 175
56 99 172
58 100 173
57 100 172
59 100 175
58 100 174
59 100 174
59 100 174
59 100 174
60 100 176
56 100 171
58 100 173
59 100 174
59 100 174
60 100 175
58 100 174
59 100 174
59 100 175
58 99 175
58 100 173
58 100 173
60 100 175
59 100 175
59 99 174
59 100 173
58 100 173
56 99 172
58 99 174
58 100 174
58 100 172
58 100 172
60 100 175
60 100 174
60 99 175
59 100 174
59 100 175
58 100 173
58 100 173
55 99 169
59 100 174
57 100 171
57 100 172
59 100 173
55 100 170
56 100 170
57 99 174
57 99 171
59 100 173
55 100 169
54 99 166
54 100 166
55 100 169
57 101 170
55 100 169
54 100 168
58 100 170
59 98 170
56 100 168
57 100 170
57 100 171
54 98 165
57 100 169
54 98 165
57 99 168
57 99 169
54 99 165
54 99 166
57 99 171
54 99 165
53 98 164
51 99 163
57 98 167
51 97 159
52 98 160
54 95 157
52 97 158
52 96 158
43 88 130
31 89 99
24 87 67
12 90 45
14 88 44
24 93 46
16 82 44
26 91 47
22 84 46
15 96 50
19 96 51
36 90 47
37 99 51
47 107 58
44 95 49
54 105 57
37 97 52
42 102 54
58 118 64
52 118 62
45 115 59
73 114 64
70 114 66
49 109 58
58 115 64
58 116 62
64 124 67
57 121 63
61 118 64
72 122 68
71 132 71
67 127 68
79 124 70
82 134 75
70 131 70
79 145 75
77 144 75
71 134 73
91 135 76
83 142 76
96 146 80
81 144 77
84 138 76
92 136 76
101 152 83
97 149 81
79 144 76
91 148 78
96 150 81
83 143 75
76 149 76
81 145 76
108 154 84
109 156 85
86 151 79
81 151 78
87 144 77
89 154 81
105 159 86
96 148 81
100 154 83
98 161 86
98 158 84
99 154 82
88 153 79
96 158 84
112 155 85
95 159 84
94 150 79
91 158 83
99 161 85
104 161 85
97 154 82
91 154 81
84 149 76
89 149 79
95 160 84
93 158 82
96 156 83
94 154 80
83 156 80
107 153 83
93 155 81
106 155 85
101 156 83
89 146 77
85 154 79
86 146 75
86 158 81
102 154 83
99 156 83
97 156 82
81 147 76
85 146 76
79 149 76
83 143 73
98 151 80
78 141 73
82 144 74
99 145 78
82 145 75
81 141 73
84 142 73
79 139 71
78 144 74
79 143 74
66 139 71
73 149 85
57 136 82
66 151 93
74 161 103
55 155 101
67 165 111
53 168 114
47 164 114
43 172 124
43 179 134
51 187 135
26 190 141
18 195 151
0 201 153
19 196 151
0 207 161
0 205 157
0 215 168
0 206 161
0 209 165
0 208 161
0 211 166
0 207 160
0 209 164
0 209 164
0 215 172
0 207 162
0 210 166
0 213 170
0 206 162
0 215 177
0 215 176
0 218 178
0 218 178
0 218 179
0 218 178
0 216 177
31 217 179
0 218 179
22 218 180
22 220 180
0 220 179
0 213 175
0 217 177
39 219 181
45 216 180
63 220 186
38 219 181
38 220 182
50 220 183
50 218 182
71 218 187
80 218 190
63 219 185
67 221 187
74 219 187
49 214 179
63 219 185
77 217 187
63 215 183
74 221 188
86 216 189
70 217 186
54 217 182
66 219 186
77 218 188
94 222 195
100 221 195
86 219 190
86 221 192
74 217 185
86 221 191
77 218 188
70 218 185
77 217 188
70 221 186
80 218 189
49 215 179
73 219 188
77 215 185
63 219 185
63 213 182
80 217 188
77 219 189
70 217 185
67 214 183
67 220 187
66 215 184
50 219 183
67 216 185
31 214 178
39 209 173
63 219 185
38 211 176
45 212 177
22 216 177
39 216 180
31 211 174
0 212 174
0 210 173
0 213 175
0 206 169
0 215 176
0 213 175
0 214 177
0 213 176
0 217 178
0 210 173
0 209 172
0 213 175
12 213 176
6 210 175
10 212 176
22 184 166
38 156 165
46 126 163
54 114 169
48 113 164
54 114 170
54 109 168
50 111 164
57 104 171
52 110 169
53 105 169
54 102 168
56 100 170
57 100 171
54 99 168
59 100 173
55 100 169
54 98 167
56 100 171
56 100 171
56 99 170
58 100 172
54 99 169
55 99 170
54 99 167
57 100 172
58 100 174
57 100 172
58 100 172
57 100 171
58 100 174
57 100 172
56 99 171
60 100 176
55 99 170
60 100 175
56 99 171
57 100 172
58 99 174
58 100 174
60 100 176
57 99 172
59 100 175
58 99 174
58 100 173
60 100 175
57 99 173
59 100 173
58 100 174
59 100 175
60 100 175
58 100 172
59 100 174
58 100 173
61 100 177
59 100 175
58 100 173
60 100 176
60 100 175
58 100 174
60 100 175
61 100 177
60 100 175
59 100 174
58 100 174
59 100 175
58 100 173
60 100 175
58 99 174
60 100 176
60 100 175
58 100 173
59 100 175
61 100 177
60 100 176
57 100 172
58 99 174
56 99 172
58 99 173
58 100 173
59 100 174
58 99 173
59 100 175
56 99 172
57 99 173
58 100 174
59 100 175
56 100 171
57 99 173
61 100 177
60 100 175
59 99 174
53 99 167
60 100 176
58 100 174
58 100 173
57 100 172
59 100 175
59 100 175
58 100 173
60 100 176
61 100 178
60 100 175
58 99 174
56 100 172
59 99 175
59 100 174
56 100 170
61 100 176
58 100 173
58 100 174
57 100 172
59 100 173
59 100 175
58 100 174
58 100 173
59 100 175
58 99 174
58 100 173
59 100 174
56 100 169
57 100 173
58 100 173
57 100 172
58 100 173
57 99 171
58 100 172
57 99 173
56 100 171
58 100 174
58 100 173
58 100 171
58 100 172
57 100 172
58 100 173
57 100 173
56 100 171
58 100 173
57 99 172
56 100 171
58 100 173
57 100 172
58 100 172
60 100 174
56 100 170
57 100 171
56 100 171
59 100 175
57 99 172
60 100 175
58 99 172
58 100 170
60 100 175
54 98 167
57 100 171
56 100 170
59 99 171
56 99 169
54 99 167
56 98 169
55 100 168
56 99 169
55 100 169
53 98 163
53 100 165
55 99 168
56 99 169
55 99 168
54 98 165
54 97 161
53 96 161
54 99 164
54 98 165
55 98 163
53 99 165
52 95 157
53 98 163
55 97 162
50 96 156
49 95 151
49 95 140
37 83 111
26 94 79
12 95 53
20 88 46
14 94 47
23 87 43
22 88 45
21 87 43
33 97 52
33 84 49
33 98 52
33 89 47
37 102 52
36 100 51
46 101 56
40 109 56
45 112 60
40 99 53
42 105 56
49 114 59
54 114 61
67 121 66
48 108 58
53 116 62
48 118 61
67 121 67
56 128 68
65 121 64
74 131 71
63 118 65
63 131 69
68 132 70
90 141 77
78 137 75
84 141 75
69 139 74
69 141 74
82 147 76
84 138 74
82 146 78
87 137 75
55 134 69
89 143 78
79 146 77
75 137 72
84 149 79
77 143 74
84 138 74
85 151 79
86 147 78
86 145 76
89 153 81
83 150 79
95 149 80
92 150 80
96 158 84
86 150 79
109 150 83
100 157 84
86 154 81
104 161 86
91 157 82
79 150 77
108 163 88
101 155 83
79 149 76
88 161 82
83 153 79
100 154 82
94 156 82
95 162 84
106 165 88
109 161 87
92 155 81
79 155 78
100 158 83
92 151 79
88 148 76
86 149 77
89 160 82
91 160 84
102 144 78
76 146 75
87 148 77
85 144 75
97 156 82
81 156 79
86 151 78
96 151 81
84 153 78
84 152 78
72 139 70
86 149 77
80 142 74
74 153 76
90 137 73
94 152 78
83 144 75
85 139 73
63 142 70
75 144 73
79 137 69
76 147 74
66 142 70
76 144 75
69 146 79
63 139 82
82 149 87
85 159 98
57 156 96
38 148 92
58 165 107
46 166 108
57 171 115
0 173 127
19 187 138
33 187 137
25 197 147
27 197 147
26 202 154
18 197 148
27 207 161
0 209 167
0 211 168
0 211 166
0 209 163
0 210 164
0 209 165
0 209 164
0 211 165
0 207 162
0 209 165
0 211 166
0 209 166
0 212 165
0 210 164
0 218 178
0 217 177
0 217 178
0 220 179
0 218 177
22 217 178
22 222 181
0 216 177
39 219 181
50 220 184
31 214 177
31 218 180
45 221 183
50 218 182
50 217 182
22 216 176
63 217 184
59 217 183
54 218 184
59 220 185
67 219 186
49 213 179
63 215 183
73 218 186
74 213 184
59 223 186
83 220 191
77 215 185
89 218 191
77 220 189
80 219 190
73 218 187
86 220 191
80 218 188
63 221 186
67 220 187
88 219 192
106 218 196
104 217 194
96 217 192
96 217 191
86 218 190
80 217 187
80 220 189
109 219 197
54 215 180
83 216 188
66 215 183
101 217 194
96 218 193
91 220 193
73 219 188
59 214 182
66 218 186
70 217 186
91 217 191
74 219 187
77 220 189
92 218 191
80 214 186
50 213 180
67 216 182
59 211 179
50 217 181
44 216 179
59 216 182
39 214 176
59 217 182
45 214 178
31 217 177
22 211 174
22 212 175
0 213 174
0 213 174
0 208 171
0 214 175
0 215 177
0 212 175
0 213 174
0 206 169
16 208 174
14 204 171
11 205 172
25 195 174
41 158 169
47 133 168
48 114 162
54 113 170
50 117 166
53 107 168
53 109 168
50 107 164
54 105 168
56 104 170
55 102 168
56 104 170
56 104 172
57 99 171
56 99 170
57 100 172
57 99 172
59 100 175
55 99 169
55 99 169
59 100 175
59 100 174
58 100 173
55 100 169
58 100 173
59 100 175
59 100 174
59 100 173
60 100 176
56 100 171
57 100 173
58 100 173
58 100 174
57 100 172
57 100 172
58 100 174
59 99 175
58 99 174
58 100 174
56 99 171
58 99 173
58 99 174
58 99 173
58 99 174
59 99 174
60 100 175
58 99 175
60 100 175
59 100 175
59 100 174
57 99 172
58 100 174
56 99 172
60 100 176
58 100 174
57 100 173
58 100 173
58 100 172
60 100 177
56 99 173
57 100 172
59 100 175
57 99 173
59 99 175
56 99 173
59 100 175
59 100 175
59 100 175
60 100 176
58 100 173
58 100 174
56 100 171
58 99 174
60 100 176
59 100 175
58 99 174
60 100 176
61 100 177
59 100 175
58 100 173
59 100 175
59 100 174
58 100 173
58 100 173
59 100 174
56 99 170
58 100 174
59 100 173
58 99 173
59 100 175
58 99 174
59 100 175
62 100 178
60 100 176
58 99 174
59 100 175
59 100 175
57 99 173
59 99 174
58 100 174
58 100 174
58 99 174
59 100 175
62 101 177
57 100 173
59 100 175
57 99 172
56 99 172
59 100 175
58 99 172
59 100 174
58 100 173
58 100 173
60 100 176
59 100 174
58 100 173
59 99 174
58 100 172
59 100 174
58 100 172
60 100 175
60 100 176
58 100 174
55 100 169
58 99 173
59 100 175
58 100 173
56 99 170
59 100 173
56 100 170
59 100 174
58 100 173
59 100 173
59 101 174
58 100 173
57 100 172
58 100 173
56 100 171
56 99 170
55 100 169
56 100 170
56 99 170
58 100 172
56 100 170
55 100 169
58 98 171
57 99 170
56 100 170
58 100 172
58 100 172
55 99 169
56 101 169
54 100 167
58 100 171
56 99 170
55 99 167
57 100 170
59 101 173
55 99 168
56 100 170
57 99 169
56 99 169
58 99 169
58 99 170
54 99 165
55 98 166
55 99 165
57 100 169
56 99 168
57 99 167
56 97 163
54 100 165
56 98 166
54 98 165
53 97 161
51 96 155
51 97 158
51 96 156
52 95 156
42 92 130
35 86 95
24 88 65
32 84 47
16 89 47
12 87 41
30 87 46
15 88 44
7 108 52
30 87 45
26 90 45
18 92 47
32 98 50
44 103 58
15 96 50
39 110 55
42 97 54
38 104 54
52 111 58
37 108 56
50 110 58
60 116 63
53 118 61
55 120 65
69 119 66
66 122 65
53 121 65
61 119 64
49 124 63
73 123 68
70 133 70
68 132 72
80 138 74
67 129 71
67 136 71
67 132 67
70 143 74
77 135 71
92 144 79
84 140 75
80 139 76
77 140 73
85 134 73
74 141 73
71 145 76
83 145 76
76 140 73
83 146 75
80 148 79
85 149 79
71 147 74
94 152 82
78 147 77
101 153 83
97 149 81
103 157 84
74 151 77
80 147 76
99 155 83
90 149 80
95 150 80
96 157 82
87 151 79
101 157 85
89 157 82
73 153 77
74 153 78
84 154 79
85 153 80
97 148 79
101 158 85
98 158 83
94 158 83
84 150 77
101 155 82
93 153 81
92 154 80
90 151 78
83 155 79
96 155 81
81 143 74
99 161 85
96 153 81
89 152 78
81 154 78
83 147 76
91 151 79
79 150 77
79 150 75
83 143 74
90 153 79
83 144 74
83 145 75
72 148 75
83 147 76
75 144 73
97 155 82
78 143 73
90 144 76
80 144 73
66 136 68
80 145 74
88 149 78
94 142 76
60 134 65
68 142 76
60 141 75
50 149 88
60 147 87
60 163 103
47 161 110
66 153 99
54 167 116
54 174 118
38 175 127
37 181 133
38 185 132
34 191 145
27 194 147
18 209 164
0 202 156
27 203 157
0 205 158
0 203 157
0 205 158
0 204 159
0 206 160
0 206 158
0 205 161
0 213 168
0 216 172
0 213 167
0 213 167
0 212 166
0 212 169
0 213 170
0 212 168
0 220 180
0 219 179
0 219 179
22 214 177
22 218 180
22 216 178
50 217 182
38 217 180
22 216 178
0 217 178
50 220 184
38 219 181
50 217 182
59 218 183
70 222 189
67 217 185
80 221 191
97 220 194
73 217 186
66 217 185
80 219 189
74 218 188
80 220 189
89 216 189
102 224 199
79 220 190
94 218 192
91 217 192
104 222 198
94 218 193
82 222 192
85 220 192
99 221 195
94 216 191
91 220 192
82 218 189
96 221 195
99 217 193
91 219 193
86 213 186
106 224 200
101 221 197
106 222 198
98 218 194
91 221 194
97 219 194
79 217 188
98 218 193
94 221 195
86 218 190
89 218 191
103 220 197
104 216 194
76 216 186
79 221 191
94 219 193
91 221 194
83 220 191
85 220 192
94 218 193
77 217 185
94 221 194
86 215 189
80 220 190
55 215 182
50 213 180
59 217 182
74 214 184
70 216 185
63 219 185
44 214 179
22 214 177
0 215 175
22 215 176
0 217 177
0 212 172
0 208 172
0 211 172
0 212 173
9 210 173
16 199 170
17 200 171
17 201 171
27 186 170
37 158 167
50 119 166
49 121 166
50 116 166
51 115 167
50 119 166
50 103 161
56 110 172
51 107 165
54 110 170
58 106 174
56 103 171
56 103 170
56 105 172
56 102 170
53 101 167
54 100 167
57 100 172
57 100 170
59 99 175
54 100 168
53 99 167
58 100 172
56 99 170
57 99 173
59 99 175
58 100 172
56 99 171
55 99 171
59 100 175
57 99 172
56 100 171
55 100 169
57 99 173
60 100 176
57 99 172
58 99 172
60 99 177
59 100 174
59 100 174
58 100 173
56 100 171
56 99 171
59 100 174
59 100 175
57 99 172
58 99 174
58 100 173
57 99 171
57 100 172
57 99 172
59 100 173
58 99 174
58 100 175
58 100 174
57 100 172
59 100 175
58 99 174
59 100 175
60 100 176
57 100 172
60 100 176
58 99 175
58 99 173
61 100 179
57 99 174
55 100 170
60 100 175
58 99 174
57 99 172
59 99 174
61 100 177
58 100 173
59 100 175
57 100 172
56 100 170
61 101 176
60 100 176
60 100 175
57 100 172
60 100 176
60 100 175
59 100 175
59 100 174
57 99 172
58 100 172
58 99 173
61 100 177
59 100 175
60 100 177
59 99 174
60 100 175
60 100 176
58 100 173
57 100 172
57 99 173
59 100 174
57 100 172
58 100 173
59 100 174
58 99 174
60 100 175
57 99 173
59 100 174
55 100 169
56 100 170
59 100 175
59 99 173
57 100 173
60 100 176
59 100 175
58 99 173
58 100 173
59 100 175
58 100 173
58 99 173
57 100 172
58 100 173
57 100 173
55 99 169
56 100 172
57 100 172
57 100 172
58 99 172
58 99 173
56 100 171
57 99 171
56 100 171
57 100 173
58 101 172
58 100 173
56 100 171
58 100 172
56 100 171
57 99 171
58 100 174
58 100 173
57 100 172
58 100 174
55 100 169
58 100 172
59 100 174
56 99 172
59 100 172
58 100 174
54 99 167
57 100 172
54 100 168
54 100 168
57 100 172
57 99 171
57 100 171
56 99 170
58 100 173
57 101 171
55 100 169
59 100 173
57 100 172
56 99 169
57 100 171
55 99 167
56 100 168
53 99 163
57 99 169
54 97 165
50 97 159
55 98 165
53 99 165
56 99 165
54 98 166
55 99 166
52 97 160
55 99 167
55 98 165
53 97 161
54 99 164
51 98 157
50 96 153
54 98 162
49 98 143
33 91 101
23 97 72
15 88 45
14 96 47
32 88 48
17 90 45
13 94 49
24 102 51
31 92 47
24 97 47
32 95 51
25 105 54
23 93 47
35 100 53
36 96 49
25 96 50
30 102 53
37 114 59
33 100 53
38 109 58
41 106 56
44 128 64
50 117 59
57 128 66
68 121 67
54 113 62
51 118 62
66 126 68
58 123 66
68 123 67
62 130 67
71 128 69
68 120 66
80 133 72
71 132 71
73 139 73
53 127 65
74 133 70
70 146 75
70 128 70
69 137 72
77 132 71
67 139 73
96 149 80
79 143 74
88 137 76
83 139 75
85 148 77
84 149 78
90 152 80
84 154 80
80 151 78
104 150 82
95 149 80
85 144 77
88 154 80
86 150 78
109 159 87
89 153 79
98 155 82
100 149 81
97 153 82
89 146 78
81 151 77
93 150 80
88 150 78
84 146 76
82 157 80
94 158 83
84 153 79
87 157 81
82 151 78
84 150 77
92 158 83
88 150 79
102 148 80
94 152 81
84 150 77
93 153 81
86 145 75
78 151 77
85 144 75
108 161 86
78 148 76
88 156 81
87 153 80
69 143 71
101 155 82
90 145 76
72 149 74
86 145 75
83 154 79
76 147 75
88 151 78
74 143 72
83 143 73
74 137 70
89 144 76
79 142 72
66 137 69
79 140 72
66 136 67
50 142 73
82 140 73
69 128 71
68 141 83
67 154 95
68 155 101
70 162 105
58 164 109
58 166 112
32 181 130
50 174 124
32 179 130
43 188 138
32 193 143
19 184 135
33 193 143
0 200 152
0 200 154
20 206 158
0 210 164
0 208 158
0 207 163
0 209 164
0 207 159
0 209 162
0 210 163
0 211 167
0 209 164
0 213 168
0 211 167
0 208 162
0 215 172
0 207 160
0 212 165
22 218 180
39 215 179
31 214 179
22 216 178
45 216 179
50 217 182
44 221 183
44 217 181
63 220 186
63 220 186
59 216 183
77 216 187
59 219 185
92 219 193
73 220 188
88 221 194
86 220 192
99 223 197
94 221 195
93 222 195
96 222 195
104 223 199
86 221 191
99 222 197
88 217 190
91 219 192
104 222 197
106 219 198
110 220 198
93 218 193
110 219 198
98 220 195
117 226 204
101 219 195
87 220 193
110 221 200
108 223 200
126 222 205
107 220 198
117 221 201
117 223 203
103 222 198
123 223 204
112 222 201
114 222 201
123 222 205
99 221 196
122 223 206
108 219 198
94 217 192
114 222 200
106 219 197
108 221 199
103 219 196
96 221 195
106 224 199
115 218 200
104 221 196
108 221 198
89 218 190
101 220 196
89 220 193
86 218 190
73 220 188
66 213 182
63 218 184
83 214 187
38 213 178
74 216 186
59 216 183
59 217 184
50 216 182
67 215 181
45 203 172
38 213 178
22 213 176
0 214 177
0 206 169
23 208 173
10 208 174
10 208 174
22 195 173
14 205 174
25 194 172
36 167 169
48 125 166
48 121 166
48 123 166
51 118 168
51 114 166
49 118 166
48 120 166
52 102 164
53 114 168
49 114 165
52 111 167
53 106 166
55 105 171
51 103 165
56 99 168
55 101 170
53 99 167
57 99 171
58 100 172
60 99 177
54 99 168
56 100 171
57 99 172
59 100 175
59 100 175
57 100 171
55 100 169
59 99 175
56 99 172
56 99 171
61 100 177
57 100 173
58 99 173
54 99 168
57 100 172
57 99 173
58 99 173
57 100 172
57 100 172
58 100 173
59 99 174
58 100 174
59 100 175
59 100 175
58 99 172
57 99 172
57 100 172
58 100 174
58 99 173
59 100 175
57 100 172
57 100 172
60 100 175
59 100 175
60 100 175
59 100 175
58 99 174
59 100 175
59 100 174
57 99 172
59 100 175
56 100 171
55 100 169
58 100 173
56 100 171
57 100 173
57 99 173
60 100 176
58 100 174
59 100 174
59 100 174
58 100 173
59 100 174
59 99 175
59 100 175
59 100 174
59 100 174
56 99 171
58 99 174
59 100 174
59 100 175
59 100 175
59 100 175
59 99 175
58 99 174
59 100 175
58 100 173
57 100 172
60 99 176
59 100 175
60 100 175
58 100 174
58 100 173
60 100 175
56 99 171
60 99 176
59 100 175
59 100 175
57 100 172
60 100 175
58 100 173
59 100 175
59 100 175
57 100 172
58 100 173
61 100 177
59 100 175
58 100 171
59 99 174
61 100 175
57 100 171
56 99 172
57 100 171
58 100 173
55 99 170
57 100 172
58 100 172
61 100 176
61 100 176
57 100 172
58 100 172
58 100 173
57 100 172
57 99 171
57 100 171
57 100 172
56 100 169
59 100 174
58 100 173
56 99 172
57 100 171
54 99 167
59 100 174
58 100 173
57 100 170
57 100 171
58 100 174
56 100 170
59 100 174
58 100 172
54 99 167
59 100 174
58 100 173
57 100 170
57 100 170
58 100 174
56 100 170
58 101 172
54 100 168
59 100 172
56 100 170
56 99 169
55 99 169
57 100 171
55 100 168
58 99 172
56 98 168
58 99 171
58 100 171
56 100 169
55 100 165
56 99 169
56 100 169
56 99 167
55 99 166
53 99 164
58 100 170
54 99 165
53 99 165
51 99 162
54 98 164
51 99 162
53 100 165
53 97 161
56 98 165
50 96 155
54 97 162
49 94 151
38 93 125
33 92 104
39 99 78
14 84 45
15 81 40
31 97 49
26 96 48
8 89 41
14 93 46
16 92 45
42 103 53
32 102 50
42 102 51
13 85 42
15 96 47
34 111 57
47 116 61
19 111 56
50 100 53
40 116 56
46 113 58
36 115 57
43 116 60
49 113 59
48 116 60
57 124 64
59 128 66
59 126 65
64 122 64
56 122 64
56 125 64
68 129 68
49 120 62
63 128 66
60 137 70
55 130 66
61 131 68
67 136 71
72 133 69
62 131 68
84 137 73
85 150 79
69 130 69
94 145 78
84 143 76
82 141 74
80 147 77
68 139 72
86 141 74
79 146 76
97 153 81
89 145 77
77 141 73
83 144 75
81 149 78
83 149 77
84 146 76
81 147 77
81 146 77
83 143 74
86 143 76
88 155 81
95 146 78
85 149 78
82 149 77
79 147 76
88 153 80
78 150 76
83 148 76
84 149 78
79 153 77
91 156 81
96 152 80
83 152 79
92 156 80
76 154 78
90 152 79
75 144 72
81 150 76
79 148 75
90 158 82
97 152 80
91 150 80
86 145 75
72 144 73
77 152 77
90 148 77
72 148 73
81 150 76
83 144 74
72 145 73
66 143 72
74 139 71
75 141 72
79 146 74
84 144 74
76 144 72
63 143 70
69 142 71
88 147 76
83 139 72
74 140 72
72 134 68
72 126 65
66 134 71
63 148 87
72 135 80
61 151 95
62 148 91
47 160 107
47 168 118
60 171 112
32 173 124
38 175 126
46 189 139
33 188 141
27 177 127
18 202 155
19 199 150
27 196 151
26 204 157
0 209 161
0 212 167
0 208 159
0 207 158
0 210 164
0 211 167
0 210 165
0 205 159
0 206 163
0 213 168
0 209 163
0 210 166
0 210 166
0 217 172
0 209 164
0 210 166
39 215 180
55 217 183
67 220 187
31 217 180
44 217 182
54 218 182
70 218 186
50 220 184
74 219 188
67 217 185
73 219 188
80 221 191
73 215 186
99 219 195
103 224 199
93 223 196
91 223 195
110 222 200
93 220 194
96 220 194
129 223 207
94 221 194
114 220 200
110 219 199
110 222 200
105 221 197
116 221 202
101 223 198
103 219 196
114 218 199
104 220 197
95 220 195
101 223 198
117 222 204
114 222 202
110 220 199
105 223 200
114 222 201
123 223 205
114 225 203
112 220 200
118 223 204
100 219 195
119 221 203
116 222 202
126 222 205
128 222 207
118 222 203
110 217 197
113 223 202
116 221 201
126 219 205
111 224 201
116 222 203
108 221 198
122 222 204
115 221 201
112 220 200
110 218 198
117 220 200
99 222 196
88 222 193
85 218 190
117 221 201
91 220 192
104 218 193
83 214 187
107 222 199
89 220 192
92 219 193
80 214 186
67 215 183
77 219 189
70 214 184
63 216 183
54 217 183
50 212 179
45 209 176
39 211 178
36 207 178
32 197 174
29 185 169
30 189 173
34 181 173
41 151 168
48 124 165
50 109 163
49 129 170
52 120 169
52 117 168
51 109 166
52 110 167
53 106 166
54 111 170
53 107 167
56 102 170
55 105 169
54 105 168
56 103 171
55 103 169
55 101 171
55 99 169
56 100 171
57 101 173
58 100 172
56 100 170
59 100 174
55 100 169
58 99 172
58 99 173
58 99 172
56 100 171
59 100 174
57 100 171
58 100 174
58 99 174
56 99 171
58 99 173
57 100 170
56 100 170
58 99 173
58 99 174
59 100 174
58 100 174
59 99 174
60 100 176
56 100 171
59 100 175
59 100 174
59 100 175
56 99 171
58 100 174
59 100 175
58 100 173
59 100 175
59 99 174
60 100 177
59 100 175
60 100 177
58 100 174
58 99 174
58 99 173
58 100 173
57 100 173
58 100 173
56 100 171
58 100 174
59 100 175
58 100 174
57 99 172
57 100 173
57 99 172
58 100 173
55 99 170
60 100 176
55 100 170
56 99 171
60 100 175
59 99 176
58 100 174
60 100 175
57 100 172
58 100 173
57 99 174
57 99 172
59 100 174
57 100 171
58 99 175
56 100 172
59 100 175
59 100 175
58 100 174
57 100 170
59 99 175
58 100 172
55 99 169
60 100 176
58 99 174
59 100 174
59 100 174
55 99 169
58 100 172
58 99 173
58 100 174
60 100 176
58 99 174
60 100 176
57 99 171
58 99 173
59 100 174
59 100 174
60 100 175
54 100 168
61 100 177
57 99 173
58 100 172
56 99 169
58 100 172
56 100 171
57 100 172
58 99 174
60 100 176
57 100 172
60 100 176
60 100 175
58 100 172
55 100 169
58 100 173
60 100 176
59 100 174
59 100 174
58 100 175
58 99 172
57 100 171
57 100 170
58 100 173
58 100 172
57 100 172
56 100 170
57 100 171
58 100 173
56 99 171
55 99 170
57 100 172
56 100 170
55 100 170
55 99 168
54 100 167
54 99 168
55 100 169
56 100 170
56 100 171
57 100 171
57 100 172
56 100 170
54 99 167
54 99 168
56 100 170
53 100 166
55 100 170
54 100 167
54 100 167
54 99 168
56 99 168
55 100 167
56 99 169
51 99 161
53 100 167
54 97 163
56 99 168
55 99 167
51 98 161
53 100 166
56 98 166
54 99 164
57 99 168
52 97 161
51 98 159
55 98 163
52 97 160
49 98 156
56 97 164
47 94 149
44 94 134
33 95 106
17 94 66
33 93 54
7 81 38
11 84 41
25 97 50
36 89 45
10 82 40
25 92 46
31 96 49
24 101 49
30 103 50
38 105 53
29 105 53
41 99 53
32 107 55
38 105 55
24 104 54
54 113 60
45 105 56
50 113 61
41 114 59
41 103 52
49 115 59
55 125 66
41 118 59
49 120 63
60 125 67
40 130 63
60 125 66
59 117 64
64 123 67
67 136 70
70 137 71
66 126 67
66 126 66
69 136 71
69 143 74
72 134 70
74 143 75
71 136 70
72 138 70
87 144 77
78 148 78
72 146 74
73 137 71
81 143 75
55 139 68
77 148 75
72 154 77
77 141 73
90 149 79
86 145 76
67 140 72
99 149 80
88 147 77
75 148 76
88 154 80
94 146 79
87 152 79
83 154 79
88 149 79
80 151 77
99 155 82
84 155 80
84 147 77
82 150 76
83 159 81
86 151 78
90 152 79
94 150 80
77 149 75
86 152 79
82 147 76
83 146 76
79 159 81
77 139 71
88 147 77
82 152 78
91 146 77
84 154 79
80 152 78
89 147 77
90 150 78
89 145 76
78 152 78
66 147 72
76 143 72
60 148 72
57 143 69
80 146 75
67 136 67
66 147 73
76 146 75
61 133 65
63 141 70
68 139 70
79 135 70
61 141 69
51 133 63
77 147 74
63 142 71
69 142 78
67 156 92
77 153 100
69 151 95
54 150 88
57 160 103
33 161 108
51 173 122
38 177 127
51 178 128
26 176 128
42 184 138
33 190 140
0 196 148
28 194 146
0 198 149
18 203 156
18 202 157
0 214 168
0 207 162
0 205 159
0 210 164
0 211 164
0 207 158
0 209 164
0 211 165
0 210 166
0 209 165
0 210 164
0 212 167
0 206 159
0 214 169
0 209 164
0 211 167
39 220 182
63 219 185
44 218 181
67 220 187
63 221 187
74 217 187
70 220 187
86 216 189
63 218 185
76 220 188
70 219 186
96 217 193
108 224 200
94 220 193
91 222 194
98 220 195
90 219 193
110 221 200
105 221 198
101 219 195
131 223 208
119 225 204
105 221 198
113 223 201
116 222 203
118 224 204
122 222 204
128 221 206
130 221 207
100 220 196
125 225 207
135 223 211
118 220 203
130 222 208
130 219 206
124 222 205
130 223 208
135 223 210
130 219 205
134 221 210
126 222 206
134 222 209
128 226 209
135 224 211
107 221 199
120 222 203
116 222 202
135 224 211
124 222 206
116 223 203
120 223 205
129 222 206
107 221 199
114 221 201
120 222 203
114 220 200
114 223 203
121 225 205
108 220 199
114 221 201
117 219 200
111 221 199
115 222 201
121 222 203
82 221 192
107 220 197
106 218 195
94 217 192
83 219 190
77 217 187
97 218 193
77 217 186
74 218 187
77 218 187
59 216 181
81 218 188
38 213 178
67 217 185
60 208 180
50 197 175
39 190 173
30 179 169
37 176 169
31 187 175
41 155 169
46 131 167
52 113 167
49 110 164
51 119 169
48 131 169
50 117 166
51 108 165
53 120 170
51 111 165
49 119 166
52 109 167
54 106 168
52 106 167
54 106 169
50 108 164
57 102 171
57 104 172
56 99 170
56 101 170
57 100 172
58 99 172
55 100 168
55 100 169
56 99 171
56 99 171
58 100 173
55 99 169
58 100 174
57 99 171
58 100 172
56 99 172
58 100 174
57 100 171
59 100 174
57 99 173
55 99 170
60 100 176
58 100 173
58 100 173
60 99 176
57 99 172
57 100 172
60 99 176
60 100 176
57 99 172
58 100 174
58 100 173
57 99 171
60 100 175
57 100 172
58 100 174
57 99 171
58 99 174
60 100 175
60 100 176
59 100 175
58 99 173
59 99 175
59 100 175
57 100 172
59 100 175
57 100 171
59 100 174
56 100 171
59 100 174
55 100 169
59 100 175
58 99 175
60 100 176
59 100 174
59 99 175
59 100 174
58 99 173
57 100 172
59 100 175
57 100 171
59 100 175
56 100 171
57 99 172
58 100 174
58 100 174
58 100 173
59 100 175
59 100 175
58 100 174
58 100 174
59 100 174
55 99 170
58 99 173
56 99 170
60 100 176
60 100 175
59 100 174
60 100 175
58 99 174
59 100 174
58 100 173
60 100 176
58 100 173
60 100 174
59 100 174
58 99 173
59 100 174
58 100 172
57 99 173
58 100 173
58 100 174
60 100 175
59 100 174
58 100 172
59 100 175
57 100 172
58 100 173
58 100 173
58 100 172
59 100 172
56 100 170
58 100 172
55 99 168
57 99 171
58 100 173
61 100 176
58 100 174
55 100 169
56 100 170
57 100 171
56 99 171
58 100 171
57 100 171
60 100 175
60 101 174
57 100 171
56 100 170
56 99 170
59 101 173
57 100 172
58 100 173
56 99 170
55 100 169
57 100 172
59 100 172
59 100 172
55 99 168
58 100 173
53 99 167
57 99 170
55 100 168
56 100 169
55 99 168
55 99 168
55 100 169
55 100 169
57 100 171
58 101 171
54 99 166
55 100 167
55 99 166
54 100 166
60 100 174
55 100 166
54 99 166
57 99 170
53 100 166
55 99 166
54 99 166
57 99 170
55 99 167
53 100 164
54 97 162
54 99 164
54 97 162
52 99 162
55 98 162
52 98 161
52 95 159
50 97 155
56 99 164
48 93 149
41 93 130
38 99 98
22 106 83
25 99 60
7 94 44
16 86 44
12 97 47
12 98 45
21 91 44
15 77 41
24 94 49
18 98 50
11 96 48
24 90 46
29 100 48
41 94 49
34 102 51
29 109 53
37 97 51
51 106 58
33 111 56
36 108 55
69 122 63
50 115 59
43 108 56
45 113 58
59 118 61
46 126 64
63 125 66
60 117 61
62 124 64
48 128 63
74 130 69
58 123 65
62 135 70
72 134 70
54 128 67
78 131 70
69 129 68
52 131 66
61 139 70
77 143 75
58 135 68
73 129 69
70 138 71
64 141 71
83 143 76
86 149 77
76 137 71
72 142 72
75 146 76
79 152 78
81 146 74
91 154 81
71 150 76
64 150 74
86 146 77
76 149 76
91 153 79
79 140 73
72 151 77
83 153 79
85 148 77
103 153 82
88 155 80
81 153 78
81 143 74
96 148 79
60 141 70
76 148 75
75 151 76
79 148 76
91 154 80
79 151 77
73 150 76
75 145 73
95 154 81
79 143 74
82 152 77
77 146 74
88 155 80
80 148 75
78 151 76
74 149 75
77 145 74
81 149 77
80 153 78
65 146 73
63 144 70
76 148 76
73 144 71
54 138 67
81 150 76
79 146 74
74 144 71
72 141 71
55 146 71
73 138 70
47 137 65
63 135 68
61 141 70
70 136 70
64 151 83
57 147 85
64 148 84
61 152 89
51 153 96
51 166 108
37 162 109
33 163 110
51 172 119
37 170 120
34 173 123
26 191 141
18 176 125
20 192 145
18 194 145
27 200 149
0 201 154
0 207 160
0 204 159
0 204 159
0 205 160
0 206 160
0 209 159
0 211 166
0 210 162
0 208 161
0 210 166
0 207 163
0 203 156
0 210 165
0 209 163
0 209 164
0 211 168
0 209 162
0 213 168
54 217 183
54 217 181
70 219 186
86 219 191
80 221 190
80 220 190
77 219 188
88 217 190
99 221 196
94 220 193
128 223 207
99 222 197
103 220 197
108 224 201
99 219 194
114 223 202
114 224 203
126 223 206
107 220 198
122 221 204
120 222 204
124 224 207
126 223 207
108 224 200
120 221 204
125 224 207
126 224 208
122 222 205
143 223 214
135 225 212
126 225 207
125 223 206
137 223 211
135 224 210
140 222 212
126 224 209
122 222 205
145 225 216
141 223 214
133 223 210
150 226 218
137 225 212
130 224 209
136 224 211
136 224 211
131 222 208
136 223 212
122 222 204
121 221 205
134 223 209
133 225 211
120 222 204
122 223 205
135 223 210
142 227 215
116 224 203
130 222 208
123 220 202
124 224 207
114 225 203
134 223 209
124 218 204
105 217 196
110 221 199
115 217 199
98 223 197
111 221 199
103 221 198
99 219 195
104 219 196
111 219 198
88 217 190
86 217 189
99 220 195
91 216 190
74 217 187
74 216 186
75 210 183
56 206 178
62 186 177
59 184 177
36 185 172
29 181 166
32 175 168
43 149 170
48 130 166
48 125 167
48 131 169
47 121 163
50 118 169
50 115 165
52 116 168
52 112 168
51 112 166
57 109 174
52 105 166
54 118 173
51 109 167
50 101 164
52 112 168
56 108 172
56 101 171
56 100 170
55 104 170
56 105 171
55 102 170
59 100 174
56 100 170
60 100 175
56 100 171
55 99 169
57 99 172
56 99 170
58 99 174
58 100 171
57 100 172
57 100 172
57 99 173
60 100 174
57 100 172
58 100 174
57 100 172
58 99 175
59 99 175
60 100 176
58 100 174
58 100 173
59 100 175
59 100 174
58 100 174
59 100 174
60 100 176
58 100 173
56 99 171
59 99 175
58 100 174
61 101 175
58 100 173
58 100 174
59 100 175
56 99 172
60 100 176
59 100 175
57 99 172
58 99 174
55 99 170
58 99 173
59 99 174
59 100 175
57 100 173
59 100 175
59 100 175
58 100 173
58 100 174
58 100 172
60 100 175
59 100 175
57 99 173
58 100 174
57 99 172
55 99 169
59 100 175
58 100 173
58 99 174
56 99 171
57 99 172
57 100 171
59 99 174
59 99 176
59 100 174
60 100 176
59 99 174
59 100 174
59 99 175
59 100 174
58 100 173
58 99 174
58 100 173
57 100 172
57 100 173
58 100 174
57 99 172
59 100 173
59 100 175
59 100 175
61 100 177
59 101 173
59 99 173
56 99 170
57 100 172
58 100 172
59 100 173
57 99 172
57 100 172
57 100 171
57 99 172
58 99 173
59 100 174
60 100 175
58 100 173
59 100 174
57 100 171
56 100 170
55 100 169
56 100 170
55 100 168
57 99 171
57 100 171
59 100 174
57 100 171
56 100 170
56 100 169
57 99 172
56 100 169
58 100 172
55 100 170
57 100 170
58 100 173
58 100 172
58 100 172
58 100 173
56 100 170
56 99 171
59 100 173
58 100 173
57 100 172
58 100 173
55 100 168
54 99 167
57 101 170
54 99 169
55 100 168
56 100 170
56 100 170
57 100 169
56 100 168
54 99 167
57 100 171
55 100 169
54 100 167
57 99 169
51 99 162
57 100 170
55 99 166
56 100 170
56 100 167
54 100 167
54 99 165
57 100 170
52 99 163
48 98 157
54 100 165
51 99 161
52 99 161
55 98 165
52 98 161
54 99 164
53 98 161
52 98 159
54 98 160
53 97 161
51 97 158
50 96 153
48 93 144
35 88 108
19 83 67
8 106 54
8 89 42
21 97 46
22 87 44
30 93 45
11 96 47
25 90 47
13 93 46
5 93 45
24 90 45
29 100 47
23 101 50
29 115 55
32 110 56
36 101 52
42 95 52
32 115 56
27 100 50
22 111 54
53 117 62
50 120 62
53 107 57
40 113 56
44 113 59
44 120 61
59 122 62
33 127 63
55 126 64
55 121 61
55 128 65
64 132 67
59 127 66
49 130 65
62 135 71
62 139 71
44 124 62
64 141 72
65 134 69
48 136 68
76 130 67
51 129 63
78 140 74
84 142 74
70 145 74
43 140 68
74 143 74
67 137 71
76 147 76
67 144 73
76 146 74
84 143 75
75 146 76
83 150 77
77 149 76
65 139 71
69 139 71
90 156 81
77 145 75
69 145 74
61 151 73
74 142 73
83 148 76
94 152 80
72 145 72
81 148 76
100 155 82
88 150 79
95 159 83
86 151 78
70 144 73
75 134 68
84 153 79
70 151 75
79 152 76
79 146 75
75 153 77
66 147 73
91 151 79
90 149 78
62 143 71
83 152 78
60 137 67
86 149 76
74 150 75
63 142 70
78 151 77
67 141 70
71 150 74
70 144 72
66 143 71
38 141 66
77 147 74
69 146 72
72 136 69
89 143 75
67 131 66
62 135 66
79 145 76
74 156 79
61 143 76
57 147 87
56 148 95
64 146 87
55 157 98
52 173 117
48 167 113
53 174 120
43 178 127
27 171 124
26 182 134
27 176 128
43 190 139
27 198 148
0 194 147
0 200 152
0 199 151
0 205 158
0 211 163
0 201 153
0 207 160
0 206 160
0 209 164
0 203 155
0 204 157
0 211 165
0 206 160
0 203 156
0 208 159
0 213 166
0 208 162
0 209 166
0 209 164
0 209 160
0 213 170
86 220 191
70 217 185
70 217 185
76 222 190
91 221 193
83 218 189
109 224 200
99 222 197
88 221 193
94 222 195
101 220 196
108 222 199
112 219 199
105 220 198
107 221 199
116 223 202
113 221 201
112 221 200
129 226 209
126 223 207
130 222 207
137 223 211
119 223 205
137 220 209
125 224 207
139 225 213
118 221 203
133 220 208
143 227 216
136 224 212
136 223 211
139 225 213
146 223 215
139 225 213
134 225 212
145 225 216
141 225 215
147 224 216
151 224 219
141 225 215
150 224 217
136 224 211
143 224 214
116 221 202
147 227 217
136 224 212
128 222 208
141 225 214
137 226 213
150 225 218
156 224 220
127 224 208
137 224 212
138 223 212
138 221 211
136 222 211
139 224 212
133 225 210
132 219 205
132 219 207
116 222 202
137 224 212
121 220 202
128 224 208
112 219 199
121 221 204
116 218 200
110 220 199
110 220 199
119 223 204
106 223 199
108 221 198
92 212 187
91 220 193
99 218 194
80 210 184
92 219 191
81 213 188
84 204 187
48 182 173
56 180 175
47 179 175
57 172 173
43 174 173
44 153 170
50 119 166
51 123 170
49 130 169
49 120 166
48 120 164
51 112 165
50 120 168
57 111 174
54 120 171
52 113 168
50 109 165
56 106 170
54 107 170
55 101 169
54 104 169
54 110 169
55 104 170
54 105 168
55 105 171
55 107 172
56 100 171
54 100 168
56 101 172
57 99 171
59 100 175
57 100 172
56 100 171
56 100 171
58 100 171
56 100 171
58 99 172
57 99 172
55 99 169
55 99 170
58 100 173
57 99 173
56 100 171
57 100 173
56 100 171
55 99 171
57 100 172
57 100 172
58 100 173
58 100 172
57 100 172
58 99 171
58 100 173
57 99 172
58 99 174
60 100 175
58 100 173
58 100 174
56 100 169
60 100 176
62 100 178
58 99 173
61 100 177
56 99 171
56 100 171
58 99 174
60 100 176
57 99 171
60 99 177
58 99 174
57 99 172
59 100 174
57 98 173
58 100 173
56 99 171
58 100 173
56 100 170
58 100 173
58 100 174
59 100 175
59 100 174
56 100 170
60 100 177
56 100 171
56 100 170
56 99 171
58 100 172
59 99 175
58 99 173
57 100 173
55 99 169
58 100 174
59 100 175
58 100 173
56 100 170
58 100 172
56 99 170
56 99 170
60 100 175
57 100 172
59 100 175
56 100 170
60 100 175
60 101 174
57 100 171
58 100 173
60 100 175
60 100 176
57 100 171
57 100 172
58 100 171
59 100 173
58 100 174
59 100 174
57 100 172
58 100 174
60 101 174
59 99 173
56 100 171
59 100 175
58 100 173
56 99 169
54 100 167
56 99 171
58 99 172
56 100 170
55 99 170
60 100 175
57 100 171
56 100 171
56 100 170
58 99 172
55 100 168
54 100 168
56 100 170
58 99 173
54 99 169
56 100 170
58 99 173
56 100 170
56 100 170
55 100 169
57 99 171
56 100 170
56 100 170
56 100 169
57 99 171
59 100 174
55 100 169
57 100 171
57 101 171
54 99 167
53 100 164
57 101 170
55 99 167
55 100 168
55 99 170
55 99 168
56 99 169
56 100 168
56 100 169
57 100 170
54 100 166
54 100 167
56 100 169
56 99 166
55 99 167
55 100 168
58 101 171
52 99 164
56 100 169
54 98 163
53 98 162
51 98 161
52 97 162
51 97 159
51 97 159
53 100 163
54 97 160
56 98 163
52 97 159
53 98 161
49 97 154
46 96 151
42 96 136
38 96 95
25 96 81
21 89 43
24 90 44
23 94 46
22 108 53
9 87 42
22 85 43
20 86 41
30 93 46
23 108 50
7 97 46
16 96 47
13 99 48
20 98 49
30 97 49
23 109 54
35 101 51
30 112 58
21 104 48
40 111 55
30 100 51
56 122 62
50 116 60
50 122 63
58 116 61
31 107 54
53 122 61
36 128 62
39 122 60
49 127 63
64 125 64
39 128 62
51 132 66
51 129 65
48 131 64
79 134 70
72 126 66
60 140 70
52 134 65
55 129 63
69 148 74
61 138 69
88 141 74
68 147 74
65 137 71
75 139 72
86 148 77
68 144 73
62 135 69
77 143 74
75 145 74
64 149 74
82 147 76
76 144 74
76 150 76
78 150 77
91 141 75
86 143 76
83 144 75
62 154 77
77 141 72
77 152 76
61 148 74
78 153 77
82 148 75
81 153 78
80 149 76
78 146 74
71 148 75
75 148 74
71 152 76
83 152 79
79 149 75
69 146 73
75 143 73
83 146 76
67 150 74
72 152 76
69 142 71
87 143 75
81 142 73
69 147 73
86 145 74
79 147 74
86 153 79
70 146 73
91 148 77
64 146 72
44 135 63
58 137 67
64 145 72
43 139 65
70 139 70
69 136 68
75 143 72
84 140 73
58 135 70
57 140 73
53 138 74
66 141 79
48 138 81
50 152 92
39 149 95
54 146 94
27 158 100
43 172 116
33 167 112
47 173 122
27 188 137
27 175 130
26 190 143
0 196 148
0 192 149
28 205 162
19 197 146
0 204 159
0 203 157
0 206 157
0 210 166
0 202 155
0 205 158
0 203 156
0 207 161
0 205 158
0 201 154
0 212 166
0 209 162
0 206 157
0 203 155
0 206 158
0 213 164
0 205 157
0 207 161
0 208 165
0 212 167
83 217 189
66 219 186
102 223 198
99 221 195
103 222 198
98 222 196
93 218 192
108 222 198
112 223 201
107 222 199
101 221 197
126 222 206
117 221 202
105 221 199
132 224 209
110 219 198
129 222 208
128 223 207
123 225 207
138 226 214
123 223 206
138 225 213
135 225 212
144 221 214
131 225 210
158 225 222
146 225 217
139 223 213
156 227 222
154 227 221
134 224 211
134 225 212
141 225 215
160 228 224
135 225 212
147 225 216
146 226 217
156 225 220
162 227 224
135 223 211
161 226 224
156 227 222
149 222 216
162 227 224
158 223 220
148 226 218
151 225 218
139 224 213
147 225 217
156 228 222
156 226 221
150 226 218
138 224 212
144 224 215
159 224 221
158 226 221
147 227 217
133 223 210
140 225 214
131 221 208
153 224 218
118 224 204
141 224 213
147 222 214
118 221 202
124 224 206
124 220 203
130 225 209
110 221 200
131 224 208
108 220 199
108 217 196
82 219 190
110 216 196
82 217 188
91 215 188
102 215 194
90 203 184
98 198 190
76 191 183
67 180 178
69 180 180
44 165 171
44 172 173
42 148 166
51 122 169
48 118 163
50 125 168
51 117 167
49 129 169
53 115 169
49 117 166
52 111 168
51 111 166
53 118 170
51 114 167
51 109 165
53 111 168
55 111 171
54 106 169
54 104 168
53 103 168
54 102 168
54 105 170
55 99 169
53 103 167
54 99 168
56 101 171
58 100 172
55 101 170
58 99 175
56 99 171
57 100 172
56 100 171
57 100 172
55 100 169
55 99 169
55 100 169
59 100 175
59 100 175
57 100 173
58 99 173
55 99 169
58 100 173
57 100 171
55 100 169
58 100 173
58 99 175
56 99 171
57 100 173
56 100 171
56 99 171
58 100 172
59 99 175
59 100 175
58 100 173
58 99 175
58 100 173
59 100 174
57 100 172
59 100 175
55 99 171
58 99 173
58 100 174
57 100 173
58 100 173
56 100 171
56 100 170
54 100 169
58 99 174
57 100 171
57 100 172
59 100 175
60 100 176
57 100 172
58 99 172
58 100 172
57 100 171
57 100 172
56 100 170
57 99 172
55 100 168
59 100 175
60 100 176
58 100 172
56 99 171
57 99 173
58 100 174
57 99 173
57 100 172
57 100 173
58 99 173
59 100 174
56 99 171
62 101 176
58 99 174
59 100 175
57 100 171
56 99 170
57 100 172
58 100 174
57 99 171
56 99 171
58 100 173
56 100 170
56 100 170
56 99 171
60 100 175
59 100 174
59 99 172
59 100 173
58 100 173
58 100 172
57 100 173
58 100 173
56 100 169
56 100 169
59 99 175
57 99 172
58 100 173
56 100 170
55 99 168
59 100 173
61 100 177
57 100 172
56 100 170
58 99 173
60 101 174
56 99 169
56 100 169
57 99 173
59 100 173
57 101 170
56 100 170
56 99 170
59 100 174
56 99 170
56 100 170
59 100 175
60 100 175
58 100 172
56 100 170
56 99 170
58 99 172
56 100 170
58 100 173
57 100 171
58 100 171
58 100 172
59 100 173
57 100 170
58 100 172
54 100 167
57 100 171
55 99 168
57 100 171
54 100 167
56 100 171
53 99 165
56 100 169
55 99 166
56 100 169
57 100 170
55 100 168
53 100 166
55 100 168
53 98 165
54 99 167
54 99 165
59 101 173
56 99 168
51 98 161
55 99 167
57 100 169
54 99 165
54 98 164
50 96 156
55 98 163
47 94 149
53 99 162
54 97 162
53 97 160
49 94 149
44 98 135
37 88 107
30 78 69
13 88 46
23 84 40
20 91 44
21 88 41
25 87 43
9 77 36
13 86 43
11 92 44
11 97 47
23 100 47
11 98 45
24 89 44
10 94 45
41 114 57
33 115 55
36 99 50
30 103 52
31 107 55
30 105 51
22 113 55
48 122 60
31 101 50
35 112 55
53 117 61
41 122 61
40 113 57
48 129 64
59 116 61
38 124 60
49 121 61
41 122 62
51 124 62
44 124 61
62 126 64
44 119 60
44 132 65
60 138 69
61 132 67
82 140 74
64 138 69
72 140 71
73 136 69
63 136 68
58 144 72
65 140 71
70 137 70
61 139 69
83 147 77
81 146 75
56 139 69
63 141 71
73 146 74
63 147 74
73 150 76
74 142 72
61 148 74
67 143 71
72 143 72
48 146 71
61 148 73
81 149 76
70 151 75
80 151 77
90 145 76
58 150 73
63 143 71
75 151 76
82 151 77
90 149 78
77 142 73
67 145 72
82 151 78
46 141 67
75 145 74
73 143 73
61 140 70
73 152 75
72 154 77
58 142 69
74 136 69
69 145 72
63 144 70
79 144 73
67 139 69
47 140 67
72 142 70
69 145 72
63 141 69
58 137 67
56 147 71
74 138 70
54 131 64
61 137 67
65 129 65
55 136 66
69 138 79
64 142 77
55 144 78
61 160 102
50 151 90
43 157 95
55 169 108
33 161 103
50 168 117
43 170 116
19 175 123
26 183 127
50 181 128
47 198 148
0 191 143
27 192 144
19 193 144
19 191 141
0 200 154
0 201 150
0 209 161
0 205 158
0 203 153
0 205 158
0 200 153
0 206 162
0 210 165
0 205 158
0 209 161
0 207 161
0 210 166
0 211 166
0 209 165
0 199 153
0 211 164
0 209 164
0 207 163
0 206 159
0 208 166
86 219 191
91 222 194
99 220 195
93 221 195
112 221 200
98 222 197
103 221 197
130 225 209
114 221 201
131 220 207
113 221 200
130 224 209
137 224 211
126 224 206
122 221 205
130 223 209
142 225 214
144 223 215
136 224 211
130 226 211
156 225 220
139 224 214
140 224 214
151 223 218
143 224 214
144 227 215
147 224 216
164 228 226
159 226 224
149 227 219
152 225 219
154 223 219
151 226 220
160 225 222
151 227 219
153 225 221
164 227 227
156 226 222
167 228 227
157 227 223
164 228 227
167 228 227
161 226 224
171 228 229
159 228 224
156 227 222
155 226 222
164 225 225
148 225 218
152 226 220
153 227 221
165 228 226
172 229 231
155 227 221
158 224 221
163 226 226
146 225 216
151 225 218
147 224 216
145 224 215
121 224 206
137 220 209
142 223 213
129 221 206
135 225 211
138 223 212
133 223 208
132 225 209
130 222 208
124 223 206
120 218 200
116 222 202
124 222 205
106 220 197
127 222 206
111 221 199
104 216 196
110 206 195
101 195 192
84 186 182
99 185 190
93 178 186
75 167 179
68 175 177
56 167 177
54 130 165
53 121 167
48 120 163
50 124 169
50 119 167
53 115 169
53 116 169
48 122 166
51 113 167
50 115 167
52 112 167
53 116 169
50 107 165
52 111 168
51 112 166
54 107 170
53 110 168
51 107 165
57 105 174
51 105 165
57 104 172
56 101 171
56 101 170
56 100 170
55 99 170
56 99 170
55 100 170
57 100 172
58 100 173
59 100 175
57 100 173
57 100 172
57 100 171
58 100 173
57 100 172
57 100 173
54 99 166
55 99 169
58 100 172
57 99 171
57 99 171
58 100 173
57 100 172
57 100 173
58 99 173
59 99 174
58 100 173
56 100 171
58 100 173
58 99 173
57 99 171
59 100 173
58 100 174
56 99 170
57 100 171
57 100 171
56 99 170
58 100 173
56 99 170
59 100 174
58 100 173
57 100 172
59 100 175
59 100 175
60 100 176
61 101 175
58 100 173
59 100 175
57 100 172
57 100 172
57 99 173
59 100 173
57 99 174
59 100 175
58 100 172
58 100 173
58 100 174
57 100 173
58 100 172
56 99 172
58 100 173
55 98 168
56 99 170
60 100 176
57 100 172
59 100 173
57 99 172
58 100 172
56 100 170
57 100 172
58 100 174
55 99 169
56 100 170
58 100 173
57 99 171
60 100 175
58 100 173
53 100 166
58 100 173
59 100 173
59 100 175
55 100 169
58 100 174
56 99 171
58 99 172
57 99 172
54 100 169
59 100 175
56 100 169
57 99 171
56 99 171
59 100 173
56 100 169
58 99 174
56 100 171
55 99 169
54 100 168
56 99 170
58 100 174
56 99 169
58 100 172
58 100 173
57 100 172
56 99 171
58 100 173
57 100 171
54 99 168
55 100 168
55 100 169
57 100 172
56 100 171
58 100 174
54 99 167
55 100 167
58 100 172
59 100 174
55 99 169
55 100 169
57 100 171
56 100 171
56 100 169
57 100 172
56 100 170
56 100 169
54 100 167
57 100 170
56 100 170
54 99 167
54 99 167
57 100 172
54 100 167
53 99 166
56 100 170
55 99 167
55 100 168
56 98 167
55 100 167
54 100 167
55 99 166
56 101 169
56 99 167
56 100 169
51 99 162
56 99 167
55 99 167
53 99 164
53 99 164
54 98 163
49 97 156
53 98 162
53 99 164
52 99 161
52 97 159
53 98 162
52 97 159
51 96 155
48 96 154
50 92 144
41 88 127
34 90 97
21 100 76
7 101 49
20 104 47
7 93 44
9 99 48
20 95 45
10 114 54
23 85 41
20 95 47
13 97 46
23 101 50
11 99 47
23 103 49
16 98 46
29 109 53
29 110 54
36 111 56
22 104 51
32 117 58
10 106 51
28 121 57
45 116 59
22 114 56
24 111 56
40 112 56
52 127 65
59 119 62
63 126 66
55 118 60
48 121 58
41 126 63
49 129 63
55 133 67
61 130 64
68 133 69
58 131 65
45 126 63
73 132 69
45 130 65
61 133 66
43 139 67
55 133 65
63 130 68
76 143 73
57 136 68
61 140 70
63 145 72
51 137 68
69 136 69
70 146 73
59 138 69
70 143 72
61 134 67
78 135 71
69 146 72
81 156 79
67 149 74
46 143 70
61 136 67
64 148 73
50 135 66
61 138 69
82 146 75
82 152 78
77 142 72
71 146 74
72 149 75
69 140 71
67 141 69
77 148 74
62 151 74
63 143 71
69 153 76
69 149 74
58 146 71
66 148 73
74 151 75
78 147 74
56 149 73
65 147 73
66 148 73
75 142 72
60 137 67
66 143 70
60 141 68
69 138 69
48 137 65
76 148 75
54 140 67
64 136 68
70 147 72
43 142 66
58 134 65
57 134 69
64 141 72
61 145 78
67 144 81
43 138 79
51 146 75
64 161 101
69 158 99
43 159 103
69 152 93
39 161 108
47 174 119
37 164 115
43 156 110
19 185 136
19 188 140
0 173 124
27 192 142
0 195 142
26 199 152
0 196 146
0 203 153
0 204 158
0 209 163
0 209 161
0 203 152
0 207 158
0 203 156
0 205 154
0 209 162
0 207 162
0 208 160
0 207 162
0 208 161
0 206 162
0 205 158
0 207 159
0 211 165
0 211 168
0 202 157
0 211 166
0 208 161
115 224 203
96 222 196
123 225 206
101 221 197
116 222 202
116 221 202
118 223 204
105 218 197
130 223 207
126 223 207
131 225 209
134 222 209
115 223 203
144 224 214
130 223 209
142 224 215
151 225 218
150 225 217
139 223 212
159 226 223
151 225 219
156 224 221
153 225 219
167 227 227
144 223 215
157 226 221
154 226 220
159 226 224
157 228 222
148 224 218
165 227 226
154 225 220
162 227 226
163 228 226
172 229 231
167 227 228
156 226 222
172 229 231
176 229 232
165 228 228
173 229 231
176 229 233
149 226 220
159 227 223
171 229 231
167 229 228
168 226 227
171 228 230
164 228 227
165 227 226
166 228 228
175 228 232
170 226 228
153 223 218
161 228 225
166 227 226
158 226 222
158 227 223
157 227 222
152 225 219
144 226 216
126 221 206
133 223 209
140 225 214
158 224 221
144 223 215
143 224 214
154 227 220
135 222 210
127 221 205
139 222 211
124 222 206
129 219 205
125 220 204
121 221 204
121 219 202
103 210 194
109 202 197
91 188 187
120 184 198
108 178 192
89 174 186
93 167 189
76 162 178
68 155 175
54 129 169
50 125 168
51 126 171
52 117 168
52 117 170
50 121 165
53 116 170
53 115 171
50 114 167
54 102 166
51 112 167
53 116 170
53 112 169
54 105 167
56 108 170
52 113 168
52 104 165
57 107 173
53 109 168
54 110 170
54 106 169
55 101 169
57 102 171
55 101 169
55 106 170
54 101 169
58 99 173
58 102 173
58 100 173
57 99 171
57 100 171
56 100 171
56 100 169
58 100 173
58 100 173
58 100 173
57 99 172
57 100 171
58 100 172
56 100 170
59 99 175
56 99 171
57 100 173
56 100 171
56 100 170
59 100 174
59 100 174
55 99 168
57 100 172
58 99 173
57 100 171
58 100 172
56 99 170
58 100 173
59 100 175
59 100 175
57 99 173
58 100 173
59 100 175
56 100 171
59 100 175
57 99 173
58 100 173
56 99 171
57 100 171
58 100 173
58 100 173
62 100 177
58 100 173
56 100 170
57 100 171
59 100 174
59 99 175
57 100 172
54 99 167
59 100 175
57 100 172
59 100 174
57 100 172
58 100 173
61 100 176
59 100 175
58 100 172
56 100 171
56 100 170
57 100 172
55 99 169
57 100 170
58 100 173
58 99 174
59 100 175
59 100 175
58 100 173
57 99 172
59 100 174
58 100 173
60 99 175
54 99 168
57 100 172
58 100 173
56 100 171
58 100 173
58 100 172
60 100 175
56 100 170
57 100 172
58 100 173
58 100 173
60 101 175
58 100 173
57 100 172
59 100 174
58 100 172
58 100 173
60 100 175
56 100 170
57 100 172
58 100 173
57 100 172
58 100 173
56 100 170
59 101 173
53 99 166
56 99 170
55 100 168
55 99 169
55 100 170
55 100 168
58 100 172
57 100 171
58 100 172
58 100 174
56 100 171
58 100 172
59 100 172
56 100 170
54 100 167
57 100 172
52 100 164
56 100 169
58 101 172
57 100 171
55 100 166
55 100 169
57 100 171
57 100 171
55 99 168
57 100 169
55 100 168
54 100 167
55 100 167
56 100 170
53 99 164
55 100 168
54 100 166
55 99 168
55 99 167
53 100 165
56 100 169
55 100 167
56 99 168
57 100 170
51 98 159
54 100 165
58 100 171
54 99 166
56 100 168
52 98 161
54 100 166
55 99 166
51 99 162
56 98 164
54 100 165
52 97 160
55 97 162
51 98 159
52 95 157
48 95 147
35 104 120
32 92 103
20 96 69
18 110 59
0 102 49
6 91 45
10 96 46
21 109 50
22 99 49
11 99 48
14 92 45
9 105 48
21 90 44
23 107 51
20 99 48
8 101 46
30 104 51
35 107 53
37 108 52
22 105 50
29 111 52
27 117 56
21 116 56
30 118 58
27 115 56
32 120 59
41 114 56
31 115 57
39 117 58
65 124 63
52 125 63
44 122 60
52 132 66
44 125 63
60 129 66
48 126 62
35 127 61
58 136 66
58 142 70
57 133 69
31 123 61
73 142 73
42 126 60
64 133 67
35 134 64
56 136 67
72 140 71
70 135 68
67 141 72
72 143 74
75 140 72
40 132 65
55 138 68
47 132 64
64 142 70
84 144 75
75 154 78
69 144 73
69 142 70
43 144 69
69 148 74
47 139 66
79 147 74
69 150 75
74 142 73
66 129 65
61 142 69
68 142 71
64 147 73
77 145 74
54 147 71
87 154 79
68 146 72
78 145 74
77 150 76
63 145 72
72 144 72
70 143 72
90 143 75
75 144 73
51 139 68
58 147 70
78 145 72
60 136 66
80 145 74
78 146 75
72 144 72
37 126 60
73 142 73
58 128 63
57 138 68
55 125 61
70 139 68
70 135 68
66 122 64
64 133 71
66 133 69
54 134 73
38 146 80
52 145 83
61 147 88
54 152 93
58 157 94
54 157 93
58 157 100
47 172 121
33 184 132
48 178 122
43 189 139
38 177 124
19 192 141
19 191 138
0 191 141
0 199 151
0 196 147
19 201 149
0 194 144
0 201 151
0 204 158
0 201 153
0 208 161
0 204 156
0 202 157
0 207 160
0 202 158
0 208 163
0 205 158
0 206 162
0 206 160
0 212 165
0 208 163
0 208 161
0 212 167
0 208 163
0 205 161
0 206 160
0 207 164
128 223 207
110 219 198
105 222 198
122 221 204
133 225 210
120 225 205
126 223 207
132 225 210
125 221 205
130 221 208
117 219 202
157 225 221
139 224 214
142 224 214
140 224 214
142 226 216
154 226 220
156 224 221
151 227 220
151 226 219
158 227 222
151 226 219
157 225 222
149 226 220
158 226 223
160 226 224
163 227 226
160 227 224
170 229 230
179 229 235
178 229 234
169 228 229
161 227 226
179 229 235
168 228 229
187 230 240
168 228 229
178 229 234
180 229 235
171 228 231
171 228 229
169 228 230
171 227 229
165 226 227
189 229 239
173 228 231
169 228 229
178 228 233
177 228 233
182 229 236
174 229 231
176 228 231
171 226 230
165 227 227
174 228 231
173 228 231
163 227 225
161 228 224
166 225 226
170 228 229
165 226 226
157 227 223
166 229 227
161 227 224
167 228 227
159 226 222
140 223 213
147 226 217
148 227 218
151 226 218
148 225 217
142 223 213
135 225 211
135 225 212
139 223 211
137 208 206
114 213 200
125 205 204
108 179 190
99 170 186
115 176 196
87 164 183
91 164 184
63 152 176
58 148 171
65 138 175
53 126 167
52 134 170
51 120 168
48 125 167
48 129 168
53 108 168
52 109 167
50 119 168
52 105 166
52 109 167
53 118 171
54 107 169
49 111 165
54 103 167
49 107 162
55 102 168
57 104 172
57 104 171
54 107 168
52 103 166
56 101 171
55 104 169
55 99 170
55 99 170
55 105 170
55 101 169
55 100 168
56 100 171
57 99 174
57 100 172
57 100 171
55 99 169
57 99 173
58 99 174
57 99 173
54 99 168
58 100 173
56 100 171
57 100 172
56 100 171
59 100 175
58 100 173
58 100 172
60 100 175
58 100 174
58 99 173
59 100 175
55 100 169
56 99 169
58 100 173
55 100 169
55 100 170
59 101 174
57 100 172
58 100 172
56 99 171
56 99 172
59 100 175
56 100 171
60 100 175
60 99 176
57 100 172
55 100 169
56 99 171
59 100 174
58 100 174
57 99 171
56 100 170
55 99 170
59 100 174
59 100 175
59 100 175
60 100 175
56 100 171
58 100 172
56 100 171
58 99 173
57 100 172
57 100 172
58 100 173
58 100 173
58 100 173
59 100 174
56 100 170
58 100 172
58 100 173
55 100 169
57 100 172
60 100 175
59 100 174
56 99 171
58 101 173
56 99 171
58 100 172
57 100 171
58 100 173
57 101 171
55 100 169
58 99 174
57 100 172
58 100 171
59 100 174
58 100 173
58 100 172
54 100 168
55 101 168
56 100 170
60 100 175
55 99 169
56 99 170
56 100 170
59 100 175
57 100 171
56 100 171
57 100 172
56 99 170
55 99 168
58 100 174
57 100 170
56 100 170
56 100 169
55 100 170
56 100 170
57 100 170
57 99 171
56 99 169
56 99 170
56 100 169
57 100 171
54 100 168
57 100 172
57 99 171
58 100 171
56 100 170
59 100 174
56 100 169
53 99 166
60 100 173
56 100 169
56 99 171
58 99 172
57 99 170
56 100 169
56 99 169
57 100 171
54 99 166
56 99 168
58 100 171
56 100 169
55 100 169
56 100 169
56 100 169
55 100 168
58 100 172
55 100 167
58 100 171
54 101 166
52 99 164
55 100 167
55 99 167
56 99 167
55 99 166
52 99 161
56 100 166
54 99 166
51 99 160
55 99 168
52 99 163
51 100 162
52 98 162
52 98 161
53 99 163
50 98 160
47 97 154
51 97 159
49 94 150
50 95 150
48 99 133
33 100 94
11 110 68
11 103 57
5 102 46
5 94 51
20 98 46
13 94 47
22 101 48
11 99 46
8 97 44
20 96 45
8 102 48
11 99 44
11 98 47
7 95 44
9 117 56
28 114 53
21 108 51
11 102 50
28 99 49
34 116 56
39 112 56
48 111 57
21 114 55
9 114 54
41 121 59
52 118 60
45 121 61
53 120 62
39 123 61
57 133 68
43 126 63
35 126 60
55 129 64
49 124 62
40 127 64
49 134 67
43 133 66
44 131 63
53 132 67
62 143 70
39 142 68
55 133 66
64 135 69
59 128 65
58 140 70
58 133 67
56 145 71
58 140 68
70 133 68
33 133 64
60 132 67
70 147 74
67 147 73
46 137 66
74 146 73
72 145 73
47 143 69
61 145 73
66 138 69
73 146 72
73 147 75
77 146 74
64 132 66
68 142 70
58 146 70
58 144 69
64 132 66
73 138 70
67 144 72
55 143 70
57 148 72
70 147 74
57 144 70
58 144 69
72 143 72
63 143 70
66 138 69
58 137 67
67 149 74
64 143 71
47 139 68
62 141 70
62 139 67
66 142 70
69 133 66
67 137 67
58 129 63
27 134 63
50 130 64
55 134 64
53 132 63
54 133 68
71 140 75
51 130 66
51 137 73
58 146 81
54 140 80
61 153 88
43 158 102
47 167 111
43 166 113
52 165 110
33 170 114
54 174 116
27 173 118
42 175 120
27 190 141
0 187 137
0 188 138
0 193 140
20 198 152
0 201 152
0 195 146
0 205 151
0 206 157
0 202 153
0 204 154
0 200 150
0 209 159
0 202 155
0 210 163
0 203 152
0 206 160
0 210 164
0 206 159
0 209 163
0 207 160
0 208 163
0 209 162
0 204 158
0 210 163
0 211 165
0 209 162
0 208 163
0 207 162
124 223 205
125 222 205
116 223 203
124 222 205
141 226 213
123 222 206
136 223 211
122 223 205
154 227 221
149 227 219
153 226 221
158 225 222
155 224 220
148 224 217
146 225 217
157 228 223
156 226 222
155 224 221
156 228 223
153 226 221
170 228 230
165 225 226
159 226 223
176 227 231
167 228 228
155 226 222
158 227 224
177 227 233
179 228 234
183 230 236
178 229 234
173 227 232
180 229 236
175 229 233
185 230 238
182 229 236
184 229 238
180 229 236
192 229 242
176 229 233
184 230 237
186 228 237
181 229 236
180 229 234
172 229 231
184 230 237
177 228 233
170 227 230
179 227 234
181 229 236
184 229 238
182 228 236
178 229 233
181 228 235
162 227 225
162 226 225
169 229 228
167 227 227
171 228 230
167 227 226
169 225 227
155 226 221
159 228 224
168 227 228
170 228 229
159 226 223
157 225 221
138 224 212
147 223 215
148 225 217
147 226 217
151 226 219
139 223 212
134 222 209
135 221 210
125 217 205
131 208 206
130 188 201
128 196 202
102 172 190
120 178 196
91 169 184
94 164 187
95 166 185
76 155 178
75 143 178
55 134 168
62 124 174
52 120 170
49 121 166
50 129 171
52 121 171
53 115 169
50 112 164
49 125 167
54 111 170
54 114 172
54 109 169
53 109 166
51 109 166
52 106 168
54 114 170
54 108 170
53 103 166
54 108 168
53 101 167
52 103 166
54 103 169
55 101 170
54 103 169
53 101 167
54 101 169
55 100 170
56 100 170
57 100 170
57 100 172
56 100 171
57 99 171
58 100 172
56 100 171
58 99 173
54 99 169
57 99 172
58 99 172
56 100 170
57 99 173
56 99 171
56 99 172
54 99 168
56 100 170
58 100 173
54 99 168
57 100 171
59 100 175
58 100 173
59 100 174
59 100 174
55 100 170
58 100 173
55 100 170
56 99 170
56 100 170
60 100 175
56 99 172
59 100 175
59 99 174
56 100 170
58 100 174
55 98 169
58 100 172
56 98 170
58 100 172
59 100 173
57 100 171
58 99 173
56 100 170
55 100 168
59 100 173
59 100 174
57 99 172
58 100 173
57 100 172
58 99 173
55 99 171
58 99 173
58 100 173
56 100 171
58 100 173
59 100 174
57 100 172
56 100 171
55 100 168
57 99 170
58 100 173
59 100 175
57 100 171
56 100 170
56 100 169
57 100 170
56 99 171
56 99 170
57 99 172
56 99 170
56 100 171
58 100 173
57 100 173
57 100 171
57 100 171
57 99 171
58 100 173
56 100 171
57 100 171
59 100 173
56 100 171
56 99 170
58 100 173
57 100 172
57 100 172
56 100 170
59 100 173
59 100 175
59 100 175
59 101 174
59 100 174
58 100 172
57 100 171
56 100 170
57 100 171
57 100 171
59 100 173
56 100 170
59 100 174
59 101 173
57 100 170
55 100 168
56 100 169
58 99 172
58 100 172
58 99 172
57 99 171
54 100 167
56 100 170
54 100 168
55 99 167
56 100 171
56 100 170
55 100 168
55 100 168
58 100 173
56 99 170
53 100 164
56 100 168
54 100 166
58 101 172
55 100 169
54 100 167
54 100 167
52 100 164
53 100 165
56 100 169
54 100 167
53 99 164
55 100 169
55 100 167
57 99 169
56 100 170
55 100 167
55 100 169
53 99 164
56 99 167
53 100 164
50 99 159
53 99 161
52 98 160
53 99 163
53 97 161
50 97 158
54 99 163
53 98 161
56 99 164
53 98 160
46 96 150
47 98 146
39 98 126
29 94 94
32 101 69
20 102 51
19 102 51
6 96 48
5 102 46
21 105 52
0 98 48
39 98 47
21 103 50
6 101 47
29 104 47
20 98 44
11 107 50
22 103 49
20 110 51
19 99 47
7 106 48
9 110 51
21 105 50
29 109 51
44 116 56
21 113 55
34 110 53
34 113 55
34 116 56
39 118 58
30 115 57
45 118 58
28 114 55
11 116 56
35 119 58
34 115 56
39 127 62
20 130 62
55 126 61
53 129 64
48 141 69
55 138 68
55 137 68
39 132 64
52 133 65
48 136 66
62 140 70
65 133 68
52 142 69
47 131 65
58 135 68
61 138 68
70 140 71
76 149 75
64 138 67
62 140 69
68 140 69
80 144 74
58 144 71
55 149 72
47 136 65
47 138 66
65 146 72
70 143 73
72 150 75
55 146 71
60 146 71
65 134 67
47 145 69
64 138 68
61 146 71
63 147 72
51 138 65
57 148 72
67 145 73
70 148 74
62 146 71
43 136 64
65 143 69
73 138 69
67 133 66
50 146 70
68 146 72
74 142 70
55 133 64
67 147 73
58 140 69
46 139 66
43 145 68
39 137 64
58 140 67
61 130 65
62 135 65
54 135 68
56 139 68
64 133 68
37 137 73
58 136 69
43 140 82
43 152 86
47 147 81
38 164 103
37 153 93
47 157 96
33 165 111
39 166 119
41 172 118
38 177 128
33 162 109
27 179 130
19 183 130
25 188 139
27 195 145
0 198 145
0 200 154
0 197 147
0 201 150
0 201 152
0 207 158
0 205 155
0 206 158
0 209 162
0 199 149
0 202 157
0 200 150
0 206 158
0 202 153
0 204 160
0 206 160
0 210 164
0 202 153
0 206 160
0 210 162
0 213 168
0 208 164
0 200 150
0 210 165
0 209 166
0 209 163
128 222 207
132 225 210
131 222 208
120 223 205
135 223 211
139 224 213
133 225 210
148 224 217
153 227 221
150 225 217
163 228 226
140 226 214
158 227 223
159 225 222
160 225 222
156 226 222
143 224 215
162 227 225
167 226 227
161 226 224
175 229 232
179 228 234
170 228 230
173 227 232
177 225 232
173 227 231
177 229 233
181 229 236
184 230 237
182 228 235
183 229 236
176 229 233
177 230 233
187 229 239
186 230 239
192 230 242
193 230 242
187 230 240
186 230 239
191 230 241
190 230 240
186 230 238
175 229 233
186 230 238
193 230 242
186 230 238
196 231 243
180 229 235
194 230 243
187 230 239
191 230 241
184 230 237
193 230 242
187 229 238
179 229 234
188 230 240
174 228 232
184 230 236
178 227 233
185 230 238
181 230 235
181 229 236
171 226 228
177 230 233
170 228 229
158 225 222
160 225 221
166 226 227
171 229 229
169 229 228
161 228 224
160 225 222
139 222 212
146 224 216
151 225 219
136 212 210
139 200 208
134 203 206
131 186 204
124 176 199
121 175 198
111 161 191
109 158 192
98 165 190
94 145 183
66 138 176
60 128 172
65 134 173
55 130 172
57 112 169
51 117 168
50 114 166
52 119 171
51 118 167
55 116 171
52 110 167
50 115 166
52 116 170
52 113 168
55 110 171
53 103 167
51 114 167
56 107 173
53 109 168
52 105 167
55 104 169
56 105 171
54 101 166
54 101 169
52 101 167
53 99 167
56 100 170
56 99 171
56 102 169
56 100 170
57 100 171
55 100 169
56 99 172
56 99 170
58 100 174
58 100 174
54 99 167
55 99 169
57 99 171
58 100 173
57 100 172
57 99 171
57 99 173
57 98 170
56 99 171
56 100 170
56 99 170
57 100 172
57 100 171
57 99 173
56 100 171
57 99 171
56 100 171
54 99 168
60 100 176
57 99 172
57 99 172
56 100 171
57 100 171
59 99 174
59 100 175
58 100 172
57 100 171
58 99 173
59 100 174
58 100 174
58 100 173
57 99 172
56 99 171
56 99 171
57 100 172
54 99 167
56 100 170
56 99 171
58 100 173
59 99 174
57 99 173
56 100 170
58 100 174
55 100 169
55 99 169
57 100 171
59 99 175
56 100 170
57 100 172
58 100 173
56 100 170
57 100 172
57 100 171
57 100 172
57 100 171
57 100 171
58 100 173
57 100 172
57 99 172
58 100 173
56 100 170
56 100 170
60 100 176
60 100 176
57 99 173
58 100 173
59 100 174
57 100 172
57 100 173
55 100 169
57 100 171
55 100 169
56 99 170
60 101 174
58 99 172
56 100 170
55 100 168
55 100 169
56 100 171
56 100 170
55 99 168
56 100 169
57 100 172
56 100 169
58 100 171
56 99 171
57 100 170
54 99 166
58 100 172
55 100 169
57 100 170
55 99 168
60 101 173
56 100 170
59 100 173
56 100 169
56 100 169
55 99 167
56 100 169
55 99 167
60 101 174
57 101 169
57 99 170
58 101 172
57 100 171
52 99 165
52 99 164
54 99 166
55 100 169
54 100 166
55 99 167
56 99 168
58 100 171
54 100 166
57 100 170
53 99 165
54 99 167
56 100 170
56 99 168
59 101 174
58 101 171
53 100 164
53 99 166
56 99 168
55 99 167
54 100 164
55 99 165
55 100 168
51 98 161
54 100 166
52 99 161
53 99 163
51 97 158
52 98 161
51 97 158
51 97 160
49 98 159
54 98 161
48 96 154
52 98 156
45 96 149
47 96 145
44 104 125
22 101 87
11 107 69
29 118 71
8 98 52
13 107 62
6 96 49
1 104 48
19 98 44
20 90 44
8 95 46
22 103 47
20 88 41
8 111 52
6 99 45
30 103 51
12 103 47
6 95 44
30 106 51
34 108 52
29 114 56
23 105 50
41 110 54
29 116 57
35 108 52
39 121 59
34 112 55
21 115 55
7 119 55
44 123 60
39 120 58
20 112 51
44 129 62
30 112 53
35 120 58
44 123 61
44 125 59
44 129 63
56 127 63
40 120 58
54 142 69
68 130 67
54 131 65
56 138 69
39 129 62
55 129 62
58 132 65
48 141 67
71 131 67
55 140 69
50 131 63
55 130 65
57 143 70
58 148 72
43 142 68
64 134 67
70 142 71
43 142 68
54 143 69
43 132 63
44 147 70
33 124 59
54 127 62
76 137 69
70 152 76
59 130 64
74 146 73
54 142 69
55 142 67
53 138 66
73 148 74
54 141 67
39 144 68
61 145 72
67 139 68
61 147 72
51 130 63
47 138 64
64 137 66
60 136 67
46 141 67
69 138 68
51 142 68
58 130 64
43 130 62
58 133 65
48 141 67
68 139 69
47 135 64
51 128 61
55 141 72
44 129 60
47 134 69
54 138 73
66 148 83
51 140 79
47 150 92
43 156 96
42 156 99
47 157 100
33 158 100
43 168 117
43 166 111
19 167 115
18 171 117
27 178 124
0 173 120
33 186 137
0 188 138
19 192 140
0 195 147
0 199 150
0 193 147
0 198 147
0 201 154
0 202 155
0 207 157
0 201 151
0 201 156
0 205 155
0 204 157
0 204 157
0 201 152
0 202 150
0 202 155
0 209 162
0 203 154
0 209 161
0 207 161
0 207 161
0 208 165
0 202 154
0 207 160
0 208 160
0 212 170
0 204 154
0 205 157
124 223 207
129 223 208
138 223 212
134 224 211
159 226 222
151 226 219
153 225 220
156 223 220
164 226 226
146 226 218
165 228 226
160 227 225
161 226 225
176 227 232
156 227 222
167 228 228
180 228 234
173 227 231
158 226 224
182 230 236
160 226 224
175 227 232
181 229 235
179 228 234
174 228 232
187 229 239
178 229 235
192 229 241
183 230 236
191 230 242
185 229 237
181 229 236
198 231 244
191 230 241
197 230 244
197 231 244
193 230 242
203 232 248
189 229 240
184 229 237
191 230 241
201 231 246
185 230 238
193 230 242
196 231 244
199 231 246
197 231 244
185 230 238
185 230 238
194 231 242
188 230 239
194 231 242
193 230 241
190 230 241
190 230 240
189 230 240
180 230 235
180 229 234
174 229 232
184 230 237
189 230 240
180 229 235
181 228 235
173 229 231
186 230 237
178 229 233
169 227 229
182 228 236
166 227 226
174 227 230
169 229 228
167 228 227
149 223 216
151 224 219
156 222 220
151 219 217
144 198 210
147 193 213
126 183 199
137 179 207
137 176 204
103 152 189
120 162 197
102 152 188
88 146 182
86 149 183
78 144 181
71 130 177
60 127 174
57 123 172
55 123 170
53 114 170
52 116 169
51 112 168
53 109 168
52 112 168
52 111 168
54 105 169
51 118 167
55 106 170
54 101 168
53 107 168
56 107 170
55 113 172
52 107 167
56 102 170
54 101 167
53 104 167
54 106 169
55 105 169
52 98 166
53 101 167
55 103 171
52 100 166
54 102 167
56 100 172
58 100 174
58 99 173
58 99 172
56 99 170
55 100 169
56 99 172
53 99 167
56 100 170
57 100 172
55 99 170
57 100 172
55 99 170
57 99 173
56 100 171
58 100 172
58 100 174
58 100 174
56 99 171
58 100 172
58 100 173
57 100 172
56 100 169
57 99 172
57 99 171
56 100 170
58 99 172
55 100 170
58 100 174
57 100 171
57 99 172
58 100 173
58 100 173
57 100 171
58 100 173
57 100 171
57 99 172
58 99 173
56 100 172
58 100 173
56 100 170
56 100 171
56 100 169
57 100 172
55 100 168
57 100 173
56 99 170
57 100 172
55 100 169
56 100 171
58 100 173
58 99 173
58 101 171
56 99 171
59 99 174
58 100 172
56 99 170
60 101 175
55 100 168
57 100 170
58 100 173
58 100 172
57 100 171
56 100 171
58 100 174
57 100 171
57 100 171
55 100 168
55 100 168
57 100 171
56 100 170
60 100 176
58 100 172
56 100 169
59 100 173
56 100 169
59 100 175
56 100 171
58 100 174
56 100 170
56 100 170
58 99 173
57 99 171
57 100 171
58 99 172
58 100 171
57 100 172
54 100 167
54 99 167
58 100 173
57 100 172
58 100 172
57 100 172
56 100 169
55 100 169
57 100 171
57 100 170
58 100 173
56 100 170
56 100 171
56 99 170
56 100 170
56 100 170
56 100 168
54 100 168
57 100 171
58 100 172
58 100 172
54 100 167
56 100 169
56 100 171
57 100 171
58 100 171
58 100 172
53 100 167
56 100 169
52 99 163
56 100 170
57 100 170
54 99 167
55 99 169
57 99 169
55 101 167
53 100 164
54 100 167
55 99 167
56 99 167
57 100 170
52 99 163
50 99 160
55 99 168
52 98 163
55 99 165
53 99 163
52 99 162
53 99 166
53 99 162
50 99 160
52 98 159
50 99 161
52 98 161
49 96 155
49 98 157
52 98 161
50 97 155
52 98 160
55 97 162
48 93 149
46 93 119
22 107 95
10 108 66
0 110 54
8 108 57
19 109 62
7 98 51
0 103 50
28 94 47
0 99 55
28 113 56
10 104 48
11 98 47
6 99 45
11 101 45
22 107 49
8 106 48
11 98 46
10 94 43
28 119 57
8 117 57
34 110 52
28 112 52
9 113 53
12 112 54
23 115 56
0 114 53
0 120 55
8 123 57
26 108 53
39 131 61
44 122 58
40 110 52
44 123 61
28 126 59
20 122 57
40 114 55
43 127 60
52 130 65
63 124 64
28 129 60
40 127 60
38 129 61
39 132 62
39 129 62
48 137 66
39 129 60
44 134 64
51 131 64
51 139 68
34 139 66
56 136 66
62 132 66
64 139 69
39 141 67
52 141 68
54 135 66
39 136 64
61 143 69
61 145 72
55 138 67
70 142 70
64 141 69
58 133 64
58 143 70
51 141 68
80 147 74
61 133 65
58 141 68
70 144 72
60 137 67
44 139 65
38 143 68
72 142 71
50 136 66
48 136 64
51 145 69
54 140 68
33 139 65
38 135 65
42 141 67
51 126 60
58 135 66
80 144 73
43 144 69
51 138 65
51 139 67
39 131 61
55 133 66
33 129 58
63 140 74
54 134 69
47 144 78
43 141 81
64 144 81
66 154 96
51 148 89
39 144 86
51 164 110
32 159 103
43 162 109
39 165 110
38 171 118
19 162 113
33 173 119
33 178 123
19 178 126
19 190 138
19 194 142
19 194 144
0 202 151
0 207 159
0 189 138
0 200 149
0 195 147
0 202 155
0 201 152
0 205 155
0 198 147
0 205 155
0 203 154
0 204 157
0 200 149
0 210 165
0 202 154
0 205 160
0 202 154
0 210 163
0 205 158
0 207 162
0 205 158
0 205 161
0 206 159
0 210 167
0 206 157
0 206 158
0 208 165
149 224 216
127 223 208
148 227 217
137 224 213
142 225 215
160 227 223
161 228 224
164 227 226
160 226 224
170 227 229
181 229 235
165 227 228
166 228 228
163 227 226
168 228 228
177 228 233
185 228 237
170 228 230
176 229 233
190 230 240
191 230 241
186 229 238
198 232 244
179 229 235
180 230 235
194 231 242
192 231 242
192 231 241
199 230 245
189 230 240
196 231 244
194 230 243
205 232 249
194 230 243
204 231 248
197 231 244
197 231 245
197 231 244
196 231 244
195 231 243
195 231 244
193 230 243
199 231 246
197 230 244
203 232 247
197 231 244
197 230 244
206 232 250
198 231 245
203 231 246
205 232 248
197 231 244
190 230 240
199 232 245
199 231 246
196 231 243
205 232 248
195 230 243
185 230 238
194 231 242
178 229 234
197 231 244
186 230 238
191 231 240
186 230 238
194 231 242
179 229 234
177 228 232
195 230 243
173 228 230
170 228 229
166 229 228
158 226 223
164 226 225
162 219 222
148 209 216
141 199 211
145 185 209
135 179 207
133 169 203
139 172 208
123 164 198
115 159 196
117 159 196
106 158 192
87 142 182
88 141 184
69 126 173
66 120 177
68 123 175
58 117 171
53 121 170
54 112 170
53 109 169
55 105 170
49 120 166
53 116 170
53 112 169
53 115 169
52 110 167
54 110 169
51 115 169
55 107 170
54 106 169
53 105 167
53 110 170
52 101 164
55 106 169
56 101 171
54 102 168
54 102 168
53 104 168
55 99 170
52 100 165
58 99 172
55 99 168
56 100 169
57 99 171
56 99 170
56 99 170
56 99 171
56 99 171
55 100 169
58 100 174
57 99 171
57 100 172
53 99 166
55 99 169
56 100 169
56 99 170
57 99 171
54 100 168
53 99 168
60 99 175
56 99 172
53 99 166
57 100 172
54 98 167
57 100 173
57 100 171
58 100 172
56 99 171
57 99 172
56 100 171
53 99 167
58 100 172
57 99 173
59 100 174
58 99 174
56 100 171
58 100 173
57 100 172
59 100 173
58 99 172
57 100 171
56 99 171
56 100 170
57 99 171
56 100 171
58 100 174
58 99 173
54 99 168
60 100 176
57 100 172
58 99 173
57 100 171
57 100 171
58 100 173
55 98 168
54 99 168
57 100 171
58 100 174
57 99 172
56 100 170
55 100 169
55 100 168
60 101 175
57 100 170
57 100 172
56 99 170
57 100 172
57 100 172
53 99 167
58 99 172
61 101 177
54 99 169
57 100 172
58 100 172
58 100 172
56 100 169
58 100 172
58 100 173
58 100 173
56 99 170
58 100 173
56 100 170
59 100 174
58 100 173
57 100 171
56 100 170
56 100 170
58 100 172
59 100 173
54 100 168
52 99 165
58 101 172
53 100 166
55 99 169
60 101 175
58 100 172
58 100 173
54 100 168
57 100 171
56 100 169
60 101 174
53 99 165
58 100 171
54 100 166
54 99 169
56 100 169
55 100 169
55 100 169
56 100 169
55 99 167
55 100 167
57 100 170
54 99 167
52 100 164
58 100 172
56 100 168
53 99 166
57 100 170
54 100 168
54 99 165
56 100 169
53 99 165
56 100 170
52 100 164
55 100 169
56 100 168
51 100 164
52 100 163
56 101 169
54 100 167
53 99 164
51 99 160
51 99 163
56 100 169
55 100 166
50 97 159
53 100 164
54 99 165
50 97 158
56 100 167
47 98 154
52 99 161
53 98 161
51 96 155
52 96 159
48 96 154
49 96 153
46 95 148
48 92 142
37 99 114
18 105 76
6 112 68
19 115 66
19 108 68
0 106 58
20 101 50
7 110 61
19 99 52
28 102 53
6 97 42
8 108 54
4 95 44
7 94 43
19 109 47
5 104 47
21 114 53
30 103 48
0 98 45
29 109 52
19 106 49
9 100 46
21 111 53
28 119 55
5 112 51
21 110 51
30 113 55
39 122 58
43 110 53
48 125 60
34 116 56
19 114 52
28 125 60
45 115 56
55 120 60
34 127 61
29 133 63
39 127 62
34 110 54
35 117 55
32 131 60
28 123 56
48 129 62
34 127 60
52 133 65
55 130 63
44 129 62
44 129 62
62 134 65
34 130 62
48 135 65
59 140 70
38 125 60
27 136 64
48 128 61
43 136 64
43 136 65
44 137 63
48 138 65
49 143 69
51 133 64
62 140 70
52 145 68
58 134 66
43 127 61
51 146 69
43 140 65
61 140 68
55 142 69
69 141 71
43 139 65
47 146 69
58 144 70
54 140 68
48 142 68
47 140 67
42 137 64
62 139 67
54 139 67
47 139 67
54 145 70
70 147 73
65 132 64
51 133 65
42 133 63
59 128 62
58 140 68
43 136 67
55 133 66
27 130 65
51 142 77
55 146 82
51 145 84
51 128 72
37 143 83
19 149 86
32 151 93
27 158 102
47 158 106
33 169 110
33 173 121
39 167 111
27 162 112
27 173 117
19 182 130
28 183 129
27 189 139
20 189 135
0 193 142
0 198 149
0 196 143
0 198 150
0 198 147
0 197 145
0 194 142
0 207 159
0 205 156
0 200 153
0 200 150
0 199 149
0 205 157
0 209 164
0 203 154
0 202 154
0 202 151
0 207 159
0 205 160
0 205 155
0 209 161
0 202 156
0 209 163
0 204 155
0 206 160
0 208 164
0 208 163
0 202 157
0 209 164
144 225 216
155 225 221
156 228 223
153 228 221
160 227 225
152 226 221
162 226 225
157 226 223
171 227 230
158 227 224
165 228 227
169 228 229
177 229 233
182 228 235
178 229 234
181 230 236
190 229 240
189 230 240
182 230 236
186 230 238
183 229 236
194 230 243
195 231 243
188 230 240
196 229 243
191 230 241
191 230 241
196 231 244
198 231 244
188 229 238
208 232 250
201 232 246
203 232 248
204 232 248
200 231 246
202 232 247
207 232 250
200 231 246
197 231 244
205 232 248
211 233 252
208 232 250
202 232 246
207 232 250
206 232 249
204 232 248
211 232 252
206 232 249
205 232 248
206 232 249
199 232 245
200 231 246
197 231 244
201 232 246
202 232 246
193 230 242
199 232 244
195 231 243
192 230 242
200 232 246
198 231 244
194 231 242
197 231 244
193 231 242
182 229 236
191 231 240
195 230 242
186 230 238
186 230 238
178 228 233
180 230 234
184 229 236
185 230 238
160 225 223
166 221 226
171 216 228
171 207 227
172 201 226
149 179 213
145 171 210
130 169 203
121 158 198
110 156 193
105 138 190
118 150 196
100 139 186
77 128 177
77 135 180
71 125 176
65 123 175
62 122 174
60 114 175
49 118 165
51 120 170
52 116 168
55 111 170
54 106 168
54 104 167
53 112 169
49 113 164
55 113 171
53 112 170
55 109 171
56 102 171
53 105 168
53 102 167
54 103 168
54 105 169
54 101 167
53 107 167
57 99 171
54 101 167
57 100 171
56 102 170
55 102 170
54 99 167
55 104 169
58 102 172
57 99 173
55 99 168
58 100 174
56 99 170
56 100 170
58 100 173
59 99 174
57 100 171
56 99 170
54 99 169
56 98 169
57 99 172
55 99 169
57 100 171
58 100 174
58 99 172
55 100 169
58 100 171
56 100 170
55 100 169
55 100 168
56 99 171
57 99 174
56 100 169
57 100 172
56 100 170
56 99 172
57 100 172
59 100 174
57 100 171
56 99 171
56 99 171
56 99 171
58 100 171
56 99 170
56 99 171
57 100 172
58 99 173
56 100 170
56 100 171
55 99 169
57 99 171
57 100 171
59 100 174
58 100 173
58 100 172
56 99 170
58 100 173
57 99 171
56 100 169
58 100 172
55 100 168
57 100 172
58 100 172
56 100 171
57 100 171
58 100 174
58 99 173
56 99 170
55 100 168
55 99 169
57 101 171
58 100 172
59 100 174
58 100 173
55 100 168
56 100 169
56 99 170
56 99 171
54 99 168
55 100 168
56 100 171
55 100 170
57 100 170
57 101 171
57 100 170
56 99 170
55 100 169
56 99 170
59 101 173
56 100 170
54 98 167
56 100 168
57 100 171
57 100 171
59 100 174
54 99 167
55 100 168
56 99 169
56 100 169
58 100 172
58 100 171
58 100 173
56 100 168
56 100 169
54 99 168
53 99 166
57 100 169
54 99 166
55 100 167
54 100 167
57 100 171
56 100 169
55 100 167
57 100 169
57 100 170
56 100 170
54 100 166
55 100 169
56 100 170
52 98 163
55 100 168
55 100 168
56 100 168
55 100 168
56 100 169
55 100 167
59 100 171
56 99 167
54 99 167
56 100 168
55 100 168
54 100 166
55 99 166
53 100 166
53 99 163
54 100 165
55 99 166
52 100 163
53 98 163
51 99 162
57 99 166
49 98 157
52 98 162
56 99 168
53 99 162
53 99 162
52 99 163
55 98 165
50 97 156
47 98 154
48 95 153
46 97 150
48 94 148
47 100 143
32 102 108
25 99 94
9 107 64
20 128 77
27 107 57
19 117 68
20 108 55
27 100 52
20 112 64
20 112 63
20 109 60
20 108 54
28 98 48
5 101 45
8 93 46
8 100 48
28 108 51
9 99 45
19 110 49
8 107 50
1 99 47
28 113 53
0 117 52
18 105 47
20 115 52
27 121 56
11 117 57
8 122 56
39 115 56
28 113 53
29 117 56
21 110 53
10 111 53
33 125 58
27 122 56
20 127 59
48 122 59
0 130 60
40 123 60
39 123 58
44 130 62
36 125 61
48 136 65
44 128 62
45 126 63
56 128 63
44 134 64
28 131 62
58 136 67
44 129 60
51 137 64
43 138 66
34 138 65
47 141 67
44 136 65
48 126 60
48 141 67
55 138 67
48 132 63
55 136 66
51 140 67
48 142 67
39 125 58
51 144 70
52 133 62
64 139 68
61 135 67
38 133 63
61 138 67
51 135 65
55 135 64
61 139 68
51 141 68
34 131 62
33 129 59
62 135 67
61 139 67
43 133 63
47 140 66
62 146 71
44 133 62
43 127 60
51 134 65
57 136 67
51 134 65
43 134 64
55 127 63
60 149 76
46 139 72
38 141 80
55 143 79
39 137 77
43 146 91
27 141 83
38 147 88
42 161 102
44 157 102
27 147 89
43 151 92
27 165 115
33 149 95
0 174 114
27 176 120
19 177 126
26 183 131
19 184 127
33 187 134
0 194 143
0 197 147
0 204 155
0 201 153
0 199 150
0 197 148
0 199 148
0 207 160
0 203 155
0 200 148
0 199 150
0 201 150
0 199 151
0 197 151
0 206 159
0 210 161
0 201 151
0 212 165
0 207 159
0 203 153
0 203 155
0 205 157
0 205 156
0 201 152
0 206 162
0 206 160
0 208 159
0 206 162
0 209 163
0 212 169
167 228 228
153 223 218
174 228 231
157 225 222
163 227 226
163 228 226
151 225 219
185 230 238
179 229 235
176 228 233
178 230 234
183 229 237
187 228 239
187 230 239
198 230 246
185 230 238
180 229 236
188 231 239
196 231 244
197 231 244
192 231 242
190 230 240
194 231 242
189 230 240
199 231 245
193 231 242
202 231 247
202 231 247
208 232 251
203 232 248
205 232 248
207 232 250
212 233 252
206 232 249
208 232 250
208 232 250
214 233 254
208 232 250
205 233 248
208 232 250
204 232 248
211 233 251
207 232 250
210 233 251
212 233 252
205 232 248
208 232 250
208 233 250
204 231 248
201 232 245
203 231 248
208 233 250
211 233 252
209 233 250
206 232 249
210 233 251
204 232 248
195 231 243
204 232 248
207 232 250
200 231 246
204 232 248
199 232 244
196 232 243
196 231 243
198 232 244
195 231 243
194 231 242
194 231 241
184 229 237
187 230 238
186 229 237
182 227 235
188 225 238
166 212 225
167 203 225
162 190 219
164 191 222
164 187 221
153 176 214
147 169 211
131 158 202
118 150 197
140 165 208
104 141 190
102 134 189
94 130 185
88 131 182
80 132 181
78 128 182
72 117 176
61 119 174
57 118 171
56 113 174
56 103 171
53 116 171
53 112 169
54 112 171
52 114 168
54 105 169
56 103 170
53 103 166
54 109 169
55 107 171
52 109 168
52 107 167
55 99 169
56 107 173
53 104 168
53 108 168
54 99 167
52 103 166
52 101 165
54 99 168
55 100 169
54 100 168
51 99 164
58 100 173
55 99 169
57 100 172
55 99 169
58 100 172
56 99 171
54 99 169
60 100 174
57 100 172
58 100 172
57 99 172
57 99 172
51 99 166
55 99 170
55 100 170
55 100 168
57 100 172
58 100 172
56 99 170
57 99 172
56 100 169
58 99 173
58 100 173
58 100 173
55 98 170
55 99 168
56 100 171
55 100 168
57 99 172
55 100 169
56 100 170
56 100 171
56 100 171
57 100 170
58 99 173
58 100 173
57 100 172
56 100 170
56 100 170
58 100 172
56 99 170
56 99 171
58 100 173
57 100 170
56 100 170
55 99 169
57 100 172
55 100 170
57 100 172
56 99 170
55 100 169
53 99 167
56 100 170
57 100 171
56 99 170
58 99 173
57 99 171
58 101 171
58 101 172
57 100 171
55 100 169
57 100 171
56 99 171
56 99 170
55 99 169
56 100 171
59 101 174
58 100 173
56 99 170
56 99 170
58 100 173
57 100 172
57 99 170
54 99 167
58 100 172
58 100 172
58 100 172
56 99 169
58 99 173
56 100 168
57 100 172
58 100 172
57 99 170
56 100 169
57 100 170
53 100 167
57 99 171
58 100 172
57 100 171
58 100 172
55 100 169
55 100 168
57 100 170
58 100 172
51 99 163
54 99 168
54 99 168
59 99 174
57 100 171
54 99 167
54 100 165
55 99 168
54 100 167
56 99 170
56 99 168
54 99 166
54 99 167
53 100 166
55 100 167
55 100 168
55 100 168
57 100 171
55 100 168
55 100 167
54 99 166
55 100 169
54 100 167
56 99 168
52 99 164
57 101 169
53 99 166
55 100 169
55 99 168
52 100 164
53 100 166
55 99 167
45 98 155
53 99 164
51 99 162
55 99 167
53 98 164
54 99 166
50 99 159
51 97 160
52 98 162
55 99 167
52 98 161
52 99 162
52 98 161
50 97 157
48 98 156
53 97 159
51 97 156
52 97 159
53 100 159
45 98 142
44 112 111
21 105 84
0 118 78
0 109 61
0 115 65
27 116 61
0 99 51
20 106 51
6 106 43
0 108 54
5 111 60
4 94 46
0 106 49
0 105 49
6 109 47
19 111 52
5 104 46
11 94 45
27 106 48
6 106 49
19 107 50
7 99 45
19 101 46
20 98 45
35 110 53
22 110 51
22 108 52
28 113 53
20 104 48
10 103 48
28 122 56
19 113 51
29 118 56
34 122 58
19 124 56
33 124 57
28 114 53
10 114 54
34 118 57
39 128 61
43 140 67
27 127 59
44 124 61
34 131 61
20 121 56
28 133 63
44 121 56
48 123 59
44 131 63
44 126 60
40 131 64
44 130 62
6 127 59
51 139 67
20 141 63
43 130 61
19 129 59
47 148 70
48 137 66
47 130 61
58 133 64
33 137 65
39 131 62
61 141 69
39 138 64
19 144 67
28 136 61
34 130 62
48 141 67
43 131 63
34 126 57
64 136 67
48 144 69
58 141 67
51 134 64
47 133 63
48 132 62
54 138 66
43 142 68
38 129 61
58 136 66
33 133 62
39 135 64
28 136 66
43 129 64
51 135 65
39 136 69
39 133 76
43 136 74
55 134 76
39 134 73
43 143 85
26 152 95
43 150 88
19 152 99
33 156 99
43 160 107
43 173 115
38 171 116
26 174 119
39 168 117
27 179 126
0 178 126
32 182 127
33 191 138
39 191 138
0 188 137
0 193 138
0 200 149
0 199 150
0 200 148
0 196 146
0 198 151
0 192 140
0 199 152
0 198 148
0 200 151
0 200 146
0 204 153
0 206 160
0 207 160
0 211 164
0 204 159
0 208 164
0 200 154
0 205 156
0 205 157
0 211 165
0 203 156
0 209 163
0 211 165
0 210 162
0 203 152
0 207 162
0 205 157
0 202 154
0 212 164
159 225 223
160 228 225
167 228 228
167 228 228
177 228 233
165 226 227
190 229 241
180 228 234
181 230 236
172 227 231
176 229 233
189 230 240
186 230 238
189 230 240
192 230 242
192 230 242
193 231 242
196 231 243
199 231 246
193 230 241
199 231 245
197 231 244
195 231 243
193 231 242
200 232 246
201 231 246
211 233 252
211 233 252
205 232 248
209 232 250
210 233 251
209 233 250
217 234 255
209 232 252
208 233 250
209 232 251
211 233 252
209 232 251
207 232 250
208 233 250
212 233 252
210 233 251
207 232 250
209 233 250
204 232 248
211 233 252
207 232 249
209 233 250
214 234 253
211 233 252
212 234 252
205 232 248
212 233 252
211 233 252
207 233 249
212 233 252
207 233 249
206 232 248
207 233 249
201 232 245
206 232 249
208 233 250
205 232 248
196 231 244
203 232 247
205 231 248
204 232 248
201 232 246
194 231 242
196 231 243
194 232 242
188 231 239
189 231 240
191 226 240
186 220 236
176 209 231
164 190 219
175 199 228
161 183 221
154 175 215
148 170 211
142 166 208
125 151 201
113 141 193
111 139 192
128 152 201
104 138 187
91 128 183
95 127 186
75 123 177
77 119 176
75 119 178
70 122 177
51 116 168
58 113 170
53 110 168
53 114 171
54 114 171
52 112 168
54 111 169
51 104 165
55 108 170
55 109 170
55 103 169
52 114 170
50 111 164
55 105 171
53 103 167
55 106 171
55 103 169
55 107 171
53 99 166
57 105 174
54 101 168
54 103 168
55 101 169
58 100 173
54 99 168
56 100 169
56 100 170
54 100 167
56 100 171
54 99 170
58 100 172
57 99 171
55 100 169
58 100 172
57 99 172
56 99 170
60 100 175
56 99 171
58 100 172
54 100 167
58 100 173
57 99 172
57 100 171
59 100 174
57 100 171
56 99 170
55 99 169
54 99 168
58 100 173
59 100 175
57 100 172
56 100 168
57 99 172
55 99 169
57 99 171
53 99 167
57 100 171
57 99 172
59 100 174
57 100 171
57 100 171
56 99 171
58 99 173
56 100 171
59 100 174
57 100 172
55 99 168
56 100 170
57 100 171
61 100 176
57 99 171
57 100 171
58 100 173
57 100 171
59 100 174
59 100 174
59 100 173
56 100 169
55 100 169
56 99 170
57 100 171
57 100 171
58 100 173
57 100 171
58 100 172
58 100 172
57 100 172
58 100 172
52 100 165
59 100 174
56 100 170
55 100 169
57 100 171
56 100 170
57 100 171
55 100 169
60 100 175
56 100 169
56 100 169
60 99 176
57 100 170
57 100 171
55 100 168
57 100 171
55 100 168
57 100 171
57 100 171
56 100 170
57 100 171
58 100 173
55 100 169
56 100 169
56 100 170
55 100 168
56 100 170
56 100 170
56 100 170
56 100 169
55 101 167
56 100 170
55 100 167
55 100 168
54 100 167
55 100 168
54 100 167
56 99 168
56 100 169
55 100 168
54 99 168
55 99 168
57 100 171
55 100 168
55 99 166
50 99 163
54 98 166
60 100 173
55 99 167
52 99 164
53 99 166
53 99 166
53 100 166
53 99 166
52 100 165
54 99 166
54 100 166
54 99 165
54 100 164
52 99 162
54 100 166
56 100 169
55 99 165
55 99 166
53 100 165
51 99 160
50 99 162
51 100 163
54 99 165
52 98 164
53 98 162
49 98 156
52 99 161
49 98 157
52 98 159
49 97 156
50 98 159
50 96 156
53 100 163
50 95 154
47 98 148
40 105 133
35 110 124
14 109 77
22 120 75
28 127 79
19 135 79
19 123 73
5 111 63
5 125 79
6 99 51
19 100 57
19 102 57
20 105 60
20 112 51
8 105 52
8 98 48
0 92 40
5 108 48
6 97 46
6 107 50
20 94 46
20 106 49
22 110 50
0 100 45
19 110 50
8 110 51
7 108 47
34 111 53
33 120 57
29 117 54
19 121 55
22 115 53
23 115 55
30 118 57
0 119 55
47 119 57
28 124 57
20 120 57
28 114 54
21 123 58
21 117 54
43 127 60
28 122 56
19 130 60
44 130 62
28 131 62
19 125 58
27 124 56
34 124 57
48 130 63
39 129 60
39 138 65
38 126 59
19 134 62
42 128 62
39 137 64
28 129 60
34 132 61
44 140 66
43 127 59
34 130 61
58 134 66
27 132 61
39 137 64
51 131 62
55 133 64
38 133 62
43 135 63
47 132 63
58 137 67
52 141 67
52 130 62
44 137 65
48 118 56
39 130 60
34 116 54
54 141 67
38 128 60
44 133 63
48 126 59
44 126 59
51 136 66
39 133 64
51 134 67
51 131 64
33 142 64
32 141 73
47 134 73
19 141 86
18 134 69
64 140 83
18 140 79
43 145 86
34 144 85
17 148 96
27 160 100
0 167 109
42 150 96
27 174 120
28 164 110
33 174 119
34 175 122
19 170 116
20 183 130
19 177 125
0 184 134
0 190 138
0 199 148
0 196 143
0 187 133
0 197 147
0 192 142
0 201 149
0 198 147
0 200 146
0 202 154
0 201 152
0 203 154
0 198 147
0 193 142
0 199 153
0 206 158
0 202 153
0 207 161
0 203 155
0 201 158
0 202 156
0 203 157
0 205 156
0 205 157
0 209 162
0 207 162
0 202 155
0 211 166
0 205 162
0 204 156
0 209 161
0 204 157
164 227 225
171 228 230
167 226 227
173 228 231
177 229 232
166 227 227
181 229 236
185 229 238
182 229 235
195 230 244
178 229 234
190 230 240
194 231 242
194 231 241
191 230 241
201 231 246
204 232 248
201 231 246
205 232 248
199 230 244
208 232 250
206 232 250
214 233 254
203 232 247
208 232 250
208 232 250
214 233 254
204 232 248
206 232 249
213 233 253
208 233 250
211 233 252
203 232 247
208 232 250
202 232 247
206 232 249
204 232 248
205 232 248
205 232 248
207 233 249
209 233 250
210 233 251
207 233 249
204 232 247
201 231 246
206 232 249
200 232 245
207 233 249
200 232 245
209 232 250
205 233 248
209 233 250
207 233 249
208 233 250
204 232 247
207 233 249
210 233 250
202 232 246
206 233 248
201 232 245
205 233 248
205 233 248
209 233 250
208 233 250
204 232 247
203 232 247
208 233 250
203 232 246
203 232 247
201 232 246
202 232 246
202 232 246
189 228 239
199 227 244
190 217 237
167 200 225
175 200 228
166 190 224
159 179 219
166 186 223
146 168 211
148 170 212
157 178 218
126 150 201
131 155 204
113 140 196
113 140 194
110 137 194
95 127 187
99 132 188
85 121 184
81 117 178
72 115 175
70 118 177
67 113 174
57 112 174
55 112 173
52 114 170
56 105 172
55 104 169
54 112 170
53 112 169
53 109 168
52 106 166
55 109 169
53 109 169
52 107 167
55 103 170
52 104 166
53 103 169
54 99 167
53 102 166
49 99 161
56 104 171
53 99 167
54 101 169
54 99 167
56 99 170
54 101 169
56 99 169
55 100 168
54 100 167
53 99 166
55 100 168
55 99 168
57 100 171
54 99 168
58 100 172
54 99 169
58 100 172
54 99 168
57 99 172
59 100 173
55 100 169
56 100 171
54 99 168
56 99 171
56 99 170
57 100 172
55 99 169
56 99 171
54 100 169
55 100 169
56 100 170
58 100 174
57 99 171
57 100 173
55 100 169
57 100 172
56 100 171
55 99 170
58 100 173
56 99 170
58 100 172
57 99 172
57 100 173
57 99 171
58 100 173
56 99 170
59 100 174
52 100 165
55 100 169
56 99 170
58 100 172
56 100 171
57 100 170
55 100 168
56 100 171
56 99 169
56 100 169
58 100 174
54 100 167
61 100 175
55 99 170
57 100 172
58 100 173
58 99 173
58 100 174
55 100 169
55 100 169
56 100 170
56 100 170
57 100 171
57 100 171
57 100 172
57 100 171
56 99 170
57 99 171
58 101 171
53 99 166
57 100 171
59 99 172
55 100 169
58 100 172
58 100 172
51 100 163
57 100 171
58 100 172
56 99 171
55 100 169
53 100 166
57 100 171
58 100 173
56 100 168
55 100 169
56 100 171
55 100 168
55 100 168
55 99 167
56 100 170
57 99 170
54 100 168
56 100 168
55 100 169
58 99 172
54 100 165
56 100 169
54 100 167
56 100 170
57 99 170
57 101 171
54 98 166
58 100 171
53 100 166
55 101 167
55 100 168
55 100 168
56 100 168
57 100 170
54 100 166
49 100 160
54 100 167
53 100 165
53 100 166
53 100 164
50 99 162
54 99 166
55 100 167
53 100 165
56 100 168
52 100 163
56 100 167
54 101 166
51 99 161
50 99 160
55 100 168
52 98 162
55 98 165
54 99 164
52 98 162
51 99 161
53 99 165
50 99 158
49 99 158
53 98 162
49 98 157
51 98 160
50 99 159
51 98 159
50 97 156
50 96 154
48 96 152
37 102 123
40 114 115
9 130 85
0 128 78
0 127 84
5 128 71
21 114 67
34 116 67
0 113 65
19 106 58
0 95 48
0 117 63
0 105 54
20 118 67
0 96 47
1 98 42
12 105 49
5 98 49
6 101 48
0 108 47
8 95 45
0 108 46
6 102 45
0 106 46
6 104 46
28 105 49
21 110 51
0 98 43
5 104 46
19 106 49
20 108 49
13 122 59
21 106 49
6 111 50
39 115 55
5 124 57
20 117 53
5 128 59
35 117 55
27 118 55
19 122 56
28 125 59
34 123 57
28 124 59
34 127 60
27 121 56
20 118 54
18 124 56
27 130 61
27 127 57
39 131 63
39 135 64
33 137 65
27 141 64
39 130 61
27 124 56
39 128 60
19 128 58
48 127 61
34 140 66
28 128 57
44 131 62
27 129 60
39 138 64
52 137 66
39 134 64
48 127 59
52 132 63
34 134 63
33 139 64
39 138 64
39 128 61
43 136 64
38 133 60
38 131 59
47 129 62
61 138 68
55 136 65
34 136 65
34 135 66
39 127 61
33 134 72
33 136 66
47 140 69
38 127 63
34 143 74
43 136 68
18 146 77
43 138 75
38 149 80
33 154 89
38 151 94
38 147 88
19 139 80
39 158 106
33 151 92
20 162 106
27 169 114
33 170 114
18 168 115
19 173 119
19 183 129
19 176 122
0 187 135
27 188 137
18 188 138
0 189 141
0 194 139
0 192 139
0 196 147
0 200 148
0 199 145
0 202 150
0 194 144
0 200 151
0 203 151
0 203 154
0 199 148
0 196 140
0 203 156
0 196 149
0 203 152
0 204 156
0 204 152
0 209 164
0 204 159
0 207 161
0 204 158
0 205 160
0 206 159
0 207 157
0 207 159
0 211 164
0 206 160
0 210 166
0 208 162
0 213 170
0 212 165
161 226 225
170 228 229
177 229 233
179 229 235
178 229 234
171 228 231
185 230 238
184 229 237
188 230 239
192 231 241
197 231 244
197 230 245
194 231 242
206 232 249
210 232 252
202 232 247
209 233 251
209 233 250
207 232 250
207 232 250
210 233 251
210 233 251
211 233 252
210 232 252
213 233 252
212 233 252
205 232 248
209 233 250
202 232 246
207 232 249
204 232 248
206 232 249
206 233 248
205 233 248
201 232 246
204 232 248
198 231 245
198 231 244
200 232 245
201 232 246
208 233 250
201 232 246
199 232 244
196 232 243
200 232 245
202 232 246
198 231 244
206 232 248
199 232 244
202 232 246
199 231 246
200 232 245
202 232 246
201 232 246
203 232 247
203 233 246
202 232 246
202 232 246
205 232 248
194 232 242
200 232 245
204 233 247
205 232 248
206 232 249
206 232 248
207 233 249
204 233 247
202 232 246
207 233 249
197 232 243
204 232 247
198 232 244
201 231 246
197 223 242
187 213 235
189 211 236
186 205 235
180 201 232
166 187 221
169 189 225
150 172 213
149 171 213
142 165 210
134 157 206
136 159 207
124 149 200
121 146 198
101 130 188
104 132 191
93 125 187
101 132 189
82 118 181
74 112 179
74 115 179
68 111 176
59 113 173
53 107 169
55 112 172
52 112 167
53 109 169
54 106 169
56 109 172
53 118 172
51 115 166
54 99 168
55 113 172
53 110 168
55 103 169
57 102 171
58 104 172
53 104 166
58 107 174
51 99 162
55 99 169
55 105 169
52 100 165
55 104 169
56 100 170
56 100 169
58 100 173
56 100 170
56 100 170
57 99 172
57 100 171
52 100 165
54 99 168
55 99 169
57 100 171
57 99 170
56 99 171
56 100 171
58 99 172
57 99 171
57 99 172
56 99 169
57 100 171
57 100 171
55 100 169
54 99 167
55 100 168
54 100 168
57 100 171
55 98 168
59 100 174
53 99 167
55 99 169
56 99 170
56 100 171
56 100 170
55 99 169
58 100 173
58 101 172
56 100 169
57 99 172
54 99 167
52 100 166
57 99 171
56 99 169
53 99 167
58 100 172
55 99 167
56 100 168
56 99 170
56 100 171
54 100 167
60 101 175
56 100 171
56 99 170
57 100 172
58 100 171
57 100 171
56 100 170
57 100 173
58 100 172
57 100 172
59 99 172
57 100 171
54 99 168
55 100 169
55 100 169
56 100 170
57 99 171
56 100 171
56 100 169
59 100 173
55 100 168
57 100 172
57 100 171
55 99 169
57 100 171
58 100 171
56 100 170
54 100 166
57 100 171
58 100 173
57 100 172
55 99 169
54 100 168
55 98 168
54 99 167
56 100 169
55 100 169
57 100 172
54 100 167
58 100 172
56 100 170
56 100 168
53 99 165
52 100 164
59 101 173
54 100 167
55 99 167
56 100 170
55 100 169
55 100 169
55 100 169
56 100 170
55 100 168
57 100 170
56 100 170
53 100 166
53 99 166
57 100 170
55 100 167
53 99 166
49 99 160
56 100 168
54 99 166
55 100 169
55 100 168
51 99 163
54 99 166
57 99 169
56 100 168
54 100 166
57 100 171
54 99 166
54 100 166
53 99 166
58 100 172
51 99 164
53 100 165
54 99 166
54 100 165
51 101 162
51 99 161
53 100 164
52 100 162
52 99 161
48 98 156
52 100 164
51 98 159
52 99 161
51 98 160
53 97 160
49 98 155
53 99 163
52 98 161
51 96 157
48 97 153
46 97 152
46 95 145
34 106 126
24 119 105
22 123 80
0 122 69
27 121 73
0 114 64
27 128 79
8 123 77
0 112 62
0 131 76
0 121 72
0 121 64
6 103 54
0 110 51
5 97 50
0 100 52
19 116 60
19 104 57
8 103 44
28 101 46
0 108 55
0 105 45
6 113 53
0 102 51
20 104 46
6 95 41
0 108 48
20 98 45
28 116 54
27 113 52
19 113 52
28 121 54
21 120 56
0 115 52
20 117 53
21 111 52
28 129 61
10 119 54
5 115 51
34 112 52
20 121 55
20 127 59
19 132 60
19 128 59
29 123 58
39 119 56
19 127 58
48 132 61
33 122 55
34 125 57
39 122 56
34 139 65
39 132 61
39 130 62
20 124 57
27 131 60
44 139 66
27 137 63
19 126 56
43 122 59
39 135 64
44 129 60
28 127 59
0 131 60
27 123 57
39 130 60
19 130 59
44 120 56
39 134 62
43 130 61
44 138 66
38 131 62
46 125 59
39 129 60
51 136 65
33 127 60
52 127 62
44 127 62
0 134 64
43 135 65
39 132 66
52 141 70
44 130 69
39 142 75
38 137 72
39 139 74
39 133 77
39 137 73
34 148 86
20 144 84
19 147 89
19 143 84
39 165 108
27 148 95
38 166 109
34 155 102
26 166 112
19 181 133
27 178 124
19 183 131
47 185 131
19 177 120
19 197 143
19 185 131
0 191 140
0 190 142
0 194 144
19 196 143
0 193 138
0 196 144
0 199 146
0 205 152
0 196 144
0 197 147
0 197 147
0 205 158
0 197 144
0 204 152
0 205 153
0 198 153
0 198 149
0 202 155
0 210 161
0 200 149
0 197 149
0 209 162
0 202 151
0 202 156
0 206 161
0 210 164
0 206 159
0 205 159
0 204 156
0 203 155
0 201 157
0 206 162
0 206 163
0 207 160
171 229 230
180 228 235
189 230 240
188 230 240
194 230 242
199 231 246
189 231 240
189 230 240
194 230 242
193 230 242
199 231 245
201 232 246
201 232 246
207 232 250
207 233 249
212 233 252
210 233 251
203 232 246
211 233 252
207 233 249
205 233 248
210 233 250
205 233 248
205 232 248
203 232 247
211 233 251
201 232 246
207 232 249
204 232 248
203 232 247
191 230 240
199 232 244
188 230 239
195 231 242
197 231 244
189 230 239
194 232 242
188 230 239
191 232 240
196 231 243
191 231 240
188 229 239
189 231 239
188 230 239
188 231 239
190 231 240
186 230 238
185 230 237
186 230 238
176 230 232
188 229 238
183 230 236
187 230 238
178 230 233
191 231 240
198 232 244
191 231 240
189 231 239
196 232 242
200 232 245
198 232 244
190 231 240
197 231 243
199 232 244
205 233 248
202 232 246
198 231 244
207 233 248
202 233 246
200 232 244
207 233 249
198 231 243
205 230 247
193 226 240
184 208 234
192 216 239
181 203 232
173 193 228
182 201 233
170 190 226
152 173 216
146 168 213
153 174 215
147 170 213
113 140 196
132 156 204
114 141 195
117 143 197
99 129 189
99 128 188
82 114 184
90 121 185
86 118 184
76 112 179
74 111 179
63 110 173
56 107 173
56 106 171
55 113 173
57 111 174
56 104 172
54 114 171
53 108 168
52 113 169
54 103 167
58 102 173
55 104 170
53 103 167
54 104 168
55 110 171
56 102 168
57 100 171
54 105 169
55 100 169
54 99 168
54 101 168
54 100 168
57 104 172
56 100 169
54 99 168
55 99 169
53 99 167
55 99 167
56 99 170
57 100 173
55 100 168
56 100 170
54 100 168
56 99 171
56 99 170
56 99 169
57 99 171
55 100 169
57 99 172
53 99 167
54 99 168
57 99 171
58 100 173
55 99 169
59 100 174
56 100 171
56 99 171
55 99 169
55 99 168
55 100 170
54 99 167
57 100 171
54 100 166
57 99 172
56 100 171
57 100 173
57 100 172
56 99 169
52 98 164
57 100 171
54 100 167
55 100 168
60 99 175
57 99 171
53 100 167
56 99 170
57 100 172
55 100 169
57 100 172
57 100 171
57 100 171
54 100 168
54 100 167
55 99 169
56 99 170
56 100 169
59 100 173
55 99 168
56 100 169
54 100 168
58 100 172
57 100 171
56 99 170
56 100 171
58 100 172
58 100 172
57 101 171
57 100 171
60 101 174
56 100 170
53 99 167
57 100 171
55 99 168
56 99 170
56 100 170
55 100 167
54 100 167
59 100 174
54 100 166
56 100 169
56 100 170
55 100 168
55 100 169
56 99 170
56 100 169
58 100 173
54 99 168
56 100 169
57 100 170
53 99 166
53 99 166
54 100 167
57 100 172
55 100 167
55 99 169
48 99 161
53 99 166
55 100 169
57 99 170
55 100 168
55 100 167
54 99 167
57 100 170
58 100 172
54 100 166
54 100 166
55 100 168
54 99 166
56 100 168
56 99 169
54 100 166
55 99 167
58 101 171
55 101 168
55 99 165
55 100 168
57 100 171
54 100 167
56 99 168
52 99 165
54 100 167
56 100 167
54 100 167
53 98 165
53 99 163
50 99 161
55 99 166
53 99 163
54 99 165
53 99 165
50 98 160
50 99 161
51 99 162
52 98 160
49 98 159
50 98 160
53 98 164
53 99 163
53 99 160
51 99 159
49 98 157
48 98 155
49 98 156
49 98 155
52 98 158
48 93 148
48 99 146
32 113 121
31 122 103
0 125 77
19 127 82
19 126 82
0 110 67
19 134 86
19 129 85
0 117 64
0 118 63
6 123 66
0 103 54
0 117 61
28 104 56
0 113 52
27 104 55
8 114 59
0 103 46
21 94 49
5 110 52
7 96 50
19 116 57
6 115 60
5 105 48
0 104 50
19 104 45
5 97 42
19 112 50
0 93 40
0 110 48
22 119 54
21 111 51
0 111 50
34 112 51
28 112 50
28 118 55
19 119 55
21 107 49
5 120 56
34 126 59
19 115 52
27 126 59
20 117 53
28 120 55
44 121 57
27 116 53
39 137 63
34 125 57
6 124 56
28 124 59
28 126 58
27 130 60
20 120 55
19 134 60
39 127 59
48 122 57
19 118 54
39 118 55
34 128 59
28 123 55
44 139 66
19 132 60
33 127 58
27 124 57
43 137 64
38 130 61
48 125 60
27 120 53
34 133 61
39 125 59
34 130 59
28 128 57
34 129 60
43 124 58
39 130 61
39 122 56
20 120 59
39 141 70
38 130 65
34 127 63
34 137 72
34 139 76
33 129 69
27 147 88
33 135 70
27 135 72
33 143 87
43 140 75
38 156 95
19 151 89
19 147 92
33 157 100
27 155 96
33 172 119
34 168 113
0 162 106
27 173 118
0 168 114
0 177 118
18 182 126
19 178 124
0 191 140
0 180 129
0 183 128
0 194 140
0 190 134
0 195 140
0 194 141
0 194 141
0 194 141
0 205 155
0 203 155
0 198 146
0 202 151
0 202 151
0 197 143
0 202 155
0 202 153
0 198 146
0 198 150
0 199 150
0 203 152
0 205 157
0 209 162
0 203 158
0 203 153
0 201 153
0 199 152
0 204 161
0 202 153
0 208 161
0 210 164
0 206 161
0 204 156
0 211 165
0 210 165
0 206 157
0 203 158
177 229 233
181 229 234
184 230 237
179 229 234
192 230 242
198 231 244
196 231 244
199 231 245
197 231 244
203 232 247
203 232 247
201 231 246
205 232 248
210 233 250
205 232 248
213 233 252
210 233 251
207 233 249
204 232 247
205 233 248
207 233 249
201 232 245
203 232 247
203 232 247
203 232 247
190 231 240
198 232 244
194 231 242
191 231 240
189 231 239
188 230 239
190 231 240
184 230 237
182 229 236
175 229 231
188 230 239
178 229 233
187 230 238
184 230 237
173 229 231
175 229 231
177 230 233
178 230 233
176 229 232
167 229 228
177 229 233
178 229 233
173 228 230
182 230 236
188 230 238
175 228 231
177 230 233
176 230 232
186 230 236
178 230 233
184 230 236
182 230 236
190 231 240
190 231 240
188 231 238
189 230 240
190 231 240
195 231 242
185 231 237
195 231 242
193 231 241
200 232 245
199 232 244
199 232 244
192 231 240
198 232 244
189 230 238
197 227 242
200 219 244
187 211 236
191 209 238
162 183 220
170 189 225
165 184 223
152 173 216
157 178 218
149 171 214
125 149 201
141 163 209
127 152 202
141 163 211
107 135 192
118 143 199
113 140 196
118 144 197
108 135 194
106 134 192
86 118 184
86 118 184
89 119 186
83 116 182
58 101 174
62 103 175
57 101 172
56 103 171
55 109 172
55 105 170
54 105 169
55 108 169
54 109 169
55 109 171
55 102 169
54 106 170
53 107 169
54 104 170
53 101 166
54 106 168
56 102 171
53 105 169
51 99 163
54 102 168
54 99 169
53 108 168
56 99 170
54 102 169
54 102 168
51 100 164
53 99 167
55 98 168
54 98 168
55 99 169
57 99 173
57 100 171
57 100 171
56 99 170
54 100 167
51 99 165
57 100 171
53 99 166
57 99 171
53 99 168
57 100 172
56 100 171
55 99 169
55 100 168
55 100 169
55 99 169
54 99 167
56 100 169
55 100 169
55 99 169
56 99 170
55 99 170
54 100 168
55 99 169
57 100 172
56 99 170
54 99 169
56 100 171
53 99 166
55 99 168
59 100 173
55 99 169
57 100 171
54 99 167
57 100 171
57 100 172
56 99 170
57 100 172
57 99 171
56 100 170
56 100 170
57 100 171
56 99 169
56 100 170
55 100 169
59 100 174
55 99 168
58 100 172
54 100 167
56 100 171
58 100 172
55 99 169
56 99 169
52 99 166
55 99 170
53 99 165
54 99 168
53 99 166
57 100 171
54 100 168
56 99 169
57 100 171
54 100 167
55 101 168
57 100 171
57 100 172
56 100 168
54 99 167
57 100 171
54 99 168
59 101 173
56 100 168
57 100 171
53 99 165
57 100 170
57 100 171
56 100 169
58 101 171
54 100 166
56 100 169
55 100 169
56 100 170
54 100 167
57 100 170
56 98 168
57 100 171
57 100 171
55 100 168
56 100 169
52 100 163
59 100 172
53 99 167
55 100 168
56 100 170
54 100 167
54 100 168
54 100 167
56 100 169
56 101 168
55 100 168
57 100 169
53 100 166
52 99 164
54 100 167
54 99 167
57 99 170
53 100 165
56 100 169
54 100 167
53 99 164
50 100 161
57 100 170
51 99 162
54 100 166
52 99 163
54 98 166
49 98 157
56 100 169
53 98 163
56 100 167
51 98 161
52 98 161
50 100 163
53 99 164
56 101 169
52 98 160
51 99 161
54 100 165
51 98 160
49 98 156
52 100 163
51 97 158
53 98 162
48 97 153
49 98 153
47 106 143
31 114 114
18 104 88
9 144 99
0 137 92
19 128 75
27 125 79
0 137 85
0 127 77
6 135 88
27 122 80
0 125 74
0 103 55
19 121 72
0 124 68
0 113 63
0 101 50
5 106 60
27 103 49
0 100 47
0 109 57
8 103 48
0 98 43
19 115 60
19 110 52
28 110 50
19 99 47
6 104 49
6 103 47
0 112 53
0 98 43
19 109 51
19 112 49
0 115 52
6 102 46
28 111 51
19 114 51
27 113 49
19 121 55
6 122 54
20 116 53
20 117 54
8 113 53
19 125 57
20 120 54
0 120 53
27 123 57
5 120 53
27 114 53
28 117 54
20 123 55
20 124 58
0 120 55
34 122 58
47 125 59
34 120 55
20 123 55
20 121 55
19 130 59
28 123 55
43 121 57
39 127 59
33 127 58
39 130 61
43 123 57
39 115 51
19 130 58
28 129 60
27 126 58
33 123 56
19 128 57
34 126 58
27 125 56
19 134 65
27 130 63
43 129 62
27 136 66
43 124 69
43 138 70
48 141 71
34 134 67
28 137 70
38 134 72
27 143 69
28 130 67
38 139 80
19 145 86
20 149 93
44 147 91
26 152 91
27 170 116
47 165 107
33 165 105
19 154 101
0 158 103
34 175 121
18 172 113
18 174 121
0 180 127
27 178 122
19 181 127
0 191 140
0 185 135
27 186 127
0 188 135
0 192 139
0 182 127
0 186 134
0 196 145
0 195 142
0 202 151
0 200 147
0 194 143
0 198 148
0 192 141
0 200 145
0 195 144
0 198 148
0 200 153
0 204 154
0 200 153
0 197 149
0 208 163
0 202 150
0 200 147
0 204 158
0 205 160
0 203 157
0 207 160
0 207 164
0 208 162
0 208 162
0 199 151
0 208 161
0 206 158
0 213 168
0 209 164
0 207 163
0 206 158
187 230 238
180 229 235
191 230 241
199 231 245
203 232 247
200 232 245
209 233 250
202 232 246
209 233 250
204 232 248
208 233 250
204 232 248
205 232 248
210 233 251
202 232 246
204 233 248
202 232 246
208 233 250
198 231 244
202 232 246
205 232 248
187 231 238
202 231 247
189 231 239
184 230 237
187 231 238
186 230 238
186 230 238
186 230 238
175 229 232
177 230 233
182 230 236
178 230 233
180 229 235
186 230 238
173 229 231
167 229 228
165 228 227
178 229 233
162 228 226
169 229 228
175 230 231
161 228 225
161 228 225
175 230 231
163 228 226
158 229 223
167 228 227
169 229 228
170 229 229
157 228 223
177 230 233
158 227 223
168 229 228
168 229 228
182 230 236
165 228 227
184 231 236
181 230 235
178 228 233
183 231 236
182 230 236
186 231 238
170 229 229
185 231 237
185 231 237
182 230 235
194 231 242
193 231 241
199 231 243
188 229 238
201 228 245
182 217 233
188 210 235
188 211 235
182 200 233
173 192 227
177 195 230
165 184 223
158 179 219
157 178 218
142 165 209
138 160 208
143 165 212
139 162 209
132 155 205
125 149 201
119 144 199
115 141 197
112 138 195
103 132 190
102 131 187
99 129 189
92 123 185
67 106 175
78 113 178
63 104 172
64 103 173
58 102 173
61 108 175
55 103 170
56 105 172
58 105 175
56 103 171
56 114 174
54 101 168
56 101 170
54 108 170
52 108 168
53 109 170
53 104 168
56 102 171
54 105 168
51 109 164
54 101 168
55 105 171
52 101 165
54 99 166
53 101 166
53 98 165
57 99 172
49 99 161
50 98 162
54 99 168
53 99 168
54 99 167
54 99 168
57 100 171
56 100 169
52 100 165
51 98 164
57 100 172
55 100 169
51 98 162
53 100 167
57 99 172
56 100 171
51 100 164
53 100 167
52 98 165
55 99 168
56 99 171
57 100 172
55 100 168
56 100 170
57 99 171
57 100 171
56 100 171
55 99 168
56 99 170
57 99 171
55 100 168
55 99 169
54 98 168
58 100 172
56 100 170
55 100 167
57 99 171
55 99 168
58 100 172
52 99 165
56 99 170
55 100 168
56 100 169
56 99 170
53 98 166
57 100 171
56 100 171
56 100 170
53 99 166
57 99 172
60 101 175
52 99 165
57 100 171
56 100 170
59 100 173
57 99 171
53 99 167
55 99 168
53 99 165
53 100 167
54 99 167
57 100 170
53 100 166
58 99 172
55 100 168
56 100 170
57 99 171
57 100 170
56 98 169
55 99 168
55 100 168
54 100 167
53 99 165
56 100 169
56 100 169
55 100 167
53 100 166
55 100 169
52 99 165
58 101 170
56 100 169
59 101 172
56 99 171
56 100 169
58 100 171
59 101 173
56 99 170
55 99 168
56 100 169
58 100 172
54 100 166
55 100 169
54 99 167
53 100 166
55 99 168
56 100 169
56 100 168
55 101 167
55 99 169
55 100 168
51 99 162
53 99 165
56 99 167
55 99 167
54 100 167
53 99 165
58 100 171
54 100 168
56 100 167
54 99 165
53 100 166
56 99 168
55 98 166
56 100 170
53 100 165
54 100 166
53 100 164
54 101 165
54 100 167
53 99 164
53 99 166
54 99 165
52 99 162
54 99 164
55 98 166
55 100 166
50 99 159
53 100 165
51 97 159
52 99 162
53 100 165
51 99 159
49 97 156
49 99 158
49 97 154
51 97 158
51 97 157
49 97 157
49 96 154
47 95 145
40 104 137
32 115 118
14 121 89
20 138 92
0 128 74
0 140 88
0 126 84
19 138 87
0 125 88
20 126 82
0 116 67
6 107 64
0 110 63
0 108 68
0 117 67
5 113 63
19 120 67
0 102 54
0 106 61
6 108 56
28 104 59
0 107 53
19 112 59
5 98 49
5 104 50
0 108 50
0 97 47
0 97 40
5 106 50
19 107 54
0 101 48
0 102 46
5 97 42
0 118 55
0 111 51
0 104 46
0 110 49
8 109 48
19 117 52
0 104 46
0 114 50
20 115 52
21 123 56
27 115 53
28 123 55
20 127 58
6 122 54
0 123 55
0 127 55
0 127 56
28 117 54
39 122 56
0 125 55
39 117 53
20 125 57
0 113 51
39 135 62
19 119 52
28 117 53
27 123 57
19 118 53
39 126 59
34 115 53
0 122 55
33 123 55
43 134 63
27 125 57
19 126 58
34 119 56
33 129 59
39 136 66
28 121 56
52 139 66
39 120 60
44 139 67
19 135 71
27 130 63
27 134 64
33 130 72
39 130 74
19 137 74
27 145 78
0 131 70
19 137 77
27 136 79
19 141 81
27 151 92
28 142 78
0 149 91
27 157 98
20 157 99
27 153 87
27 176 122
33 161 101
0 163 102
19 183 129
33 174 118
0 179 121
0 184 135
18 178 123
0 184 131
18 186 131
19 189 137
19 189 133
0 188 136
0 194 141
0 194 135
0 190 139
0 197 151
0 197 145
0 194 142
0 196 143
0 200 152
0 188 136
0 201 151
0 200 150
0 197 149
0 199 149
0 206 153
0 202 154
0 202 154
0 205 157
0 199 148
0 200 147
0 198 151
0 204 158
0 205 158
0 202 156
0 201 153
0 208 160
0 207 161
0 207 159
0 200 154
0 205 162
0 209 159
0 209 163
0 202 152
0 209 164
0 204 158
196 231 243
191 230 241
191 231 240
198 231 244
194 231 242
201 232 246
205 232 248
204 232 247
207 233 249
195 231 243
204 233 247
207 232 249
203 232 247
202 231 247
201 232 246
200 232 245
195 231 242
197 231 244
190 231 240
196 231 243
195 231 242
189 231 239
185 230 238
181 230 235
182 230 236
181 230 235
180 230 235
177 229 233
180 230 234
167 229 228
173 230 231
152 228 220
164 229 226
168 229 228
174 229 231
157 228 223
153 227 220
169 229 228
163 228 226
172 229 231
172 229 230
157 227 223
154 226 221
161 228 225
154 227 221
148 227 218
155 228 221
150 227 220
144 226 217
163 228 226
159 228 223
137 227 213
155 228 221
162 228 225
155 228 221
163 228 226
156 227 223
147 226 218
170 230 228
177 230 232
179 230 234
180 230 234
173 228 230
168 229 228
178 230 233
174 230 231
180 230 234
187 231 238
188 231 238
185 231 237
175 225 231
189 220 238
193 217 239
189 211 237
174 197 227
177 198 230
162 182 222
166 186 222
164 184 223
143 165 211
157 178 218
145 167 212
149 170 214
126 150 202
126 151 202
134 158 206
119 145 197
124 149 201
112 138 196
105 132 193
111 138 194
95 125 187
101 130 190
106 133 194
87 120 184
69 106 177
75 110 180
71 108 176
65 104 176
58 99 174
58 102 173
57 102 172
56 105 172
53 119 171
56 107 172
58 106 174
56 103 170
53 109 169
55 101 169
55 107 171
53 102 166
53 102 166
56 104 171
55 103 169
55 105 170
54 105 169
55 107 171
53 102 165
53 101 166
54 99 166
55 103 169
54 100 167
54 99 168
54 99 167
51 99 165
54 99 168
55 99 169
59 100 174
52 99 163
55 99 168
54 99 167
53 100 167
52 99 164
57 100 171
55 100 170
59 100 173
54 99 169
51 98 162
54 98 167
56 100 170
57 100 171
56 99 171
58 100 173
58 100 172
55 99 170
56 100 169
57 100 171
56 100 169
54 99 168
56 100 169
57 100 170
55 99 167
53 100 167
58 100 172
58 99 172
54 99 167
57 100 170
54 99 168
57 100 171
55 99 169
56 100 171
54 99 166
57 100 172
56 100 170
57 100 173
56 100 170
57 100 171
55 99 169
56 100 170
58 99 173
56 100 170
56 99 169
55 100 169
58 100 172
57 100 171
58 100 171
54 100 167
55 100 168
56 100 170
55 100 169
59 100 173
57 100 171
56 100 169
57 99 171
55 100 169
56 100 170
56 100 170
55 100 169
57 100 171
55 99 170
57 100 171
55 99 170
59 100 173
55 100 168
56 100 170
52 100 165
56 100 170
55 100 168
56 100 170
56 101 169
55 100 169
55 99 169
56 100 170
56 100 169
52 98 164
53 100 165
55 100 167
55 100 169
56 100 169
55 100 168
53 99 166
57 100 171
55 98 167
55 99 167
56 100 168
54 100 166
55 100 167
51 98 162
54 99 167
56 100 169
57 100 170
57 101 170
54 100 166
54 99 167
56 100 168
55 100 167
53 100 166
56 99 169
58 101 171
53 100 165
51 99 162
52 100 164
53 99 165
53 100 165
55 100 167
54 100 167
53 99 166
54 100 166
53 100 164
55 99 166
51 98 160
51 100 163
55 99 165
50 100 161
50 99 160
54 99 164
51 99 161
50 98 159
51 98 160
54 99 164
52 99 160
53 99 162
51 99 160
54 99 163
44 98 152
51 99 160
52 99 162
50 98 159
52 99 160
48 96 153
47 99 148
38 108 129
25 123 109
15 132 92
0 140 91
0 141 86
0 133 85
0 128 86
19 140 94
0 122 75
0 123 71
0 112 63
0 123 77
0 105 68
5 121 81
5 104 62
0 116 69
0 107 60
0 116 56
0 117 68
5 107 63
0 108 58
0 113 65
0 113 57
19 114 53
0 114 59
6 108 60
4 106 53
6 95 49
0 118 56
5 110 53
0 107 50
0 107 49
28 106 51
20 113 51
0 110 48
0 112 50
0 99 44
20 115 56
0 123 55
0 118 55
0 114 51
6 106 47
6 121 52
19 112 53
0 120 55
19 120 54
19 106 48
19 121 55
34 119 55
20 120 52
20 111 49
0 122 54
34 113 52
0 120 53
27 121 54
34 120 54
19 132 60
19 129 58
19 129 58
0 120 54
39 119 53
19 127 57
0 122 56
19 129 57
27 118 54
27 114 51
33 123 59
28 127 58
34 133 62
19 130 60
34 123 54
27 127 61
43 133 64
28 128 61
19 138 76
28 137 69
34 133 67
19 136 70
27 136 79
48 135 79
44 138 73
27 138 79
27 150 85
34 151 91
20 154 93
0 150 85
33 151 90
33 149 87
39 167 105
27 164 107
19 157 105
34 166 112
0 173 118
28 165 108
33 162 111
0 176 123
28 173 120
0 181 125
19 173 119
19 198 149
0 190 140
0 184 126
0 187 132
0 185 132
0 182 130
0 192 138
0 188 140
0 191 138
0 186 135
0 201 152
0 198 145
0 194 144
0 195 139
0 194 142
0 191 145
0 196 146
0 199 147
0 203 150
0 202 153
0 200 151
0 203 154
0 196 147
0 208 162
0 198 149
0 201 152
0 198 151
0 206 161
0 202 152
0 204 154
0 207 161
0 203 158
0 209 161
0 203 152
0 207 161
0 203 156
0 208 164
0 209 162
0 210 163
0 203 157
205 232 248
195 230 242
207 232 250
205 232 248
193 231 242
197 232 243
196 231 243
204 233 247
196 231 243
197 231 244
206 232 248
205 232 248
196 232 243
198 232 244
191 231 240
190 231 240
196 231 243
183 230 236
192 231 240
188 231 238
185 230 238
180 230 235
182 230 236
170 229 229
183 230 236
162 228 226
172 228 231
153 228 221
163 228 226
160 228 224
153 227 220
162 228 225
163 228 226
151 227 220
148 226 218
161 228 225
151 226 219
153 227 220
157 227 223
149 227 219
137 226 212
134 225 212
142 227 215
142 227 216
151 228 220
143 227 216
144 227 217
155 228 222
138 227 214
127 226 209
143 226 216
138 227 214
151 228 220
146 226 216
143 226 216
145 227 217
148 227 218
150 227 219
155 227 221
151 226 219
146 227 217
151 227 220
169 229 228
172 230 230
159 228 223
148 227 218
177 229 232
175 230 231
166 226 226
168 226 227
184 223 234
171 214 227
172 205 227
175 200 227
174 194 227
176 195 227
155 176 216
156 176 218
161 181 221
133 157 204
150 171 213
138 161 208
139 161 208
132 156 204
123 147 202
145 167 213
132 156 205
112 138 197
106 135 190
115 141 197
107 135 193
99 127 190
93 123 187
113 140 196
86 117 187
81 114 182
77 112 180
80 114 181
68 106 175
61 102 174
61 102 174
57 99 173
58 101 173
54 113 171
53 104 169
56 101 169
53 103 168
56 103 171
54 108 169
55 117 173
55 102 170
56 106 172
54 108 169
56 99 170
53 99 167
53 105 168
56 102 171
52 101 165
54 100 168
54 99 167
53 99 167
54 99 167
55 99 169
56 100 171
57 99 170
55 101 169
51 99 162
52 99 166
54 100 167
56 100 170
57 99 170
51 99 163
53 99 166
52 99 165
58 100 173
57 99 171
53 100 166
56 100 170
53 99 166
58 100 172
55 100 169
56 100 170
53 100 167
54 99 167
56 100 169
56 99 169
57 100 171
58 100 172
57 99 170
55 100 170
54 97 166
56 99 170
58 100 174
51 100 163
56 100 169
56 100 170
57 100 172
55 100 168
56 100 170
54 99 168
57 100 170
54 100 167
55 99 169
57 100 171
54 99 168
58 100 173
57 100 172
55 99 168
52 100 165
57 100 170
57 100 170
54 100 167
54 100 168
57 100 172
56 99 170
56 100 170
54 99 168
56 100 169
55 99 169
55 100 167
55 100 168
56 99 170
55 99 167
53 100 165
55 100 169
57 100 171
55 99 169
56 100 169
58 100 171
59 100 174
55 100 168
52 100 164
59 100 172
56 100 170
55 100 167
55 100 167
55 100 167
58 100 172
56 100 169
55 100 168
53 99 165
55 99 168
54 99 167
58 101 173
56 100 169
56 100 169
56 100 168
53 100 165
56 100 169
56 100 169
56 100 169
55 100 169
56 100 169
53 99 166
54 99 166
55 100 169
57 100 171
56 99 168
54 100 168
57 100 172
55 100 168
55 100 168
52 99 165
53 98 164
56 100 168
55 100 166
54 100 167
51 99 163
53 100 165
56 101 169
53 100 165
54 100 166
51 99 162
52 100 164
49 100 159
54 99 166
53 99 162
52 99 164
53 99 164
50 99 161
50 99 159
50 99 161
54 100 166
52 98 162
50 99 158
51 99 161
50 99 159
49 99 158
52 97 160
51 98 161
51 98 160
51 98 159
53 98 162
47 98 155
48 98 156
50 97 158
49 98 157
48 96 153
48 96 152
46 97 153
42 102 139
37 107 123
20 136 107
9 125 87
0 134 85
0 132 85
0 130 82
0 132 89
19 133 82
0 121 70
0 130 76
0 116 67
0 136 77
0 98 58
0 125 79
0 115 69
0 111 71
0 121 71
0 115 70
5 117 67
0 107 53
0 107 56
0 100 50
20 109 60
0 115 63
6 111 61
19 114 59
0 114 51
0 109 55
0 111 50
0 104 49
0 119 60
0 101 45
6 96 45
6 116 56
0 105 52
5 115 57
6 109 52
0 97 45
0 106 47
0 104 48
0 109 45
0 106 46
20 103 45
0 114 47
20 120 56
8 114 54
0 112 53
0 109 46
28 116 53
0 114 50
0 110 50
19 118 54
19 123 56
20 127 56
0 126 58
39 129 59
0 106 47
19 126 57
19 107 47
19 121 53
27 132 64
19 120 54
33 131 61
33 123 56
0 121 57
33 123 60
34 123 57
19 125 57
39 119 56
27 137 70
19 124 63
0 130 63
27 131 73
33 127 63
19 137 72
20 123 62
0 137 70
28 129 68
28 148 81
33 135 70
38 146 82
0 152 91
19 140 83
34 152 94
0 147 92
28 155 92
33 155 93
19 145 86
19 159 102
18 154 97
0 160 103
20 168 111
0 165 105
19 170 117
19 173 115
33 184 127
0 180 127
0 180 120
0 189 135
0 179 126
0 188 137
0 186 128
0 191 137
0 187 133
0 186 131
0 186 129
0 201 150
0 199 147
0 193 144
0 199 150
0 200 150
0 194 144
0 198 146
0 189 137
0 196 147
0 197 146
0 194 142
0 199 148
0 198 147
0 195 146
0 200 149
0 201 152
0 207 158
0 202 154
0 199 152
0 210 163
0 201 155
0 209 166
0 200 151
0 206 162
0 205 157
0 207 160
0 205 156
0 206 160
0 206 161
0 209 164
0 205 160
0 204 158
0 211 162
199 232 244
198 232 244
194 230 242
204 232 247
198 232 244
208 233 249
200 231 245
201 232 246
196 232 243
192 231 241
197 231 244
191 231 240
188 231 238
185 230 237
180 230 234
183 230 236
184 230 236
185 230 237
178 230 233
163 228 226
175 230 231
165 229 226
169 229 228
161 228 225
163 228 225
158 227 223
165 229 226
142 227 215
146 227 217
151 228 220
141 227 215
143 226 216
143 227 217
129 225 209
141 226 215
152 227 220
142 227 215
127 225 208
134 225 212
128 225 209
137 226 213
122 225 207
122 225 207
126 226 208
111 224 202
142 226 214
127 226 209
129 226 210
132 224 210
122 225 207
131 224 210
118 224 205
131 226 211
146 226 217
135 226 212
130 226 210
133 226 211
140 226 214
145 227 217
147 225 217
152 227 220
157 227 222
158 228 223
140 227 214
150 227 218
160 228 223
162 228 225
156 227 222
170 227 229
162 218 222
145 212 214
155 202 219
177 209 230
159 184 217
174 194 227
163 183 220
138 161 206
158 178 218
156 177 217
148 170 212
154 175 218
123 148 199
138 161 209
121 146 199
119 145 199
123 148 201
110 137 194
110 137 194
113 138 197
116 142 198
107 135 193
107 135 193
98 127 190
117 143 198
104 132 192
90 121 185
91 122 186
90 121 184
65 104 175
65 103 175
62 102 175
64 104 173
59 100 174
59 100 175
54 101 169
54 103 169
54 108 168
53 109 168
57 103 172
55 103 170
54 101 167
54 103 167
54 100 168
56 101 171
54 103 168
55 101 169
50 101 162
54 99 167
56 101 170
54 101 166
54 104 169
57 101 173
55 100 169
54 99 167
54 99 169
55 99 168
54 98 167
56 100 170
57 100 170
54 100 168
57 99 171
55 99 169
55 99 169
53 100 165
53 99 167
56 100 170
57 100 171
55 99 170
57 100 172
54 100 167
56 99 170
54 98 168
55 100 169
52 99 166
55 100 168
57 99 171
54 99 166
56 100 170
55 100 169
56 100 169
58 100 173
58 100 172
55 99 169
57 100 171
57 100 171
55 100 169
55 100 169
54 99 166
56 100 169
54 99 166
56 100 170
55 99 169
57 100 171
53 99 166
55 100 168
54 100 167
54 100 166
54 100 168
55 99 168
57 100 170
55 100 168
55 100 168
54 100 167
55 100 168
55 100 168
55 100 169
57 99 171
52 100 165
52 99 164
56 100 169
55 100 168
57 99 172
55 100 169
54 100 169
58 100 173
58 100 171
56 100 171
52 100 165
57 100 171
57 100 172
58 100 172
52 99 166
55 99 168
57 100 170
54 99 167
51 99 164
58 100 171
57 99 172
54 100 166
54 100 167
55 99 167
56 99 169
55 100 167
54 99 167
57 100 171
55 100 168
55 100 167
48 100 160
54 100 165
54 99 166
57 100 171
55 100 167
54 100 165
55 99 168
54 100 166
58 100 171
53 100 166
56 100 169
56 100 170
51 99 163
53 100 165
54 100 167
52 99 164
54 99 166
57 100 170
50 99 161
53 100 165
56 100 169
53 100 166
54 99 166
56 100 169
56 100 166
55 100 168
52 99 163
51 99 163
52 99 164
53 99 164
52 99 162
49 100 160
54 100 166
54 99 167
56 99 168
51 99 160
56 99 167
48 97 157
52 100 163
49 97 158
56 98 166
52 99 164
47 98 155
51 98 161
50 99 157
52 98 160
50 98 157
53 99 165
51 99 161
47 97 153
54 99 163
47 96 151
49 97 153
40 102 137
28 120 122
22 126 102
10 126 83
0 140 86
0 146 97
0 134 82
0 117 70
0 124 72
0 120 74
0 120 79
0 134 86
0 122 76
19 126 77
0 135 78
0 114 66
19 115 61
19 121 68
19 121 67
0 105 50
0 125 76
28 110 55
0 99 56
0 109 57
5 101 57
0 109 51
0 95 45
0 109 56
5 93 41
0 110 57
0 110 56
20 104 49
0 107 45
6 107 45
0 106 56
0 112 54
0 105 47
0 111 50
20 106 47
0 113 55
0 116 51
19 105 51
0 119 55
5 111 50
19 114 51
19 117 53
6 109 56
0 102 45
0 110 54
0 120 59
0 109 58
0 106 50
0 123 56
27 118 51
34 122 55
27 112 50
0 119 57
19 122 54
27 116 54
0 123 58
19 114 51
0 112 50
19 119 61
19 123 57
0 122 56
0 129 70
0 128 63
20 133 66
0 120 60
34 123 66
27 125 59
20 140 78
27 133 68
19 135 70
39 132 63
27 135 67
34 128 71
0 130 71
19 143 81
44 141 73
34 144 84
0 149 91
26 151 93
19 145 85
33 140 79
18 152 92
19 153 99
20 168 106
0 154 95
0 152 96
0 159 103
0 164 108
27 171 116
19 165 112
27 156 102
0 179 121
0 186 135
19 175 115
0 189 136
0 186 131
0 195 144
0 183 136
0 192 135
0 192 138
0 192 139
0 184 129
0 189 140
0 192 145
0 195 144
0 203 154
0 194 145
0 193 144
0 198 144
0 192 140
0 199 150
0 202 150
0 200 152
0 197 148
0 194 143
0 200 151
0 198 150
0 205 155
0 202 153
0 200 150
0 203 153
0 204 155
0 195 149
0 208 157
0 197 152
0 206 159
0 203 152
0 202 152
0 204 155
0 208 163
0 205 158
0 203 156
0 204 158
0 204 155
0 209 163
0 209 159
203 232 247
197 231 244
208 232 250
204 232 248
206 233 248
200 232 244
201 232 246
193 231 240
198 231 244
189 230 239
189 231 239
179 230 234
185 230 237
182 230 235
175 230 232
176 230 233
186 231 238
172 229 231
147 227 218
175 230 231
146 226 217
158 228 223
149 227 219
148 226 218
143 226 216
148 225 217
132 226 211
150 227 219
129 225 210
132 225 211
137 226 213
154 228 220
129 226 210
128 226 209
120 225 206
106 223 200
109 224 202
123 226 207
109 225 202
114 223 202
114 225 203
109 225 202
101 224 199
117 225 205
105 223 200
111 225 203
82 220 191
122 225 206
115 223 203
98 224 198
113 222 203
111 225 203
108 224 201
120 225 205
117 225 205
121 225 207
118 225 205
116 224 203
120 224 206
126 225 208
117 223 204
119 226 205
131 225 210
136 225 212
145 227 217
141 226 215
148 227 218
138 225 213
150 225 219
137 217 212
157 215 221
153 199 215
172 201 226
153 180 215
155 177 214
142 165 207
145 167 211
153 174 214
143 165 210
147 169 212
116 142 197
126 150 201
132 155 205
120 146 199
121 146 200
119 144 200
126 150 203
119 144 198
110 137 195
100 129 191
93 123 187
91 122 187
102 130 191
90 121 186
106 133 194
75 111 180
83 116 184
76 112 178
95 125 188
87 119 183
68 106 178
73 110 175
56 99 171
57 100 172
58 100 173
56 100 170
56 106 171
57 103 172
55 98 168
56 102 171
57 102 171
55 106 170
54 106 168
51 111 167
54 105 170
51 103 164
51 101 165
54 102 167
53 103 168
55 100 170
52 99 166
53 100 166
53 99 166
54 99 167
53 99 165
56 100 170
55 99 168
52 99 165
55 99 167
52 99 165
54 99 166
56 99 168
52 100 165
55 99 168
55 99 169
55 100 168
54 98 167
51 99 163
54 100 167
53 98 165
54 99 168
56 100 171
52 99 164
50 100 162
56 100 168
56 100 170
55 100 170
57 100 170
57 100 172
56 100 170
55 100 169
56 99 169
55 99 168
56 99 170
56 99 170
57 100 170
55 100 168
54 100 168
56 100 170
56 99 169
56 100 170
55 100 169
56 99 170
55 99 167
56 99 168
54 100 167
56 100 169
55 100 169
56 100 170
56 100 170
56 99 170
54 99 168
56 100 169
56 100 169
54 100 165
52 100 165
56 99 170
53 100 167
53 100 166
59 100 174
53 100 166
52 99 165
54 100 167
52 99 164
57 100 171
57 100 170
56 100 169
54 100 167
55 100 168
55 99 167
51 99 163
54 100 167
55 99 167
55 100 169
55 100 168
58 100 172
53 100 165
54 100 167
53 100 164
55 100 169
55 99 168
56 100 170
56 100 167
59 100 174
57 99 169
56 100 169
55 100 168
55 100 169
54 100 167
55 100 169
55 99 169
54 100 167
52 99 163
50 99 162
57 101 170
54 100 167
52 100 164
57 99 168
54 100 167
50 99 161
55 100 169
52 99 164
54 100 164
55 100 167
54 100 167
53 99 165
55 100 168
52 99 164
54 100 168
56 99 168
53 100 166
55 100 167
53 100 164
55 100 168
51 99 164
53 100 165
57 100 169
52 100 162
51 99 161
50 99 158
53 99 164
52 100 163
53 100 166
56 101 168
51 99 162
46 98 155
51 99 161
48 100 157
50 98 158
49 98 157
49 97 158
52 100 163
49 97 158
54 99 162
50 97 157
52 98 161
47 96 153
48 97 152
46 95 150
43 91 142
37 108 130
29 118 110
19 140 112
0 146 103
0 128 80
0 136 92
0 129 79
0 125 82
0 134 91
0 141 86
19 128 79
0 109 64
0 118 74
0 115 64
0 121 79
0 114 71
19 119 75
0 108 58
19 126 78
0 106 58
0 129 79
0 116 62
0 101 52
0 109 60
0 118 68
0 116 56
0 116 64
5 108 61
0 123 72
20 123 68
0 97 52
0 104 53
0 118 55
0 118 59
0 113 63
0 110 57
0 117 58
0 111 48
5 117 57
0 108 53
19 114 50
0 111 55
0 116 57
0 113 45
0 116 52
0 109 45
0 124 57
19 115 53
19 122 59
0 121 59
0 113 52
0 115 55
0 117 52
0 114 53
19 120 58
0 125 63
20 127 63
20 122 59
0 115 46
20 123 59
0 110 49
19 129 64
33 127 64
19 127 67
19 121 61
0 135 67
20 125 68
19 125 59
28 125 63
19 132 72
0 130 63
19 121 58
19 126 62
27 124 62
0 131 60
19 143 82
19 142 82
39 136 80
0 141 81
34 150 92
19 127 68
34 146 94
0 152 94
27 156 96
19 164 107
27 158 102
0 171 112
19 158 98
0 163 108
27 176 123
19 175 118
19 174 116
0 169 113
0 178 127
0 170 114
19 177 117
0 186 128
0 179 125
0 182 129
0 187 132
0 187 136
0 193 140
0 183 128
0 192 138
0 194 142
0 188 137
0 191 139
0 191 134
0 191 139
0 191 136
0 189 135
0 193 146
0 184 129
0 185 128
0 194 141
0 196 146
0 201 153
0 198 149
0 199 146
0 196 145
0 205 158
0 201 150
0 198 147
0 206 158
0 204 157
0 205 157
0 196 149
0 203 154
0 203 157
0 196 147
0 204 156
0 202 155
0 202 153
0 201 157
0 209 159
0 210 164
0 206 160
0 205 159
0 207 160
0 209 163
207 232 249
204 232 247
195 231 242
205 233 248
197 232 243
191 231 240
186 230 237
188 230 239
186 231 238
174 229 231
174 229 231
178 229 233
172 230 229
170 228 229
163 228 226
167 228 228
155 227 222
153 227 220
164 228 226
140 226 214
137 226 213
144 226 217
140 227 214
137 226 214
139 226 213
123 225 207
125 226 208
129 225 210
107 224 201
104 224 200
112 225 203
111 225 203
110 225 202
121 223 206
101 222 197
117 223 203
93 222 195
96 224 197
111 224 203
107 224 200
101 223 198
99 224 198
94 223 196
84 221 193
76 223 191
84 223 194
85 223 194
96 223 197
79 222 192
78 221 191
101 222 197
90 222 194
88 224 194
112 225 203
116 223 203
105 223 200
101 224 199
108 224 200
120 223 205
107 224 200
105 224 200
120 222 204
116 225 204
127 226 209
105 225 200
117 224 204
131 226 210
138 225 213
126 225 208
137 218 212
141 207 211
139 191 208
142 180 209
147 174 210
146 169 208
138 160 208
139 161 207
138 162 205
149 171 212
123 148 199
127 151 201
129 152 203
124 149 200
99 127 190
107 134 194
130 153 205
106 133 192
111 137 195
104 132 192
115 140 197
95 125 188
88 119 185
93 123 186
102 130 192
90 121 187
87 119 185
76 110 182
73 108 182
76 111 181
74 110 179
75 110 180
66 104 176
69 105 177
61 100 177
56 99 172
57 100 172
57 100 170
59 99 174
57 103 172
56 104 171
55 103 170
55 102 169
57 99 171
56 100 171
51 102 165
53 103 166
56 102 170
57 101 170
53 101 167
50 104 164
53 101 166
55 99 168
52 101 166
56 99 170
53 99 166
53 99 165
54 99 166
54 101 167
52 99 165
53 99 167
55 99 168
56 100 171
51 99 164
54 99 167
56 100 169
51 99 164
52 99 164
56 100 170
56 100 170
53 99 167
56 100 170
54 99 167
55 100 168
53 99 167
56 99 169
52 99 164
54 100 168
53 98 167
56 100 170
55 100 168
54 100 169
58 99 172
55 100 168
55 100 168
54 99 167
56 99 168
54 100 167
56 99 169
54 99 167
59 100 174
52 99 164
56 99 171
56 100 169
55 100 169
55 99 168
55 99 169
55 99 169
53 99 166
59 100 174
58 100 173
53 99 166
56 99 169
56 100 169
54 100 167
58 100 172
56 100 171
56 100 170
55 100 167
55 100 169
57 100 170
56 100 169
57 100 171
55 100 168
51 99 163
57 100 171
57 100 171
56 100 170
58 101 173
56 100 170
54 100 168
56 100 170
53 100 167
53 99 166
53 100 166
54 100 167
55 100 168
53 100 166
57 100 170
55 100 168
55 99 168
53 100 164
55 99 168
56 100 168
54 99 167
53 99 165
51 99 163
55 99 167
56 100 169
54 100 167
53 100 164
57 100 170
55 100 167
55 100 167
51 100 162
55 100 166
56 99 169
54 100 166
55 101 167
50 100 163
52 100 164
54 100 166
54 100 167
53 99 165
54 100 167
54 99 164
51 98 162
53 99 166
53 99 165
53 99 164
52 99 163
57 100 169
47 97 155
56 100 167
54 100 165
56 100 169
52 100 163
53 100 163
55 100 167
52 100 162
49 98 159
50 100 162
55 99 165
52 99 163
54 100 166
53 98 163
52 98 162
50 99 160
48 99 158
52 99 163
55 98 164
52 99 161
46 98 155
52 99 162
46 97 153
48 97 154
48 97 153
46 96 153
49 97 157
45 95 147
45 99 148
38 109 127
21 128 110
16 128 99
0 135 85
0 142 95
0 135 94
0 148 101
0 141 94
19 133 84
0 144 96
0 142 93
19 138 94
0 126 81
0 130 84
0 115 75
0 113 63
0 128 80
0 130 74
0 125 68
0 120 74
0 115 63
0 123 80
0 110 65
0 105 62
0 110 58
0 115 58
0 117 62
19 110 58
0 109 58
0 106 57
0 105 56
0 93 43
6 119 65
0 98 49
0 112 58
0 119 68
0 107 59
0 108 56
5 115 64
0 107 48
0 125 66
0 112 55
0 104 52
0 111 52
0 112 56
0 108 51
0 116 61
20 112 57
20 121 54
0 111 55
0 119 51
0 108 52
19 107 55
28 119 57
0 114 51
0 114 57
0 111 48
0 129 67
19 118 63
19 116 55
0 117 53
0 121 66
0 114 56
20 126 66
28 124 60
0 137 74
0 126 66
0 122 69
0 117 56
0 142 71
39 135 69
19 141 84
34 124 66
0 129 67
34 145 86
0 131 70
0 128 65
0 143 75
0 142 83
19 155 99
19 151 90
0 147 85
0 150 97
0 160 103
0 149 88
19 156 100
19 165 105
19 161 104
0 158 102
0 165 112
0 174 119
0 172 116
19 169 113
0 176 124
0 179 123
0 173 120
0 185 131
0 182 117
0 186 134
0 191 144
0 192 139
0 187 137
0 181 122
0 186 133
0 186 134
0 190 131
0 190 137
0 188 137
0 193 142
0 199 148
0 196 145
0 192 137
0 197 146
0 200 148
0 198 148
0 198 144
0 198 151
0 190 134
0 197 149
0 201 150
0 198 147
0 202 153
0 197 149
0 198 148
0 200 148
0 201 151
0 195 149
0 201 156
0 204 157
0 194 149
0 203 151
0 205 157
0 203 155
0 208 162
0 205 161
0 207 158
0 205 163
0 204 158
0 208 161
0 207 161
199 232 244
197 232 244
195 231 242
191 230 240
196 231 243
185 230 237
180 229 234
193 231 242
179 230 234
184 230 237
172 229 230
161 228 225
173 229 231
160 228 225
163 227 225
150 227 220
155 228 222
151 226 219
138 225 214
145 227 217
144 227 217
132 226 211
136 225 212
123 226 207
128 226 209
136 226 212
111 223 202
100 223 198
105 225 200
111 224 202
108 224 201
86 223 193
95 223 197
73 221 189
82 223 193
91 222 195
101 224 199
86 223 194
97 224 197
54 222 186
80 223 192
77 223 191
91 224 195
86 224 194
67 221 187
59 223 187
89 224 194
70 221 187
74 221 189
74 220 188
70 219 187
73 223 190
86 222 193
67 223 188
70 222 189
63 221 186
85 223 193
93 224 196
79 223 192
69 221 188
85 221 192
108 224 201
112 224 202
108 223 200
104 223 199
109 224 202
93 224 196
117 223 204
115 216 201
122 207 204
123 202 203
132 192 204
126 165 200
138 161 204
145 169 210
141 163 205
137 160 205
123 148 199
126 151 200
119 145 196
119 145 197
127 152 200
122 146 199
117 143 197
110 137 194
115 141 195
90 121 185
97 126 186
102 130 192
99 128 190
106 134 193
89 120 186
85 117 183
87 118 187
95 125 187
83 115 183
83 116 184
85 117 185
88 120 185
83 116 183
84 116 185
81 114 184
62 102 176
61 101 175
59 100 173
55 99 171
57 99 171
55 100 169
59 100 173
55 103 171
56 107 172
56 99 169
56 103 171
57 106 172
53 104 167
55 101 169
53 98 165
53 104 168
55 99 169
53 98 164
54 101 168
53 103 167
53 99 166
54 101 169
51 99 164
52 98 165
52 98 163
54 99 167
54 99 167
51 98 164
54 100 167
55 100 168
53 100 166
49 99 162
55 99 169
56 100 170
55 100 169
55 98 169
55 99 168
53 99 166
57 100 171
54 100 168
54 100 167
54 100 166
54 98 169
57 99 171
53 99 166
56 100 170
54 99 168
55 100 168
54 100 167
56 99 169
54 99 168
56 100 169
54 99 166
55 100 168
57 100 171
54 99 167
57 100 172
55 100 167
55 99 168
55 100 169
52 99 165
54 100 168
56 100 171
54 100 168
55 99 168
55 99 168
56 99 170
54 100 167
54 99 166
55 100 169
57 99 170
58 100 171
55 99 167
52 99 164
56 100 169
55 99 169
53 100 166
55 99 167
57 99 171
52 99 163
57 100 170
58 101 171
55 100 167
54 100 166
57 100 170
55 99 167
56 99 169
55 99 168
56 100 168
56 100 170
53 99 166
55 100 168
56 101 170
55 100 168
57 100 170
53 100 165
55 100 168
55 100 169
57 101 169
53 99 165
53 100 166
54 100 166
55 99 168
55 100 167
54 100 166
53 100 166
55 100 167
55 100 168
54 100 167
56 100 170
51 99 163
51 99 162
54 100 165
53 100 166
52 100 165
53 100 165
54 100 167
55 100 168
54 100 167
53 100 166
57 100 170
55 99 168
55 100 167
52 99 164
53 100 166
56 100 169
53 100 166
52 99 162
53 99 165
54 100 166
56 100 168
50 100 161
56 100 168
52 99 164
53 100 165
53 100 165
55 100 166
49 98 158
51 98 160
52 100 164
51 99 162
53 99 164
53 99 165
52 100 163
52 99 164
47 99 157
51 99 162
52 99 162
50 98 158
50 100 159
47 100 157
48 99 156
44 97 150
46 97 151
48 98 155
42 96 147
46 97 152
42 102 141
31 111 117
20 124 103
8 144 98
0 131 90
0 146 101
0 141 98
0 140 93
0 143 100
19 141 98
0 148 101
0 137 87
0 135 87
0 125 84
0 115 72
19 131 81
0 125 79
0 115 69
0 126 75
19 118 79
0 112 70
0 118 69
0 108 67
0 111 66
0 107 57
0 115 69
6 119 69
0 118 70
19 117 67
0 117 65
0 114 61
0 111 70
0 109 51
0 105 56
0 114 57
0 113 57
0 115 65
0 111 59
0 106 65
6 120 59
0 115 59
0 115 63
0 114 59
0 109 57
0 107 54
0 111 53
0 105 56
0 131 69
0 116 55
0 100 46
0 118 58
0 124 64
19 125 61
0 128 67
0 115 54
19 122 59
19 116 61
20 127 67
0 122 65
0 122 63
0 126 58
19 130 68
27 125 69
19 133 69
19 124 69
0 119 56
0 120 57
0 129 66
27 134 72
19 133 74
0 131 77
19 141 83
19 141 77
0 140 76
19 149 91
19 138 79
28 149 86
0 144 85
0 144 90
28 150 84
19 146 92
19 158 99
0 158 97
0 153 102
19 162 105
34 161 108
19 156 95
19 161 102
19 163 98
19 174 115
0 167 112
0 178 118
0 170 115
0 178 124
0 175 122
0 186 128
0 182 125
0 185 133
0 198 142
0 177 122
0 187 132
0 188 134
0 186 133
0 191 135
0 188 134
0 185 131
0 187 134
0 193 140
0 197 145
0 197 145
0 192 136
0 194 140
0 194 140
0 199 149
0 195 146
0 199 150
0 194 146
0 195 144
0 201 151
0 197 148
0 196 148
0 201 148
0 199 149
0 199 147
0 202 152
0 208 161
0 202 153
0 200 155
0 203 153
0 209 162
0 200 152
0 202 152
0 202 153
0 205 159
0 197 148
0 208 162
0 205 160
0 213 166
0 204 158
0 209 165
0 211 161
195 231 242
193 231 241
188 231 238
204 232 248
185 230 237
174 229 231
174 229 231
178 230 233
167 228 228
167 229 228
170 229 229
149 227 219
148 227 218
149 226 219
149 228 219
139 225 214
139 226 214
115 224 204
138 226 214
127 224 209
121 223 206
108 224 201
102 224 199
123 224 206
120 225 206
94 224 196
93 222 196
96 224 197
96 223 197
73 223 189
83 222 192
86 221 192
83 221 192
77 223 190
66 222 188
77 222 190
67 222 188
50 220 184
80 221 191
31 221 182
63 223 188
44 221 183
50 220 184
50 222 184
31 220 182
67 222 188
50 219 183
55 221 184
45 221 184
63 223 188
50 221 184
63 223 187
67 221 188
59 218 181
31 221 182
44 220 183
67 221 188
50 218 182
74 223 190
70 222 188
77 221 188
70 221 188
80 221 191
83 220 189
73 220 187
94 224 196
122 224 206
91 221 195
102 215 197
115 208 200
111 196 197
107 181 193
110 153 192
115 144 192
115 143 192
126 151 199
124 150 198
123 148 198
119 147 193
134 157 206
132 155 205
112 139 195
97 127 187
110 137 194
98 127 189
106 134 193
106 133 193
95 125 187
95 125 188
97 127 189
91 121 187
105 132 193
89 120 186
95 125 188
86 118 185
81 114 183
95 125 188
74 110 178
83 116 185
78 112 181
74 108 183
74 110 179
64 102 179
69 106 178
60 102 173
58 100 173
58 99 173
59 100 175
56 99 170
54 104 169
56 102 171
55 98 166
54 108 169
56 106 171
53 113 168
54 104 167
53 101 167
58 102 172
54 100 167
53 100 167
53 102 167
56 101 171
54 99 166
54 99 167
54 101 168
52 99 165
53 100 166
49 99 161
57 100 171
56 100 171
55 100 169
56 100 170
56 100 169
51 99 164
54 99 167
55 99 168
55 100 169
52 100 165
55 100 168
54 99 166
55 99 168
55 99 167
56 99 170
55 100 169
53 99 165
54 99 166
57 100 171
54 99 168
55 100 169
52 99 164
53 99 167
55 99 169
57 100 171
57 100 171
59 100 174
56 100 170
55 99 168
57 100 171
56 100 170
57 100 170
57 99 171
56 100 169
56 100 170
57 100 171
55 100 169
55 100 168
55 99 168
53 100 166
54 99 167
55 100 168
52 99 164
55 100 168
55 100 169
57 100 170
57 100 171
54 100 167
55 100 169
54 100 167
54 100 167
53 100 165
54 100 166
56 99 169
55 100 168
56 100 169
57 100 171
54 100 166
55 100 168
55 100 169
56 100 168
57 100 171
54 100 166
54 99 168
55 100 167
56 100 170
57 100 171
52 100 165
56 100 170
58 100 171
53 99 166
52 100 164
52 99 163
53 100 165
57 100 171
55 100 169
57 100 170
54 99 167
50 99 161
51 100 162
53 99 164
55 100 168
58 99 171
53 99 165
56 100 169
53 99 164
52 98 163
55 100 169
55 100 168
53 99 165
54 100 166
56 101 168
53 100 165
55 100 167
54 100 166
54 100 166
54 100 167
49 100 160
50 99 161
52 100 164
52 99 161
54 99 164
52 100 164
54 99 165
55 100 166
53 99 165
53 100 165
54 100 166
52 100 163
50 100 161
51 99 161
53 100 164
47 99 157
51 100 163
52 100 164
54 99 164
53 100 165
51 98 161
48 99 157
54 100 165
50 98 157
47 98 155
51 99 160
49 99 159
51 99 159
51 100 162
52 96 156
44 95 149
44 94 147
46 96 151
49 97 154
34 108 129
27 113 114
19 127 102
0 139 95
0 140 98
0 147 105
0 141 97
0 145 99
0 143 99
0 127 83
0 127 79
0 132 90
0 121 80
0 132 87
0 128 82
0 140 92
19 128 77
0 114 67
19 121 74
0 132 75
0 122 72
0 121 81
0 128 78
0 117 77
0 120 67
0 112 69
0 112 61
0 111 63
0 113 61
19 113 56
0 117 61
0 111 63
19 128 74
0 105 62
0 122 69
0 111 59
6 116 61
0 110 48
0 114 56
0 117 61
0 116 58
0 103 48
0 118 55
0 113 56
0 112 58
0 114 62
0 107 51
0 114 67
27 121 70
0 120 63
19 121 62
19 122 64
0 114 58
0 119 71
0 128 65
0 128 63
0 114 49
0 120 61
0 119 62
20 127 68
0 124 69
0 122 56
19 132 71
19 116 60
0 122 60
19 130 67
0 126 66
19 136 77
19 141 78
28 126 63
28 146 88
0 140 76
27 137 81
0 138 84
20 140 79
19 141 85
20 136 82
27 146 90
0 149 94
33 147 92
19 147 94
20 159 100
20 148 84
27 158 99
0 161 100
20 157 99
0 166 110
19 163 109
27 166 113
19 165 105
0 174 113
0 175 118
0 175 116
0 176 114
0 184 127
0 185 131
0 174 114
0 187 137
0 185 133
0 191 137
0 190 137
0 185 132
0 187 130
0 187 134
0 192 142
0 186 129
0 193 141
0 195 141
0 190 135
0 185 135
0 199 150
0 190 137
0 197 149
0 194 142
0 197 148
0 193 144
0 194 147
0 199 149
0 195 143
0 199 147
0 195 147
0 203 158
0 198 147
0 200 154
0 205 156
0 205 156
0 197 148
0 200 150
0 204 153
0 204 155
0 200 155
0 205 160
0 208 163
0 204 155
0 203 154
0 205 158
0 203 157
0 209 164
0 208 162
0 209 164
0 205 158
193 231 241
182 231 235
180 230 234
173 229 231
163 228 225
170 229 229
165 229 226
165 228 226
171 229 230
155 228 222
161 228 225
152 227 220
134 227 212
137 227 213
126 227 208
133 226 211
139 227 214
122 226 207
127 226 209
109 225 202
93 222 196
99 224 197
101 224 198
90 224 195
91 222 194
82 223 193
70 221 189
77 221 191
89 224 194
50 221 185
77 222 191
59 220 185
54 221 185
50 218 181
31 220 181
59 222 187
45 220 184
38 221 183
31 218 180
31 218 179
22 220 181
22 219 180
45 221 184
22 219 180
0 220 178
31 221 181
0 220 179
22 220 181
0 220 180
22 221 181
22 219 180
0 221 180
22 219 180
39 219 181
31 221 182
31 221 182
31 220 180
50 222 185
38 221 182
44 221 183
0 220 179
63 222 188
59 222 186
63 220 185
74 222 189
39 222 183
86 222 192
89 222 194
78 214 190
80 206 188
99 196 193
96 170 188
94 149 182
107 137 187
107 135 187
109 137 190
101 130 186
112 140 192
103 132 188
121 146 197
96 126 184
95 125 186
97 127 187
101 130 190
98 127 189
104 132 192
102 131 188
85 118 184
79 112 184
81 114 183
75 110 180
76 110 182
84 116 184
89 120 186
74 108 183
76 110 181
69 106 179
67 104 178
72 108 179
81 114 183
74 110 180
85 118 183
71 108 178
76 110 181
63 102 177
73 110 176
59 99 174
57 99 172
55 98 169
57 100 172
56 101 172
57 101 174
50 100 163
54 102 169
56 101 171
55 102 171
50 103 163
56 102 170
54 99 168
52 100 163
49 99 161
52 99 165
48 99 159
50 103 162
53 98 165
51 98 164
58 100 173
53 100 167
53 102 168
55 100 168
50 99 162
55 99 168
57 100 171
56 99 170
55 99 168
55 100 168
53 99 167
57 99 171
52 99 165
53 99 166
55 99 169
54 99 168
55 100 168
52 99 163
52 100 166
54 100 167
55 98 167
56 100 171
53 100 165
56 100 168
54 100 168
51 99 165
52 99 165
55 100 168
54 99 166
53 100 166
53 99 165
56 100 171
53 100 166
53 99 166
55 99 168
56 99 169
53 100 166
53 100 166
51 99 162
58 100 172
56 100 169
58 101 171
53 100 166
54 100 168
56 100 169
51 99 163
56 100 170
54 99 168
54 99 168
55 100 167
55 100 169
57 100 170
56 100 170
55 99 168
56 100 169
54 100 167
56 100 169
53 100 166
53 100 166
55 99 168
54 99 166
54 99 167
55 100 168
56 99 169
57 100 171
54 100 166
54 100 166
53 100 165
55 99 169
57 101 170
56 100 170
55 99 169
53 100 165
54 100 166
55 99 168
56 99 169
56 100 169
54 100 167
51 99 163
53 100 167
54 99 166
55 100 167
51 99 161
54 100 165
55 100 167
50 99 162
56 100 170
56 100 168
52 99 164
54 100 166
55 100 167
54 100 166
55 99 166
52 100 164
54 99 165
57 101 170
53 100 165
53 100 164
55 100 167
53 100 165
52 100 164
49 98 160
53 100 165
51 100 162
55 99 168
48 100 158
49 99 160
52 100 164
52 100 164
50 100 162
52 99 163
54 100 166
53 99 164
52 99 162
49 99 160
55 98 166
50 99 161
53 100 163
51 100 162
52 99 163
52 100 164
48 99 158
49 98 156
52 98 162
50 98 158
49 97 158
45 98 153
49 97 155
47 96 151
44 98 152
43 95 145
46 97 149
45 104 149
40 109 140
25 133 116
22 135 105
0 156 107
0 140 95
0 149 101
0 139 86
0 148 101
0 135 88
0 126 85
0 133 88
0 139 92
0 126 80
0 141 93
0 131 84
19 126 82
0 128 78
0 123 71
0 123 71
19 119 70
0 116 76
0 125 81
0 121 73
0 122 74
0 127 83
0 119 69
0 125 77
0 124 76
0 130 69
0 113 68
0 121 63
0 123 71
0 123 70
0 116 68
0 114 66
0 116 66
0 116 56
0 116 63
0 108 59
0 115 62
0 97 49
0 111 64
0 113 65
0 120 69
20 117 59
0 131 68
0 113 61
0 114 57
0 122 61
0 118 65
0 113 55
0 120 70
0 129 73
0 135 69
0 124 60
0 114 61
0 117 62
0 127 62
0 135 72
19 128 61
0 128 69
27 136 74
19 127 69
0 125 73
19 128 65
19 139 74
0 142 73
19 128 73
0 144 82
19 142 84
0 126 72
0 143 83
0 141 82
0 146 85
19 143 90
19 134 77
19 148 90
0 146 94
0 148 91
19 144 83
0 156 101
20 153 97
0 161 109
0 148 86
0 160 105
19 169 112
0 167 110
0 166 113
0 166 110
0 182 126
0 182 122
0 179 120
0 172 117
0 182 124
0 178 123
0 179 125
0 173 120
0 175 121
0 184 129
0 185 134
0 195 145
0 189 133
0 190 139
0 198 146
0 195 145
0 193 139
0 191 142
0 191 143
0 195 143
0 196 143
0 192 143
0 200 148
0 197 149
0 203 153
0 198 147
0 195 142
0 195 141
0 195 147
0 202 152
0 200 153
0 201 152
0 199 152
0 201 150
0 207 161
0 203 157
0 195 147
0 203 153
0 198 152
0 199 152
0 207 162
0 209 164
0 205 157
0 209 161
0 208 161
0 202 156
0 207 161
0 205 159
0 199 152
0 205 159
0 202 154
0 208 161
187 231 238
177 229 233
180 230 234
175 230 231
163 227 226
164 226 225
158 228 223
148 227 218
148 227 218
133 226 211
141 227 215
136 226 213
127 225 208
128 226 209
118 225 205
126 225 208
100 223 199
101 223 198
90 222 195
92 223 196
93 222 195
83 223 193
85 221 192
89 223 194
63 222 187
44 221 184
63 222 187
67 222 187
54 222 186
55 222 186
22 220 181
44 220 182
31 221 182
31 222 182
0 219 180
22 221 181
22 221 181
0 219 179
0 221 181
0 219 179
0 216 177
0 220 180
0 220 180
0 220 180
0 219 180
0 221 179
0 221 180
0 220 179
0 218 179
0 220 180
0 220 179
0 221 180
0 221 180
0 220 180
22 220 181
0 219 179
0 220 180
0 219 179
31 217 178
0 221 180
39 219 181
45 221 184
22 220 181
31 221 180
39 219 181
38 222 183
59 221 186
54 221 185
65 211 186
67 203 184
83 193 189
77 159 179
87 154 182
89 122 178
80 116 174
84 118 179
102 132 186
104 132 189
90 121 183
86 120 179
103 132 189
99 128 186
100 130 185
87 119 183
85 118 181
97 127 188
78 114 179
77 112 179
83 116 181
79 112 182
82 115 183
69 106 177
62 102 175
75 110 181
81 114 182
74 109 178
79 112 185
75 110 182
70 106 180
70 106 179
67 104 178
61 102 175
83 116 183
64 102 177
62 102 175
69 107 176
57 100 172
56 99 170
57 99 172
55 99 171
56 100 170
59 100 174
57 100 171
55 107 171
53 97 165
52 103 165
54 104 168
55 105 169
52 101 166
53 99 167
57 99 172
52 102 166
52 100 165
52 99 165
55 100 168
49 99 161
49 98 160
55 100 169
56 99 168
54 98 167
51 99 164
49 101 162
55 99 168
54 99 165
51 99 163
53 99 167
53 99 166
54 98 166
54 99 166
51 99 165
55 100 167
50 100 162
57 99 171
55 99 168
54 100 167
55 100 169
54 100 166
54 100 167
54 99 167
55 99 168
53 99 166
55 100 168
55 100 168
52 100 165
55 100 168
55 100 170
56 100 170
53 99 165
55 99 168
54 100 167
55 100 168
52 99 165
56 99 169
52 98 165
55 100 168
54 100 167
54 100 167
54 99 166
54 100 167
54 99 167
53 100 165
54 100 167
53 100 164
54 99 167
54 99 166
54 99 167
54 99 166
53 100 165
51 99 164
54 100 166
55 100 167
51 100 162
54 100 168
54 100 167
54 100 168
52 98 165
54 100 167
57 100 170
55 99 167
56 100 170
50 99 162
53 100 165
56 100 170
50 99 163
54 100 167
54 100 167
53 99 166
51 99 162
55 100 168
55 100 168
53 100 166
53 100 166
50 100 162
55 100 168
53 99 165
51 99 163
54 100 167
55 100 168
53 100 166
52 99 163
54 100 167
53 100 164
50 100 163
55 100 168
54 99 165
53 100 165
54 100 166
51 100 162
53 100 165
50 99 162
57 100 169
55 100 169
52 100 164
53 99 165
52 100 163
54 99 165
52 99 163
53 99 164
55 100 166
53 99 162
55 100 166
48 100 160
55 101 166
54 101 166
46 98 156
53 100 165
50 99 160
54 99 164
49 99 159
56 100 168
50 100 160
52 99 162
52 99 161
53 99 164
49 99 159
53 100 164
50 98 158
51 98 160
50 100 160
49 100 160
47 97 154
54 99 165
49 98 156
48 94 152
48 96 153
47 98 154
49 95 152
46 95 150
42 99 140
31 119 120
18 140 115
16 138 106
0 136 98
0 134 92
0 147 92
0 134 89
0 142 99
0 125 84
0 140 93
0 136 89
0 132 87
0 132 88
0 130 86
0 142 94
19 137 89
0 127 79
0 135 93
0 123 75
0 120 69
0 121 74
0 120 72
0 123 73
0 143 94
0 126 75
0 120 71
0 126 75
0 104 53
0 117 69
0 116 64
0 116 64
0 128 82
0 115 64
0 117 68
0 107 57
0 125 72
0 121 60
0 107 55
0 120 60
0 110 56
0 119 70
0 115 65
0 110 54
0 123 67
0 115 52
0 118 63
0 129 74
0 130 71
0 120 69
0 108 58
0 113 68
0 126 68
0 123 73
0 126 67
0 124 71
0 129 75
0 122 62
0 123 66
0 126 73
0 127 64
0 141 84
0 144 90
0 135 80
20 140 74
0 134 77
0 144 82
0 133 73
20 142 85
19 135 80
0 139 75
0 151 96
0 140 83
0 148 91
27 135 67
0 145 85
19 143 92
0 153 94
19 159 97
0 161 110
0 164 100
0 159 102
19 159 102
19 165 109
0 171 110
0 164 107
0 170 106
0 164 106
0 172 114
19 163 106
0 172 116
0 180 125
0 182 124
0 186 132
0 179 125
0 174 116
0 177 121
0 182 131
0 181 122
0 184 129
0 177 123
0 192 138
0 187 133
0 182 123
0 177 120
0 184 129
0 193 142
0 196 143
0 188 136
0 193 143
0 192 140
0 192 142
0 199 149
0 192 138
0 195 145
0 189 134
0 200 153
0 197 148
0 196 143
0 203 154
0 193 147
0 195 141
0 198 147
0 199 152
0 201 153
0 197 153
0 196 149
0 196 149
0 198 148
0 200 149
0 204 151
0 194 146
0 197 150
0 206 157
0 196 150
0 206 162
0 209 161
0 211 165
0 202 156
0 206 158
0 204 160
0 200 154
183 230 235
165 228 226
173 229 231
157 229 222
152 227 220
153 228 220
143 226 216
128 227 209
143 227 216
126 226 208
122 225 206
123 225 207
103 222 198
114 224 203
95 224 197
99 224 198
88 222 194
89 224 194
69 223 189
58 221 186
59 222 187
77 223 191
70 221 188
54 219 184
39 221 183
0 219 179
38 219 181
31 220 181
31 222 182
22 222 181
0 221 181
0 221 181
0 221 181
0 219 179
0 219 179
0 218 178
0 217 177
0 220 179
0 219 180
0 218 179
0 220 179
0 219 178
0 220 180
0 221 179
0 218 178
0 221 179
0 217 177
0 219 179
0 218 177
0 219 179
0 218 180
0 219 179
0 217 178
0 219 179
0 220 179
0 219 179
0 221 181
0 215 176
0 217 177
0 217 177
0 221 181
0 219 179
0 216 176
0 216 176
22 221 181
31 219 181
39 219 182
25 217 180
38 209 181
47 201 180
47 182 176
77 172 184
67 134 176
69 110 174
79 115 178
73 110 177
93 125 182
83 117 175
89 122 180
91 123 183
97 127 185
70 108 174
90 121 184
90 122 183
87 120 183
77 112 178
87 120 184
86 118 183
84 116 184
71 108 177
73 109 180
76 110 182
67 104 179
75 110 181
82 114 185
79 112 183
77 111 181
67 103 179
72 108 180
64 104 175
69 106 179
68 106 178
62 101 175
86 118 184
62 101 175
59 100 175
63 102 177
61 102 174
58 100 173
61 100 177
57 100 172
57 99 173
55 99 170
54 101 167
55 107 171
56 100 170
55 103 170
57 101 171
55 100 168
55 102 169
53 100 166
54 100 168
53 101 167
54 101 167
54 99 168
52 98 163
53 101 165
54 101 166
55 99 169
54 99 167
53 99 167
54 100 167
51 99 162
52 100 165
54 99 168
55 99 168
52 99 165
53 100 165
54 100 167
52 100 165
53 100 166
53 99 166
56 100 170
56 100 168
51 98 164
56 100 171
55 99 168
55 100 170
54 99 168
54 99 167
53 99 166
52 99 163
53 100 165
56 99 170
53 100 167
55 100 169
57 100 171
52 99 164
54 99 166
55 100 167
54 99 167
54 100 168
54 99 167
57 100 169
56 99 168
54 100 167
53 100 166
57 100 171
58 99 172
55 100 167
55 100 169
52 98 164
50 100 162
55 100 169
55 100 168
54 100 167
52 100 164
58 101 172
56 100 170
55 100 169
54 100 168
55 100 168
56 99 169
54 99 168
54 100 167
55 100 168
54 100 167
54 100 167
51 99 163
54 99 165
54 100 166
54 100 166
57 101 170
54 100 168
53 99 167
54 99 165
56 100 170
53 99 164
51 99 163
55 100 167
57 100 170
52 98 163
54 100 166
56 100 168
53 99 165
55 99 167
52 100 164
52 99 164
56 100 169
51 100 162
54 100 167
54 99 167
57 100 170
51 100 163
52 98 162
54 99 167
52 99 164
53 100 165
54 100 167
52 98 162
50 100 161
52 100 165
55 101 166
54 101 165
52 99 162
51 99 162
49 99 159
52 100 164
51 99 162
53 100 165
51 99 161
53 100 165
51 100 161
54 100 166
52 98 162
48 99 158
50 98 158
53 100 164
51 99 161
53 100 164
53 100 165
52 99 162
51 100 161
47 97 157
51 98 159
46 98 153
49 98 157
50 97 158
49 97 156
50 99 159
45 97 152
49 98 155
50 96 157
48 98 155
47 99 154
44 97 150
43 96 148
44 99 147
38 104 134
31 117 120
17 131 104
6 141 103
0 139 98
0 132 90
0 133 94
0 140 95
0 154 106
0 146 95
0 135 85
0 140 91
0 137 90
0 123 80
0 140 92
0 144 102
0 129 89
0 132 87
0 123 79
0 124 76
0 135 89
0 139 93
0 134 85
0 125 80
0 129 79
0 122 77
0 123 80
0 115 72
19 125 76
0 117 60
0 124 77
0 119 73
0 119 67
0 118 71
0 115 61
0 126 75
0 130 75
0 122 69
0 119 65
0 121 74
0 126 69
0 121 73
0 116 58
0 111 59
0 110 56
0 128 81
0 122 74
0 127 72
0 126 75
0 122 74
0 133 79
0 113 60
0 130 74
0 119 68
0 119 57
19 135 74
0 118 65
0 124 61
0 129 78
0 132 83
0 141 89
0 133 70
0 126 71
0 140 83
0 130 75
0 137 83
0 146 87
19 153 96
0 134 76
0 153 93
0 135 79
0 129 80
0 139 79
0 144 88
19 147 88
0 152 89
0 164 107
0 158 96
19 153 95
19 151 93
0 154 90
0 166 112
0 161 105
0 155 98
0 170 107
0 176 125
0 168 106
0 163 111
0 169 109
0 185 126
0 169 117
0 172 116
0 174 121
0 178 123
0 171 114
0 178 122
0 179 124
0 184 132
0 186 131
0 184 130
0 183 126
0 191 136
0 190 135
0 195 146
0 189 142
0 192 139
0 189 139
0 185 129
0 186 140
0 196 142
0 189 132
0 191 139
0 191 146
0 197 150
0 197 150
0 199 148
0 197 147
0 200 148
0 192 141
0 196 145
0 205 154
0 198 146
0 196 149
0 202 155
0 201 154
0 206 158
0 200 151
0 194 150
0 205 159
0 208 160
0 201 154
0 204 156
0 208 159
0 203 153
0 206 160
0 198 153
0 207 161
0 207 161
0 212 165
0 205 161
0 203 153
0 207 162
175 230 231
154 228 221
143 227 216
149 226 218
138 226 214
143 227 216
123 225 207
140 227 214
124 225 208
127 226 209
114 225 203
93 222 196
106 223 199
90 222 195
93 223 196
89 222 193
76 223 191
80 222 192
63 220 186
70 223 189
54 221 185
22 220 181
44 220 183
31 221 182
22 219 179
22 221 181
31 220 181
0 219 180
0 219 179
0 219 180
0 219 179
0 219 180
0 216 178
0 221 180
0 218 179
0 217 178
0 218 179
0 220 180
0 221 181
0 220 180
0 221 180
0 221 180
0 219 179
0 220 181
0 219 179
0 218 177
0 218 178
0 220 179
0 220 179
0 217 177
0 217 178
0 218 178
0 219 179
0 217 178
0 218 178
0 219 179
0 221 181
0 220 179
0 218 178
0 219 179
0 216 176
0 219 178
0 219 178
0 221 181
0 218 178
0 219 180
0 217 177
31 216 180
38 205 178
33 197 176
35 174 172
49 155 173
55 122 168
52 103 165
73 111 173
54 102 163
56 100 169
83 117 177
80 115 175
69 108 173
72 110 173
78 114 177
85 118 181
80 114 181
95 125 187
70 108 175
68 106 177
77 112 178
74 110 178
68 106 175
83 116 183
73 108 182
72 108 180
69 105 180
66 104 176
67 104 178
59 100 175
70 106 180
65 102 179
73 109 180
70 106 179
64 103 174
65 104 176
69 106 178
67 105 178
60 102 173
66 104 176
61 103 170
63 102 177
59 99 174
57 100 172
55 100 170
57 100 172
52 99 166
55 100 168
54 100 169
54 102 169
55 103 169
54 100 167
52 100 165
56 101 169
53 102 166
53 101 166
54 102 167
53 99 166
55 98 167
50 98 163
53 100 166
51 99 163
53 97 165
54 98 167
55 100 168
53 99 165
54 99 166
56 99 168
51 99 163
55 99 169
54 99 167
54 99 167
52 99 164
54 100 168
52 98 164
54 100 168
50 99 163
52 100 165
56 99 169
52 98 164
56 99 169
54 100 166
54 100 167
55 100 169
56 100 170
54 100 166
49 98 161
54 100 167
53 98 165
56 100 170
55 99 169
52 98 165
57 100 171
54 99 167
53 100 166
51 100 162
52 99 166
52 98 163
53 99 166
50 99 162
56 100 170
56 99 169
52 100 164
54 100 167
56 100 168
56 100 169
54 100 166
55 100 169
55 100 168
56 101 168
54 100 167
54 100 167
54 100 167
55 101 168
55 100 169
53 100 165
54 99 166
54 100 166
54 99 165
55 100 167
57 100 170
50 99 162
54 100 165
54 100 167
54 99 166
54 100 166
58 101 171
54 101 166
55 101 167
54 100 166
54 101 166
52 100 164
56 100 169
55 99 166
54 99 167
53 100 165
55 100 167
53 100 166
53 100 165
55 100 168
50 99 162
56 100 169
54 99 167
52 99 164
51 98 162
55 100 168
54 100 166
54 99 165
49 99 158
54 100 166
53 100 164
51 100 162
53 100 165
53 100 166
55 101 167
50 100 160
54 100 167
52 100 164
51 99 162
50 99 160
54 100 167
53 99 164
51 99 164
55 100 168
54 100 166
54 100 165
54 101 165
49 100 160
52 100 163
48 100 159
51 99 162
51 99 162
52 100 163
49 100 159
53 101 164
56 100 167
50 98 159
48 97 155
53 99 162
47 98 155
49 98 156
49 98 158
49 98 158
50 98 157
48 98 155
51 98 159
47 98 153
47 99 157
43 95 147
42 96 145
45 103 148
34 107 128
23 132 115
15 151 110
8 144 103
0 153 108
0 139 94
0 135 93
0 141 99
0 140 92
0 149 107
0 152 103
0 136 90
0 143 102
0 128 82
0 134 93
0 132 92
0 126 81
0 146 103
0 144 92
0 119 65
0 124 79
0 122 74
0 129 75
0 128 77
0 125 75
0 129 81
0 124 77
0 125 75
0 123 70
0 116 63
0 134 88
0 109 62
0 112 72
0 128 72
0 115 67
0 135 76
0 126 73
0 126 72
19 129 75
0 113 68
0 126 70
0 120 68
0 115 65
0 128 74
0 124 61
0 136 84
0 123 71
0 117 67
0 123 65
0 126 75
0 122 67
0 135 84
0 130 75
0 131 80
0 128 74
0 133 76
0 136 76
19 134 84
0 130 78
0 133 75
0 131 73
0 137 75
0 133 72
0 148 91
0 130 70
0 139 82
0 145 89
0 142 79
0 154 96
0 152 92
0 154 98
0 147 90
0 138 76
0 156 98
0 150 89
0 148 90
0 149 90
0 160 102
0 164 107
0 156 100
0 162 109
0 172 113
0 157 98
0 160 98
0 176 116
0 169 110
0 166 110
0 185 123
0 171 112
0 170 114
0 177 124
0 178 121
0 171 109
0 182 123
0 183 125
0 183 126
0 179 120
0 192 137
0 175 125
0 189 133
0 187 129
0 193 139
0 187 135
0 184 127
0 198 148
0 189 133
0 186 130
0 191 138
0 193 143
0 199 146
0 186 134
0 196 143
0 201 150
0 191 143
0 203 156
0 193 140
0 201 152
0 195 145
0 196 145
0 197 145
0 193 146
0 195 145
0 204 155
0 202 153
0 199 148
0 202 158
0 198 147
0 202 155
0 203 152
0 195 144
0 201 150
0 206 156
0 204 159
0 207 158
0 205 158
0 202 154
0 205 159
0 198 154
0 205 158
0 204 157
0 207 160
0 203 157
146 228 217
146 227 217
141 226 215
132 225 211
140 226 214
116 224 205
107 224 201
126 225 209
120 226 206
112 224 202
90 224 195
79 224 192
90 223 195
62 223 187
89 223 194
77 221 190
38 219 181
55 221 186
44 221 184
39 222 183
31 220 180
22 220 179
0 219 180
0 221 181
0 219 179
0 219 180
0 220 180
0 220 178
0 221 181
0 217 178
0 219 180
0 218 178
0 218 178
0 220 180
0 220 180
0 220 179
0 218 178
0 217 177
0 218 177
0 219 179
0 221 181
0 220 180
0 217 178
0 220 181
0 217 179
0 218 178
0 217 177
0 219 179
0 217 177
0 218 179
0 220 180
0 217 177
0 218 178
0 218 178
0 216 176
0 217 177
0 219 179
0 219 177
0 218 178
0 217 177
0 215 176
0 220 178
0 218 178
0 215 176
0 219 179
0 219 178
0 218 177
0 216 177
22 202 174
22 201 175
36 165 166
40 164 171
47 137 168
51 113 166
54 100 166
55 100 169
64 105 168
58 101 168
63 104 171
60 104 167
72 111 169
72 110 174
68 106 176
79 114 178
77 113 176
73 110 176
66 106 173
71 108 177
66 104 176
66 104 177
65 103 175
66 104 177
71 108 178
65 104 175
63 102 178
62 102 176
64 102 178
59 99 176
62 101 176
64 102 177
66 104 178
64 101 177
67 104 179
66 104 177
57 99 173
63 102 177
59 101 172
56 100 170
56 98 172
60 101 173
56 99 171
56 99 171
56 99 171
57 100 172
57 100 171
56 98 168
53 104 167
55 103 170
51 104 165
54 101 168
54 99 167
53 102 167
52 98 164
56 100 171
54 101 166
53 101 167
52 99 164
54 102 168
52 98 163
54 100 167
57 99 170
58 100 171
54 100 167
50 98 163
55 99 169
54 99 168
54 100 167
54 99 167
51 100 163
56 100 169
51 100 163
48 96 159
54 99 167
52 100 165
49 100 160
52 99 166
57 100 172
56 100 170
55 99 168
53 99 166
53 99 165
54 99 167
53 100 166
53 99 165
54 98 166
55 100 170
53 99 163
51 99 163
54 99 167
56 100 170
53 100 166
52 99 165
54 99 166
53 99 165
56 99 169
55 100 169
52 98 164
57 101 170
55 100 168
54 99 165
53 99 165
56 100 170
53 100 166
55 101 167
55 100 167
53 99 165
54 100 167
52 98 163
57 99 169
54 100 167
55 99 168
52 99 163
51 99 164
54 100 167
53 99 165
51 99 163
54 100 166
52 100 164
53 101 164
55 100 169
55 100 168
53 99 165
52 99 164
52 100 164
55 99 168
54 100 165
57 100 169
50 100 162
54 100 166
50 100 161
54 99 166
53 100 166
56 100 169
55 100 168
54 100 167
55 100 168
55 99 167
51 99 162
54 100 166
52 100 164
54 100 166
50 100 160
55 100 167
53 100 165
54 100 165
54 100 167
53 99 164
54 101 165
49 100 160
55 100 168
51 98 162
54 100 166
54 99 166
53 99 166
54 99 165
51 99 162
55 99 165
55 100 167
48 100 159
50 99 161
53 99 166
51 99 162
48 99 158
49 99 158
53 99 162
50 99 161
52 100 164
51 99 161
50 99 161
53 100 164
50 99 161
52 99 163
48 97 157
52 99 163
46 96 154
49 98 157
52 99 161
49 99 158
50 98 159
53 99 164
46 98 155
51 97 157
49 97 157
47 97 154
51 99 159
44 97 149
45 96 150
34 101 127
32 129 129
28 122 114
14 145 111
0 132 87
0 148 104
0 147 101
0 141 102
0 147 103
0 143 95
0 153 104
0 147 99
0 139 95
0 133 95
0 130 86
0 142 97
0 136 89
0 124 74
0 156 108
0 134 93
0 133 85
0 135 82
0 135 87
0 124 77
0 128 80
0 120 69
0 138 87
0 133 79
0 136 86
0 120 74
0 130 83
0 137 87
0 120 71
0 126 80
0 122 67
0 115 62
19 118 69
0 127 73
0 135 82
0 127 77
0 120 70
0 127 78
0 131 83
19 136 81
0 124 77
0 116 66
0 143 86
0 136 75
0 127 75
0 118 65
0 130 76
0 133 80
0 120 67
0 116 66
0 131 70
0 129 69
0 125 67
0 139 94
0 139 89
0 147 92
0 144 79
0 141 84
0 132 77
0 133 85
0 142 80
19 146 90
0 145 93
0 155 97
0 126 73
0 139 85
0 141 82
0 144 90
0 145 81
0 163 107
0 144 85
0 151 99
18 156 100
0 159 99
19 167 110
0 154 99
0 160 103
0 167 112
0 165 103
0 165 106
0 170 115
0 179 130
0 168 109
0 171 114
0 167 110
0 173 119
0 180 124
0 173 116
0 181 125
0 182 132
0 179 117
0 184 127
0 178 121
0 177 122
0 178 122
0 186 131
0 189 138
0 190 136
0 184 129
0 182 128
0 187 136
0 184 131
0 181 126
0 191 140
0 191 138
0 192 138
0 192 142
0 191 138
0 194 141
0 193 143
0 193 139
0 193 141
0 193 144
0 200 149
0 200 152
0 196 146
0 197 147
0 200 151
0 193 141
0 195 144
0 202 151
0 200 152
0 199 152
0 197 150
0 204 157
0 205 159
0 207 161
0 194 150
0 210 163
0 200 152
0 203 154
0 210 162
0 199 149
0 203 154
0 206 162
0 203 157
0 205 158
0 200 149
0 210 162
129 225 210
142 227 215
131 226 211
119 225 206
133 227 211
120 225 206
94 224 196
101 224 198
105 224 200
79 224 192
93 222 196
73 223 190
54 221 185
49 220 183
54 223 186
22 222 181
39 221 183
22 220 181
22 221 180
22 221 181
0 221 180
0 221 181
0 220 180
0 220 179
0 220 179
0 221 180
0 218 178
0 218 179
0 220 180
0 221 180
0 219 179
0 219 178
0 219 179
0 217 178
0 220 181
0 221 181
0 220 180
0 219 178
0 218 178
0 220 180
0 219 178
0 219 178
0 217 177
0 219 178
0 217 178
0 220 180
0 219 179
0 217 177
0 218 178
0 217 177
0 218 180
0 217 177
0 219 179
0 217 178
0 215 176
0 219 179
0 213 174
0 219 179
0 217 179
0 216 177
0 220 180
0 218 177
0 212 172
0 219 179
0 217 176
0 219 179
0 218 179
11 213 178
20 210 179
23 198 173
34 179 175
38 161 169
42 145 167
49 115 165
52 102 166
54 100 166
51 99 164
54 99 167
60 102 170
61 104 169
64 106 170
65 106 170
62 104 170
61 104 169
63 103 173
56 99 170
66 105 174
57 100 171
60 102 172
66 104 177
61 101 174
64 104 175
57 100 172
62 101 176
58 99 174
61 99 178
62 102 175
61 102 175
59 100 175
62 102 175
62 102 176
60 99 176
63 102 178
59 100 175
60 100 176
63 102 177
63 102 176
65 103 176
61 102 173
66 104 177
63 104 172
57 100 172
58 100 174
55 99 169
57 99 172
54 99 167
54 104 168
53 101 167
53 98 165
54 107 169
53 104 166
53 103 167
51 99 164
53 103 165
51 103 163
52 102 164
55 101 167
54 99 167
51 99 164
51 101 163
53 99 165
55 99 168
51 100 163
50 98 162
52 99 165
54 99 167
52 99 164
54 99 168
52 100 164
51 98 161
54 99 166
52 99 165
52 99 164
50 98 161
51 99 163
54 100 167
54 100 168
56 99 169
56 99 169
54 100 167
54 98 166
54 98 168
53 99 166
53 99 166
49 99 161
53 100 166
54 100 167
56 100 170
53 99 166
53 99 166
54 100 166
56 100 169
52 100 164
52 100 164
54 99 167
54 100 167
54 100 167
56 100 169
56 99 169
51 100 163
55 99 166
55 101 168
54 99 167
55 100 167
55 100 168
52 99 165
52 100 165
55 99 167
56 100 170
54 100 167
52 99 164
55 100 168
55 99 168
53 100 166
52 100 164
53 99 165
55 100 168
53 100 166
53 100 165
56 100 169
52 99 164
55 100 168
54 99 166
53 99 165
54 98 166
56 100 169
54 100 167
49 99 161
53 99 164
56 99 169
55 100 168
53 100 165
53 99 164
56 100 170
54 99 166
52 99 163
56 100 169
52 100 164
55 100 167
58 100 172
55 101 166
54 100 167
51 100 162
48 98 158
56 100 169
51 100 162
53 99 164
53 99 164
52 99 162
48 99 160
50 99 161
54 100 166
51 100 163
50 100 162
50 98 160
48 99 159
51 100 163
53 100 165
52 100 164
53 100 165
51 98 160
53 100 163
51 99 163
52 100 164
51 99 161
50 99 160
52 99 163
51 99 160
50 98 157
53 99 163
48 98 157
50 100 159
50 98 159
47 99 157
48 98 157
53 99 161
47 97 156
48 97 156
48 97 156
45 99 154
46 98 153
48 98 157
49 99 158
49 97 155
53 97 159
46 96 147
42 96 143
34 117 134
24 129 114
18 132 109
6 148 104
0 137 101
0 143 96
0 142 96
0 140 97
0 147 104
0 139 96
0 143 95
0 133 90
0 141 94
0 135 91
0 129 81
0 136 98
0 132 86
0 130 87
0 146 99
0 140 92
0 130 80
0 146 97
0 145 98
0 139 89
0 140 93
0 132 82
0 140 93
0 139 83
0 133 83
0 131 84
0 130 80
0 129 81
0 128 77
0 134 83
0 108 67
0 132 87
0 135 83
0 132 83
0 128 78
0 125 78
0 128 73
0 123 73
0 126 74
0 119 64
0 126 69
0 138 85
0 126 75
0 131 74
0 135 84
0 134 81
0 128 77
19 122 67
0 134 85
0 125 75
0 128 75
0 132 77
0 139 87
0 129 82
0 128 69
0 136 82
0 142 90
0 143 78
19 143 95
0 145 85
0 142 83
0 143 82
0 140 84
0 144 85
20 143 89
0 146 85
0 148 98
0 156 101
19 152 97
0 156 92
0 160 103
0 158 97
0 157 96
0 158 96
0 155 98
0 171 110
0 171 111
0 156 98
0 171 115
0 174 118
0 173 116
0 168 111
0 160 95
0 178 124
0 170 109
0 176 117
0 185 129
0 173 119
0 188 133
0 182 122
0 178 121
0 187 134
0 185 132
0 171 114
0 182 137
0 186 132
0 175 120
0 189 137
0 190 136
0 189 139
0 191 135
0 180 123
0 194 137
0 190 138
0 193 144
0 195 143
0 187 135
0 196 144
0 185 137
0 195 142
0 194 148
0 199 147
0 192 142
0 190 142
0 196 149
0 193 147
0 192 143
0 199 152
0 196 144
0 201 154
0 202 153
0 198 150
0 190 143
0 200 153
0 202 151
0 199 148
0 204 156
0 195 143
0 208 161
0 206 155
0 202 153
0 208 163
0 205 160
0 202 153
0 205 161
0 207 161
0 208 164
0 208 163
0 207 160
141 227 215
128 225 210
109 222 200
120 225 206
105 225 200
85 223 194
85 223 194
109 225 202
75 220 189
69 223 189
54 221 185
44 221 184
50 222 184
50 222 185
22 217 179
22 218 178
0 219 180
0 219 180
0 219 179
0 221 180
0 221 180
0 219 180
0 219 178
0 219 179
0 220 179
0 217 178
0 216 178
0 220 180
0 220 180
0 219 180
0 220 178
0 220 180
0 219 179
0 216 178
0 218 177
0 220 181
0 219 179
0 218 177
0 217 178
0 218 178
0 218 178
0 218 178
0 217 177
0 216 177
0 215 174
0 215 176
0 215 176
0 216 176
0 216 176
0 218 178
0 216 177
0 218 178
0 218 178
0 219 178
0 219 179
0 217 176
0 215 177
0 220 179
0 218 177
0 221 181
0 216 177
0 218 177
0 218 178
0 219 178
0 217 177
0 216 175
0 215 174
0 217 177
15 211 177
23 200 174
27 190 173
33 172 168
40 157 170
49 124 167
48 101 159
54 100 166
51 100 162
53 99 166
53 98 166
53 100 166
55 100 168
58 101 168
52 99 164
60 101 172
55 99 167
61 102 173
56 99 170
63 104 172
53 99 166
58 100 173
56 99 170
57 99 173
58 100 173
56 99 171
58 100 173
58 100 173
60 100 175
58 99 175
58 99 174
56 99 172
59 100 175
58 100 174
60 100 176
57 99 172
58 99 173
57 99 173
64 102 179
59 100 175
61 101 175
60 100 175
63 101 174
58 99 174
55 100 168
57 98 171
57 99 172
57 99 171
56 99 170
57 100 171
58 103 175
57 102 171
56 103 172
54 101 167
52 98 163
57 103 172
52 103 165
50 99 162
49 100 159
52 103 166
55 100 167
52 100 164
53 100 165
49 97 160
51 102 164
52 99 165
52 99 165
51 98 163
55 100 169
53 100 166
54 100 167
55 100 167
52 99 164
49 99 161
54 99 166
56 100 169
55 99 167
53 99 166
52 100 165
54 99 167
55 98 168
49 99 162
54 100 166
54 99 166
55 99 167
54 99 168
51 99 162
52 99 164
55 100 169
54 98 166
55 100 168
52 99 164
56 100 169
56 99 169
53 100 166
54 100 167
57 100 171
54 100 166
51 99 163
53 100 165
51 100 163
54 99 166
55 101 168
49 100 160
49 99 160
57 100 169
53 100 164
55 100 169
52 99 165
53 100 165
56 99 169
50 99 161
55 100 169
54 100 168
55 100 167
54 100 166
54 100 166
56 101 168
53 100 165
50 100 161
57 100 171
52 99 163
53 98 164
53 100 166
53 100 164
53 99 166
59 101 174
54 99 167
53 99 165
55 100 169
56 100 170
52 99 164
48 100 160
55 100 168
55 100 167
53 100 164
51 99 162
55 100 168
48 99 159
49 99 159
53 100 164
55 99 167
54 100 166
57 100 170
54 99 166
52 99 162
51 100 162
54 99 166
53 100 165
55 99 167
51 98 161
52 99 164
54 99 164
55 100 167
53 100 165
51 100 162
53 98 164
51 99 161
52 99 162
51 99 162
46 99 157
50 100 161
54 100 166
50 99 161
52 100 163
53 100 164
49 99 159
53 100 164
50 99 161
50 99 160
50 100 160
52 99 161
49 98 156
52 100 163
51 101 162
51 99 159
50 99 161
51 98 160
51 98 159
49 99 158
49 99 159
45 98 152
43 98 151
49 99 157
51 97 157
46 97 153
45 97 151
47 99 152
36 100 136
36 124 137
16 135 111
17 137 111
0 141 97
0 155 107
0 144 101
0 143 99
0 134 95
0 149 102
0 129 85
0 139 90
0 145 101
0 147 104
0 144 94
0 144 96
0 135 92
0 146 102
0 142 100
0 137 86
0 137 88
0 138 91
0 126 72
0 135 89
0 143 92
0 149 97
0 129 83
0 140 94
0 129 77
0 137 86
0 143 93
0 137 90
0 137 82
0 129 86
0 121 76
0 115 70
0 132 77
0 127 79
0 133 89
0 117 74
0 130 77
0 136 86
0 126 80
0 137 82
0 134 82
0 131 84
0 134 81
0 138 85
0 141 86
0 143 88
0 140 86
0 138 81
0 133 77
0 135 82
0 134 82
0 132 78
0 141 89
0 132 76
0 136 90
0 132 82
0 137 82
0 137 90
0 147 86
0 155 100
19 144 86
0 147 96
0 151 97
19 148 86
0 153 98
0 151 90
0 150 90
0 153 96
0 152 98
0 152 99
0 164 105
0 164 105
0 165 104
0 165 104
0 162 109
0 175 112
0 156 102
0 172 119
0 166 102
0 162 106
0 176 123
0 164 108
0 169 109
0 179 126
0 174 117
0 163 112
0 178 121
0 177 123
0 187 132
0 171 118
0 181 129
0 176 123
0 184 129
0 183 127
0 188 135
0 183 129
0 183 125
0 180 125
0 186 134
0 187 134
0 191 134
0 185 128
0 185 135
0 188 135
0 192 139
0 192 143
0 188 132
0 189 136
0 204 155
0 191 136
0 199 148
0 195 145
0 184 135
0 192 139
0 197 146
0 195 146
0 199 148
0 201 155
0 198 151
0 203 153
0 199 150
0 198 146
0 198 149
0 200 152
0 198 152
0 194 144
0 202 154
0 205 159
0 202 151
0 201 153
0 210 161
0 197 151
0 206 158
0 204 157
0 208 155
0 206 161
0 204 157
0 201 157
0 201 154
0 204 160
104 224 200
130 224 209
95 224 197
103 224 199
110 226 202
91 223 195
70 222 189
70 220 188
62 221 187
44 221 183
55 221 185
31 220 182
22 220 181
22 221 181
0 221 180
0 219 179
0 219 179
0 220 179
0 219 179
0 219 179
0 220 180
0 220 180
0 220 178
0 220 179
0 221 179
0 220 180
0 216 177
0 219 179
0 216 177
0 221 181
0 217 177
0 217 178
0 218 178
0 219 179
0 220 180
0 217 178
0 218 178
0 217 177
0 216 177
0 218 178
0 220 180
0 215 177
0 219 179
0 218 179
0 217 178
0 214 175
0 217 178
0 215 177
0 216 178
0 218 178
0 221 180
0 216 177
0 215 175
0 214 175
0 216 177
0 219 179
0 216 176
0 217 178
0 214 175
0 216 177
0 214 176
0 218 178
0 218 178
0 220 180
0 214 175
0 215 176
0 218 179
0 215 176
9 210 174
17 208 176
28 191 175
35 178 172
40 153 167
43 129 161
48 110 163
52 99 165
53 100 165
54 99 166
53 99 166
53 100 165
51 99 163
56 99 170
51 99 164
54 100 167
59 101 169
56 100 170
60 100 175
56 100 170
57 100 172
59 100 175
57 100 172
56 100 170
55 99 170
58 100 173
58 99 174
58 100 173
57 99 172
58 100 173
61 100 177
58 100 175
60 100 176
56 99 172
59 100 174
59 100 175
59 100 175
59 99 175
58 99 172
57 100 171
58 99 173
56 99 171
57 99 173
57 100 173
57 100 173
55 99 170
59 100 174
58 100 174
55 99 170
53 98 167
53 99 166
53 104 168
52 103 166
54 104 167
56 100 168
53 101 167
56 100 169
50 103 163
51 102 165
51 101 164
54 99 167
53 99 166
54 101 167
49 99 162
51 99 164
48 99 159
54 99 166
53 100 166
51 99 163
52 100 164
54 100 168
52 99 166
51 99 164
54 99 166
55 99 167
57 101 170
52 100 165
53 99 166
54 100 167
54 99 167
52 100 164
53 99 165
53 100 165
55 99 167
52 99 165
53 100 166
52 99 165
52 99 164
56 100 169
56 100 170
53 100 165
52 99 163
52 100 165
56 100 168
53 100 164
53 99 165
54 99 168
51 99 163
50 100 162
53 100 165
52 100 164
50 98 161
52 99 163
54 99 166
53 100 166
52 99 163
54 100 167
51 99 163
54 100 166
53 99 164
50 99 163
54 99 166
52 100 163
51 98 162
52 99 164
54 100 166
53 100 166
53 100 165
56 99 169
54 99 167
54 99 166
53 100 165
51 100 162
51 100 163
51 100 162
52 100 164
55 100 168
54 100 166
49 98 161
53 99 164
52 99 165
54 98 165
55 99 168
54 101 167
50 100 162
54 100 168
48 99 159
52 99 163
51 99 162
52 100 164
50 98 159
53 100 165
52 99 163
50 98 161
52 100 163
52 99 165
51 100 162
53 100 164
53 99 166
52 100 164
53 100 164
50 99 160
49 98 158
52 100 164
52 99 163
51 100 162
54 101 166
50 100 162
52 99 162
54 100 165
55 100 166
53 100 164
48 99 157
50 99 160
55 99 166
54 100 165
54 100 165
50 98 161
52 100 163
50 99 159
52 98 163
52 99 160
52 98 161
49 99 157
51 99 161
46 97 153
47 99 156
50 98 158
47 99 156
48 98 158
47 97 155
48 99 157
46 97 153
49 99 158
47 97 152
48 98 155
46 97 150
44 96 148
35 114 131
31 127 122
23 117 107
6 154 112
0 142 103
0 132 94
0 142 95
0 145 103
0 145 103
0 146 99
0 140 99
0 133 95
0 121 76
0 146 100
0 138 98
0 140 94
0 144 100
0 141 93
0 131 86
0 140 96
0 153 112
0 132 85
0 145 100
0 129 79
0 144 100
0 139 89
0 126 79
0 124 77
0 137 91
0 147 102
0 133 85
0 138 90
0 146 96
0 132 83
0 128 76
0 128 81
0 124 80
0 141 91
0 140 93
0 132 85
0 129 89
0 131 83
0 146 95
0 140 83
0 143 88
0 132 81
0 130 78
0 141 89
0 145 91
0 140 84
0 134 87
0 128 71
0 139 94
0 136 80
0 133 77
0 127 68
0 136 78
0 140 85
0 146 91
0 154 100
0 144 90
19 149 93
0 144 88
0 146 85
0 148 94
0 143 82
0 141 86
0 136 80
0 146 93
0 161 100
0 161 106
0 153 100
0 155 95
0 153 97
0 162 104
0 164 107
0 169 111
0 160 103
0 173 119
0 168 114
0 171 112
0 166 109
0 158 100
0 169 114
0 179 125
0 167 106
0 175 117
0 171 110
0 178 120
0 182 124
0 180 124
0 186 130
0 181 124
0 176 125
0 181 134
0 186 130
0 183 130
0 186 133
0 192 141
0 187 130
0 181 130
0 185 132
0 187 134
0 192 138
0 186 129
0 185 131
0 193 142
0 191 138
0 187 138
0 196 146
0 189 138
0 196 146
0 204 152
0 196 142
0 200 147
0 194 143
0 200 148
0 194 144
0 194 142
0 194 139
0 192 145
0 196 145
0 203 157
0 201 152
0 198 147
0 206 158
0 198 150
0 204 154
0 206 157
0 202 154
0 205 158
0 204 155
0 205 157
0 206 159
0 205 159
0 202 155
0 199 149
0 206 160
0 203 156
0 206 158
0 205 159
0 204 157
0 207 163
0 203 155
118 224 204
87 223 194
98 224 197
98 223 198
86 223 194
74 222 190
54 222 186
45 219 183
50 222 185
22 220 181
22 219 180
31 220 182
0 219 179
0 220 179
0 221 180
0 219 180
0 219 179
0 220 180
0 220 180
0 221 181
0 220 179
0 218 179
0 219 179
0 217 178
0 220 179
0 218 177
0 219 179
0 219 179
0 218 178
0 217 178
0 217 178
0 219 180
0 219 179
0 218 178
0 217 177
0 219 178
0 218 177
0 218 176
0 219 178
0 218 179
0 218 177
0 217 178
0 213 176
0 218 179
0 218 178
0 216 177
0 215 175
0 214 174
0 215 176
0 215 176
0 215 177
0 216 177
0 218 178
0 215 175
0 214 175
0 219 179
0 218 178
0 214 175
0 214 173
0 220 178
0 218 178
0 214 174
0 215 176
0 216 176
0 217 177
0 214 176
0 218 178
0 214 175
6 212 174
13 209 174
25 197 174
29 184 171
37 162 167
44 152 170
49 114 165
50 101 162
55 100 169
54 99 165
51 100 163
58 100 171
54 98 167
52 98 165
55 100 169
53 100 166
56 100 170
52 99 166
56 100 171
55 99 168
52 98 165
53 99 166
55 100 169
55 100 169
56 99 171
58 99 173
56 99 171
58 99 173
56 100 170
58 100 173
59 100 175
59 99 175
59 100 174
60 99 177
57 100 172
61 100 177
59 99 174
58 99 174
58 99 173
58 100 175
59 100 175
59 99 175
59 100 175
59 100 175
55 99 170
57 99 172
58 100 172
56 100 170
56 100 171
55 99 168
56 100 170
54 99 167
53 101 167
54 102 169
53 99 165
51 102 162
54 102 168
51 100 164
54 99 167
52 102 165
51 100 163
53 99 166
53 99 164
52 99 163
50 100 162
49 99 161
52 99 164
55 99 168
51 99 163
52 99 164
49 99 161
53 99 165
54 100 167
50 99 163
53 99 163
54 100 167
49 99 162
54 99 167
54 100 166
52 99 165
55 100 167
52 99 164
53 98 165
54 100 167
50 99 162
54 100 167
51 99 165
53 100 166
53 98 165
57 100 170
56 98 169
52 99 164
56 99 169
56 100 169
53 100 166
50 99 162
53 100 165
52 100 166
52 100 165
55 100 168
55 99 167
54 98 167
51 99 163
55 100 168
52 100 165
54 100 166
51 99 164
55 100 168
54 100 167
53 99 164
52 99 164
54 100 167
55 101 167
55 100 168
53 100 166
52 100 164
52 100 164
55 99 167
50 100 161
53 99 166
52 98 163
52 99 165
56 100 169
51 99 162
56 101 168
54 100 167
56 100 169
50 98 160
55 100 167
50 100 163
54 100 167
51 99 162
56 101 169
54 98 165
54 100 167
54 100 167
54 100 165
51 99 161
52 100 164
49 99 159
48 99 159
50 99 161
53 99 164
54 100 167
50 100 161
53 99 163
52 100 163
52 99 164
51 99 162
52 99 163
54 100 166
54 99 166
51 99 161
55 100 167
54 99 165
51 99 163
51 98 160
45 98 153
51 100 163
52 100 163
56 98 167
51 99 162
51 98 161
48 98 156
52 100 163
53 100 164
53 99 163
50 99 161
49 100 160
49 98 158
48 97 156
50 99 159
53 99 162
48 99 157
53 98 161
47 98 156
51 99 161
53 100 163
48 99 157
51 100 161
51 97 157
49 98 157
50 98 159
44 97 149
47 97 155
46 99 155
43 96 149
42 100 142
37 111 138
20 137 119
15 136 106
0 135 98
0 138 96
0 157 114
0 155 111
0 136 100
0 147 106
0 151 105
0 149 107
0 141 103
0 141 95
0 142 99
0 127 88
0 146 98
0 147 102
0 146 103
0 148 107
0 134 83
0 141 94
0 137 95
0 138 93
0 125 88
0 141 101
0 135 87
0 146 102
0 118 71
0 140 95
0 122 83
0 141 95
0 142 98
0 146 96
0 133 84
0 137 90
0 134 80
0 126 80
0 139 87
0 141 92
0 146 97
0 153 101
0 135 86
0 136 87
0 147 91
0 133 81
0 141 85
0 144 95
0 130 78
0 150 90
0 142 90
0 143 94
0 141 92
0 127 79
0 135 79
0 151 103
0 156 99
0 144 91
0 153 96
0 154 100
19 143 81
0 149 93
0 154 102
0 144 95
0 139 76
0 153 97
0 147 91
0 142 79
0 151 93
0 160 107
0 157 102
0 142 84
0 151 96
0 152 99
0 163 110
0 153 96
0 158 101
0 163 110
0 173 120
0 152 95
0 162 110
0 169 112
0 170 115
0 173 116
0 174 124
0 171 117
0 169 115
0 181 126
0 179 124
0 172 121
0 179 125
0 176 116
0 179 125
0 177 122
0 172 116
0 185 129
0 174 125
0 175 125
0 166 118
0 181 128
0 186 131
0 192 139
0 183 132
0 190 140
0 188 132
0 192 141
0 193 138
0 190 140
0 185 132
0 182 128
0 186 123
0 195 144
0 188 139
0 195 145
0 190 136
0 197 149
0 199 149
0 201 151
0 194 143
0 199 149
0 193 144
0 196 151
0 201 153
0 198 149
0 199 152
0 191 138
0 205 160
0 199 146
0 202 155
0 198 150
0 206 157
0 207 158
0 207 161
0 198 150
0 203 155
0 197 152
0 201 156
0 203 155
0 206 157
0 201 154
0 203 158
0 205 158
0 203 157
0 200 155
0 209 162
101 224 199
80 222 192
70 223 189
66 222 188
77 223 191
44 220 183
44 222 184
50 220 184
31 221 182
0 217 178
0 220 180
0 220 180
0 219 179
0 218 178
0 221 181
0 221 180
0 220 179
0 219 179
0 220 178
0 220 179
0 219 179
0 221 180
0 218 178
0 219 180
0 218 178
0 219 178
0 216 177
0 220 180
0 215 176
0 216 178
0 215 177
0 220 180
0 221 181
0 219 178
0 217 178
0 216 176
0 217 177
0 216 177
0 219 179
0 217 178
0 219 178
0 219 179
0 214 175
0 216 176
0 218 178
0 220 180
0 218 178
0 214 175
0 213 175
0 214 175
0 216 176
0 215 176
0 214 176
0 211 173
0 215 176
0 214 174
0 214 175
0 217 177
0 215 176
0 214 175
0 215 175
0 216 176
0 214 175
0 215 175
0 216 177
0 216 176
0 217 177
0 216 176
0 214 176
9 211 174
19 208 178
23 187 167
31 179 170
37 154 164
46 128 164
47 105 159
51 99 163
50 99 160
49 99 159
52 99 165
54 100 167
53 100 166
49 98 160
49 100 162
54 99 167
59 100 173
54 100 167
55 99 169
56 100 169
56 99 171
53 99 167
56 98 170
55 99 170
59 100 175
56 99 170
56 99 172
56 99 172
59 100 175
57 99 174
55 99 170
57 100 171
58 99 172
59 99 175
60 100 176
59 100 175
58 100 174
59 100 175
56 100 172
58 99 173
56 99 171
58 100 173
57 100 172
55 100 170
57 98 172
58 100 173
59 100 175
57 100 171
54 100 167
56 99 171
56 102 171
56 99 170
55 101 170
54 103 167
52 101 164
54 103 168
55 102 168
48 104 160
52 99 164
47 100 158
49 97 161
52 99 165
51 98 161
50 99 162
51 99 164
49 98 161
50 99 163
52 100 163
49 99 161
57 100 171
51 99 163
54 98 165
54 100 164
55 100 168
49 98 160
49 99 161
52 99 163
48 100 160
55 100 168
51 99 163
52 99 162
53 99 166
53 99 165
53 99 165
53 100 165
54 100 165
52 99 164
54 99 166
54 98 166
54 99 166
54 100 166
49 99 162
52 98 164
53 100 164
56 100 169
52 100 163
52 99 164
51 99 162
52 99 164
55 100 168
52 100 164
53 99 165
51 100 162
53 99 167
52 99 164
53 99 164
51 99 162
52 99 164
57 100 169
54 100 166
52 100 164
52 99 164
51 99 163
52 99 164
54 100 167
54 100 167
53 99 165
54 99 166
51 99 162
55 100 167
51 99 162
49 98 159
51 99 163
56 100 168
57 101 170
50 99 161
52 99 163
55 100 168
54 100 166
53 100 165
51 99 162
53 99 166
50 99 161
50 99 161
53 100 165
53 99 163
49 99 160
53 100 165
53 99 165
48 99 158
50 99 160
54 98 164
51 100 162
48 100 159
54 100 166
52 99 164
51 99 162
54 100 166
48 99 158
51 99 160
52 99 164
49 98 158
46 99 157
45 99 154
53 99 165
53 100 164
50 100 161
53 100 164
50 98 159
52 100 163
49 98 158
49 100 159
50 99 160
53 99 162
52 100 164
51 99 162
49 99 158
51 100 162
50 98 158
50 100 160
48 99 158
49 99 160
51 99 159
51 100 161
52 99 162
47 98 156
46 98 155
52 98 159
52 98 161
46 99 156
46 96 153
46 97 153
43 96 150
41 95 146
51 97 156
43 100 147
41 112 144
30 119 124
20 125 107
13 138 110
0 152 108
0 136 100
0 147 108
0 151 106
0 141 98
0 142 101
0 134 94
0 145 103
0 141 100
0 145 95
0 148 104
0 137 97
0 128 89
0 158 113
0 142 96
0 142 100
0 142 96
0 145 101
0 158 106
0 127 81
0 141 91
0 139 97
0 132 90
0 143 96
0 138 91
0 141 100
0 150 98
0 139 87
0 146 98
0 142 93
0 133 92
0 134 85
0 139 94
0 132 90
0 140 88
0 149 100
0 132 80
0 137 83
0 137 85
0 146 91
0 143 95
0 128 70
0 138 89
0 154 102
0 145 97
0 141 87
0 144 90
0 125 70
0 147 92
0 148 96
0 142 89
0 153 103
0 138 92
0 133 75
0 161 105
0 147 98
0 153 98
0 142 93
0 157 105
0 158 103
0 147 91
0 149 90
0 149 96
0 155 97
0 151 94
0 175 121
0 154 100
0 154 100
0 167 110
0 155 104
0 170 116
0 159 104
0 165 107
0 165 113
0 163 108
0 165 107
0 169 107
0 167 102
0 170 118
0 171 112
0 173 123
0 181 128
0 178 118
0 185 126
0 176 119
0 169 118
0 180 126
0 177 122
0 172 112
0 189 137
0 181 126
0 181 127
0 182 131
0 183 129
0 186 136
0 179 127
0 181 130
0 180 129
0 187 136
0 188 137
0 187 134
0 187 140
0 193 140
0 191 140
0 187 133
0 189 134
0 189 140
0 199 147
0 188 140
0 195 145
0 193 140
0 197 147
0 195 144
0 196 147
0 194 146
0 194 144
0 197 151
0 193 143
0 199 150
0 202 158
0 197 147
0 202 152
0 198 151
0 206 158
0 198 149
0 194 147
0 202 154
0 203 155
0 201 155
0 196 148
0 202 156
0 202 155
0 204 157
0 199 154
0 204 154
0 208 162
0 209 162
0 210 165
0 203 158
0 211 163
0 201 157
85 223 194
53 220 185
58 220 186
49 221 184
50 220 184
31 220 181
31 222 182
0 218 178
0 220 180
0 220 179
0 218 178
0 219 178
0 220 180
0 218 178
0 221 181
0 220 180
0 220 180
0 217 178
0 217 177
0 221 181
0 218 178
0 220 178
0 220 180
0 220 179
0 219 179
0 218 178
0 220 180
0 215 176
0 218 179
0 219 179
0 216 177
0 214 174
0 216 178
0 216 177
0 218 177
0 216 177
0 222 180
0 217 178
0 216 178
0 220 180
0 218 177
0 219 179
0 216 177
0 216 177
0 216 177
0 211 174
0 215 176
0 217 178
0 211 174
0 217 177
0 215 176
0 215 176
0 214 173
0 212 175
0 217 177
0 216 177
0 213 175
0 212 173
0 216 177
0 214 176
0 211 173
0 217 178
0 215 176
0 218 178
0 214 175
0 213 174
0 214 174
0 212 173
0 216 175
6 216 178
18 202 173
23 195 171
27 182 168
40 155 168
44 137 167
46 114 161
49 98 159
51 100 162
49 99 160
53 99 165
53 99 165
53 100 165
52 99 165
48 99 161
54 100 168
57 100 171
54 99 167
55 99 168
57 100 170
53 99 167
51 99 163
55 100 168
56 100 171
54 99 168
55 99 170
56 100 171
59 100 174
57 100 171
56 98 172
57 99 172
57 100 172
59 100 175
58 99 173
58 100 173
59 100 175
57 99 172
56 100 171
58 99 173
57 99 172
59 100 175
58 100 174
59 99 174
57 99 172
58 100 174
56 99 171
58 100 173
57 99 171
54 100 168
58 100 174
53 99 167
57 99 170
58 98 172
54 102 168
52 101 164
51 102 163
54 98 167
53 101 164
54 101 168
53 100 166
49 101 161
53 99 166
50 97 161
51 98 162
53 100 164
53 99 164
52 102 165
48 99 159
51 99 164
50 98 161
49 98 161
51 99 164
52 100 165
52 99 164
53 99 165
56 100 169
50 99 162
50 98 161
51 98 161
55 100 167
54 98 165
54 99 165
52 99 165
50 100 163
53 100 165
52 99 164
53 99 165
51 100 163
50 99 163
52 99 164
53 100 166
47 99 158
56 99 169
52 100 164
50 99 162
54 99 167
49 98 159
54 99 165
56 100 170
52 99 165
54 100 167
51 99 163
54 100 166
55 100 169
53 99 166
52 98 164
51 99 163
55 100 168
52 100 164
51 98 163
55 100 167
54 100 167
52 99 164
53 99 165
49 100 160
55 100 168
52 99 163
52 99 164
53 100 165
51 100 163
53 100 165
51 99 162
52 99 162
52 99 163
56 100 168
55 100 167
51 99 164
56 100 168
51 99 163
54 100 166
54 99 165
49 99 162
54 100 165
53 100 166
53 100 164
54 98 165
50 99 161
53 101 165
53 100 164
53 100 165
51 99 161
55 100 166
50 100 162
51 99 162
52 99 163
51 99 162
54 99 166
50 100 160
48 99 159
49 99 159
51 98 162
52 99 162
51 100 163
51 100 162
51 100 161
49 97 157
49 98 158
53 101 165
53 99 162
52 100 163
49 100 160
47 97 156
48 97 157
48 100 158
52 99 161
50 100 160
48 98 155
52 100 163
51 98 159
49 99 159
50 99 159
52 100 163
52 98 161
47 98 156
51 99 161
51 97 159
47 96 153
48 99 156
42 97 149
46 98 154
49 97 155
48 97 155
47 98 153
46 97 152
49 94 151
45 97 148
41 98 133
24 124 117
19 134 115
0 132 93
0 159 113
0 156 108
0 157 115
0 147 107
0 153 110
0 142 105
0 140 99
0 157 116
0 126 78
0 149 103
0 133 92
0 140 100
0 156 105
0 138 89
0 157 109
0 143 95
0 139 91
0 138 93
0 149 104
0 133 91
0 134 89
0 152 104
0 140 95
0 148 103
0 148 101
0 150 103
0 141 95
0 138 91
0 137 92
0 151 98
0 143 94
0 151 95
0 147 98
0 141 85
0 151 99
0 146 94
0 140 88
0 135 83
0 161 110
0 142 94
0 144 94
0 143 98
0 151 109
0 146 94
0 148 96
0 151 99
0 141 90
0 152 102
0 145 92
0 149 93
0 153 104
0 152 100
0 157 106
0 160 109
0 145 95
0 147 94
0 153 98
0 154 101
0 157 96
0 150 93
0 150 90
0 144 86
0 162 110
0 158 100
0 156 104
0 159 98
0 163 106
0 162 109
0 160 106
0 166 105
0 169 113
0 165 109
0 163 109
0 169 116
0 157 94
0 168 109
0 169 115
0 159 104
0 170 115
0 172 118
0 166 111
0 184 130
0 174 121
0 177 124
0 174 119
0 178 125
0 182 129
0 186 124
0 181 132
0 178 119
0 181 126
0 180 122
0 189 138
0 185 131
0 173 117
0 184 127
0 185 136
0 186 132
0 194 142
0 189 135
0 188 137
0 187 138
0 190 136
0 192 139
0 188 140
0 195 144
0 194 143
0 193 141
0 190 141
0 193 141
0 194 139
0 201 149
0 199 151
0 195 147
0 196 148
0 193 144
0 188 137
0 203 156
0 198 146
0 206 158
0 200 152
0 198 152
0 198 152
0 202 151
0 199 150
0 198 151
0 201 154
0 203 152
0 202 155
0 204 159
0 201 155
0 193 142
0 206 158
0 206 158
0 206 163
0 203 157
0 207 160
0 207 161
0 205 158
0 206 160
0 203 153
54 222 186
62 222 187
55 223 186
22 221 181
22 219 179
0 220 180
0 221 181
0 221 181
0 219 179
0 221 181
0 218 178
0 217 178
0 220 180
0 219 179
0 220 180
0 218 178
0 219 180
0 220 178
0 218 178
0 221 181
0 220 180
0 216 178
0 219 179
0 215 176
0 218 178
0 220 179
0 219 178
0 216 178
0 219 179
0 215 176
0 219 179
0 219 180
0 218 179
0 215 177
0 215 176
0 214 175
0 219 179
0 217 178
0 217 178
0 216 176
0 213 175
0 216 177
0 214 175
0 215 177
0 216 176
0 215 176
0 219 179
0 212 174
0 218 179
0 216 178
0 214 175
0 217 177
0 216 176
0 213 175
0 212 175
0 217 177
0 213 174
0 213 174
0 211 171
0 216 174
0 214 175
0 212 173
0 210 173
0 216 176
0 214 176
0 210 175
0 216 177
0 209 171
0 218 177
5 212 175
11 202 171
18 202 173
24 185 168
28 174 167
34 161 165
47 110 160
49 100 160
51 99 162
51 99 163
50 100 162
52 99 164
50 98 160
49 99 160
51 100 163
52 100 166
52 100 165
56 99 170
56 99 169
57 100 171
54 99 168
54 100 167
57 99 171
57 100 173
54 99 168
54 100 167
56 100 171
54 99 167
54 99 167
59 100 174
58 100 173
56 99 172
57 100 172
58 99 174
58 100 173
55 99 170
57 100 171
56 99 170
59 100 174
56 99 170
59 100 174
57 99 173
59 99 175
57 99 173
58 100 173
54 99 168
57 99 172
57 99 172
56 99 171
55 99 169
57 100 171
54 100 169
55 99 168
55 100 168
54 100 166
54 101 169
53 101 167
49 103 162
51 99 162
51 100 164
53 99 166
52 99 164
51 99 164
53 99 166
52 102 165
51 100 162
53 100 166
52 100 164
50 99 162
50 98 162
51 98 162
56 100 168
50 98 159
53 100 165
51 97 163
54 99 168
52 100 163
53 100 164
52 98 164
51 99 162
51 98 162
50 98 161
53 99 167
50 98 161
54 99 166
55 100 168
52 100 165
51 100 162
53 99 166
51 100 163
53 101 164
56 100 167
52 99 164
51 99 161
50 100 162
52 100 164
51 99 164
54 99 167
52 100 164
50 100 162
52 99 165
53 99 165
54 99 167
55 99 167
48 98 159
52 100 163
51 99 161
51 99 162
52 100 164
52 100 164
52 100 163
51 99 163
52 100 164
49 99 161
53 100 165
55 100 168
55 100 167
56 100 168
49 98 160
51 99 161
58 101 171
54 100 166
55 100 168
47 98 156
55 100 168
49 98 159
49 100 160
52 100 163
54 99 166
51 99 162
49 98 158
53 100 165
51 99 162
52 100 163
50 99 161
52 100 162
52 99 164
52 99 163
50 99 161
50 100 160
54 100 166
48 98 157
53 99 164
51 99 162
52 99 163
53 100 164
52 100 163
52 100 164
52 100 163
49 99 160
50 100 161
54 101 166
51 99 161
54 100 165
54 100 164
53 99 163
53 99 163
51 99 160
53 100 165
52 100 163
51 99 162
53 100 164
45 98 154
50 99 160
50 99 160
47 99 157
47 99 157
49 100 159
49 99 159
51 100 162
47 98 155
47 99 155
47 98 157
50 99 160
44 99 154
47 99 157
49 97 155
50 99 159
48 96 154
47 99 155
47 97 154
48 98 153
45 96 151
46 96 150
43 96 146
40 101 139
30 127 129
26 126 115
7 138 100
0 144 107
0 143 101
0 165 120
0 144 106
0 142 105
0 143 93
0 144 97
0 145 102
0 142 99
0 144 103
0 146 103
0 132 89
0 144 94
0 139 96
0 143 101
0 139 96
0 132 96
0 141 105
0 149 105
0 148 103
0 145 99
0 141 96
0 146 106
0 138 96
0 138 97
0 148 104
0 144 100
0 141 87
0 155 104
0 145 101
0 142 100
0 138 97
0 149 102
0 145 101
0 133 87
0 139 92
0 149 100
0 138 94
0 150 98
0 144 96
0 138 92
0 142 94
0 140 93
0 141 94
0 136 89
0 143 89
0 148 95
0 145 92
0 164 110
0 145 96
0 150 103
0 157 103
0 146 92
0 143 97
0 153 97
0 158 98
0 155 103
0 144 92
0 155 105
0 152 94
0 155 102
0 156 110
0 135 80
0 142 90
0 158 98
0 161 108
0 169 114
0 170 113
0 172 119
0 165 113
0 157 102
0 170 114
0 172 120
0 166 115
0 153 98
0 160 104
0 166 108
0 168 110
0 174 116
0 160 106
0 182 127
0 175 119
0 176 118
0 180 126
0 170 114
0 173 123
0 179 127
0 189 135
0 188 132
0 179 120
0 181 126
0 182 126
0 180 123
0 185 132
0 186 134
0 186 131
0 182 134
0 191 142
0 186 133
0 181 133
0 194 142
0 190 138
0 195 147
0 188 138
0 191 144
0 193 140
0 194 147
0 198 147
0 192 142
0 200 148
0 193 144
0 190 138
0 201 148
0 189 139
0 200 151
0 196 150
0 201 151
0 193 145
0 198 152
0 198 151
0 195 147
0 203 155
0 206 161
0 195 145
0 204 157
0 205 160
0 200 154
0 198 151
0 204 157
0 199 152
0 197 146
0 205 157
0 204 153
0 211 167
0 202 152
0 204 156
0 200 154
0 203 156
0 198 149
0 206 161
0 202 154
0 203 158
39 219 182
45 218 181
31 219 181
0 221 180
0 220 179
0 221 180
0 220 179
0 221 181
0 219 179
0 217 177
0 219 180
0 220 180
0 220 181
0 219 180
0 218 178
0 219 180
0 221 180
0 219 180
0 220 179
0 219 180
0 218 177
0 219 179
0 220 179
0 216 178
0 219 179
0 218 178
0 217 177
0 217 177
0 218 178
0 219 179
0 216 177
0 218 179
0 218 178
0 218 179
0 220 180
0 215 176
0 215 175
0 214 175
0 215 176
0 214 176
0 217 177
0 218 177
0 215 176
0 216 178
0 218 179
0 213 174
0 218 179
0 216 177
0 216 177
0 213 174
0 212 175
0 214 175
0 212 175
0 218 177
0 215 176
0 216 177
0 207 170
0 217 178
0 214 177
0 212 174
0 213 175
0 216 176
0 211 173
0 214 175
0 212 174
0 212 174
0 217 178
0 214 175
0 214 175
0 210 173
11 212 176
20 204 175
21 195 171
30 176 166
37 152 163
42 132 162
47 108 159
48 100 158
49 99 159
52 100 163
47 99 156
52 99 164
51 98 161
54 100 166
51 100 163
53 99 166
49 99 160
52 99 163
52 98 162
52 99 164
55 100 168
50 99 163
54 99 167
58 100 172
53 99 166
52 99 165
55 99 169
58 100 174
56 100 171
57 99 172
57 99 172
57 100 172
56 99 171
58 99 171
56 98 170
58 100 173
58 100 174
58 100 173
58 99 173
57 99 171
60 99 175
59 100 175
58 100 173
58 100 173
57 99 173
55 100 170
58 99 175
54 99 168
54 99 168
56 100 170
56 100 169
54 97 166
55 100 169
51 103 164
52 99 164
50 103 163
52 101 165
54 101 166
53 108 169
51 100 163
52 99 164
52 99 163
48 98 159
54 99 165
53 100 165
49 99 161
52 99 163
56 99 168
53 99 166
50 99 161
48 98 157
55 99 168
51 100 163
50 98 161
54 100 167
54 99 166
49 99 161
53 100 166
52 99 163
50 99 160
54 99 166
50 100 162
53 98 164
51 99 163
54 99 166
52 99 164
53 100 166
48 100 159
49 99 161
50 100 162
47 98 158
51 98 163
52 99 164
54 100 167
50 99 162
54 100 166
52 97 162
54 100 166
52 100 165
55 99 168
53 100 166
54 100 167
54 100 165
53 98 164
52 100 164
54 99 165
51 99 162
51 99 163
52 99 163
50 99 161
52 99 164
50 100 163
51 99 162
54 100 166
54 100 166
49 98 159
55 99 165
52 99 164
52 100 163
53 100 165
52 100 163
55 99 168
54 100 166
53 100 165
52 100 163
49 99 160
54 99 165
50 99 161
53 100 164
52 100 164
54 99 166
51 99 162
52 100 163
52 100 164
53 99 163
53 100 165
53 99 164
53 100 165
51 99 160
51 99 162
47 99 157
54 100 166
53 100 165
50 100 161
51 98 161
52 100 163
49 100 159
53 100 165
52 100 163
50 99 160
50 100 162
51 100 162
50 100 161
47 99 157
52 100 162
48 97 156
54 100 166
46 98 154
52 99 162
47 99 156
50 98 159
46 98 155
49 100 158
44 98 153
51 99 160
53 99 163
53 99 162
49 100 158
49 97 156
45 98 155
49 99 157
49 99 157
51 99 159
48 98 158
48 99 157
51 99 161
49 97 156
44 97 151
43 97 151
44 97 151
46 97 151
48 96 154
42 96 147
42 99 144
38 122 143
26 126 125
16 135 108
9 146 102
0 140 102
0 149 111
0 154 112
0 157 114
0 149 111
0 146 107
0 143 98
0 149 107
0 146 104
0 151 106
0 151 108
0 151 105
0 147 102
0 147 105
0 142 100
0 145 102
0 146 103
0 154 108
0 142 93
0 137 95
0 141 91
0 136 91
0 155 108
0 149 97
0 141 96
0 142 93
0 145 94
0 147 100
0 131 79
0 149 107
0 129 87
0 146 107
0 151 102
0 148 102
0 151 109
0 137 87
0 149 97
0 157 109
0 146 94
0 150 100
0 152 100
0 142 96
0 155 104
0 145 91
0 136 87
0 157 102
0 159 102
0 152 100
0 158 106
0 146 85
0 150 98
0 148 99
0 146 92
0 149 96
0 146 91
0 154 102
0 149 96
0 155 97
0 155 101
0 159 106
0 158 106
0 165 106
0 159 107
0 159 106
0 164 110
0 162 103
0 163 107
0 167 109
0 166 112
0 164 112
0 169 112
0 162 109
0 166 115
0 156 102
0 175 121
0 178 127
0 167 116
0 171 118
0 156 97
0 173 119
0 176 119
0 173 125
0 175 122
0 179 126
0 171 112
0 181 131
0 171 118
0 183 127
0 181 125
0 178 130
0 184 129
0 192 139
0 180 133
0 181 128
0 175 121
0 183 129
0 190 135
0 188 137
0 188 138
0 196 143
0 188 135
0 189 138
0 193 140
0 193 142
0 192 141
0 199 152
0 187 135
0 195 142
0 191 143
0 190 136
0 196 142
0 195 143
0 194 148
0 195 146
0 192 143
0 196 146
0 203 155
0 199 147
0 200 150
0 199 148
0 201 150
0 201 152
0 206 160
0 191 143
0 208 160
0 198 149
0 205 157
0 202 154
0 204 156
0 199 149
0 199 151
0 200 152
0 202 157
0 201 154
0 206 161
0 191 140
0 199 154
0 201 155
0 208 161
0 208 161
0 207 160
0 200 156
31 219 181
22 220 181
0 219 180
0 221 181
0 219 178
0 220 180
0 218 179
0 219 180
0 217 178
0 218 179
0 218 178
0 218 178
0 221 181
0 219 178
0 218 179
0 218 177
0 217 178
0 220 179
0 218 179
0 218 178
0 220 179
0 216 177
0 218 178
0 218 177
0 214 175
0 216 177
0 218 178
0 217 178
0 219 179
0 218 179
0 214 176
0 219 179
0 215 176
0 218 176
0 216 178
0 217 178
0 217 177
0 212 175
0 217 178
0 212 174
0 211 174
0 215 176
0 216 177
0 214 175
0 214 176
0 217 178
0 214 174
0 215 178
0 210 173
0 216 177
0 212 172
0 213 175
0 216 177
0 213 176
0 213 174
0 214 175
0 215 176
0 213 173
0 213 173
0 211 174
0 205 169
0 213 173
0 216 177
0 214 174
0 214 175
0 216 175
0 208 171
0 214 175
0 213 174
0 212 174
0 207 169
7 211 173
18 200 173
31 186 173
34 170 168
40 138 159
46 122 164
44 98 153
51 99 161
49 98 160
50 98 161
49 98 159
50 99 162
51 99 161
51 99 163
51 99 164
51 99 165
50 99 162
54 99 166
53 98 164
51 98 162
54 99 167
55 99 167
56 100 170
54 98 167
54 100 166
53 99 166
52 100 165
56 99 170
56 100 170
55 100 169
55 99 169
54 98 168
56 99 172
56 99 171
57 100 171
58 100 174
59 100 175
56 99 170
59 100 175
59 100 174
56 100 170
57 100 172
56 100 172
55 99 169
58 100 173
58 99 174
57 100 171
57 100 172
57 100 171
56 100 170
57 99 171
54 100 168
54 100 167
53 100 165
53 100 165
49 102 161
53 103 166
49 99 161
51 101 164
51 98 161
52 99 162
48 101 160
50 101 161
50 98 162
49 99 160
48 99 158
51 99 164
51 100 162
49 97 160
53 100 165
53 99 164
52 99 164
49 99 159
53 100 167
51 99 165
52 99 164
55 100 169
52 99 164
54 100 168
50 100 162
50 100 162
52 99 163
54 99 166
54 99 167
50 99 161
51 98 163
51 98 162
50 99 162
55 100 167
50 97 158
54 100 166
49 98 160
53 100 164
51 100 162
51 99 162
52 99 163
49 99 161
52 97 162
54 100 166
55 99 167
51 99 163
53 99 166
52 100 165
49 99 161
54 100 166
56 99 165
53 99 163
52 99 164
56 100 169
53 100 165
51 99 162
53 100 165
54 100 166
53 99 164
54 101 166
54 100 167
53 101 165
54 100 166
55 101 167
52 99 162
51 99 163
51 100 163
53 99 165
51 100 162
55 98 166
52 99 163
51 99 161
53 99 166
55 100 168
53 99 165
52 100 164
55 100 166
56 101 168
52 99 164
53 99 163
54 99 165
53 100 164
52 101 163
51 100 162
55 99 168
52 100 163
50 99 160
53 99 165
53 100 163
53 99 164
50 98 160
49 99 159
52 99 162
52 99 162
52 99 164
52 100 163
48 99 156
49 99 158
49 99 158
50 98 161
51 99 160
50 99 160
55 99 166
48 99 157
48 98 157
48 99 157
48 98 155
53 100 164
52 100 162
53 99 163
51 99 160
48 99 157
47 97 155
47 98 154
47 98 154
45 100 155
51 99 160
47 98 155
47 99 155
48 99 158
49 97 156
47 98 155
47 97 153
46 97 151
43 96 148
47 97 152
40 99 143
34 110 135
30 139 134
16 137 111
6 139 108
0 140 103
0 152 108
0 148 112
0 150 101
0 130 91
0 143 100
0 137 98
0 151 107
0 148 111
0 144 104
0 150 110
0 156 113
0 147 103
0 158 113
0 143 103
0 134 95
0 162 116
0 146 100
0 148 105
0 138 97
0 150 103
0 146 105
0 148 104
0 146 100
0 148 102
0 148 107
0 156 110
0 135 97
0 146 99
0 138 90
0 153 107
0 145 97
0 149 100
0 143 93
0 151 99
0 150 101
0 153 105
0 158 103
0 145 100
0 144 99
0 144 102
0 142 88
0 153 106
0 139 95
0 144 100
0 148 92
0 150 100
0 153 106
0 152 102
0 146 99
0 138 88
0 155 99
0 142 91
0 157 104
0 155 100
0 155 101
0 167 114
0 145 97
0 156 101
0 163 111
0 152 102
0 164 113
0 166 117
0 156 102
0 171 110
0 158 108
0 170 117
0 166 111
0 155 99
0 164 114
0 173 122
0 171 114
0 177 120
0 166 117
0 173 117
0 182 127
0 175 128
0 172 119
0 175 120
0 176 123
0 170 118
0 173 116
0 178 121
0 179 123
0 181 127
0 170 118
0 177 124
0 180 127
0 182 131
0 183 130
0 184 130
0 179 130
0 187 139
0 180 126
0 182 130
0 180 131
0 185 132
0 189 136
0 185 130
0 190 141
0 186 129
0 190 139
0 190 138
0 194 141
0 193 144
0 195 141
0 182 126
0 194 144
0 186 133
0 203 153
0 193 143
0 194 148
0 195 142
0 194 145
0 196 149
0 196 149
0 194 144
0 192 144
0 188 136
0 204 152
0 195 148
0 195 146
0 203 155
0 204 157
0 196 148
0 194 145
0 187 139
0 201 155
0 201 151
0 201 153
0 201 156
0 207 163
0 202 155
0 200 152
0 209 163
0 207 162
0 198 152
0 203 156
0 204 155
0 206 161
0 203 154
0 199 155
0 208 160
0 221 181
0 220 180
0 221 181
0 220 180
0 219 179
0 220 181
0 220 180
0 221 181
0 216 177
0 220 180
0 218 179
0 219 180
0 221 181
0 218 179
0 217 178
0 220 179
0 218 179
0 218 179
0 218 178
0 216 178
0 218 179
0 218 178
0 221 180
0 217 178
0 216 177
0 219 179
0 219 178
0 215 175
0 219 177
0 217 178
0 215 177
0 217 178
0 218 178
0 217 178
0 213 176
0 216 177
0 214 175
0 217 176
0 218 177
0 215 176
0 215 177
0 217 177
0 209 172
0 211 173
0 217 178
0 214 175
0 214 176
0 215 176
0 210 173
0 209 171
0 216 177
0 217 176
0 216 177
0 218 179
0 210 173
0 213 175
0 207 170
0 213 174
0 215 176
0 212 174
0 212 173
0 210 174
0 211 174
0 211 173
0 211 174
0 213 175
0 214 176
0 210 173
0 213 175
0 212 173
0 211 174
0 207 171
8 210 172
20 193 168
28 183 169
35 152 161
43 132 161
46 101 156
48 97 158
48 99 159
49 99 160
53 99 164
54 99 166
51 99 163
51 99 163
50 99 161
52 98 162
50 99 161
51 99 163
49 98 161
51 98 162
57 100 170
53 99 165
54 100 167
53 99 165
53 98 165
55 100 170
53 99 165
53 99 165
54 99 168
55 99 169
55 100 168
54 100 167
53 99 166
56 99 171
56 98 171
57 100 172
59 99 174
58 100 172
58 100 172
54 99 169
57 99 173
55 100 170
56 99 169
57 100 173
57 100 172
56 99 171
57 100 171
54 100 167
56 100 171
57 99 171
51 100 164
55 100 168
54 98 167
53 98 166
54 100 167
51 101 164
52 101 166
55 102 169
53 103 166
50 103 163
52 99 163
50 99 162
48 98 159
49 99 158
49 100 159
49 99 161
50 98 160
50 100 159
50 98 161
53 100 165
51 99 161
49 99 161
53 100 164
51 100 163
54 99 166
51 99 161
51 99 164
50 98 162
49 98 159
52 97 162
51 99 163
53 99 165
50 99 160
53 100 166
51 99 162
53 99 165
50 100 163
54 100 168
54 99 166
53 100 165
52 100 163
55 99 167
52 98 162
54 100 165
53 99 165
52 100 162
55 100 168
52 99 164
54 100 166
53 100 165
52 99 164
56 97 166
54 100 167
54 100 166
52 100 164
54 100 166
51 99 162
52 98 162
49 100 161
52 100 165
52 100 164
51 99 163
53 100 165
50 99 162
52 99 164
50 100 162
52 100 163
52 100 164
53 99 165
51 99 163
51 100 163
54 100 165
51 99 162
55 100 167
54 100 166
51 100 163
50 98 161
53 99 164
51 100 163
51 99 162
52 100 164
49 99 160
52 99 162
51 99 161
53 100 164
52 100 164
50 99 160
51 100 161
51 100 162
49 98 159
49 99 158
55 100 165
51 99 163
50 100 161
51 99 161
50 99 160
48 98 157
51 98 161
50 99 159
51 99 162
53 99 165
51 100 160
49 100 159
48 100 159
49 100 161
53 100 164
52 100 163
49 99 159
52 98 161
52 99 162
48 99 158
49 98 158
52 100 163
48 99 158
48 99 157
49 99 158
44 98 152
50 99 158
49 98 158
49 99 158
48 99 156
48 97 155
45 97 150
49 99 159
47 98 154
48 98 157
46 97 151
45 98 152
45 98 152
43 96 146
43 97 149
36 89 131
35 119 135
26 132 122
17 146 120
0 148 106
0 147 108
0 148 112
0 150 107
0 149 108
0 155 119
0 143 104
0 136 98
0 155 115
0 144 102
0 150 106
0 138 95
0 153 108
0 147 107
0 149 108
0 149 108
0 139 101
0 138 97
0 135 92
0 151 110
0 146 101
0 157 109
0 140 93
0 161 115
0 145 102
0 142 95
0 142 96
0 143 100
0 154 108
0 154 104
0 149 103
0 155 109
0 153 103
0 140 93
0 153 103
0 136 92
0 148 99
0 150 107
0 145 94
0 165 113
0 156 111
0 159 112
0 157 103
0 157 107
0 143 96
0 137 94
0 146 100
0 149 96
0 154 107
0 143 89
0 137 85
0 148 99
0 149 104
0 165 109
0 160 110
0 153 98
0 157 100
0 156 104
0 158 107
0 164 109
0 163 112
0 158 111
0 162 108
0 166 111
0 161 108
0 159 105
0 161 103
0 166 111
0 165 109
0 166 112
0 170 112
0 167 113
0 172 117
0 163 107
0 168 120
0 162 110
0 174 123
0 170 111
0 169 115
0 166 109
0 179 125
0 169 122
0 179 129
0 181 129
0 178 124
0 179 124
0 175 118
0 190 139
0 180 125
0 184 131
0 190 139
0 179 132
0 186 132
0 189 137
0 189 135
0 176 125
0 166 112
0 190 138
0 184 126
0 187 133
0 194 144
0 184 135
0 187 137
0 191 138
0 189 138
0 199 147
0 198 147
0 183 138
0 194 148
0 195 144
0 183 135
0 197 145
0 193 145
0 196 145
0 196 149
0 189 140
0 195 145
0 201 152
0 200 149
0 199 150
0 204 155
0 189 139
0 197 151
0 202 155
0 191 142
0 204 158
0 199 153
0 198 149
0 198 152
0 201 155
0 201 152
0 202 152
0 204 157
0 202 155
0 197 154
0 206 160
0 205 159
0 194 150
0 206 162
0 196 150
0 201 154
0 206 161
0 209 163
0 208 160
0 220 179
0 218 178
0 221 181
0 220 179
0 219 180
0 219 179
0 221 180
0 220 180
0 219 179
0 222 181
0 216 177
0 217 178
0 220 179
0 217 179
0 218 179
0 219 178
0 217 178
0 221 180
0 219 179
0 220 180
0 214 176
0 215 177
0 218 179
0 217 177
0 218 178
0 214 176
0 221 181
0 220 179
0 217 178
0 214 176
0 213 175
0 216 177
0 217 179
0 216 176
0 216 178
0 214 175
0 214 176
0 216 176
0 217 177
0 215 176
0 214 175
0 218 177
0 215 177
0 214 175
0 216 175
0 215 176
0 212 174
0 217 177
0 215 176
0 209 173
0 217 178
0 213 175
0 214 176
0 210 173
0 214 176
0 207 169
0 213 176
0 214 176
0 209 171
0 211 174
0 213 174
0 211 173
0 213 175
0 214 176
0 210 173
0 209 171
0 212 174
0 211 173
0 212 174
0 215 175
0 208 172
0 211 174
7 212 174
9 211 174
25 186 169
34 159 164
36 144 159
46 107 157
48 98 157
47 98 156
47 99 157
48 99 159
48 98 158
48 98 158
50 99 160
49 97 159
48 99 158
48 98 159
51 99 162
50 98 162
53 99 166
50 99 161
54 98 165
51 99 164
51 98 163
52 98 163
54 100 168
57 100 171
53 99 166
53 99 167
58 100 173
51 99 163
53 99 166
53 99 167
54 99 168
57 99 172
58 100 174
57 100 172
56 99 171
59 100 175
57 100 171
56 99 171
55 98 168
58 100 173
57 100 172
57 100 172
54 99 168
55 99 170
57 100 171
58 100 173
54 99 168
55 100 169
55 99 167
54 100 168
57 99 172
52 98 163
51 102 163
50 99 161
51 101 163
52 104 165
52 100 165
51 98 163
50 99 162
51 101 163
50 100 163
53 98 165
49 101 162
52 99 162
52 100 161
52 99 164
50 98 160
54 99 167
45 98 155
49 98 160
47 99 158
51 100 163
52 97 162
52 99 165
53 100 165
55 101 167
52 99 164
49 99 159
52 99 164
51 99 163
54 99 166
52 99 164
54 100 167
49 98 159
50 99 162
50 100 162
52 99 165
51 98 162
50 99 160
51 99 163
52 100 164
49 99 160
51 98 160
51 99 161
53 100 166
52 99 163
54 100 166
52 100 164
53 99 165
53 100 166
50 99 161
51 99 162
50 100 162
57 100 171
51 99 161
49 99 160
52 100 163
53 99 163
52 99 162
53 99 164
54 100 167
53 99 164
52 99 163
53 99 165
56 100 167
49 99 160
52 99 163
48 99 159
47 99 159
54 100 166
53 99 165
49 98 159
50 100 162
53 100 165
51 100 163
49 99 161
53 99 164
53 98 162
53 99 165
46 99 155
45 99 155
52 99 164
51 99 161
49 99 159
53 100 165
51 100 163
50 99 161
52 99 163
50 99 162
49 99 159
51 100 161
50 99 160
49 98 159
52 99 163
48 98 159
52 100 162
55 101 166
52 100 162
50 99 160
45 98 154
54 100 165
49 99 159
48 99 158
52 100 163
50 98 160
52 100 163
51 99 162
51 99 161
48 99 157
49 98 158
50 98 158
50 99 159
44 99 152
45 99 154
49 99 157
46 97 152
45 98 154
45 98 151
44 98 151
49 97 157
50 98 157
45 96 150
44 97 151
43 97 149
48 97 156
45 97 150
46 96 150
42 97 147
42 112 144
32 128 135
21 136 117
13 147 114
0 148 105
0 146 110
0 148 112
0 128 92
0 150 118
0 154 110
0 141 102
0 152 116
0 167 122
0 145 105
0 157 115
0 145 106
0 142 97
0 155 114
0 143 106
0 140 97
0 144 99
0 158 114
0 147 108
0 143 98
0 154 104
0 141 97
0 151 106
0 149 109
0 149 102
0 159 113
0 142 99
0 154 109
0 158 110
0 161 116
0 148 100
0 147 105
0 136 89
0 157 109
0 153 110
0 164 111
0 153 104
0 149 97
0 142 97
0 150 103
0 158 112
0 144 96
0 149 98
0 139 87
0 147 100
0 157 111
0 150 106
0 169 116
0 158 105
0 155 104
0 150 98
0 156 107
0 157 111
0 159 106
0 156 103
0 160 106
0 156 108
0 161 114
0 156 101
0 157 103
0 164 108
0 162 106
0 154 101
0 162 108
0 152 103
0 157 107
0 174 120
0 164 110
0 171 116
0 170 115
0 172 118
0 163 116
0 170 118
0 167 118
0 181 126
0 172 122
0 172 120
0 166 113
0 176 122
0 169 119
0 166 104
0 176 123
0 181 131
0 177 123
0 165 113
0 185 133
0 184 132
0 171 112
0 186 134
0 174 122
0 175 125
0 190 141
0 179 130
0 180 128
0 179 129
0 181 130
0 175 126
0 190 139
0 183 131
0 187 133
0 189 138
0 181 126
0 190 140
0 189 141
0 183 133
0 194 142
0 195 146
0 190 137
0 198 150
0 200 151
0 184 133
0 196 146
0 192 142
0 196 148
0 190 144
0 200 153
0 198 152
0 194 143
0 204 159
0 203 155
0 197 148
0 198 149
0 197 153
0 196 145
0 204 156
0 200 154
0 200 146
0 205 158
0 201 154
0 196 148
0 202 153
0 200 153
0 200 154
0 204 154
0 202 156
0 209 165
0 195 149
0 207 161
0 207 160
0 201 158
0 202 155
0 206 161
0 209 165
0 204 153
0 221 180
0 221 180
0 220 179
0 217 178
0 219 179
0 220 180
0 219 179
0 219 179
0 219 179
0 218 178
0 217 178
0 216 177
0 219 179
0 218 178
0 218 179
0 218 178
0 216 176
0 217 178
0 219 179
0 215 177
0 216 176
0 217 176
0 216 177
0 217 178
0 215 178
0 219 179
0 219 177
0 218 179
0 215 176
0 218 178
0 216 177
0 218 178
0 216 176
0 217 179
0 214 177
0 215 177
0 213 175
0 218 178
0 217 177
0 215 176
0 217 178
0 218 179
0 215 176
0 214 174
0 213 175
0 217 178
0 213 175
0 214 175
0 213 175
0 211 174
0 212 173
0 213 174
0 215 176
0 213 174
0 211 172
0 219 177
0 218 178
0 218 178
0 207 171
0 213 174
0 213 174
0 213 174
0 217 177
0 209 173
0 211 173
0 210 172
0 211 173
0 214 176
0 212 175
0 209 171
0 212 173
0 212 172
0 208 170
6 202 168
15 190 163
31 175 167
35 151 162
39 131 157
50 103 161
46 100 158
47 100 158
49 98 158
50 100 162
51 100 162
47 99 158
51 99 163
53 99 165
49 99 160
52 99 163
52 100 163
53 99 165
52 100 164
50 99 161
49 99 161
50 98 161
54 100 167
53 98 168
53 98 164
56 98 169
52 98 163
54 100 167
55 99 167
56 99 170
56 100 170
56 100 170
58 100 172
55 99 168
58 100 172
60 100 176
57 100 171
56 100 170
53 99 166
57 100 172
56 100 170
56 100 170
58 100 173
58 100 173
57 99 172
57 98 171
55 99 170
55 99 169
57 99 170
55 99 169
53 99 166
53 99 166
55 99 168
55 101 168
51 103 163
53 101 165
51 99 164
52 102 162
52 103 166
50 99 161
50 101 162
50 100 162
48 100 159
51 99 163
50 98 162
49 99 160
48 97 158
51 99 161
46 97 155
51 99 162
49 99 160
53 99 165
53 99 165
50 99 160
50 98 161
53 99 164
48 97 158
49 99 160
53 99 166
48 98 159
49 99 161
51 99 163
52 97 162
51 99 163
53 100 164
52 99 163
53 100 165
56 100 168
52 100 164
50 99 160
53 100 164
51 99 162
52 99 163
51 100 164
52 100 164
54 100 166
52 100 163
50 99 162
53 100 166
54 100 167
52 100 164
50 100 160
50 98 160
52 100 163
52 99 164
55 100 167
51 99 162
53 100 164
50 99 160
54 100 166
54 101 165
51 100 163
50 100 161
50 98 160
49 98 159
49 98 158
50 100 161
52 98 162
52 99 163
55 100 167
51 98 162
50 100 162
50 100 162
56 99 168
51 98 161
53 100 166
49 99 159
50 99 161
49 98 159
52 99 163
53 101 165
49 99 159
50 100 162
54 100 166
46 100 155
46 99 157
52 99 163
55 100 166
50 98 158
51 99 162
49 99 158
50 100 161
51 98 160
53 100 165
48 98 157
50 100 161
50 100 160
53 101 165
50 98 160
49 100 160
51 100 161
51 99 161
52 100 162
47 99 157
49 100 159
52 99 162
52 100 164
47 99 157
48 99 158
50 99 159
50 99 161
49 99 158
50 99 158
45 97 152
48 100 157
48 98 154
50 99 158
51 98 158
48 96 153
48 99 157
47 99 156
46 98 153
45 97 151
49 98 158
47 97 152
43 97 147
43 96 148
44 96 148
46 107 151
36 123 140
31 125 129
11 135 111
6 145 112
0 142 103
0 150 112
0 141 109
0 146 112
0 152 114
0 152 112
0 157 118
0 149 104
0 160 117
0 136 100
0 151 112
0 162 116
0 154 108
0 164 121
0 144 102
0 161 115
0 146 109
0 159 111
0 152 114
0 146 106
0 158 106
0 153 113
0 144 103
0 153 110
0 148 104
0 143 99
0 148 103
0 158 111
0 142 94
0 148 105
0 147 100
0 152 103
0 139 89
0 162 117
0 147 105
0 146 97
0 144 95
0 150 99
0 153 102
0 162 110
0 149 102
0 146 97
0 152 105
0 165 117
0 146 97
0 158 110
0 156 109
0 143 97
0 152 105
0 141 84
0 162 107
0 158 110
0 150 105
0 165 112
0 160 105
0 160 105
0 169 115
0 167 111
0 162 112
0 153 103
0 164 111
0 158 102
0 168 111
0 158 105
0 168 115
0 169 117
0 173 121
0 172 120
0 159 108
0 169 111
0 174 122
0 172 125
0 175 126
0 162 116
0 176 122
0 172 118
0 175 126
0 175 122
0 169 116
0 171 114
0 173 125
0 178 128
0 173 123
0 173 119
0 184 131
0 175 119
0 174 123
0 171 117
0 178 125
0 176 123
0 195 141
0 189 138
0 183 132
0 176 125
0 189 138
0 194 147
0 181 124
0 189 138
0 184 133
0 199 153
0 192 141
0 188 137
0 188 139
0 190 139
0 186 134
0 181 127
0 188 141
0 188 137
0 188 142
0 186 140
0 197 148
0 195 144
0 194 143
0 195 146
0 189 137
0 201 151
0 199 150
0 198 149
0 196 148
0 202 154
0 192 139
0 202 154
0 197 147
0 201 158
0 200 154
0 202 154
0 201 154
0 203 159
0 204 157
0 209 164
0 206 154
0 203 157
0 201 157
0 200 152
0 204 155
0 200 154
0 204 155
0 204 158
0 197 147
0 203 154
0 207 162
0 203 156
0 203 159
0 206 162
0 220 179
0 218 178
0 215 177
0 221 180
0 220 180
0 219 179
0 219 178
0 217 177
0 221 181
0 219 179
0 216 176
0 219 179
0 218 178
0 218 178
0 219 179
0 220 180
0 220 180
0 218 177
0 220 180
0 219 178
0 219 178
0 217 178
0 218 176
0 216 177
0 219 179
0 215 176
0 216 177
0 215 176
0 218 178
0 216 177
0 215 176
0 217 178
0 212 173
0 215 176
0 213 174
0 216 178
0 214 175
0 215 175
0 217 177
0 216 177
0 212 175
0 214 176
0 213 174
0 213 175
0 213 175
0 216 176
0 212 174
0 209 173
0 216 176
0 214 176
0 213 175
0 216 177
0 211 172
0 210 173
0 212 173
0 208 172
0 210 174
0 209 172
0 209 172
0 212 174
0 214 174
0 207 171
0 211 174
0 206 170
0 212 173
0 212 173
0 200 164
0 210 172
0 211 174
0 210 171
0 203 170
0 211 172
0 208 170
0 215 174
13 201 171
27 177 166
32 165 164
44 144 167
42 116 155
47 98 156
45 98 153
50 99 161
49 99 159
46 100 156
49 99 159
52 100 163
49 100 160
49 98 159
48 98 159
53 99 166
52 99 163
54 99 167
48 98 158
48 98 159
53 98 164
52 99 163
53 99 166
51 99 163
55 100 169
53 99 166
57 99 172
58 99 171
55 99 169
53 99 167
52 98 164
56 98 169
52 98 164
57 100 172
59 100 173
57 99 172
55 99 170
55 98 169
57 100 171
53 100 167
56 99 171
57 99 171
58 100 173
58 100 171
57 100 171
56 100 169
59 100 174
54 99 168
53 100 165
53 99 166
56 100 169
54 99 167
52 98 164
53 99 164
51 101 163
53 102 166
52 105 165
51 102 165
47 104 159
54 100 166
51 101 161
50 99 161
44 102 156
50 101 162
51 99 163
51 100 162
50 99 161
51 98 162
48 99 160
53 98 164
47 99 158
51 98 161
51 98 163
52 98 162
50 99 161
48 99 159
53 99 165
51 99 162
49 99 158
49 100 161
50 98 160
48 98 159
50 100 161
49 97 158
51 100 162
52 99 163
48 98 159
51 99 163
52 99 163
49 98 159
54 100 166
45 97 153
53 100 166
48 98 158
49 98 160
51 99 161
49 99 159
48 98 159
52 98 162
53 99 164
53 99 165
51 99 162
54 99 166
53 100 165
52 99 163
47 99 157
52 99 163
50 100 160
48 99 159
52 99 164
52 100 163
55 100 168
49 99 159
55 99 167
52 99 164
54 100 166
49 98 160
50 98 160
53 99 164
49 98 157
52 99 163
51 98 162
53 99 164
51 99 161
52 98 163
53 100 164
51 100 162
45 99 156
51 100 163
52 99 163
50 99 161
49 100 160
54 100 166
52 99 163
51 98 161
46 99 156
49 100 159
49 98 158
47 100 157
49 99 158
49 99 158
52 100 164
46 99 156
47 98 158
48 99 157
52 100 163
48 100 157
51 100 162
51 99 160
48 100 158
51 99 161
51 99 161
49 98 157
49 100 158
51 100 161
50 98 158
52 99 162
52 99 162
46 98 154
49 100 160
50 100 159
46 98 155
50 99 158
49 99 157
51 98 159
48 97 155
45 96 152
46 97 154
47 99 155
48 99 158
48 97 155
48 98 156
45 98 153
42 96 148
41 96 146
45 96 151
37 94 138
36 114 136
28 121 129
23 124 115
11 145 115
0 139 103
0 146 109
0 160 122
0 144 110
0 150 113
0 134 100
0 155 118
0 153 114
0 143 110
0 154 111
0 140 105
0 151 105
0 144 100
0 160 120
0 148 107
0 140 100
0 159 110
0 140 98
0 150 111
0 164 121
0 152 106
0 149 109
0 143 100
0 153 103
0 162 115
0 155 110
0 150 103
0 153 113
0 144 100
0 154 104
0 150 106
0 159 112
0 150 100
0 157 112
0 154 106
0 156 109
0 137 92
0 144 97
0 149 101
0 149 103
0 159 113
0 143 97
0 157 102
0 150 107
0 160 108
0 146 103
0 156 105
0 162 107
0 152 105
0 165 119
0 151 106
0 160 111
0 156 102
0 163 111
0 168 122
0 148 102
0 158 104
0 166 113
0 156 109
0 175 126
0 161 104
0 163 116
0 165 106
0 163 108
0 157 107
0 167 114
0 174 121
0 161 113
0 166 118
0 164 110
0 170 120
0 174 119
0 163 111
0 169 112
0 165 113
0 171 124
0 168 115
0 174 121
0 182 135
0 184 131
0 181 123
0 180 120
0 176 122
0 176 123
0 181 129
0 177 119
0 173 120
0 180 124
0 170 118
0 181 124
0 180 129
0 181 129
0 181 127
0 179 124
0 177 127
0 195 148
0 181 132
0 183 133
0 194 143
0 189 137
0 189 139
0 183 129
0 185 130
0 192 142
0 184 133
0 189 144
0 191 139
0 193 142
0 197 145
0 194 143
0 199 152
0 201 152
0 195 141
0 192 137
0 197 147
0 193 143
0 191 145
0 204 156
0 192 144
0 200 156
0 194 149
0 195 147
0 200 155
0 194 147
0 200 155
0 200 153
0 209 162
0 198 148
0 202 153
0 193 146
0 204 158
0 193 143
0 206 156
0 206 158
0 198 152
0 208 158
0 207 160
0 202 158
0 201 154
0 200 154
0 202 158
0 202 157
0 204 158
0 210 164
0 206 160
0 221 179
0 220 180
0 219 180
0 220 181
0 217 178
0 217 176
0 216 177
0 218 179
0 217 177
0 214 175
0 215 178
0 214 176
0 216 178
0 216 177
0 217 176
0 218 179
0 219 179
0 219 178
0 215 176
0 217 177
0 216 177
0 215 176
0 217 178
0 213 176
0 216 177
0 214 177
0 218 179
0 217 176
0 215 176
0 219 179
0 216 177
0 216 178
0 217 178
0 211 173
0 214 176
0 211 173
0 218 179
0 211 174
0 215 177
0 213 176
0 218 178
0 218 179
0 214 175
0 211 173
0 214 176
0 218 179
0 213 176
0 214 176
0 211 173
0 213 175
0 211 173
0 215 176
0 211 174
0 212 173
0 214 176
0 209 174
0 215 176
0 209 173
0 211 174
0 216 178
0 214 174
0 207 171
0 208 172
0 208 171
0 210 172
0 205 171
0 207 171
0 208 172
0 211 173
0 207 171
0 210 174
0 206 169
0 212 174
0 206 170
6 197 165
21 195 170
26 180 165
35 157 163
43 119 157
46 102 155
42 99 151
50 100 162
48 98 157
50 98 161
48 98 158
52 98 162
50 99 160
51 99 161
46 97 156
53 99 165
52 99 164
50 99 163
53 98 163
53 100 166
47 98 159
55 99 166
48 97 158
53 98 164
53 100 166
49 98 158
53 99 163
55 100 169
53 99 165
56 99 168
59 100 173
58 100 174
55 99 169
59 99 175
55 99 169
55 99 169
55 100 169
56 100 170
57 99 172
59 100 175
56 99 171
56 99 170
56 99 171
59 100 173
59 101 174
56 100 169
56 100 170
55 99 169
55 99 169
54 99 167
54 99 168
52 99 165
52 100 164
53 98 165
54 101 168
53 102 165
52 103 166
52 101 164
51 98 163
50 106 161
50 100 162
53 99 164
52 102 164
49 105 161
46 100 156
49 98 159
49 102 160
47 97 156
49 100 160
54 100 166
54 100 166
50 97 160
45 100 156
50 99 161
48 100 160
52 99 163
49 98 160
52 98 162
52 99 162
49 99 159
51 100 162
51 100 162
52 99 164
52 100 164
52 100 164
50 99 161
55 100 166
50 99 162
50 99 161
53 100 164
51 99 162
54 99 167
51 99 163
53 100 165
54 99 166
48 100 159
52 99 164
49 99 160
52 99 163
53 100 166
51 100 163
50 100 162
50 100 162
51 100 162
50 98 161
55 99 166
52 100 164
51 99 162
50 98 160
51 100 162
50 99 160
52 100 164
52 100 163
51 100 162
54 99 166
52 100 164
54 100 166
50 99 160
50 100 160
50 99 161
50 98 161
50 99 161
51 98 160
53 99 163
50 100 160
54 100 166
51 99 163
51 99 163
48 99 159
51 100 162
51 99 161
50 99 160
47 100 157
53 100 164
48 98 158
52 100 164
49 98 157
50 99 160
53 100 164
51 99 162
48 99 157
50 99 160
49 99 158
50 98 158
50 100 160
52 100 162
49 99 157
50 100 160
48 98 156
47 99 157
50 98 158
50 99 160
51 98 161
50 100 161
46 98 155
47 99 156
48 99 157
47 98 155
48 99 158
46 97 153
47 98 155
46 98 153
46 99 154
52 100 162
49 99 159
47 96 153
47 98 154
45 98 152
42 98 148
49 97 156
44 97 150
46 98 153
48 99 156
45 98 152
46 95 151
42 96 147
41 99 137
35 108 131
22 141 131
13 139 111
0 145 107
0 159 121
0 154 115
0 148 105
0 153 116
0 144 102
0 138 99
0 152 114
0 162 120
0 157 119
0 142 104
0 153 115
0 157 114
0 153 108
0 162 115
0 166 125
0 151 110
0 146 103
0 156 112
0 147 103
0 150 108
0 156 116
0 151 107
0 144 100
0 140 102
0 151 109
0 146 103
0 170 121
0 155 104
0 140 98
0 157 113
0 148 105
0 148 97
0 157 113
0 148 104
0 152 105
0 150 101
0 151 109
0 150 103
0 151 104
0 150 105
0 162 116
0 147 103
0 149 108
0 169 116
0 164 121
0 158 113
0 158 108
0 154 106
0 150 103
0 157 108
0 155 96
0 157 108
0 154 107
0 162 105
0 153 105
0 165 115
0 165 115
0 155 103
0 157 112
0 161 110
0 164 116
0 169 110
0 160 104
0 174 123
0 172 120
0 164 112
0 176 125
0 169 119
0 173 120
0 163 106
0 166 113
0 181 127
0 162 112
0 177 124
0 183 136
0 175 128
0 177 123
0 176 122
0 167 111
0 175 119
0 171 121
0 173 123
0 169 121
0 175 127
0 177 125
0 180 126
0 181 129
0 190 137
0 180 128
0 177 124
0 184 128
0 186 134
0 180 132
0 184 135
0 183 129
0 177 121
0 190 139
0 186 138
0 189 136
0 194 139
0 193 140
0 193 142
0 196 146
0 193 141
0 190 142
0 193 141
0 191 143
0 197 147
0 196 146
0 196 150
0 190 144
0 189 145
0 190 143
0 196 146
0 194 145
0 197 150
0 199 147
0 199 147
0 196 147
0 198 147
0 196 143
0 195 145
0 195 145
0 190 138
0 201 152
0 199 154
0 199 152
0 199 151
0 197 152
0 198 153
0 199 148
0 203 155
0 209 162
0 201 155
0 202 155
0 209 166
0 204 156
0 196 148
0 204 160
0 202 154
0 205 159
0 207 162
0 202 154
0 207 161
0 208 161
0 218 179
0 219 178
0 219 179
0 215 177
0 218 177
0 218 179
0 217 178
0 217 178
0 218 177
0 220 179
0 217 178
0 217 178
0 220 180
0 218 179
0 220 180
0 216 177
0 214 176
0 215 177
0 220 179
0 218 179
0 218 178
0 219 179
0 215 175
0 213 175
0 219 179
0 219 179
0 215 176
0 215 177
0 212 175
0 217 178
0 214 176
0 218 178
0 216 177
0 218 178
0 216 177
0 214 176
0 215 177
0 216 178
0 215 176
0 212 175
0 214 176
0 213 175
0 214 173
0 211 173
0 213 175
0 212 175
0 210 173
0 215 174
0 214 176
0 213 175
0 212 174
0 209 171
0 216 176
0 215 176
0 205 168
0 211 175
0 211 173
0 207 171
0 209 172
0 210 173
0 208 170
0 205 170
0 207 171
0 213 176
0 206 169
0 212 172
0 210 172
0 209 172
0 207 170
0 206 170
0 210 173
0 213 174
0 205 169
0 214 175
5 204 167
11 192 162
23 187 167
33 166 166
36 140 157
44 110 156
44 98 153
48 99 158
45 97 153
44 99 154
50 99 159
44 99 153
50 100 161
48 99 157
50 100 162
51 99 161
51 99 162
46 99 157
49 98 160
52 99 163
52 100 164
53 100 165
51 100 163
50 98 162
54 100 165
56 99 168
53 99 166
53 100 167
51 98 164
55 99 169
51 99 163
55 99 169
57 99 170
56 100 171
55 99 169
56 99 169
57 99 173
58 100 172
56 100 170
55 99 169
55 99 170
58 99 173
55 99 170
55 100 168
56 100 170
57 99 170
53 99 167
56 99 170
58 100 172
55 99 168
52 98 165
51 99 165
53 100 166
55 99 168
51 99 162
51 100 161
51 101 162
49 103 162
49 100 159
49 102 160
47 105 160
50 99 160
48 98 157
56 102 169
52 100 164
51 98 162
48 100 160
52 99 163
50 100 162
45 98 154
52 100 164
50 100 161
53 101 165
46 98 157
52 98 162
53 98 166
52 100 163
48 99 159
51 99 163
53 99 164
48 98 158
51 99 161
53 99 166
50 99 160
51 99 161
50 100 162
52 100 163
52 99 165
51 100 161
52 100 163
50 98 160
48 98 158
47 99 157
51 99 162
51 100 163
51 98 163
50 99 159
53 100 165
51 99 162
52 98 165
50 100 162
50 99 161
48 99 159
54 100 166
54 101 166
53 99 163
51 99 161
49 99 161
51 98 162
51 100 161
51 100 163
51 99 160
49 96 159
49 100 161
52 99 163
51 100 163
47 98 156
51 99 161
52 99 162
48 100 158
53 101 164
53 99 164
51 99 160
51 99 161
50 99 160
49 99 160
51 99 161
49 99 160
48 100 158
52 98 161
55 100 167
46 99 156
51 99 162
49 99 159
50 100 161
49 100 160
52 100 162
51 98 160
51 100 163
50 99 161
50 100 160
53 100 165
49 99 157
51 99 161
50 100 161
49 98 158
50 97 159
51 99 161
49 98 158
47 99 157
50 100 159
49 99 160
44 98 153
49 99 158
46 99 156
46 99 157
46 97 154
48 99 157
50 99 159
47 100 155
44 98 152
50 99 159
45 96 151
46 99 154
50 98 158
49 99 156
48 98 156
42 97 149
47 98 155
43 97 148
47 99 156
43 96 148
50 99 157
45 96 148
43 98 150
38 103 143
34 117 136
26 138 130
21 128 110
13 142 113
0 138 101
0 141 108
0 150 105
0 146 108
0 155 118
0 141 106
0 153 119
0 145 102
0 154 115
0 146 105
0 141 104
0 149 105
0 156 116
0 148 109
0 148 106
0 159 115
0 142 101
0 147 104
0 155 108
0 146 104
0 156 118
0 149 111
0 151 107
0 143 103
0 148 101
0 145 101
0 156 113
0 147 106
0 154 111
0 165 122
0 156 115
0 150 110
0 166 122
0 159 120
0 146 102
0 152 110
0 150 104
0 145 103
0 153 109
0 144 98
0 170 122
0 153 105
0 155 105
0 156 110
0 169 117
0 151 102
0 165 113
0 153 100
0 150 99
0 159 110
0 166 115
0 155 105
0 163 107
0 164 115
0 163 117
0 154 107
0 168 120
0 169 119
0 168 117
0 167 119
0 167 118
0 173 123
0 169 120
0 163 116
0 156 109
0 171 119
0 172 122
0 173 119
0 172 120
0 166 116
0 162 112
0 172 123
0 168 118
0 173 118
0 174 120
0 177 120
0 169 120
0 180 130
0 165 112
0 180 126
0 183 131
0 176 124
0 181 127
0 176 118
0 178 125
0 183 133
0 180 132
0 176 125
0 185 135
0 177 125
0 184 135
0 184 133
0 173 124
0 186 139
0 177 124
0 184 132
0 189 139
0 181 129
0 181 127
0 180 125
0 180 132
0 191 146
0 192 143
0 193 141
0 196 146
0 197 147
0 197 146
0 190 138
0 190 143
0 186 139
0 193 146
0 200 151
0 201 152
0 201 152
0 197 147
0 198 154
0 188 142
0 205 156
0 197 149
0 199 153
0 201 150
0 199 154
0 202 154
0 200 153
0 204 156
0 193 142
0 199 152
0 198 150
0 202 152
0 205 159
0 205 161
0 206 161
0 204 158
0 201 154
0 208 163
0 206 158
0 204 159
0 198 151
0 207 161
0 205 159
0 200 155
0 203 158
0 206 159
0 208 162
0 203 156
0 204 159
0 220 180
0 220 180
0 218 178
0 220 180
0 217 176
0 218 179
0 219 179
0 218 176
0 217 179
0 218 178
0 219 180
0 214 176
0 217 178
0 217 177
0 219 179
0 217 177
0 215 175
0 217 177
0 218 177
0 219 178
0 215 176
0 219 179
0 216 177
0 217 178
0 217 179
0 212 174
0 216 177
0 218 179
0 218 178
0 217 177
0 217 179
0 217 178
0 214 175
0 213 176
0 212 174
0 217 177
0 213 175
0 212 173
0 213 175
0 216 177
0 216 177
0 213 175
0 216 177
0 214 176
0 212 174
0 213 175
0 210 172
0 213 175
0 212 173
0 212 174
0 212 173
0 212 173
0 210 173
0 211 174
0 208 172
0 213 176
0 213 175
0 205 168
0 212 175
0 211 174
0 209 173
0 211 174
0 210 172
0 208 172
0 207 170
0 211 172
0 208 171
0 204 167
0 207 169
0 204 169
0 210 171
0 210 172
0 207 170
0 208 171
0 205 168
9 207 172
19 197 170
24 165 155
34 154 161
35 123 151
45 100 153
51 100 162
51 99 162
50 100 160
46 99 156
47 97 156
47 98 158
48 99 158
48 99 159
49 99 160
52 100 164
49 98 160
49 97 158
53 99 166
52 97 164
52 100 165
51 99 162
52 98 164
51 99 163
53 101 165
50 98 161
55 100 168
55 100 168
54 98 165
55 99 168
54 100 168
52 99 165
55 99 168
55 99 168
55 99 170
57 99 171
55 99 170
59 101 174
55 99 169
59 100 174
56 99 170
56 100 170
57 100 171
56 99 169
55 99 168
53 100 167
56 99 171
56 100 170
56 100 168
51 99 163
54 100 167
51 99 163
52 97 162
51 99 162
53 101 165
53 99 165
50 100 160
47 106 158
49 100 159
50 100 160
51 103 165
53 99 165
50 98 161
52 99 163
48 100 158
49 101 160
51 99 161
49 98 159
52 99 162
51 99 162
50 99 162
52 100 162
51 98 161
48 99 158
53 98 164
49 99 160
49 98 159
48 99 158
52 99 163
54 98 165
47 98 156
49 99 160
51 98 162
51 99 164
55 100 168
51 100 162
52 100 164
46 98 154
51 99 161
53 100 166
54 100 167
50 99 161
51 100 163
51 100 162
53 100 165
53 99 164
47 98 157
50 99 161
52 100 163
49 98 159
51 99 162
50 99 159
53 99 164
50 99 161
50 100 160
52 99 163
48 99 158
49 99 159
55 100 166
50 100 161
51 100 160
52 99 163
50 100 161
49 97 158
52 100 163
51 99 163
50 99 162
45 98 154
53 100 165
49 99 158
53 100 165
49 100 159
54 100 165
49 99 160
49 99 160
47 99 156
44 98 152
50 98 160
50 99 160
47 99 158
46 100 156
50 100 162
49 99 159
48 99 158
50 100 161
52 100 162
48 100 158
47 99 157
46 98 155
50 100 160
49 99 159
48 99 157
50 99 160
49 98 159
52 99 161
50 100 160
45 99 153
51 99 161
49 99 159
50 98 160
47 99 157
49 99 157
48 99 157
49 99 158
43 97 150
51 100 161
46 98 155
47 98 155
45 98 152
49 99 158
52 99 161
48 100 157
50 98 158
43 97 151
42 96 149
45 97 152
51 100 160
46 98 155
44 98 151
42 99 149
45 99 153
44 98 152
45 95 150
40 99 145
34 102 134
25 125 125
24 140 127
17 149 118
0 143 105
0 146 108
0 150 113
0 165 122
0 163 121
0 156 118
0 155 113
0 153 111
0 144 111
0 146 109
0 151 114
0 147 110
0 145 109
0 145 104
0 158 116
0 156 114
0 147 107
0 165 123
0 139 100
0 168 128
0 157 120
0 155 107
0 162 116
0 166 126
0 146 102
0 141 105
0 153 114
0 161 122
0 149 105
0 157 115
0 150 103
0 149 110
0 159 111
0 161 115
0 166 120
0 154 108
0 156 109
0 147 101
0 155 110
0 153 108
0 151 106
0 166 118
0 152 99
0 169 125
0 158 117
0 159 112
0 158 117
0 160 112
0 156 112
0 166 119
0 167 117
0 165 117
0 161 107
0 163 115
0 163 118
0 170 122
0 170 115
0 165 116
0 171 122
0 158 108
0 161 113
0 169 117
0 170 124
0 173 122
0 157 112
0 159 107
0 171 119
0 175 126
0 174 125
0 178 125
0 166 112
0 170 120
0 170 119
0 176 125
0 173 129
0 182 131
0 182 127
0 178 126
0 180 130
0 172 119
0 174 124
0 175 124
0 181 133
0 171 121
0 180 128
0 178 127
0 178 127
0 185 137
0 184 135
0 181 129
0 184 129
0 181 126
0 186 134
0 181 131
0 182 130
0 177 130
0 196 147
0 185 133
0 187 142
0 185 133
0 191 146
0 191 142
0 194 144
0 187 137
0 193 145
0 191 146
0 187 136
0 196 149
0 189 133
0 191 142
0 200 152
0 190 140
0 193 143
0 195 147
0 193 148
0 199 151
0 204 156
0 197 148
0 197 150
0 200 152
0 190 144
0 196 144
0 200 150
0 201 154
0 194 148
0 204 159
0 197 150
0 208 161
0 203 155
0 198 153
0 203 154
0 204 159
0 201 154
0 205 156
0 202 152
0 203 155
0 198 150
0 200 157
0 204 160
0 199 151
0 200 154
0 204 157
0 207 159
0 202 157
0 203 158
0 207 162
0 208 163
0 221 180
0 217 177
0 218 178
0 217 178
0 220 179
0 216 176
0 221 181
0 214 175
0 219 179
0 217 179
0 217 179
0 219 179
0 218 178
0 215 176
0 220 179
0 214 175
0 217 177
0 219 178
0 218 178
0 214 175
0 213 174
0 218 179
0 217 178
0 215 177
0 214 175
0 219 178
0 215 176
0 217 177
0 216 178
0 217 179
0 213 174
0 216 176
0 217 178
0 215 176
0 220 180
0 217 178
0 213 174
0 217 178
0 212 174
0 210 174
0 210 173
0 216 178
0 206 170
0 213 174
0 210 172
0 210 173
0 215 177
0 213 175
0 212 174
0 210 173
0 213 174
0 209 172
0 212 175
0 206 169
0 206 170
0 214 174
0 200 167
0 212 173
0 204 168
0 210 172
0 209 171
0 209 174
0 212 174
0 211 173
0 205 168
0 204 169
0 205 168
0 210 173
0 210 172
0 205 169
0 205 169
0 205 169
0 208 172
0 197 162
0 209 173
6 205 169
12 199 168
21 190 168
31 172 166
33 151 159
42 113 154
44 98 152
47 98 157
45 96 152
49 98 157
49 100 159
51 98 162
51 98 162
48 99 158
50 98 160
48 98 157
47 99 157
51 98 163
50 98 161
52 99 162
46 98 156
50 97 159
51 99 163
50 100 162
52 98 162
52 98 164
54 99 168
52 100 164
52 99 165
53 99 166
51 99 163
53 100 167
51 97 164
57 100 170
55 100 168
55 99 169
55 99 169
57 99 173
56 100 171
56 100 171
57 99 172
56 100 170
57 100 172
58 100 172
55 100 170
57 100 171
55 99 168
56 100 170
55 100 169
57 100 171
52 100 164
56 100 170
52 100 164
57 100 171
51 99 163
51 107 165
53 103 165
53 99 164
51 99 162
50 99 161
47 102 157
51 98 160
50 99 162
47 104 157
48 99 159
47 100 157
48 98 159
54 101 167
50 101 160
52 98 163
48 99 158
51 99 162
50 98 161
51 100 162
53 99 164
47 99 157
49 99 159
51 97 161
49 97 158
51 99 162
50 98 160
49 98 161
49 100 159
51 99 161
48 98 158
50 98 161
50 99 160
50 100 162
48 97 157
51 99 162
49 98 158
50 98 160
51 100 162
49 97 158
48 98 157
49 99 159
49 98 158
50 98 161
51 99 161
52 99 164
53 99 163
50 99 161
46 100 157
52 100 163
51 100 162
53 99 164
48 99 158
50 98 159
50 100 161
50 100 160
48 99 158
52 100 163
51 100 162
49 99 159
53 100 166
51 100 163
47 99 157
51 98 161
50 100 161
49 99 159
52 97 160
52 99 163
49 99 161
50 99 161
54 98 165
51 99 163
50 98 160
51 100 162
47 100 157
52 99 162
48 98 157
47 99 156
45 98 153
51 99 161
53 100 164
50 99 161
49 99 159
50 99 160
52 100 163
46 98 154
52 99 162
50 99 159
48 98 157
51 99 161
49 99 158
46 98 154
50 98 158
48 99 159
49 98 158
49 97 157
47 98 155
50 100 161
44 97 151
51 99 159
42 99 151
46 98 153
46 100 156
47 98 153
46 98 154
48 98 155
48 99 157
45 98 153
42 99 150
47 98 156
44 97 152
47 96 153
47 98 154
45 98 153
46 96 152
47 98 153
38 96 144
46 95 151
46 96 149
37 105 141
32 119 137
17 127 119
15 145 118
0 154 116
0 150 116
0 150 115
0 151 116
0 137 101
0 146 113
0 146 106
0 155 114
0 146 113
0 151 112
0 155 116
0 163 119
0 145 112
0 149 112
0 159 114
0 158 118
0 144 105
0 157 121
0 157 119
0 156 117
0 157 119
0 159 118
0 143 100
0 154 111
0 157 120
0 153 108
0 158 112
0 158 119
0 152 109
0 158 115
0 158 111
0 152 108
0 140 99
0 146 99
0 158 114
0 167 120
0 154 112
0 154 117
0 157 111
0 164 118
0 168 123
0 156 112
0 157 110
0 161 107
0 165 114
0 162 114
0 163 114
0 168 121
0 173 131
0 168 120
0 157 113
0 170 120
0 156 111
0 161 115
0 159 115
0 162 112
0 161 116
0 158 109
0 153 105
0 153 100
0 168 119
0 175 125
0 163 110
0 179 131
0 166 120
0 177 126
0 173 126
0 185 134
0 167 115
0 173 124
0 164 115
0 169 117
0 183 133
0 176 125
0 179 124
0 176 127
0 180 129
0 178 129
0 178 126
0 168 117
0 180 127
0 183 129
0 177 137
0 172 124
0 177 125
0 185 138
0 174 122
0 171 120
0 180 129
0 185 141
0 186 137
0 177 130
0 191 136
0 181 130
0 186 133
0 173 121
0 184 134
0 190 140
0 175 122
0 191 141
0 183 128
0 185 131
0 191 139
0 182 129
0 193 147
0 193 143
0 189 139
0 190 143
0 193 146
0 190 143
0 201 151
0 192 146
0 194 146
0 191 145
0 192 142
0 196 148
0 191 146
0 190 141
0 191 141
0 197 151
0 187 142
0 202 155
0 199 151
0 204 154
0 205 160
0 204 157
0 195 147
0 203 155
0 208 156
0 198 152
0 201 155
0 198 151
0 205 160
0 194 146
0 204 158
0 203 155
0 202 155
0 207 162
0 207 162
0 200 154
0 204 161
0 200 155
0 205 159
0 201 156
0 204 160
0 202 153
0 208 162
0 212 167
0 219 179
0 215 177
0 217 178
0 217 178
0 219 179
0 217 178
0 219 179
0 219 179
0 217 178
0 214 176
0 215 176
0 217 178
0 220 179
0 215 178
0 219 179
0 217 176
0 218 178
0 214 175
0 217 178
0 212 175
0 215 177
0 213 174
0 214 175
0 218 178
0 218 178
0 215 176
0 218 178
0 214 175
0 215 175
0 214 176
0 211 173
0 213 175
0 218 178
0 211 175
0 215 177
0 213 175
0 212 173
0 213 176
0 215 176
0 212 175
0 210 172
0 209 173
0 212 174
0 212 174
0 211 174
0 211 173
0 212 174
0 216 177
0 214 176
0 208 170
0 214 176
0 211 174
0 209 172
0 211 173
0 212 175
0 206 169
0 210 172
0 210 173
0 212 174
0 211 173
0 214 175
0 210 173
0 204 168
0 211 174
0 208 171
0 209 172
0 208 171
0 201 166
0 205 169
0 207 170
0 206 169
0 211 174
0 206 168
0 207 170
0 202 168
0 214 175
0 200 166
17 185 161
22 186 165
31 156 159
38 134 157
42 103 152
44 98 152
46 97 153
48 99 157
45 98 154
46 98 154
46 99 157
48 99 158
45 97 153
49 98 158
51 98 162
47 98 157
45 97 154
50 99 161
47 99 158
48 99 159
49 99 161
51 99 163
52 98 163
48 99 159
49 99 159
52 100 164
55 100 167
52 99 163
49 98 160
51 99 163
51 99 163
52 100 164
55 99 170
54 99 167
55 99 168
55 99 169
56 99 170
57 99 171
56 100 170
55 100 168
52 99 164
54 99 167
54 100 167
57 101 171
55 100 168
54 99 167
56 100 171
58 100 172
55 99 168
54 98 166
54 100 166
51 98 163
56 99 169
51 101 163
52 103 163
52 103 166
49 99 160
49 98 159
47 105 158
48 98 158
50 100 160
49 100 159
49 101 161
50 100 161
50 102 162
45 98 154
48 98 158
46 97 156
47 99 158
48 95 156
50 99 160
49 99 160
53 100 166
51 100 162
51 99 162
49 98 161
51 98 160
49 99 160
52 99 163
52 99 163
51 99 162
50 98 160
52 99 163
54 99 165
50 99 160
52 100 163
47 100 157
55 100 167
49 99 159
49 98 160
49 99 160
50 99 160
50 100 162
54 99 167
49 100 160
48 99 159
49 99 161
46 98 155
49 98 159
50 100 161
50 99 161
50 99 159
51 100 162
50 100 161
48 98 157
47 97 156
52 99 162
51 99 162
52 101 164
51 99 161
51 99 161
50 100 161
50 98 160
53 100 165
50 99 161
51 100 162
51 99 162
48 99 159
48 100 158
52 100 162
50 99 160
49 99 159
49 99 158
49 100 158
48 99 158
52 99 162
48 99 159
52 100 165
50 98 159
45 98 155
53 100 164
48 99 155
49 100 159
53 100 165
48 98 157
51 99 159
50 98 159
49 99 158
50 101 160
46 99 156
52 99 162
50 99 159
50 99 160
49 99 158
47 99 157
45 99 154
51 97 159
46 97 154
44 98 153
50 98 158
47 98 155
47 99 156
48 98 156
45 97 151
44 98 152
47 98 155
45 97 153
46 98 155
43 98 151
43 96 149
48 98 156
47 98 155
49 97 156
49 98 157
42 96 148
43 95 149
46 97 152
41 96 146
41 98 146
42 97 148
40 104 147
34 126 140
26 140 135
11 143 113
0 155 122
0 155 121
0 150 111
0 151 117
0 156 118
0 152 111
0 149 111
0 141 107
0 145 108
0 154 113
0 156 117
0 157 119
0 158 120
0 148 114
0 147 109
0 158 114
0 154 114
0 156 113
0 149 113
0 164 123
0 151 111
0 159 120
0 167 128
0 160 118
0 155 115
0 162 123
0 155 112
0 148 98
0 167 125
0 158 117
0 162 121
0 171 126
0 155 111
0 153 111
0 153 111
0 160 120
0 161 117
0 160 115
0 162 113
0 164 117
0 165 120
0 155 107
0 154 114
0 154 108
0 155 112
0 170 122
0 167 118
0 161 116
0 159 115
0 168 126
0 163 117
0 161 117
0 164 117
0 159 109
0 161 112
0 169 120
0 169 121
0 162 114
0 173 123
0 172 124
0 157 106
0 162 112
0 170 121
0 170 120
0 168 123
0 165 118
0 165 122
0 164 116
0 169 120
0 172 121
0 181 127
0 174 125
0 168 122
0 172 129
0 172 117
0 182 128
0 178 128
0 186 135
0 171 119
0 176 128
0 181 130
0 173 126
0 185 137
0 172 122
0 168 115
0 178 130
0 175 123
0 186 131
0 181 130
0 179 129
0 175 126
0 180 133
0 184 131
0 182 133
0 193 144
0 182 137
0 188 138
0 189 139
0 184 133
0 184 129
0 184 136
0 189 139
0 188 140
0 187 138
0 187 139
0 190 141
0 183 132
0 198 146
0 188 136
0 193 145
0 193 143
0 197 149
0 195 150
0 191 142
0 196 150
0 190 144
0 197 155
0 195 144
0 195 150
0 192 144
0 200 151
0 204 159
0 194 148
0 193 142
0 195 149
0 200 153
0 197 153
0 199 152
0 201 153
0 203 157
0 203 159
0 212 168
0 203 155
0 207 163
0 209 160
0 198 150
0 203 161
0 203 157
0 204 159
0 202 155
0 203 158
0 205 160
0 206 160
0 207 161
0 204 160
0 201 155
0 200 158
0 208 161
0 208 163
0 216 175
0 220 180
0 219 179
0 219 179
0 218 178
0 219 179
0 214 177
0 215 176
0 218 177
0 214 176
0 216 177
0 216 177
0 214 176
0 217 178
0 217 178
0 214 175
0 218 178
0 221 179
0 218 177
0 216 178
0 216 177
0 215 176
0 216 177
0 217 178
0 217 177
0 213 175
0 213 175
0 212 174
0 214 177
0 216 178
0 213 176
0 213 175
0 215 177
0 217 177
0 207 171
0 213 175
0 216 178
0 209 172
0 210 172
0 213 176
0 214 174
0 212 174
0 217 178
0 211 174
0 209 171
0 213 175
0 213 175
0 214 176
0 210 173
0 214 176
0 213 174
0 213 174
0 210 172
0 207 172
0 206 170
0 209 170
0 211 173
0 205 167
0 210 173
0 210 174
0 205 169
0 206 170
0 204 168
0 207 171
0 201 166
0 208 172
0 204 168
0 206 169
0 214 176
0 202 167
0 210 173
0 207 172
0 204 168
0 210 174
0 200 163
0 199 165
0 200 165
0 207 171
12 187 160
25 175 164
35 133 152
40 115 152
42 98 149
47 97 153
45 97 154
47 99 158
45 97 154
43 98 153
49 98 158
43 97 151
49 99 159
49 98 159
46 97 157
50 99 161
47 98 158
51 99 162
50 98 161
49 99 160
48 99 157
51 99 162
47 99 158
48 97 158
53 100 165
51 98 163
52 98 163
53 99 165
53 98 165
52 99 163
55 99 168
54 99 167
53 99 166
53 100 166
55 99 168
58 99 173
56 100 171
54 99 167
53 99 167
56 99 170
57 100 171
52 99 165
54 100 167
54 99 168
56 100 169
57 100 170
55 100 168
54 99 168
52 99 164
52 100 165
53 100 166
54 100 166
46 99 158
48 99 160
48 102 159
45 102 156
49 101 161
50 105 162
49 102 160
49 102 160
52 99 163
44 101 154
46 101 156
50 100 161
50 102 162
45 98 154
49 99 160
49 99 160
49 101 159
48 98 158
52 100 165
46 98 155
51 100 161
48 98 158
50 99 161
47 99 157
51 99 161
48 99 158
50 100 160
49 98 159
48 98 158
52 99 162
50 99 160
48 97 157
50 100 161
49 99 158
49 98 159
50 100 162
50 100 161
49 99 158
51 99 161
55 100 167
52 99 164
52 99 163
46 97 155
50 99 160
48 99 158
49 100 158
52 100 163
46 99 156
47 99 158
52 99 163
49 100 160
46 99 156
47 98 158
51 100 161
52 99 162
50 99 160
50 98 158
52 100 163
52 99 162
48 99 159
48 99 157
50 100 161
51 100 160
53 99 163
50 100 161
48 100 159
48 99 157
47 99 158
50 99 160
50 99 162
46 98 156
49 99 160
50 99 162
50 99 160
51 99 161
48 98 156
49 99 158
47 99 157
47 99 157
49 98 158
48 100 158
50 99 159
47 98 157
51 99 160
51 99 160
44 99 152
46 99 155
52 99 161
44 100 155
48 99 156
51 97 161
49 99 159
46 99 154
48 99 158
51 99 160
48 99 157
47 100 156
50 100 160
48 98 157
43 98 152
44 97 150
51 97 159
45 98 153
48 99 156
46 98 155
51 99 161
44 96 150
49 97 155
46 97 153
44 97 151
43 98 151
48 97 153
43 97 149
48 97 155
41 95 144
43 96 147
42 96 148
31 107 131
31 113 127
19 141 125
16 138 111
9 154 119
0 160 122
0 150 114
0 160 124
0 141 101
0 149 119
0 157 118
0 154 113
0 147 114
0 157 122
0 158 119
0 134 98
0 162 124
0 151 113
0 164 126
0 158 119
0 160 119
0 162 122
0 149 108
0 158 122
0 172 130
0 152 114
0 151 113
0 162 120
0 151 107
0 149 106
0 155 114
0 155 119
0 150 115
0 148 110
0 170 128
0 165 123
0 152 107
0 160 121
0 160 113
0 155 113
0 160 118
0 165 117
0 160 117
0 158 114
0 165 119
0 154 112
0 165 126
0 158 114
0 161 117
0 154 114
0 161 115
0 161 114
0 168 124
0 166 113
0 170 122
0 169 119
0 165 116
0 161 114
0 171 126
0 175 127
0 161 115
0 165 116
0 172 124
0 159 114
0 170 120
0 162 118
0 157 110
0 163 118
0 168 119
0 171 126
0 167 120
0 177 130
0 169 121
0 175 128
0 174 124
0 184 135
0 176 129
0 180 136
0 177 129
0 165 116
0 177 125
0 179 131
0 170 122
0 176 127
0 176 127
0 182 132
0 176 128
0 183 140
0 188 136
0 172 119
0 182 136
0 184 134
0 179 131
0 176 121
0 177 127
0 184 132
0 192 143
0 179 126
0 191 139
0 188 140
0 186 139
0 191 139
0 174 125
0 197 149
0 194 145
0 184 135
0 191 136
0 197 146
0 186 138
0 190 139
0 195 149
0 196 148
0 192 146
0 199 150
0 192 142
0 195 147
0 194 146
0 199 154
0 205 157
0 200 151
0 190 142
0 199 152
0 199 155
0 200 153
0 204 156
0 195 149
0 196 147
0 197 155
0 199 154
0 193 143
0 198 152
0 198 156
0 202 153
0 197 153
0 199 154
0 197 152
0 202 156
0 201 155
0 200 152
0 203 157
0 195 150
0 203 157
0 206 159
0 195 152
0 209 162
0 205 162
0 212 167
0 202 160
0 206 160
0 201 159
0 209 167
0 203 158
0 204 157
0 219 179
0 220 180
0 220 180
0 218 177
0 217 178
0 222 180
0 213 175
0 219 180
0 221 181
0 215 175
0 220 181
0 218 178
0 219 179
0 218 179
0 215 176
0 213 176
0 212 172
0 220 180
0 219 179
0 217 177
0 217 178
0 213 176
0 218 178
0 214 175
0 216 176
0 217 178
0 217 177
0 215 177
0 214 176
0 218 178
0 213 175
0 211 173
0 212 174
0 215 176
0 215 176
0 216 178
0 211 174
0 211 174
0 214 176
0 215 177
0 213 175
0 209 172
0 210 174
0 214 175
0 208 171
0 210 174
0 214 176
0 214 175
0 211 173
0 212 173
0 207 171
0 208 172
0 209 173
0 207 170
0 213 174
0 215 176
0 205 169
0 208 171
0 208 171
0 209 172
0 210 173
0 208 172
0 211 174
0 204 167
0 204 168
0 207 170
0 206 170
0 199 166
0 204 167
0 207 171
0 207 171
0 195 163
0 204 169
0 195 161
0 207 169
0 205 169
0 206 170
0 202 166
13 190 163
19 189 166
30 167 160
35 138 153
42 105 152
43 97 151
45 98 154
47 96 155
45 98 155
48 99 158
46 98 155
52 99 163
47 99 157
50 100 161
47 99 157
49 100 160
47 100 159
48 99 159
48 98 158
50 99 162
52 98 162
52 99 163
49 98 160
48 96 157
53 99 164
53 99 166
48 98 159
55 100 166
50 99 162
53 100 165
53 98 165
52 100 165
53 99 165
51 99 162
57 100 171
54 100 166
53 99 166
55 99 170
54 99 167
54 100 167
54 100 167
52 99 164
54 100 168
56 100 169
58 101 171
53 99 166
56 100 170
52 100 165
54 98 165
55 99 167
51 99 162
50 99 162
55 99 168
52 98 163
52 105 165
49 101 160
53 98 164
50 103 162
48 108 161
49 102 161
48 104 160
46 102 156
47 98 157
51 102 163
46 99 155
47 101 156
47 98 156
49 100 160
46 100 155
52 99 164
46 98 155
46 99 157
49 102 160
52 100 163
46 99 156
50 99 160
49 98 160
50 99 161
51 98 160
48 98 159
50 98 160
49 99 158
48 98 158
51 99 163
50 98 160
48 99 157
51 99 163
45 99 155
49 99 159
48 99 157
48 99 159
50 99 160
46 98 155
50 99 159
46 97 156
46 98 157
48 98 157
50 99 161
53 99 164
52 100 164
46 99 158
50 100 162
50 99 161
47 99 156
51 100 162
55 100 166
54 100 166
50 100 161
49 100 160
49 99 158
54 99 166
52 100 164
50 100 161
46 99 155
52 99 162
50 99 160
49 100 159
47 98 157
48 100 157
50 99 159
46 99 156
50 100 160
50 99 160
54 100 166
49 98 157
44 99 153
47 99 157
50 100 162
48 99 157
49 99 158
52 99 163
48 99 158
52 98 159
49 99 157
45 99 153
49 100 158
50 99 161
45 99 154
50 99 160
51 100 162
48 99 159
49 99 159
47 98 156
46 99 155
45 99 153
44 97 150
48 98 157
47 99 155
46 98 154
45 98 154
49 99 157
49 98 156
45 98 152
45 99 153
45 97 151
44 97 151
46 99 155
44 97 151
43 97 150
45 98 152
44 97 150
45 97 152
48 99 157
43 97 151
42 97 148
42 97 147
42 95 145
44 95 147
41 109 146
36 108 137
19 142 127
18 146 124
7 149 114
0 152 115
0 148 109
0 144 110
0 149 114
0 159 122
0 160 121
0 154 115
0 160 124
0 142 107
0 148 109
0 142 107
0 167 129
0 145 110
0 168 125
0 148 110
0 160 119
0 150 108
0 158 119
0 155 117
0 162 123
0 155 117
0 146 108
0 149 112
0 158 115
0 154 114
0 159 117
0 160 116
0 148 103
0 163 121
0 155 113
0 154 111
0 164 121
0 154 115
0 169 127
0 159 116
0 162 115
0 170 127
0 170 120
0 160 115
0 167 120
0 166 121
0 177 131
0 171 126
0 151 106
0 163 113
0 174 128
0 162 118
0 153 103
0 169 121
0 169 122
0 173 126
0 160 110
0 173 125
0 167 119
0 166 118
0 153 107
0 178 128
0 163 125
0 170 124
0 165 117
0 162 115
0 171 121
0 153 105
0 175 127
0 173 118
0 180 133
0 173 123
0 182 141
0 177 129
0 176 128
0 172 126
0 179 129
0 178 127
0 183 132
0 182 135
0 162 113
0 180 133
0 179 127
0 183 130
0 184 138
0 181 133
0 181 133
0 175 123
0 176 132
0 177 128
0 180 133
0 189 142
0 189 142
0 186 137
0 188 137
0 184 135
0 187 134
0 182 130
0 190 144
0 188 144
0 183 130
0 191 143
0 179 126
0 187 140
0 187 137
0 189 138
0 191 146
0 194 143
0 179 124
0 193 145
0 189 137
0 195 146
0 182 137
0 196 153
0 194 144
0 194 146
0 193 146
0 187 139
0 196 150
0 192 144
0 194 146
0 192 142
0 203 154
0 195 146
0 192 145
0 195 148
0 204 157
0 199 154
0 196 146
0 202 155
0 205 157
0 198 152
0 201 155
0 200 151
0 198 152
0 203 161
0 201 156
0 197 151
0 204 158
0 201 154
0 210 166
0 206 162
0 206 158
0 205 159
0 202 156
0 202 155
0 201 160
0 209 164
0 209 165
0 200 155
0 203 157
0 208 164
0 205 158
0 210 167
0 219 180
0 217 178
0 218 178
0 213 175
0 219 179
0 218 179
0 219 180
0 215 176
0 218 178
0 213 175
0 218 178
0 214 176
0 217 177
0 215 177
0 214 175
0 215 176
0 216 177
0 218 178
0 220 179
0 216 176
0 210 172
0 216 177
0 216 178
0 215 176
0 214 176
0 214 174
0 214 173
0 213 176
0 215 177
0 212 175
0 213 175
0 210 172
0 207 171
0 213 175
0 213 175
0 216 178
0 213 175
0 214 176
0 204 169
0 214 175
0 215 176
0 212 175
0 215 176
0 202 166
0 212 175
0 213 175
0 211 174
0 207 171
0 211 174
0 211 174
0 214 176
0 216 176
0 209 173
0 207 172
0 210 172
0 208 172
0 213 174
0 209 172
0 209 173
0 206 170
0 212 174
0 208 171
0 203 168
0 208 171
0 204 167
0 208 171
0 209 172
0 207 171
0 208 170
0 208 171
0 212 174
0 202 164
0 206 171
0 202 165
0 197 164
0 205 169
0 210 173
0 198 163
7 203 167
12 189 161
25 184 168
33 140 152
38 129 157
44 100 152
48 99 157
46 98 155
45 98 154
43 95 149
46 96 153
48 100 159
48 98 157
49 97 159
47 99 157
49 97 158
45 99 155
49 99 158
49 99 158
50 100 161
49 99 158
48 98 158
53 99 164
50 98 160
45 96 154
48 99 158
48 99 160
50 98 161
53 99 164
55 100 168
51 97 162
52 99 164
53 100 166
55 100 168
52 98 164
53 100 166
52 99 165
57 100 171
54 99 167
56 100 170
57 100 170
57 99 171
58 100 172
55 100 169
56 99 168
55 100 169
53 99 165
59 100 175
55 99 169
53 100 166
53 100 166
53 98 164
52 99 164
52 99 163
52 99 163
51 101 163
50 101 161
47 100 157
51 99 162
50 103 161
49 101 161
45 103 155
52 103 163
53 99 164
48 98 157
46 102 157
48 101 159
51 98 161
46 99 157
49 99 159
49 100 160
46 99 155
50 99 159
52 100 163
48 100 158
50 100 161
49 99 160
47 99 157
52 99 163
50 98 161
51 99 160
49 99 159
48 100 158
47 98 156
50 98 161
49 100 160
48 98 159
50 99 161
50 99 161
50 100 161
50 99 161
50 99 159
49 97 158
50 99 159
48 100 158
50 99 160
48 98 157
51 100 162
54 100 166
43 98 152
48 99 157
48 99 158
46 98 155
48 99 159
49 98 159
48 98 157
48 99 158
50 99 160
54 99 165
48 99 158
49 98 159
50 100 160
49 99 159
48 99 157
50 99 161
50 98 159
47 98 157
47 97 156
48 98 158
49 99 159
51 99 161
48 99 157
52 99 162
48 98 157
49 99 160
48 100 157
51 100 162
51 99 160
45 100 155
49 98 158
50 99 159
47 99 158
47 98 157
44 99 154
49 99 158
50 100 161
51 100 163
48 99 157
49 98 156
51 98 160
45 98 153
46 98 154
45 99 154
47 99 156
47 97 154
49 99 157
46 98 155
47 97 154
47 99 155
52 98 161
48 98 156
49 98 157
52 100 161
43 96 148
49 99 159
43 97 150
43 99 151
46 97 153
42 98 149
46 97 153
44 96 150
47 98 156
46 99 154
42 95 146
42 96 149
45 95 149
44 93 145
38 94 139
32 116 133
24 129 125
24 130 121
11 150 122
0 152 109
0 139 105
0 150 115
0 148 110
0 153 119
0 172 131
0 149 113
0 157 120
0 151 116
0 156 120
0 161 121
0 151 109
0 156 122
0 156 121
0 152 117
0 149 112
0 157 118
0 161 121
0 141 107
0 154 119
0 163 123
0 162 123
0 170 129
0 156 114
0 155 117
0 151 113
0 160 116
0 158 116
0 169 124
0 155 114
0 156 120
0 146 99
0 162 120
0 156 116
0 164 121
0 162 122
0 168 124
0 161 120
0 146 100
0 162 115
0 154 105
0 158 116
0 170 129
0 171 130
0 157 113
0 169 122
0 169 124
0 175 128
0 161 116
0 161 114
0 171 127
0 165 120
0 162 122
0 165 117
0 164 122
0 165 117
0 175 126
0 176 122
0 169 122
0 168 118
0 171 125
0 177 129
0 165 121
0 176 133
0 176 135
0 179 131
0 174 121
0 175 125
0 181 131
0 176 124
0 167 112
0 176 127
0 178 135
0 178 126
0 183 133
0 179 130
0 178 131
0 187 139
0 185 140
0 173 124
0 177 132
0 176 121
0 188 142
0 173 126
0 191 143
0 176 130
0 179 131
0 189 139
0 182 126
0 187 137
0 196 148
0 184 137
0 192 143
0 178 128
0 188 137
0 186 135
0 180 131
0 193 144
0 186 133
0 178 132
0 193 142
0 191 138
0 192 143
0 193 144
0 197 143
0 198 149
0 192 146
0 188 140
0 189 140
0 189 139
0 192 143
0 194 148
0 193 141
0 198 150
0 195 147
0 198 150
0 197 152
0 191 142
0 199 155
0 199 150
0 198 151
0 194 154
0 201 156
0 196 149
0 198 151
0 200 153
0 195 147
0 198 153
0 199 154
0 202 156
0 203 157
0 198 151
0 199 155
0 198 150
0 204 160
0 206 160
0 207 157
0 202 157
0 203 159
0 208 164
0 199 152
0 209 163
0 203 156
0 209 165
0 200 151
0 207 162
0 200 154
0 209 168
0 205 158
0 207 162
0 219 178
0 220 179
0 218 178
0 216 178
0 216 176
0 216 177
0 219 179
0 216 177
0 214 175
0 218 179
0 215 176
0 218 178
0 221 181
0 213 174
0 212 175
0 211 175
0 215 177
0 216 176
0 216 178
0 220 179
0 215 177
0 214 176
0 215 175
0 213 175
0 216 177
0 216 178
0 218 178
0 217 177
0 210 172
0 215 177
0 215 176
0 213 176
0 211 174
0 214 176
0 218 178
0 211 173
0 214 174
0 210 173
0 215 176
0 209 172
0 214 176
0 213 175
0 205 170
0 210 173
0 213 174
0 213 175
0 214 175
0 206 170
0 209 173
0 209 171
0 205 169
0 217 177
0 213 176
0 215 176
0 210 172
0 206 170
0 204 170
0 204 168
0 212 174
0 204 168
0 201 166
0 207 171
0 202 168
0 204 169
0 203 166
0 200 166
0 202 168
0 206 169
0 198 166
0 203 169
0 206 170
0 197 161
0 202 166
0 197 164
0 206 170
0 203 168
0 202 167
0 195 161
0 202 167
0 197 164
15 188 161
28 165 160
36 130 151
41 103 149
43 98 151
41 96 149
46 98 154
41 97 150
47 98 155
50 98 160
45 98 154
50 97 159
45 98 154
43 97 151
49 98 158
45 98 153
47 99 157
49 98 158
43 97 152
51 100 163
48 99 159
46 97 154
50 99 159
49 98 159
47 98 157
48 97 160
52 98 162
46 97 156
52 99 163
50 97 161
53 100 165
52 99 163
56 99 168
53 99 166
54 99 167
57 99 171
53 98 165
55 100 169
55 100 168
53 100 166
56 99 170
54 100 167
53 99 166
57 99 171
56 100 170
54 100 167
54 100 163
56 100 169
49 100 160
55 100 167
51 99 163
45 98 155
48 98 158
52 101 164
50 111 164
45 103 156
45 103 158
49 104 160
47 105 160
49 97 159
48 98 158
48 105 161
49 99 158
49 102 160
51 98 162
44 100 152
50 99 161
49 102 160
44 98 154
49 100 160
48 100 157
46 98 156
51 100 162
52 99 162
44 97 152
51 100 162
45 98 154
50 99 160
45 97 152
47 99 158
52 99 163
51 100 162
48 99 157
47 97 157
51 100 162
50 99 160
47 97 155
46 98 155
51 99 161
45 98 153
50 99 160
49 99 159
47 99 157
50 100 160
47 99 156
51 97 159
50 99 160
52 100 164
50 100 161
48 100 159
52 99 163
51 98 162
49 98 160
50 99 160
48 99 157
45 98 153
50 99 161
43 98 153
51 100 162
49 98 158
47 98 156
52 100 164
50 100 161
51 98 160
48 98 157
51 100 162
50 99 160
48 100 157
51 100 161
52 100 162
48 99 157
43 98 152
47 100 157
48 97 156
52 100 163
46 99 155
50 100 160
52 99 162
49 100 159
48 98 157
48 99 156
49 99 157
50 99 159
47 99 156
48 98 157
49 98 157
47 99 156
47 98 156
45 98 153
46 99 154
46 97 153
49 99 158
44 98 152
49 98 158
46 98 156
44 99 152
41 97 149
45 97 153
44 98 152
50 100 158
45 99 154
48 99 156
45 96 150
45 98 153
47 97 154
48 98 156
49 99 157
45 97 151
38 96 143
45 97 152
43 98 148
41 95 145
44 97 150
40 97 145
43 100 148
30 115 132
28 124 125
19 133 117
12 157 124
7 153 122
0 158 123
0 158 118
0 158 124
0 148 115
0 161 123
0 168 133
0 152 115
0 159 121
0 152 119
0 160 126
0 168 130
0 151 117
0 158 117
0 165 124
0 155 118
0 151 109
0 168 128
0 158 123
0 162 126
0 170 130
0 151 115
0 163 122
0 156 115
0 173 129
0 165 127
0 168 130
0 171 128
0 163 120
0 158 114
0 155 115
0 158 118
0 165 127
0 166 129
0 157 120
0 155 115
0 163 123
0 156 113
0 163 118
0 170 125
0 163 120
0 151 109
0 157 116
0 170 124
0 171 126
0 158 115
0 162 119
0 177 133
0 167 122
0 161 111
0 163 119
0 176 126
0 160 112
0 163 118
0 170 128
0 160 116
0 170 123
0 153 113
0 171 120
0 176 126
0 181 132
0 168 121
0 172 118
0 171 122
0 174 126
0 180 134
0 181 133
0 174 127
0 177 125
0 170 125
0 175 126
0 178 128
0 179 135
0 166 116
0 179 128
0 180 133
0 182 131
0 168 122
0 177 127
0 182 136
0 172 124
0 184 137
0 170 122
0 185 133
0 176 130
0 174 126
0 186 137
0 179 130
0 182 134
0 183 135
0 194 146
0 180 132
0 185 132
0 180 131
0 183 136
0 193 142
0 190 139
0 185 138
0 190 140
0 194 148
0 188 142
0 189 142
0 196 148
0 188 143
0 193 142
0 193 143
0 191 145
0 189 141
0 190 142
0 198 149
0 200 154
0 189 139
0 195 143
0 194 144
0 193 141
0 195 145
0 198 149
0 193 143
0 191 142
0 199 153
0 194 146
0 202 159
0 205 157
0 195 150
0 194 149
0 203 155
0 201 156
0 205 158
0 204 154
0 203 154
0 199 155
0 202 157
0 194 149
0 197 146
0 199 152
0 198 152
0 203 155
0 206 160
0 200 152
0 204 160
0 208 166
0 204 159
0 203 157
0 205 158
0 209 167
0 202 158
0 207 162
0 206 160
0 204 157
0 205 160
0 204 159
0 221 180
0 218 179
0 217 178
0 216 178
0 218 178
0 217 178
0 217 177
0 216 177
0 216 177
0 216 177
0 213 176
0 218 178
0 217 178
0 214 176
0 212 174
0 211 174
0 217 178
0 218 178
0 216 177
0 217 178
0 216 177
0 215 177
0 214 175
0 218 180
0 215 175
0 214 175
0 209 172
0 216 177
0 215 176
0 210 173
0 216 177
0 211 175
0 214 175
0 208 172
0 214 174
0 214 175
0 207 171
0 208 172
0 213 175
0 211 174
0 209 173
0 212 175
0 214 175
0 208 171
0 213 174
0 207 171
0 210 173
0 215 177
0 209 172
0 206 169
0 210 173
0 210 173
0 207 169
0 202 167
0 210 173
0 213 174
0 206 170
0 206 170
0 209 173
0 204 168
0 198 164
0 199 166
0 211 172
0 208 170
0 202 167
0 205 169
0 203 167
0 204 170
0 202 167
0 203 168
0 204 167
0 205 168
0 201 165
0 203 167
0 208 170
0 202 167
0 189 157
0 201 166
0 186 156
0 205 168
9 191 160
22 188 164
26 145 149
36 131 153
44 102 153
40 98 149
46 98 154
42 97 149
41 97 148
45 97 152
42 97 150
44 98 151
46 99 156
51 99 159
48 98 158
48 99 157
47 99 157
46 98 154
49 99 159
48 97 156
48 97 156
47 97 156
51 99 163
51 99 163
48 98 157
47 98 158
50 99 161
50 99 161
55 99 166
53 99 165
48 99 159
54 100 166
51 99 163
53 99 164
52 99 164
51 99 164
52 99 164
52 99 164
55 100 169
52 100 165
56 100 170
55 100 168
56 100 169
54 100 167
55 100 167
53 99 165
55 98 167
51 100 162
53 99 164
51 99 163
53 100 165
51 97 162
52 100 162
51 104 163
44 104 155
49 103 159
50 104 160
46 106 157
44 102 153
48 98 157
47 103 157
49 102 159
52 97 160
46 101 155
48 99 156
44 99 152
52 99 162
48 99 157
46 98 155
47 99 156
49 103 160
49 100 160
46 98 155
44 97 154
48 99 158
48 100 159
49 99 158
46 97 155
52 99 162
50 99 161
49 99 160
48 100 159
48 99 157
46 99 156
51 99 162
53 100 165
48 98 157
47 99 157
46 98 156
50 99 160
49 100 159
49 98 158
47 98 155
53 100 165
52 99 163
52 100 163
54 99 166
49 99 158
48 100 159
47 98 156
45 99 154
50 99 161
51 99 161
48 98 158
46 98 154
47 99 157
47 99 157
49 100 160
49 99 159
46 98 153
46 98 154
51 100 162
49 99 157
45 98 154
47 100 157
46 99 155
46 98 155
49 100 159
45 98 153
47 98 157
47 99 155
50 99 159
50 98 160
48 97 156
44 99 153
47 98 157
45 98 152
47 98 156
44 97 152
48 99 157
48 97 156
51 98 160
51 99 160
47 99 157
48 99 156
49 98 157
44 98 152
47 98 156
50 98 159
47 100 157
46 98 154
49 100 159
47 98 155
45 99 155
49 100 160
46 98 154
46 99 153
45 98 153
47 97 153
41 97 148
46 98 154
42 97 147
44 99 153
44 98 151
44 98 152
42 96 148
46 97 152
41 97 148
43 98 151
45 95 149
41 95 146
43 96 148
43 97 149
39 96 142
28 116 136
28 113 124
26 129 119
11 142 115
6 159 122
0 160 123
0 142 109
0 158 121
0 150 115
0 153 114
0 150 114
0 164 125
0 149 116
0 157 120
0 139 105
0 153 117
0 155 122
0 155 120
0 160 122
0 149 111
0 164 126
0 168 124
0 148 113
0 176 136
0 166 127
0 154 116
0 163 123
0 167 124
0 154 115
0 164 121
0 148 108
0 149 112
0 155 116
0 178 132
0 163 126
0 158 120
0 168 117
0 147 110
0 155 117
0 160 120
0 171 126
0 163 119
0 157 116
0 154 118
0 158 119
0 163 126
0 172 128
0 175 128
0 164 121
0 167 121
0 168 121
0 159 119
0 163 125
0 154 107
0 176 128
0 155 115
0 173 126
0 159 114
0 162 124
0 168 129
0 178 136
0 177 129
0 163 114
0 172 132
0 177 129
0 173 122
0 172 127
0 161 118
0 172 124
0 165 122
0 173 132
0 180 133
0 167 125
0 180 136
0 168 122
0 185 137
0 174 125
0 174 125
0 180 134
0 175 122
0 178 133
0 179 129
0 173 121
0 185 133
0 190 144
0 178 127
0 170 124
0 176 127
0 172 125
0 178 130
0 189 144
0 187 135
0 182 134
0 181 135
0 186 139
0 184 130
0 193 144
0 185 137
0 195 148
0 191 142
0 198 148
0 185 137
0 187 139
0 193 144
0 183 138
0 188 145
0 186 139
0 193 149
0 182 138
0 194 148
0 190 145
0 191 142
0 186 138
0 186 140
0 198 147
0 195 144
0 196 147
0 190 142
0 201 154
0 190 137
0 195 147
0 200 153
0 202 155
0 202 158
0 203 152
0 199 154
0 207 160
0 194 147
0 200 157
0 189 145
0 196 148
0 205 162
0 203 157
0 210 168
0 205 156
0 206 158
0 199 150
0 205 159
0 203 161
0 207 161
0 206 161
0 204 158
0 201 156
0 205 157
0 200 155
0 210 163
0 199 153
0 206 159
0 205 161
0 204 158
0 206 163
0 201 159
0 210 163
0 201 158
0 202 159
0 197 154
0 218 179
0 219 179
0 218 178
0 219 180
0 217 177
0 217 177
0 212 175
0 213 176
0 216 177
0 216 177
0 217 178
0 213 174
0 217 177
0 215 177
0 218 179
0 215 175
0 215 176
0 215 175
0 215 176
0 214 176
0 218 178
0 213 175
0 215 178
0 217 178
0 217 178
0 215 175
0 215 176
0 212 174
0 213 175
0 212 175
0 216 176
0 212 174
0 214 176
0 210 173
0 209 173
0 215 175
0 213 175
0 215 176
0 215 176
0 216 176
0 210 174
0 209 172
0 214 176
0 209 172
0 213 174
0 210 173
0 212 174
0 215 176
0 212 174
0 211 174
0 205 170
0 209 172
0 209 172
0 207 170
0 204 168
0 211 174
0 204 168
0 207 170
0 205 170
0 207 171
0 204 168
0 201 165
0 209 172
0 206 170
0 205 169
0 211 173
0 207 172
0 201 167
0 204 169
0 194 161
0 205 168
0 204 168
0 204 168
0 194 160
0 204 169
0 209 173
0 200 165
0 198 164
0 201 166
0 194 159
6 190 158
17 182 159
24 170 159
32 139 153
43 105 152
39 95 144
41 96 146
47 95 153
42 99 152
46 99 155
42 97 150
45 99 154
45 100 154
47 98 155
47 97 154
49 98 157
47 97 155
47 98 157
49 99 159
48 98 156
49 98 160
48 100 159
50 98 160
49 99 158
50 97 160
50 99 161
49 98 159
50 97 161
49 99 160
52 99 165
51 99 164
52 98 162
54 99 167
54 99 167
51 99 163
57 100 171
53 99 166
51 99 164
55 99 170
51 99 163
53 99 165
59 100 173
55 100 167
55 100 168
54 100 166
56 100 169
55 99 168
52 98 163
54 99 166
53 99 164
55 99 168
50 98 161
51 99 162
47 98 157
49 101 159
50 101 160
49 105 162
49 103 161
48 103 158
49 101 158
51 103 164
50 103 162
45 99 153
44 100 153
44 99 155
46 99 155
47 100 157
42 97 150
49 98 159
49 103 159
45 98 155
50 99 160
47 102 157
47 98 155
49 97 157
46 97 156
47 97 156
48 99 158
47 99 156
49 98 158
49 99 159
48 100 159
54 99 165
48 99 158
49 99 159
50 99 159
51 100 162
48 99 158
47 98 156
51 99 161
45 97 153
48 99 158
51 99 160
45 99 154
52 99 162
47 100 158
49 99 160
49 99 159
48 98 157
49 99 158
50 99 160
44 97 152
46 98 153
49 98 159
49 99 158
50 99 160
48 98 158
51 100 162
44 99 154
45 98 154
46 99 156
46 100 157
50 99 159
44 97 151
51 100 161
49 98 160
50 99 160
49 99 158
53 100 164
43 97 151
46 99 155
47 100 157
46 99 155
50 99 159
45 100 155
46 98 154
46 100 155
47 100 157
44 98 152
49 99 158
43 99 153
51 97 160
44 97 151
47 98 154
50 99 161
46 97 153
47 98 155
48 99 158
46 99 154
47 98 154
49 97 158
47 98 157
48 98 157
43 98 152
44 97 151
43 98 151
49 99 157
43 98 150
48 99 157
41 96 146
44 97 150
42 98 150
43 96 149
44 98 152
44 98 151
45 97 152
42 95 146
39 97 146
43 96 147
44 95 146
40 92 141
45 98 151
38 96 140
39 108 144
36 115 132
19 139 127
16 131 116
6 156 126
0 145 113
0 154 116
0 160 126
0 150 114
0 159 121
0 144 109
0 159 125
0 152 113
0 157 123
0 158 121
0 155 115
0 156 119
0 156 117
0 159 123
0 154 116
0 149 113
0 152 115
0 151 114
0 157 123
0 153 116
0 170 127
0 148 109
0 156 117
0 154 121
0 155 117
0 169 128
0 170 124
0 147 107
0 162 126
0 167 128
0 165 120
0 170 131
0 155 111
0 166 124
0 154 118
0 168 126
0 164 120
0 170 127
0 170 129
0 170 125
0 162 121
0 170 129
0 160 116
0 173 131
0 162 119
0 156 115
0 162 119
0 164 126
0 167 124
0 168 120
0 163 123
0 164 117
0 175 128
0 165 120
0 168 121
0 173 128
0 172 121
0 170 127
0 177 132
0 176 128
0 165 118
0 158 114
0 174 129
0 174 131
0 177 130
0 169 129
0 173 125
0 166 117
0 161 117
0 185 136
0 175 126
0 177 127
0 175 130
0 175 128
0 174 131
0 165 115
0 179 134
0 183 139
0 185 135
0 175 125
0 185 140
0 183 132
0 177 127
0 188 141
0 181 135
0 187 138
0 185 138
0 182 136
0 186 139
0 184 135
0 190 138
0 187 143
0 180 135
0 196 150
0 188 141
0 190 142
0 190 141
0 192 148
0 190 140
0 188 141
0 186 139
0 200 155
0 199 151
0 190 143
0 189 142
0 189 140
0 197 150
0 203 159
0 182 132
0 197 145
0 191 146
0 198 147
0 199 152
0 187 143
0 195 149
0 196 146
0 192 146
0 195 143
0 203 153
0 196 150
0 192 149
0 201 153
0 194 148
0 197 151
0 201 157
0 208 165
0 202 157
0 200 154
0 202 155
0 199 154
0 203 158
0 204 159
0 204 158
0 209 163
0 201 159
0 207 161
0 204 156
0 200 156
0 198 154
0 211 167
0 194 147
0 199 152
0 201 152
0 205 158
0 202 157
0 204 159
0 198 150
0 204 155
0 208 163
0 205 157
0 209 163
0 206 161
0 219 179
0 218 178
0 221 181
0 217 178
0 213 176
0 216 177
0 218 179
0 217 177
0 212 174
0 217 177
0 216 177
0 214 176
0 216 177
0 213 174
0 215 176
0 219 179
0 211 175
0 214 177
0 214 175
0 217 178
0 213 175
0 215 177
0 218 178
0 215 178
0 215 178
0 214 176
0 218 178
0 211 174
0 207 172
0 215 177
0 216 177
0 214 176
0 209 173
0 215 176
0 209 171
0 214 176
0 213 175
0 214 175
0 209 173
0 209 172
0 215 176
0 210 173
0 214 176
0 218 178
0 211 174
0 216 176
0 215 176
0 210 173
0 216 177
0 209 171
0 207 171
0 209 172
0 206 169
0 209 169
0 211 175
0 206 170
0 198 163
0 205 169
0 206 171
0 208 171
0 204 166
0 205 168
0 210 172
0 204 167
0 203 168
0 210 171
0 203 168
0 199 164
0 201 167
0 203 166
0 201 165
0 205 169
0 198 163
0 200 165
0 204 168
0 200 165
0 204 169
0 201 166
0 191 159
0 202 165
0 205 169
6 192 160
20 178 159
26 166 159
28 128 144
40 102 147
47 100 156
46 97 152
44 98 151
38 96 145
48 99 157
46 98 154
41 99 150
43 97 150
44 97 152
47 96 153
44 98 153
49 98 158
46 98 154
50 99 160
47 98 157
48 98 157
51 99 162
51 99 162
51 99 162
52 100 162
47 98 157
52 99 163
50 98 160
53 100 164
49 99 160
51 98 163
52 98 163
52 99 164
53 100 165
50 98 162
55 100 167
53 99 166
54 100 167
53 99 166
54 99 167
54 100 169
54 99 167
55 100 169
52 99 165
54 100 166
53 99 165
50 98 160
59 101 169
52 99 164
53 100 165
49 98 158
49 99 158
54 99 166
53 99 163
46 101 156
48 102 157
49 103 160
50 104 161
48 99 158
47 105 158
49 109 162
48 100 157
46 102 156
44 101 152
50 98 159
48 97 156
49 98 158
41 100 151
44 95 150
46 98 155
49 101 158
44 97 152
49 99 158
46 96 155
49 99 159
50 97 159
49 99 160
48 97 158
48 99 158
49 98 159
45 99 155
46 98 156
50 98 159
58 100 170
46 97 155
49 99 158
49 99 158
46 98 155
50 98 159
50 99 160
52 100 162
50 99 159
45 98 154
49 99 160
46 99 155
47 99 156
52 100 161
49 99 159
50 98 160
49 99 158
52 99 162
47 99 158
45 97 153
46 98 154
51 99 160
48 99 156
47 98 156
48 98 156
49 97 157
50 100 161
50 99 159
50 99 159
47 99 158
45 99 154
50 99 160
48 100 159
51 99 160
48 100 159
46 98 154
48 97 156
49 99 159
48 98 157
43 97 151
48 99 157
43 97 149
48 99 156
51 98 160
47 98 156
48 100 158
46 99 156
44 98 153
51 100 161
47 99 157
48 99 157
49 100 158
51 99 160
45 97 151
42 97 149
44 98 151
47 98 156
44 98 153
47 99 156
42 98 150
48 98 157
47 98 156
47 98 155
47 98 155
42 96 148
43 96 148
48 99 155
46 97 152
43 95 148
45 98 153
44 96 150
41 95 145
40 95 144
45 95 149
43 99 151
43 94 148
37 97 144
40 97 145
39 99 140
30 121 133
26 130 127
15 145 125
11 140 115
0 155 119
0 147 116
0 140 109
0 151 117
0 148 115
0 152 118
0 153 119
0 158 125
0 158 120
0 150 111
0 153 112
0 153 117
0 153 119
0 155 119
0 145 115
0 169 131
0 152 117
0 155 119
0 164 126
0 147 109
0 157 120
0 164 123
0 152 117
0 170 134
0 180 138
0 158 117
0 152 117
0 171 129
0 161 124
0 173 136
0 155 120
0 174 132
0 165 123
0 178 134
0 160 121
0 163 121
0 161 121
0 163 121
0 170 128
0 171 134
0 168 128
0 158 118
0 165 122
0 161 114
0 167 122
0 167 127
0 162 117
0 161 121
0 169 129
0 173 131
0 164 121
0 175 132
0 178 136
0 163 124
0 165 116
0 176 131
0 187 137
0 171 122
0 174 132
0 169 128
0 173 127
0 166 120
0 169 116
0 186 141
0 175 131
0 165 122
0 178 133
0 184 140
0 174 128
0 185 137
0 168 123
0 192 147
0 181 137
0 178 131
0 183 132
0 184 135
0 186 138
0 185 139
0 174 130
0 186 138
0 180 131
0 193 142
0 187 141
0 183 136
0 176 125
0 184 139
0 184 139
0 186 140
0 195 142
0 190 143
0 191 140
0 189 144
0 193 144
0 187 138
0 191 144
0 196 150
0 187 145
0 189 143
0 195 151
0 189 141
0 193 146
0 185 140
0 192 145
0 194 146
0 202 157
0 197 149
0 197 150
0 185 143
0 197 148
0 199 150
0 187 140
0 191 143
0 193 147
0 194 148
0 200 154
0 198 153
0 203 155
0 200 155
0 191 146
0 202 156
0 199 151
0 198 151
0 200 154
0 193 149
0 198 151
0 197 152
0 206 160
0 204 155
0 201 155
0 195 148
0 205 160
0 211 168
0 201 153
0 207 161
0 200 152
0 206 163
0 203 158
0 198 151
0 199 151
0 206 159
0 204 159
0 202 154
0 195 149
0 205 160
0 207 161
0 200 156
0 208 164
0 207 161
0 204 158
0 205 161
0 209 165
0 208 166
0 211 166
0 218 179
0 217 178
0 217 178
0 213 176
0 216 177
0 217 178
0 217 178
0 215 176
0 216 178
0 216 178
0 213 176
0 212 174
0 215 177
0 216 177
0 215 175
0 215 177
0 214 176
0 218 180
0 217 177
0 210 174
0 216 176
0 212 175
0 217 178
0 209 172
0 215 176
0 213 175
0 218 177
0 211 173
0 212 175
0 214 174
0 211 174
0 208 171
0 212 174
0 213 176
0 213 176
0 211 173
0 212 174
0 205 169
0 212 173
0 209 173
0 211 174
0 212 174
0 212 174
0 209 172
0 209 173
0 207 171
0 207 170
0 211 173
0 209 173
0 207 172
0 213 174
0 208 171
0 210 173
0 205 170
0 208 172
0 211 173
0 210 173
0 205 170
0 202 167
0 210 173
0 201 169
0 209 171
0 205 170
0 209 173
0 203 169
0 207 172
0 201 167
0 204 167
0 201 167
0 209 171
0 208 170
0 200 165
0 205 168
0 199 165
0 194 160
0 200 165
0 186 156
0 191 159
0 197 164
0 193 162
0 199 164
0 189 156
12 184 157
16 181 159
25 157 153
36 129 151
43 100 149
40 97 147
45 97 152
44 98 151
48 95 154
44 96 151
45 98 154
47 98 155
44 98 153
47 98 156
49 98 158
47 98 156
50 99 160
40 97 147
47 98 157
47 98 156
48 97 156
51 99 160
48 98 157
46 97 153
52 99 163
53 99 165
51 100 162
51 99 163
53 100 166
55 100 167
50 100 161
52 99 163
51 97 161
51 100 162
54 100 167
54 99 166
56 99 169
54 100 166
56 101 168
58 100 171
53 99 167
53 100 165
53 99 166
54 100 167
56 100 170
53 99 165
58 100 168
54 100 167
55 100 168
50 99 160
53 100 165
53 100 164
48 98 157
51 102 161
47 104 158
50 102 161
45 105 155
47 104 157
45 103 155
49 100 160
40 99 148
48 102 159
48 101 157
47 101 157
41 103 149
48 99 158
46 102 157
43 100 151
46 98 155
49 100 159
51 98 161
48 98 157
47 100 157
46 99 155
47 99 157
46 99 156
49 99 157
47 99 157
46 97 155
48 100 160
43 100 153
48 99 158
51 99 161
43 98 151
44 97 152
47 98 156
49 99 159
45 98 153
51 100 161
46 99 154
48 99 158
49 98 158
52 98 161
46 99 154
49 98 157
46 99 155
47 99 157
45 100 156
48 99 158
48 98 158
48 100 159
48 100 159
50 97 158
46 98 155
47 98 155
53 100 164
47 97 155
48 97 156
49 97 158
43 98 152
41 99 150
47 98 156
45 99 155
48 98 159
47 98 155
50 99 158
52 98 160
46 98 155
47 100 157
50 100 160
49 98 157
44 99 153
41 97 149
47 99 156
48 99 156
45 98 155
46 99 155
50 99 158
46 98 154
50 99 159
46 98 154
47 100 157
44 97 151
44 98 152
45 97 153
46 97 153
47 98 154
47 98 155
50 99 158
46 98 155
41 98 149
49 98 157
41 97 147
47 98 155
45 98 153
45 97 152
47 99 154
42 97 148
47 99 154
42 98 149
47 98 155
46 99 155
44 96 149
42 97 149
44 98 151
39 94 144
37 93 140
45 96 150
41 95 144
41 99 143
34 106 132
28 129 134
18 126 116
17 143 119
0 144 114
0 151 118
0 152 115
0 154 121
0 150 118
0 137 106
0 148 115
0 146 108
0 166 128
0 148 115
0 146 112
0 157 119
0 147 110
0 170 131
0 156 120
0 144 111
0 157 115
0 173 137
0 153 114
0 170 130
0 169 131
0 161 125
0 154 120
0 167 129
0 167 128
0 164 126
0 156 121
0 159 121
0 165 124
0 152 115
0 166 127
0 174 135
0 168 128
0 171 133
0 168 128
0 162 117
0 180 132
0 171 130
0 166 127
0 169 125
0 177 134
0 174 128
0 169 128
0 170 126
0 166 126
0 166 125
0 163 119
0 175 130
0 188 143
0 173 127
0 171 125
0 167 124
0 174 132
0 169 124
0 166 124
0 182 135
0 173 130
0 175 132
0 183 138
0 167 118
0 171 127
0 173 129
0 175 125
0 179 138
0 173 128
0 173 126
0 167 127
0 168 124
0 174 126
0 179 132
0 173 133
0 177 135
0 184 139
0 184 135
0 177 128
0 174 132
0 189 140
0 183 137
0 188 137
0 182 129
0 182 134
0 185 136
0 173 125
0 193 146
0 191 140
0 184 139
0 181 135
0 174 129
0 185 141
0 181 126
0 195 147
0 194 147
0 188 142
0 182 135
0 190 143
0 187 142
0 190 139
0 188 137
0 190 141
0 194 144
0 198 152
0 190 141
0 191 144
0 198 150
0 199 149
0 190 140
0 187 140
0 199 149
0 190 146
0 195 146
0 184 138
0 199 151
0 199 154
0 188 137
0 190 145
0 194 145
0 192 142
0 191 141
0 198 155
0 197 149
0 203 156
0 196 156
0 200 154
0 195 151
0 190 148
0 203 157
0 199 154
0 195 149
0 205 159
0 202 157
0 204 156
0 195 151
0 208 164
0 203 161
0 210 163
0 200 156
0 198 154
0 203 159
0 198 153
0 205 161
0 203 157
0 200 152
0 210 165
0 203 158
0 207 163
0 203 157
0 206 157
0 203 158
0 209 167
0 201 155
0 209 165
0 206 163
0 211 169
0 204 160
0 216 177
0 216 177
0 218 179
0 216 177
0 215 176
0 216 178
0 218 177
0 217 178
0 220 179
0 219 179
0 213 175
0 217 178
0 213 175
0 213 175
0 218 179
0 218 178
0 212 174
0 215 177
0 214 176
0 210 173
0 214 175
0 213 175
0 215 175
0 213 175
0 216 177
0 217 178
0 211 173
0 219 178
0 213 175
0 216 178
0 210 172
0 213 174
0 206 170
0 212 174
0 212 174
0 212 174
0 210 174
0 207 171
0 217 178
0 214 176
0 209 172
0 213 175
0 213 175
0 210 174
0 206 170
0 214 176
0 205 169
0 209 173
0 199 166
0 208 171
0 204 169
0 205 169
0 205 169
0 205 170
0 200 166
0 207 171
0 199 166
0 204 169
0 202 166
0 204 169
0 210 174
0 205 169
0 202 166
0 202 166
0 202 165
0 193 162
0 202 167
0 203 168
0 203 168
0 198 163
0 201 167
0 206 170
0 199 164
0 192 161
0 198 163
0 203 167
0 194 162
0 198 163
0 193 158
0 199 166
0 194 161
0 198 164
9 188 157
18 177 157
23 164 155
29 142 150
39 121 151
39 97 145
41 96 147
45 97 152
46 97 152
40 97 146
46 96 153
42 96 149
42 96 147
41 95 148
46 97 152
40 96 148
47 97 155
42 98 150
49 99 159
47 98 154
45 97 154
44 99 153
50 99 159
48 97 158
49 98 159
51 98 161
48 99 160
48 98 157
50 99 160
44 98 154
54 99 166
52 99 162
51 99 164
55 99 169
50 100 161
51 100 162
57 99 169
52 99 164
57 100 171
59 100 172
55 99 167
56 100 170
54 100 167
53 99 166
54 100 167
56 100 164
53 99 164
58 101 167
51 98 163
51 100 163
52 100 165
51 100 163
47 99 157
50 98 161
45 102 154
47 99 156
48 100 158
46 103 158
45 100 155
43 105 154
48 101 158
49 104 160
48 105 158
47 101 157
47 102 158
47 101 158
47 101 155
47 99 156
48 99 157
48 99 158
50 98 156
49 100 159
47 99 155
49 98 158
46 99 155
48 99 158
47 99 156
51 99 162
50 98 160
45 97 153
43 97 150
47 98 157
51 100 162
49 98 158
47 99 157
49 98 159
48 99 157
54 100 165
46 100 155
47 98 156
50 99 159
50 99 159
51 99 161
45 100 155
49 100 160
48 98 157
45 99 153
47 99 156
43 99 152
49 99 158
46 99 156
43 99 151
49 99 159
46 99 154
49 100 158
49 98 158
50 100 160
47 98 155
44 99 154
46 98 156
48 98 157
51 101 162
44 98 153
45 98 154
47 99 156
44 99 153
45 97 152
50 99 159
48 98 157
49 99 158
45 97 153
46 99 154
47 100 158
47 98 155
45 98 153
45 98 152
47 100 157
48 99 157
50 99 158
48 99 157
46 97 153
49 100 160
43 97 151
46 97 152
46 98 154
47 97 153
43 97 149
51 98 158
47 98 155
43 98 151
46 98 154
44 97 151
45 97 151
44 96 149
48 98 155
46 99 155
42 95 147
42 99 151
45 97 151
45 96 151
44 97 150
43 97 147
42 98 149
42 92 143
42 94 145
44 96 149
42 97 147
44 95 148
44 99 149
37 118 141
31 125 131
19 130 117
11 138 113
6 159 123
0 163 130
0 145 115
0 148 114
0 150 112
0 162 127
0 144 112
0 156 122
0 148 117
0 161 126
0 158 118
0 161 127
0 158 121
0 158 126
0 160 123
0 155 122
0 159 123
0 149 114
0 158 122
0 155 121
0 154 117
0 154 112
0 160 123
0 171 132
0 142 107
0 163 123
0 169 127
0 166 129
0 148 113
0 162 123
0 171 131
0 158 123
0 162 123
0 166 121
0 166 122
0 168 128
0 152 109
0 156 112
0 170 130
0 176 136
0 172 131
0 174 128
0 173 128
0 163 121
0 169 130
0 165 126
0 181 139
0 166 119
0 174 129
0 168 123
0 172 126
0 181 134
0 165 121
0 176 131
0 178 133
0 168 126
0 170 127
0 176 133
0 172 130
0 173 131
0 176 134
0 173 131
0 179 133
0 179 134
0 176 130
0 164 118
0 179 133
0 184 137
0 174 129
0 179 132
0 180 134
0 190 148
0 177 132
0 171 128
0 181 135
0 171 127
0 174 128
0 176 137
0 181 135
0 185 141
0 182 139
0 180 137
0 180 136
0 184 135
0 182 136
0 184 138
0 172 123
0 184 136
0 187 140
0 177 130
0 193 146
0 175 129
0 195 145
0 185 139
0 191 146
0 194 145
0 192 144
0 192 143
0 188 141
0 192 142
0 181 134
0 194 150
0 193 146
0 199 155
0 188 141
0 197 152
0 196 146
0 191 147
0 199 152
0 202 154
0 192 142
0 193 144
0 188 141
0 196 152
0 196 149
0 194 148
0 195 142
0 195 148
0 194 148
0 203 157
0 193 150
0 199 151
0 203 158
0 193 147
0 199 154
0 200 156
0 195 148
0 199 155
0 200 155
0 195 151
0 202 157
0 201 151
0 203 159
0 194 153
0 203 161
0 204 159
0 203 157
0 205 156
0 204 160
0 209 163
0 206 163
0 209 162
0 210 166
0 204 161
0 202 156
0 207 163
0 204 155
0 207 164
0 202 160
0 208 164
0 207 165
0 208 164
0 207 163
0 211 166
0 208 165
0 218 178
0 217 178
0 220 179
0 219 179
0 211 175
0 216 177
0 216 178
0 218 179
0 216 177
0 214 176
0 216 177
0 216 177
0 214 176
0 217 178
0 218 179
0 212 174
0 213 175
0 217 177
0 211 174
0 214 175
0 214 176
0 218 178
0 213 175
0 215 176
0 212 176
0 211 174
0 212 174
0 213 175
0 216 177
0 216 177
0 217 178
0 214 174
0 209 174
0 215 177
0 212 175
0 212 175
0 212 175
0 213 175
0 212 174
0 212 174
0 210 173
0 208 172
0 212 175
0 212 174
0 210 173
0 211 173
0 208 172
0 207 171
0 207 171
0 209 172
0 208 172
0 206 171
0 209 173
0 205 169
0 206 170
0 202 167
0 206 170
0 201 166
0 203 167
0 211 174
0 208 173
0 206 170
0 201 166
0 202 167
0 195 164
0 199 164
0 203 167
0 200 165
0 202 167
0 196 161
0 203 167
0 197 165
0 197 164
0 203 168
0 205 169
0 197 164
0 195 159
0 200 165
0 193 160
0 189 156
0 187 156
0 202 166
0 196 162
0 198 164
17 180 158
22 160 150
37 135 154
40 112 151
42 95 148
41 98 148
42 96 149
43 98 150
48 98 156
41 97 148
47 98 156
43 98 150
46 99 153
45 97 152
42 96 150
46 97 153
45 98 152
48 98 156
46 98 154
43 97 152
48 98 156
49 98 158
49 99 160
51 100 163
48 98 157
50 99 160
46 99 157
50 98 160
49 99 160
52 100 163
51 99 161
51 99 162
51 100 162
50 98 161
53 100 166
55 100 168
52 99 164
54 100 167
50 99 163
52 99 164
50 99 163
50 99 160
50 99 161
54 99 168
50 98 161
56 101 164
56 101 163
50 98 160
53 100 165
51 101 163
49 99 160
50 103 162
51 103 162
49 98 158
47 106 158
48 104 158
47 109 159
48 105 159
47 104 157
43 105 154
47 102 157
44 101 154
43 104 152
45 98 154
46 101 154
45 98 152
47 97 156
42 102 153
46 97 155
46 99 154
51 100 161
45 98 153
42 97 150
46 98 154
44 97 152
49 99 158
44 98 153
48 97 157
46 100 157
48 100 158
49 100 159
49 98 159
49 99 158
49 99 159
48 99 158
46 97 153
49 100 160
52 99 162
51 99 161
47 99 156
48 100 158
45 98 154
50 98 159
43 98 151
49 98 160
48 99 157
45 98 154
52 99 162
42 99 151
52 99 161
48 99 157
48 99 157
48 99 157
46 98 154
47 99 157
46 98 154
47 98 156
50 100 159
45 97 154
46 99 156
49 98 158
46 99 156
48 98 157
47 98 156
45 98 154
47 99 156
47 98 155
45 100 155
48 99 157
46 98 155
40 97 147
45 98 153
49 97 156
46 98 155
46 98 154
43 99 151
45 98 152
47 99 156
45 96 150
47 98 155
40 98 147
49 98 157
47 99 156
45 98 153
44 98 153
46 98 155
45 99 153
46 99 154
45 98 153
45 98 152
45 98 153
41 97 148
45 97 152
45 97 152
44 97 151
40 95 144
46 98 152
43 93 145
42 96 148
41 97 146
42 97 147
41 95 145
42 95 146
41 98 147
38 95 141
37 94 139
31 106 129
26 125 130
17 136 124
11 129 111
0 136 109
0 147 114
0 149 112
0 152 112
0 155 118
0 144 112
0 158 122
0 141 110
0 154 121
0 153 120
0 159 123
0 147 113
0 161 122
0 169 130
0 153 119
0 153 117
0 154 121
0 145 113
0 164 130
0 166 130
0 158 123
0 152 118
0 175 135
0 167 129
0 161 124
0 158 123
0 166 129
0 158 121
0 158 117
0 160 122
0 167 130
0 155 115
0 156 121
0 168 132
0 170 133
0 164 126
0 178 135
0 172 131
0 166 126
0 169 131
0 174 134
0 157 124
0 167 124
0 169 126
0 160 123
0 182 142
0 171 126
0 173 132
0 164 121
0 183 138
0 160 122
0 169 123
0 179 135
0 183 137
0 169 126
0 178 133
0 168 123
0 171 133
0 175 132
0 166 124
0 176 131
0 172 133
0 181 136
0 166 124
0 177 131
0 168 121
0 176 129
0 181 138
0 176 127
0 165 124
0 188 144
0 186 139
0 178 133
0 178 133
0 181 136
0 179 131
0 183 141
0 183 141
0 183 134
0 185 140
0 185 145
0 190 143
0 188 142
0 187 137
0 193 147
0 186 140
0 189 138
0 182 138
0 182 141
0 187 140
0 189 140
0 184 139
0 188 140
0 185 134
0 191 147
0 189 141
0 186 143
0 179 131
0 180 130
0 184 142
0 191 142
0 187 144
0 190 140
0 191 143
0 192 145
0 182 134
0 195 149
0 188 145
0 193 148
0 193 147
0 191 144
0 195 146
0 196 151
0 194 149
0 192 146
0 201 153
0 201 154
0 196 146
0 198 149
0 200 157
0 197 152
0 195 146
0 198 147
0 195 151
0 201 155
0 198 150
0 191 148
0 201 156
0 202 157
0 195 148
0 196 151
0 200 156
0 201 156
0 204 162
0 203 156
0 202 157
0 198 153
0 197 153
0 208 163
0 209 165
0 205 160
0 209 165
0 199 153
0 196 147
0 205 158
0 205 161
0 204 161
0 206 162
0 205 158
0 207 162
0 206 161
0 202 161
0 206 161
0 202 160
0 204 157
0 207 163
0 215 177
0 214 177
0 218 178
0 218 178
0 217 178
0 216 177
0 215 176
0 216 177
0 218 178
0 217 178
0 214 175
0 215 176
0 215 176
0 216 178
0 214 176
0 216 178
0 212 173
0 213 176
0 215 175
0 210 174
0 209 172
0 213 176
0 218 179
0 215 175
0 214 176
0 216 177
0 212 174
0 210 172
0 214 175
0 213 175
0 210 172
0 210 173
0 212 175
0 210 173
0 216 176
0 212 174
0 207 171
0 210 173
0 209 171
0 211 174
0 211 172
0 212 175
0 209 171
0 210 172
0 211 173
0 213 175
0 212 173
0 208 171
0 210 172
0 206 169
0 200 166
0 210 173
0 210 173
0 201 165
0 202 168
0 214 175
0 204 167
0 207 170
0 202 166
0 206 169
0 210 173
0 197 164
0 197 164
0 209 172
0 199 165
0 207 169
0 201 167
0 203 167
0 198 163
0 200 165
0 195 162
0 198 165
0 200 167
0 204 169
0 192 158
0 197 165
0 203 167
0 197 163
0 201 165
0 194 161
0 199 165
0 194 161
0 195 162
0 193 160
7 191 160
19 171 156
23 156 151
37 123 150
39 96 146
41 98 148
42 97 148
43 97 150
39 97 146
41 96 148
49 98 158
41 98 150
42 97 149
45 97 153
45 99 155
42 97 149
45 98 154
44 98 152
44 98 153
48 98 157
49 98 158
52 99 164
48 97 158
50 97 159
51 99 162
49 99 159
45 97 155
46 96 154
49 98 159
47 98 159
47 99 157
52 99 162
51 99 162
49 98 160
52 100 163
51 99 162
56 99 168
57 100 170
53 99 165
52 99 163
53 99 165
51 100 163
52 100 165
56 100 167
56 101 169
62 105 162
56 100 163
53 102 161
54 101 160
50 99 161
47 99 158
50 99 162
49 104 161
49 102 158
47 102 157
48 104 158
52 102 163
45 100 154
47 100 154
48 104 159
47 97 156
44 106 155
43 100 151
48 100 155
44 100 151
46 102 157
40 107 149
48 99 157
43 99 152
48 100 159
49 99 156
42 97 151
47 98 156
47 98 156
44 98 152
46 100 156
46 98 154
47 98 156
46 99 155
44 98 153
46 99 155
46 100 156
48 100 160
50 99 160
49 99 158
46 97 154
45 98 154
45 99 155
43 98 152
43 98 151
46 98 154
48 98 157
48 98 157
47 98 157
48 99 157
45 98 154
49 99 159
50 98 160
45 99 155
50 100 159
51 99 161
48 99 157
42 98 150
47 99 157
48 96 153
47 97 155
47 98 157
48 98 156
48 100 157
42 98 150
50 98 160
46 97 154
45 97 153
49 98 158
43 97 150
47 99 155
49 97 156
45 97 152
38 97 144
45 99 153
47 99 156
48 97 155
48 96 155
44 98 151
41 97 148
42 97 148
45 97 152
48 99 157
46 98 153
45 99 154
48 98 156
46 98 154
43 97 150
46 98 154
47 100 156
44 96 150
48 98 155
42 99 150
46 97 152
45 97 151
44 98 152
41 95 146
45 98 152
42 97 148
41 97 148
41 98 148
42 95 146
47 95 152
41 96 147
43 97 149
35 94 139
42 94 145
38 96 142
38 99 144
39 98 143
38 113 141
27 116 122
24 130 128
14 142 121
9 155 126
0 152 122
0 141 105
0 154 118
0 146 118
0 151 120
0 139 106
0 152 119
0 149 117
0 148 115
0 157 122
0 166 126
0 155 122
0 165 123
0 159 121
0 161 126
0 162 126
0 148 110
0 154 119
0 165 130
0 176 139
0 162 124
0 161 127
0 165 125
0 164 127
0 172 134
0 161 120
0 160 125
0 177 139
0 169 128
0 167 128
0 168 132
0 163 125
0 165 130
0 171 133
0 168 130
0 178 136
0 158 121
0 162 121
0 168 130
0 157 120
0 173 132
0 168 127
0 167 128
0 176 135
0 172 128
0 173 131
0 184 142
0 167 127
0 158 120
0 175 133
0 167 127
0 157 122
0 173 130
0 185 141
0 181 138
0 170 129
0 172 128
0 172 128
0 178 135
0 173 133
0 168 123
0 167 126
0 175 130
0 166 123
0 184 137
0 175 131
0 181 136
0 176 134
0 185 141
0 180 141
0 183 139
0 179 134
0 177 133
0 183 142
0 184 135
0 188 141
0 180 133
0 185 138
0 183 140
0 184 134
0 187 136
0 179 136
0 180 135
0 188 141
0 190 145
0 189 143
0 191 144
0 187 142
0 183 135
0 187 140
0 177 126
0 186 146
0 190 147
0 183 138
0 184 138
0 191 145
0 195 149
0 190 139
0 191 145
0 188 141
0 194 148
0 188 145
0 185 137
0 192 144
0 191 146
0 191 146
0 181 132
0 192 142
0 201 157
0 199 154
0 197 149
0 188 143
0 205 155
0 196 151
0 186 138
0 200 156
0 193 145
0 201 153
0 198 151
0 201 157
0 199 156
0 204 155
0 197 152
0 198 153
0 199 151
0 200 153
0 195 147
0 203 155
0 198 149
0 201 155
0 195 149
0 199 156
0 201 156
0 197 149
0 206 161
0 198 152
0 204 157
0 202 160
0 205 160
0 209 164
0 201 155
0 201 160
0 204 158
0 206 160
0 205 158
0 202 159
0 207 163
0 211 165
0 206 161
0 204 159
0 208 164
0 205 159
0 204 161
0 213 170
0 206 162
0 204 156
0 212 174
0 218 178
0 217 178
0 217 177
0 216 178
0 217 178
0 220 180
0 212 174
0 217 177
0 212 175
0 218 178
0 215 177
0 214 175
0 215 177
0 216 177
0 219 179
0 213 175
0 213 174
0 216 176
0 216 177
0 218 178
0 211 173
0 215 177
0 209 172
0 214 176
0 212 176
0 213 176
0 216 178
0 215 174
0 216 177
0 216 177
0 212 173
0 210 172
0 209 172
0 212 175
0 207 171
0 214 176
0 212 175
0 212 175
0 210 172
0 209 173
0 212 174
0 210 172
0 203 167
0 208 171
0 208 173
0 207 171
0 209 172
0 207 171
0 210 174
0 207 171
0 209 172
0 199 164
0 208 170
0 209 172
0 204 169
0 207 171
0 208 172
0 203 167
0 199 165
0 203 168
0 197 164
0 202 166
0 205 169
0 198 165
0 206 170
0 199 165
0 199 164
0 202 167
0 203 169
0 198 162
0 207 169
0 200 165
0 192 161
0 199 165
0 191 158
0 198 165
0 191 159
0 191 156
0 192 159
0 190 157
0 193 160
0 191 158
0 192 159
0 190 157
9 184 157
17 168 149
33 142 152
37 125 151
39 99 146
39 97 144
37 96 143
43 97 150
40 99 149
45 98 153
45 100 154
40 95 145
41 95 146
40 96 146
41 98 148
45 98 153
43 98 149
46 98 156
48 98 156
44 97 153
50 99 160
41 97 149
48 98 157
50 98 160
47 98 158
51 98 160
47 98 156
46 98 156
47 100 158
52 99 165
51 99 163
50 98 159
53 100 165
54 99 166
53 99 165
50 99 161
50 99 162
51 99 162
58 101 170
54 100 167
52 99 164
54 100 167
54 102 161
55 100 162
61 103 160
58 103 159
59 105 160
54 100 165
47 98 157
49 99 159
51 99 162
51 101 163
47 100 157
50 105 161
47 111 160
47 105 158
44 102 155
42 106 152
42 100 149
47 103 157
42 110 154
39 102 146
43 100 152
42 99 148
46 100 154
45 98 154
47 98 154
44 98 154
42 98 151
47 100 158
47 101 157
47 99 156
49 98 159
49 100 158
47 99 156
45 98 154
43 97 152
46 99 156
47 100 157
48 99 158
43 97 152
41 97 147
47 99 156
48 99 158
49 99 159
50 99 159
46 97 154
42 98 151
46 98 154
47 98 156
45 99 154
48 100 158
47 99 156
48 99 156
49 98 158
50 100 161
49 99 159
43 99 151
43 99 151
45 98 153
45 97 153
43 97 150
46 97 155
46 99 155
41 97 148
46 99 156
47 98 156
50 99 160
51 100 160
44 97 151
47 98 154
50 99 160
48 99 158
44 98 152
45 100 155
46 100 155
49 97 156
45 98 152
45 97 151
48 98 157
46 99 155
49 99 158
44 99 152
43 97 150
46 97 153
43 97 150
46 97 152
47 97 153
49 98 156
41 98 149
48 97 155
44 98 151
44 97 151
45 96 151
49 99 157
45 96 151
45 97 151
44 98 151
48 98 155
41 97 147
42 95 148
41 97 147
43 97 149
40 96 146
45 98 152
44 95 150
40 95 145
41 94 144
42 96 148
40 95 144
38 94 141
42 95 147
44 102 150
32 109 133
24 124 127
20 141 128
15 138 119
0 140 108
0 148 113
0 156 120
0 139 109
0 132 101
0 148 116
0 155 123
0 156 123
0 138 108
0 153 114
0 158 125
0 164 126
0 144 111
0 155 118
0 145 111
0 164 124
0 160 129
0 166 127
0 169 132
0 165 126
0 163 127
0 156 119
0 168 130
0 161 123
0 157 119
0 159 124
0 165 129
0 152 115
0 167 131
0 164 127
0 162 122
0 163 125
0 166 129
0 164 125
0 162 124
0 169 126
0 164 127
0 173 129
0 179 135
0 171 128
0 182 141
0 172 128
0 173 133
0 174 136
0 168 130
0 175 138
0 167 128
0 172 136
0 165 127
0 166 123
0 178 133
0 172 131
0 170 131
0 172 131
0 185 145
0 176 134
0 173 131
0 181 139
0 176 137
0 180 131
0 168 124
0 176 130
0 179 137
0 176 134
0 180 138
0 184 138
0 183 136
0 180 137
0 172 132
0 180 133
0 181 134
0 180 131
0 176 133
0 176 133
0 190 144
0 185 139
0 175 133
0 188 142
0 165 126
0 183 141
0 190 144
0 192 151
0 182 134
0 188 143
0 192 146
0 182 137
0 191 147
0 178 132
0 183 137
0 190 145
0 184 140
0 185 138
0 189 146
0 188 145
0 178 132
0 188 143
0 192 148
0 193 146
0 193 143
0 193 145
0 192 146
0 190 143
0 190 147
0 188 145
0 186 141
0 190 142
0 198 150
0 200 152
0 195 151
0 196 152
0 193 146
0 185 139
0 191 145
0 193 146
0 194 149
0 200 153
0 201 153
0 199 154
0 199 152
0 198 151
0 197 152
0 193 146
0 202 154
0 201 157
0 199 154
0 203 159
0 203 160
0 198 151
0 200 155
0 197 152
0 197 151
0 200 158
0 207 165
0 206 163
0 202 160
0 192 147
0 205 159
0 197 153
0 209 161
0 200 156
0 203 157
0 206 159
0 201 158
0 200 158
0 202 156
0 203 162
0 206 160
0 205 161
0 201 158
0 207 165
0 205 159
0 209 167
0 205 165
0 197 154
0 206 163
0 206 162
0 204 159
0 204 161
0 219 179
0 216 176
0 217 178
0 217 177
0 214 176
0 219 179
0 216 177
0 219 179
0 215 177
0 217 178
0 218 178
0 211 174
0 215 175
0 214 175
0 214 175
0 214 177
0 212 175
0 216 178
0 216 177
0 217 177
0 217 177
0 212 174
0 212 176
0 209 172
0 219 178
0 213 175
0 218 178
0 214 175
0 214 176
0 215 176
0 210 173
0 213 174
0 210 172
0 210 173
0 210 173
0 215 177
0 211 175
0 209 172
0 207 170
0 212 175
0 210 173
0 214 176
0 209 173
0 208 172
0 209 173
0 211 174
0 210 174
0 209 172
0 213 174
0 207 171
0 209 171
0 206 169
0 207 172
0 205 169
0 207 170
0 206 169
0 203 169
0 206 170
0 206 170
0 200 164
0 198 165
0 197 163
0 209 171
0 203 169
0 196 162
0 204 169
0 195 162
0 199 165
0 202 167
0 194 163
0 200 167
0 203 168
0 192 158
0 197 163
0 198 163
0 195 162
0 201 166
0 199 165
0 197 163
0 185 155
0 191 157
0 194 163
0 191 158
0 186 154
0 192 159
0 193 159
0 184 154
20 159 148
29 143 149
34 105 141
39 97 145
42 98 148
37 95 141
44 99 153
45 96 151
41 96 147
41 97 148
48 97 157
45 97 152
46 98 155
43 98 150
44 98 153
43 97 151
44 99 153
47 98 154
44 96 149
46 98 155
49 97 157
50 97 158
48 97 156
40 97 150
50 98 161
48 99 158
50 98 159
47 98 155
48 99 158
49 98 159
50 98 161
52 99 163
53 99 165
52 99 163
52 99 163
50 99 160
49 99 160
52 99 163
53 100 166
55 99 167
48 98 160
53 100 166
52 100 164
57 102 162
58 101 167
52 99 157
47 101 158
48 99 159
48 98 158
46 99 155
48 99 158
46 104 157
50 101 161
44 107 153
46 107 156
48 108 159
44 109 154
45 100 152
46 101 154
50 100 159
43 102 151
45 98 152
44 97 150
45 100 153
44 100 153
40 98 147
40 103 149
44 98 153
42 100 150
42 98 151
45 98 154
46 98 153
47 99 157
46 98 155
46 99 156
43 98 153
47 98 155
43 97 151
47 98 155
48 98 157
45 98 154
47 98 156
45 99 154
48 97 155
47 98 155
49 99 159
41 97 148
46 99 155
50 99 160
48 99 159
46 98 154
48 97 156
51 96 158
46 98 156
48 98 157
48 98 156
48 98 156
42 98 149
43 98 151
48 99 158
49 99 159
46 99 155
48 97 156
44 98 151
49 98 158
52 100 162
48 99 156
45 98 153
46 99 154
47 98 155
45 99 154
44 98 152
46 99 155
49 98 156
48 99 157
45 97 152
48 98 155
42 98 151
42 95 148
43 98 150
48 97 154
41 97 147
50 98 157
44 99 152
48 98 156
43 98 150
40 97 146
46 97 152
44 97 152
40 97 147
41 99 150
43 96 149
44 98 151
37 97 145
41 98 149
43 97 149
44 96 150
44 97 149
42 99 149
44 98 152
44 98 151
41 99 149
44 95 149
40 95 144
42 97 148
35 94 139
41 97 147
40 96 145
41 97 146
40 98 143
33 102 135
24 113 121
18 135 122
9 135 108
6 127 102
0 149 114
0 153 119
0 155 116
0 146 111
0 159 122
0 141 106
0 147 117
0 153 121
0 151 118
0 166 132
0 151 122
0 155 119
0 161 124
0 159 121
0 160 125
0 156 120
0 153 116
0 162 128
0 159 127
0 172 135
0 159 125
0 162 123
0 161 125
0 172 134
0 159 121
0 166 127
0 169 135
0 150 115
0 162 129
0 174 137
0 155 116
0 157 124
0 178 138
0 169 134
0 180 139
0 169 129
0 181 143
0 166 127
0 171 128
0 166 127
0 165 125
0 174 130
0 157 120
0 175 134
0 181 139
0 164 128
0 180 137
0 176 138
0 172 133
0 175 131
0 167 126
0 173 134
0 172 134
0 175 131
0 187 146
0 174 134
0 179 138
0 187 145
0 167 129
0 176 134
0 177 138
0 182 136
0 179 136
0 173 132
0 191 147
0 183 140
0 180 136
0 177 127
0 172 127
0 183 137
0 185 142
0 177 133
0 182 139
0 188 145
0 181 139
0 185 144
0 184 140
0 191 149
0 186 146
0 188 145
0 186 138
0 189 139
0 179 131
0 185 142
0 183 135
0 183 138
0 181 134
0 186 144
0 190 145
0 179 129
0 191 146
0 191 146
0 187 145
0 185 139
0 199 155
0 196 150
0 195 151
0 188 144
0 195 150
0 197 153
0 188 144
0 200 151
0 193 147
0 203 161
0 189 146
0 191 143
0 189 146
0 189 145
0 197 150
0 199 154
0 195 150
0 200 152
0 193 148
0 192 147
0 191 145
0 204 158
0 199 150
0 199 152
0 202 156
0 196 150
0 199 154
0 203 158
0 200 152
0 196 152
0 196 152
0 190 147
0 203 155
0 203 161
0 197 154
0 205 160
0 202 155
0 204 157
0 201 156
0 203 159
0 201 156
0 204 159
0 203 159
0 200 157
0 203 160
0 205 161
0 198 152
0 202 160
0 204 157
0 200 156
0 206 160
0 206 162
0 200 156
0 210 168
0 197 155
0 204 159
0 205 162
0 208 166
0 212 171
0 206 162
0 206 164
0 212 167
0 207 162
0 204 163
0 217 177
0 215 177
0 216 177
0 218 178
0 217 178
0 214 176
0 216 178
0 213 175
0 214 174
0 214 176
0 215 176
0 215 177
0 218 179
0 213 175
0 214 176
0 213 175
0 215 176
0 207 169
0 217 178
0 212 175
0 210 174
0 210 173
0 213 175
0 219 179
0 209 172
0 212 176
0 210 173
0 211 173
0 214 176
0 210 174
0 212 176
0 210 174
0 215 176
0 213 174
0 210 172
0 209 173
0 217 178
0 211 174
0 212 174
0 212 173
0 211 174
0 212 174
0 214 175
0 211 173
0 208 171
0 207 172
0 206 169
0 209 172
0 206 170
0 204 169
0 206 168
0 205 169
0 211 173
0 210 172
0 204 168
0 205 168
0 198 165
0 205 170
0 207 170
0 197 165
0 198 165
0 205 169
0 193 162
0 199 165
0 193 161
0 200 166
0 202 167
0 199 165
0 198 165
0 197 164
0 197 163
0 197 163
0 193 161
0 194 163
0 192 160
0 194 161
0 190 160
0 195 161
0 199 164
0 192 158
0 189 159
0 195 161
0 192 159
0 188 157
0 188 155
0 190 160
6 182 153
10 166 149
23 165 154
29 147 152
39 108 149
41 97 147
38 96 144
38 95 142
41 97 148
45 97 152
48 98 156
42 98 150
44 96 150
44 98 151
44 99 151
43 96 150
45 98 154
46 96 153
46 98 154
47 99 156
45 98 154
44 97 152
46 98 155
47 99 159
50 99 160
46 99 155
51 99 161
48 99 158
50 98 159
48 99 158
49 98 159
49 99 160
54 99 166
50 100 161
51 100 162
50 100 162
51 99 162
52 99 163
51 98 163
53 99 165
54 99 165
52 100 164
53 101 165
58 101 165
55 100 163
55 98 162
52 100 152
54 101 161
50 100 160
48 99 159
49 100 160
48 100 159
45 105 155
46 103 157
47 103 158
44 104 154
46 101 155
44 107 155
45 101 154
45 105 154
46 98 152
46 109 158
43 98 152
41 100 150
47 101 155
36 106 145
42 101 150
41 100 150
44 100 154
45 100 154
46 99 154
42 98 149
45 97 153
43 99 153
39 95 144
47 98 156
48 98 156
46 97 153
51 98 160
46 98 155
47 99 155
45 99 155
48 98 156
49 99 159
42 99 151
46 97 154
46 99 154
46 98 154
43 97 150
47 98 156
49 96 156
50 99 159
47 99 156
47 99 156
50 100 161
47 98 155
46 99 155
48 98 157
47 97 155
51 99 161
45 97 153
41 97 149
38 98 147
47 99 157
49 98 157
40 98 147
48 98 155
49 98 158
46 97 153
51 99 160
48 99 157
40 97 147
42 98 150
45 97 153
48 98 157
41 98 150
42 98 151
45 98 153
41 97 147
48 97 154
45 98 154
44 98 152
46 97 153
43 99 151
46 97 153
42 97 149
44 98 152
43 96 149
46 96 153
44 97 150
45 97 152
46 97 153
48 100 157
42 96 148
41 97 147
44 98 151
40 96 145
46 97 151
46 98 152
42 96 148
40 96 145
45 95 150
42 96 147
40 95 143
37 95 141
39 96 144
41 94 145
42 97 147
35 93 138
40 100 145
27 100 123
31 119 132
18 120 114
13 142 122
0 127 101
0 157 123
0 140 110
0 149 117
0 139 109
0 138 109
0 162 130
0 144 112
0 154 121
0 137 105
0 149 117
0 154 118
0 159 128
0 157 125
0 156 122
0 152 116
0 157 119
0 152 118
0 155 117
0 167 132
0 150 124
0 161 123
0 162 127
0 150 118
0 174 136
0 161 120
0 170 131
0 171 135
0 163 125
0 165 126
0 158 121
0 178 139
0 171 133
0 173 136
0 170 130
0 161 125
0 157 123
0 165 127
0 170 127
0 170 128
0 180 139
0 168 127
0 162 124
0 175 135
0 179 140
0 168 130
0 178 138
0 168 128
0 173 129
0 172 134
0 165 130
0 181 140
0 168 124
0 184 145
0 181 136
0 175 134
0 176 135
0 176 132
0 166 126
0 172 129
0 175 133
0 168 128
0 182 139
0 175 130
0 170 128
0 178 139
0 187 142
0 185 142
0 181 140
0 179 139
0 182 138
0 181 137
0 186 136
0 184 142
0 180 142
0 185 142
0 186 139
0 184 143
0 180 133
0 174 132
0 193 145
0 175 133
0 194 148
0 186 140
0 178 135
0 187 141
0 189 143
0 191 145
0 185 136
0 182 134
0 182 134
0 189 145
0 188 146
0 187 144
0 183 138
0 184 136
0 193 146
0 188 144
0 192 147
0 182 137
0 192 146
0 192 146
0 188 145
0 194 148
0 184 143
0 192 147
0 196 153
0 193 143
0 189 145
0 191 147
0 193 146
0 197 151
0 193 147
0 198 152
0 194 153
0 199 152
0 197 152
0 197 151
0 194 146
0 204 160
0 197 152
0 194 152
0 198 152
0 193 146
0 201 159
0 193 145
0 201 159
0 202 157
0 195 151
0 195 152
0 196 153
0 196 149
0 203 157
0 201 159
0 194 151
0 204 156
0 208 165
0 203 156
0 199 155
0 200 157
0 205 157
0 202 152
0 205 161
0 206 161
0 199 156
0 206 163
0 205 161
0 203 161
0 204 158
0 205 160
0 204 163
0 205 162
0 205 162
0 203 161
0 212 168
0 202 160
0 210 166
0 211 168
0 206 164
0 211 166
0 216 178
0 215 177
0 215 176
0 214 176
0 218 177
0 219 178
0 215 177
0 217 177
0 218 178
0 218 179
0 218 179
0 218 178
0 214 176
0 218 179
0 214 175
0 214 175
0 215 177
0 215 176
0 217 178
0 214 177
0 210 173
0 215 176
0 217 178
0 209 172
0 214 176
0 218 178
0 217 177
0 214 177
0 214 175
0 215 176
0 214 176
0 215 176
0 208 170
0 207 172
0 212 173
0 209 173
0 212 175
0 204 168
0 212 173
0 204 169
0 210 172
0 211 174
0 205 169
0 212 174
0 208 171
0 205 170
0 212 175
0 211 174
0 213 175
0 205 170
0 208 171
0 208 172
0 210 174
0 205 170
0 197 163
0 199 165
0 202 167
0 205 169
0 203 168
0 204 168
0 203 168
0 201 166
0 203 169
0 206 168
0 207 171
0 202 167
0 205 169
0 200 166
0 198 163
0 197 164
0 202 168
0 193 161
0 199 164
0 202 165
0 197 164
0 187 157
0 196 163
0 191 161
0 188 157
0 185 155
0 187 155
0 195 161
0 183 155
0 187 155
0 176 145
0 175 147
0 185 154
11 179 152
17 171 152
28 136 141
35 120 146
34 101 141
38 97 144
41 95 144
39 98 148
41 99 149
42 97 147
39 97 146
44 98 151
44 98 152
45 97 153
40 96 146
39 98 147
47 98 156
43 96 149
47 98 155
45 97 152
44 97 151
47 97 156
45 99 153
46 98 155
50 100 161
50 97 159
51 99 161
51 99 161
46 98 156
44 97 154
49 98 160
48 98 158
49 99 162
48 97 157
51 99 163
49 100 161
52 100 164
50 98 161
50 99 162
55 101 164
50 100 160
50 98 161
57 102 165
58 104 158
57 106 163
61 105 158
55 101 160
54 99 166
49 99 159
49 98 157
50 98 159
44 102 153
41 104 152
39 107 148
45 112 157
41 109 152
48 111 162
41 105 149
44 105 152
42 105 152
45 102 153
47 100 154
39 104 149
47 98 155
45 97 150
41 98 147
48 104 158
42 101 150
41 100 148
45 103 154
43 95 149
43 99 152
51 100 162
42 98 150
46 98 153
42 98 151
42 99 150
46 99 154
48 99 158
46 95 152
47 98 157
49 98 159
46 99 156
44 96 151
45 98 153
45 98 153
46 98 154
45 98 153
43 96 149
43 99 153
46 97 154
41 99 148
44 99 151
43 98 150
42 97 150
47 98 155
44 99 152
45 98 152
44 97 150
46 98 154
48 98 158
45 98 153
46 98 154
40 97 148
46 98 153
49 99 159
45 98 153
48 99 157
46 98 155
44 97 151
49 100 159
47 98 156
41 99 150
44 99 154
45 99 154
43 98 150
46 97 152
49 100 159
43 97 150
44 98 153
42 97 149
47 98 153
43 98 151
46 97 154
42 98 148
46 98 153
45 96 150
40 95 145
45 98 154
40 98 148
43 98 151
40 97 147
43 99 151
39 96 144
40 97 147
43 98 151
44 98 151
42 94 145
41 95 146
38 96 144
38 95 141
37 97 144
39 96 146
43 96 148
35 93 137
39 96 144
39 97 145
40 94 140
33 109 133
25 103 116
25 125 125
9 138 119
15 142 121
0 136 111
0 130 100
0 133 105
0 155 122
0 148 117
0 159 124
0 148 114
0 146 116
0 147 115
0 147 116
0 167 130
0 159 124
0 151 121
0 163 124
0 165 131
0 166 129
0 165 129
0 167 133
0 154 120
0 160 126
0 150 113
0 161 124
0 161 125
0 152 122
0 162 126
0 161 122
0 170 137
0 168 133
0 160 124
0 167 129
0 177 136
0 160 123
0 174 135
0 167 127
0 180 142
0 171 133
0 175 135
0 166 127
0 176 133
0 185 142
0 164 125
0 171 135
0 178 140
0 171 132
0 165 127
0 174 139
0 176 136
0 182 136
0 184 141
0 166 127
0 174 134
0 178 136
0 177 133
0 174 131
0 186 145
0 174 135
0 178 140
0 186 144
0 172 135
0 176 133
0 180 136
0 185 140
0 177 137
0 171 128
0 176 138
0 175 135
0 175 131
0 170 125
0 183 139
0 181 138
0 186 141
0 171 132
0 190 145
0 177 136
0 188 146
0 179 136
0 181 138
0 178 132
0 184 140
0 179 130
0 193 148
0 175 131
0 177 134
0 179 136
0 181 139
0 188 141
0 189 149
0 194 150
0 187 144
0 194 150
0 195 153
0 188 143
0 181 136
0 193 147
0 185 140
0 184 143
0 181 131
0 192 146
0 189 142
0 200 154
0 196 153
0 194 151
0 204 160
0 194 148
0 189 141
0 181 138
0 192 150
0 196 146
0 190 148
0 199 152
0 192 145
0 190 147
0 193 146
0 194 146
0 201 159
0 198 153
0 201 157
0 191 145
0 200 152
0 200 155
0 199 152
0 198 151
0 199 156
0 197 153
0 203 160
0 200 157
0 199 156
0 201 151
0 200 156
0 202 158
0 200 153
0 203 157
0 202 154
0 204 161
0 204 157
0 198 154
0 204 160
0 210 167
0 206 161
0 209 167
0 201 157
0 204 161
0 204 159
0 201 157
0 205 161
0 198 157
0 204 160
0 202 160
0 204 160
0 207 164
0 206 162
0 203 159
0 209 164
0 204 163
0 206 165
0 204 159
0 207 165
0 206 163
0 208 163
0 202 154
0 217 178
0 220 179
0 220 180
0 216 178
0 218 178
0 218 179
0 216 177
0 216 177
0 217 178
0 215 177
0 218 178
0 216 177
0 211 174
0 217 178
0 213 176
0 213 174
0 216 178
0 212 173
0 214 175
0 214 175
0 213 175
0 209 173
0 215 177
0 215 177
0 216 177
0 205 170
0 210 173
0 212 174
0 210 173
0 209 172
0 212 174
0 215 177
0 213 175
0 212 173
0 209 172
0 214 175
0 210 174
0 205 169
0 207 172
0 209 172
0 208 172
0 207 171
0 210 173
0 209 173
0 209 173
0 208 171
0 207 171
0 207 171
0 210 172
0 210 172
0 209 171
0 202 167
0 205 168
0 205 169
0 208 171
0 205 168
0 208 170
0 202 168
0 213 174
0 204 168
0 204 168
0 206 171
0 205 167
0 208 171
0 200 165
0 190 158
0 202 166
0 195 163
0 199 165
0 207 170
0 197 165
0 197 163
0 198 163
0 198 164
0 193 161
0 198 164
0 195 162
0 195 161
0 187 154
0 183 153
0 191 157
0 188 156
0 191 160
0 192 159
0 185 154
0 190 157
0 196 161
0 179 150
6 188 155
15 166 148
25 150 148
34 124 148
40 94 144
35 96 140
37 94 139
38 95 142
43 95 147
38 97 144
46 97 154
40 97 146
43 96 149
41 99 150
43 98 151
43 97 151
42 98 150
45 99 153
49 100 160
44 99 152
43 97 152
45 99 154
47 98 155
48 98 156
48 97 156
50 97 158
47 98 156
46 97 156
45 97 153
51 100 162
48 99 157
51 99 163
49 98 160
52 99 165
50 100 161
49 100 161
52 99 165
52 98 162
50 99 160
53 99 165
53 100 164
51 99 162
54 100 160
55 102 162
59 101 164
53 102 161
51 101 154
48 101 157
49 97 158
48 99 158
49 101 160
46 107 157
44 108 154
47 110 157
43 103 151
49 102 158
38 110 148
46 109 157
43 103 151
44 105 154
43 106 153
43 98 152
45 106 155
40 101 149
44 101 153
43 103 152
44 100 152
43 100 152
43 97 150
42 98 150
43 99 152
45 96 153
44 100 154
43 99 151
50 99 160
44 98 152
46 98 154
46 96 153
46 99 154
44 97 151
46 97 154
43 99 151
48 97 157
43 97 151
46 99 156
47 96 154
45 99 155
42 98 150
48 99 158
45 98 152
44 98 154
43 98 151
43 97 150
45 98 153
46 98 154
50 100 159
42 98 151
46 99 154
47 96 155
45 99 154
51 99 160
44 97 152
48 99 156
49 97 156
47 99 155
49 98 157
42 99 151
48 99 157
45 98 152
51 99 158
46 98 154
46 99 153
46 98 153
42 99 152
42 97 149
45 97 152
46 98 154
45 99 154
44 97 150
39 95 145
39 96 146
45 97 151
47 98 155
41 97 147
44 97 151
43 98 149
42 97 149
40 97 148
40 96 146
45 98 153
43 96 146
45 97 151
46 98 154
42 97 146
41 97 147
38 98 145
41 98 147
38 95 143
38 96 143
41 94 145
41 95 144
38 97 143
35 96 141
40 94 144
41 97 146
37 97 141
36 103 135
24 128 127
28 120 123
18 135 123
6 148 121
0 141 113
0 150 113
0 142 107
0 143 107
0 152 119
0 157 120
0 155 122
0 148 120
0 162 132
0 151 120
0 148 117
0 149 115
0 159 123
0 157 125
0 162 130
0 161 121
0 146 112
0 169 133
0 167 130
0 150 117
0 166 128
0 169 132
0 174 132
0 158 120
0 167 128
0 175 139
0 178 143
0 155 117
0 181 139
0 166 124
0 164 129
0 161 124
0 163 128
0 169 129
0 169 132
0 170 130
0 163 128
0 174 135
0 175 136
0 159 123
0 164 123
0 172 134
0 164 126
0 174 135
0 175 135
0 161 123
0 174 138
0 175 135
0 164 127
0 181 137
0 169 129
0 187 145
0 173 131
0 176 136
0 180 142
0 170 128
0 178 139
0 178 138
0 185 143
0 175 126
0 181 141
0 181 139
0 182 137
0 175 134
0 173 134
0 178 137
0 167 122
0 172 136
0 181 142
0 178 135
0 176 132
0 186 147
0 178 136
0 186 139
0 189 142
0 175 133
0 191 144
0 191 149
0 193 149
0 182 139
0 182 136
0 184 139
0 192 146
0 179 135
0 186 141
0 187 144
0 182 137
0 182 135
0 188 142
0 189 147
0 183 137
0 195 151
0 191 144
0 192 144
0 183 141
0 188 145
0 195 148
0 189 141
0 190 147
0 200 156
0 194 148
0 195 150
0 190 141
0 185 139
0 191 147
0 192 145
0 195 152
0 196 144
0 187 144
0 195 150
0 193 147
0 204 161
0 196 151
0 192 149
0 197 151
0 198 156
0 200 159
0 198 148
0 199 153
0 200 156
0 203 158
0 195 150
0 197 157
0 191 149
0 195 148
0 193 146
0 198 152
0 202 159
0 207 162
0 193 149
0 197 155
0 196 151
0 200 156
0 194 148
0 203 155
0 203 158
0 208 166
0 205 160
0 204 159
0 205 161
0 201 155
0 209 164
0 203 157
0 198 154
0 208 163
0 201 159
0 208 166
0 201 155
0 207 163
0 200 157
0 205 163
0 207 161
0 206 162
0 206 162
0 207 163
0 205 159
0 208 165
0 209 165
0 200 158
0 209 166
0 208 165
0 215 176
0 218 178
0 214 177
0 218 180
0 215 176
0 218 179
0 218 178
0 214 176
0 214 176
0 217 178
0 216 177
0 214 176
0 217 178
0 214 176
0 210 173
0 214 177
0 213 175
0 212 175
0 212 175
0 212 174
0 215 177
0 216 177
0 215 177
0 209 172
0 213 175
0 212 174
0 216 176
0 212 173
0 215 176
0 209 173
0 209 173
0 212 175
0 210 173
0 210 174
0 211 175
0 214 175
0 211 172
0 213 174
0 206 170
0 209 171
0 209 171
0 206 171
0 200 166
0 211 175
0 209 173
0 209 173
0 213 175
0 210 173
0 211 173
0 200 167
0 205 168
0 210 173
0 204 169
0 211 175
0 202 168
0 209 170
0 204 169
0 207 171
0 212 174
0 199 165
0 206 170
0 208 172
0 208 170
0 202 167
0 203 168
0 200 168
0 205 169
0 194 160
0 198 164
0 195 162
0 197 164
0 199 165
0 193 160
0 197 162
0 195 161
0 197 164
0 192 160
0 184 153
0 197 162
0 192 159
0 200 164
0 187 157
0 181 152
0 192 159
0 178 149
0 200 162
0 190 158
0 188 157
0 181 150
11 168 145
9 160 142
28 133 141
34 116 145
39 96 144
38 94 142
41 99 148
37 96 143
42 97 149
43 99 151
43 96 149
37 95 143
42 98 149
34 94 140
40 98 147
40 96 146
45 97 152
43 98 152
45 97 152
44 98 153
43 97 152
48 97 155
47 99 158
46 96 153
50 99 161
46 96 152
46 98 152
48 99 157
49 99 158
53 99 165
52 98 163
50 100 161
51 99 162
49 99 160
54 100 166
51 99 163
52 100 163
51 100 163
54 101 163
50 100 161
53 100 160
62 105 160
60 104 160
55 104 157
56 105 154
65 108 156
55 101 162
47 100 156
48 99 157
50 101 161
46 104 155
43 107 154
41 107 151
43 110 154
46 103 156
46 106 156
44 104 152
38 105 148
40 99 147
41 108 152
44 102 152
41 105 149
44 100 151
44 103 154
44 102 154
38 107 149
43 98 150
47 98 156
43 100 153
43 93 147
43 100 152
47 100 157
47 99 156
44 97 151
47 97 154
44 98 153
47 99 156
46 98 155
42 97 148
46 99 156
43 99 151
50 97 158
47 99 157
47 99 156
41 96 147
44 97 152
42 95 148
43 98 151
46 97 154
44 98 151
45 98 154
45 97 153
45 98 154
47 97 153
40 96 147
49 100 158
47 99 156
44 99 153
46 98 154
43 99 152
38 96 145
49 99 158
47 97 153
47 98 155
42 97 148
43 97 151
46 98 154
46 98 154
48 98 156
40 98 147
49 98 157
49 98 158
48 99 156
42 97 148
43 97 150
41 96 146
44 98 152
44 97 150
43 98 150
45 99 153
44 97 149
45 100 154
45 98 152
43 98 149
42 98 149
44 98 151
42 98 150
44 97 150
46 98 154
47 100 156
40 97 146
43 96 149
40 97 145
38 95 141
39 97 146
41 96 147
42 97 148
39 96 145
36 96 142
42 96 145
36 96 140
39 94 142
40 95 144
40 102 145
32 104 133
25 116 119
23 136 127
15 122 105
7 160 127
0 147 118
0 162 127
0 152 119
0 149 123
0 160 126
0 149 116
0 156 124
0 147 115
0 153 120
0 156 119
0 145 116
0 149 114
0 157 123
0 150 117
0 152 121
0 154 122
0 159 124
0 160 127
0 152 122
0 156 123
0 146 115
0 170 135
0 161 122
0 159 125
0 156 123
0 163 128
0 162 123
0 163 125
0 157 119
0 159 120
0 171 132
0 165 131
0 174 138
0 158 124
0 164 132
0 166 130
0 173 138
0 168 132
0 178 134
0 177 134
0 170 132
0 174 131
0 179 140
0 169 134
0 174 133
0 176 135
0 180 141
0 176 132
0 170 134
0 170 132
0 173 133
0 176 136
0 179 138
0 175 134
0 176 137
0 180 142
0 179 139
0 187 141
0 177 132
0 181 141
0 191 147
0 184 146
0 169 126
0 180 136
0 180 138
0 179 133
0 178 129
0 189 146
0 180 141
0 185 141
0 166 126
0 191 148
0 184 143
0 179 135
0 191 149
0 189 144
0 179 133
0 189 149
0 181 137
0 186 141
0 189 142
0 189 146
0 187 142
0 187 146
0 187 143
0 185 142
0 184 141
0 189 142
0 195 148
0 193 150
0 191 148
0 192 147
0 192 148
0 192 151
0 189 144
0 190 147
0 181 138
0 192 147
0 195 150
0 191 150
0 196 153
0 187 142
0 197 151
0 186 143
0 198 156
0 192 152
0 191 143
0 190 148
0 191 144
0 194 152
0 195 149
0 193 148
0 194 149
0 201 156
0 197 151
0 200 157
0 198 155
0 204 158
0 197 149
0 194 150
0 196 151
0 196 149
0 202 160
0 196 153
0 194 152
0 197 151
0 202 157
0 200 155
0 200 159
0 194 150
0 199 155
0 204 159
0 196 152
0 196 151
0 205 160
0 195 150
0 198 152
0 202 155
0 204 160
0 194 152
0 209 164
0 207 164
0 203 160
0 204 161
0 202 159
0 206 165
0 205 162
0 200 156
0 200 159
0 202 156
0 210 170
0 201 159
0 210 165
0 215 170
0 203 159
0 207 167
0 211 166
0 205 161
0 208 164
0 208 165
0 207 161
0 206 162
0 215 176
0 214 176
0 217 177
0 217 177
0 220 180
0 219 178
0 212 174
0 216 176
0 214 176
0 218 179
0 217 178
0 214 176
0 219 178
0 211 174
0 215 176
0 213 175
0 210 173
0 217 178
0 212 175
0 213 175
0 213 175
0 209 171
0 216 177
0 210 174
0 215 177
0 214 175
0 212 175
0 211 174
0 213 176
0 209 172
0 215 176
0 210 172
0 211 174
0 214 175
0 209 172
0 214 175
0 213 175
0 209 172
0 212 173
0 209 173
0 210 173
0 215 176
0 207 172
0 210 173
0 209 173
0 212 174
0 210 174
0 205 170
0 210 173
0 206 170
0 199 165
0 202 168
0 207 171
0 206 171
0 202 167
0 202 168
0 200 167
0 206 170
0 208 172
0 205 169
0 204 169
0 202 166
0 194 161
0 207 170
0 204 169
0 202 167
0 198 162
0 192 161
0 204 168
0 199 164
0 203 167
0 196 163
0 197 163
0 191 158
0 189 156
0 189 158
0 187 157
0 200 166
0 196 163
0 188 158
0 180 151
0 185 154
0 196 162
0 192 159
0 187 156
0 190 160
0 187 154
0 186 154
0 180 149
6 179 149
11 171 148
24 158 148
27 140 145
35 99 139
39 96 143
33 95 139
36 97 142
44 97 150
40 95 144
40 95 146
40 95 145
43 96 149
44 94 147
44 98 153
45 98 152
42 97 148
42 95 146
49 99 160
49 99 158
39 94 144
45 98 153
48 98 156
48 98 158
48 99 158
42 98 150
47 98 156
48 98 158
50 98 161
48 97 158
48 97 156
43 97 152
50 98 161
48 98 159
49 99 160
51 99 162
50 99 160
53 99 164
51 98 160
52 103 158
54 102 160
54 101 161
49 102 154
47 100 155
49 101 152
60 104 154
46 98 156
48 98 156
46 99 153
47 99 156
48 104 159
48 108 159
47 112 160
44 108 155
43 101 150
38 107 148
45 103 154
39 100 146
43 102 151
43 102 151
45 103 154
41 112 153
43 104 151
43 107 154
41 104 151
43 96 149
44 98 152
39 106 149
46 98 154
45 97 153
42 97 149
45 99 154
45 97 152
41 99 149
45 98 153
41 95 146
46 99 155
44 97 151
45 98 153
42 98 148
43 96 150
44 96 151
44 99 154
41 98 149
44 98 151
42 98 150
40 99 149
45 95 151
47 98 154
49 100 158
45 99 154
45 98 153
45 98 153
46 97 154
47 98 156
45 97 151
45 97 151
45 98 153
44 99 154
39 95 145
47 99 157
49 97 156
47 98 154
47 98 154
48 97 155
46 96 152
47 98 155
45 97 151
45 99 154
44 98 151
46 96 151
40 97 147
44 97 152
47 99 157
46 98 154
43 98 151
38 96 144
44 98 152
44 98 152
42 98 147
41 97 146
42 98 149
43 94 147
37 95 143
37 97 143
38 95 143
39 98 145
44 97 151
42 98 149
41 97 148
43 98 151
42 94 146
39 96 144
42 94 146
35 96 141
41 98 148
38 97 144
45 97 151
37 96 141
39 96 144
44 96 148
38 93 140
36 103 140
32 109 132
22 112 121
14 131 118
13 144 124
6 145 116
0 135 105
0 129 105
0 152 119
0 159 127
0 151 118
0 139 114
0 152 120
0 147 113
0 157 122
0 162 125
0 167 132
0 155 119
0 155 121
0 157 122
0 164 129
0 160 129
0 157 124
0 153 117
0 162 127
0 154 122
0 162 129
0 168 133
0 166 133
0 167 136
0 164 130
0 168 128
0 166 132
0 153 118
0 167 131
0 159 125
0 170 133
0 178 139
0 165 127
0 166 131
0 181 142
0 159 127
0 178 139
0 176 140
0 170 135
0 179 141
0 175 137
0 165 130
0 169 132
0 177 132
0 169 133
0 162 127
0 172 130
0 180 142
0 177 137
0 177 138
0 172 136
0 185 145
0 176 138
0 182 140
0 183 144
0 179 138
0 181 141
0 172 132
0 179 140
0 177 136
0 188 146
0 176 137
0 169 129
0 178 138
0 193 150
0 188 145
0 185 145
0 192 150
0 191 151
0 188 142
0 187 143
0 187 145
0 180 137
0 185 141
0 178 138
0 179 137
0 186 142
0 190 150
0 185 145
0 184 142
0 182 138
0 181 139
0 177 133
0 183 145
0 182 141
0 182 140
0 186 143
0 185 142
0 191 146
0 179 138
0 194 149
0 179 136
0 177 135
0 187 138
0 179 140
0 190 147
0 185 143
0 187 141
0 187 145
0 193 153
0 190 149
0 199 156
0 195 150
0 198 154
0 196 150
0 193 147
0 194 148
0 184 142
0 195 150
0 202 159
0 198 156
0 195 151
0 195 149
0 202 158
0 192 147
0 191 148
0 190 144
0 187 144
0 198 154
0 194 146
0 202 155
0 193 147
0 201 153
0 203 161
0 196 154
0 196 150
0 197 155
0 200 155
0 198 152
0 206 159
0 196 154
0 205 163
0 206 160
0 204 161
0 201 157
0 195 150
0 206 164
0 203 158
0 210 165
0 201 157
0 199 158
0 206 164
0 203 158
0 204 162
0 197 150
0 199 155
0 199 156
0 203 157
0 200 159
0 203 162
0 210 166
0 205 163
0 210 164
0 205 164
0 207 162
0 210 165
0 204 162
0 209 164
0 209 166
0 207 162
0 211 166
0 206 163
0 205 161
0 213 175
0 214 177
0 216 177
0 217 178
0 217 177
0 217 178
0 215 177
0 216 177
0 216 177
0 214 176
0 217 179
0 216 178
0 218 178
0 213 176
0 214 176
0 216 177
0 216 177
0 219 179
0 212 173
0 212 174
0 214 176
0 217 177
0 217 177
0 214 176
0 212 174
0 210 174
0 215 176
0 212 174
0 217 177
0 211 173
0 218 179
0 210 173
0 207 172
0 211 173
0 218 178
0 212 174
0 211 174
0 211 174
0 212 174
0 217 178
0 210 173
0 207 170
0 205 169
0 206 170
0 206 171
0 204 170
0 201 168
0 201 167
0 210 173
0 207 170
0 205 170
0 202 167
0 205 170
0 199 166
0 204 168
0 201 167
0 205 170
0 205 167
0 206 171
0 204 170
0 202 168
0 203 167
0 202 168
0 204 168
0 195 162
0 201 166
0 207 169
0 196 161
0 202 167
0 200 165
0 199 163
0 198 164
0 193 161
0 197 163
0 187 155
0 195 162
0 181 152
0 193 161
0 193 161
0 199 163
0 194 161
0 183 153
0 192 159
0 184 154
0 182 149
0 179 148
0 180 149
0 176 148
0 169 142
0 183 152
6 179 152
14 165 146
26 153 150
33 132 148
31 107 141
43 95 146
35 95 139
35 94 139
38 96 144
34 97 139
38 95 144
45 98 151
39 94 144
47 97 153
41 98 147
41 97 147
40 98 147
43 98 150
43 98 150
43 97 151
44 97 151
48 96 155
41 98 150
43 97 150
46 97 153
47 100 157
48 99 157
47 99 158
48 98 157
51 99 162
46 98 155
51 99 160
46 99 157
47 99 157
49 97 158
47 99 157
53 100 160
52 101 159
50 98 160
54 103 159
48 102 157
56 106 158
66 107 154
59 103 155
53 101 159
55 104 156
59 103 158
50 100 160
48 100 157
42 103 152
44 108 154
42 104 151
43 99 149
44 105 153
41 111 153
38 106 147
41 102 148
44 105 153
40 106 148
41 99 147
42 103 151
42 104 149
38 103 147
42 99 148
45 100 153
45 101 154
44 98 151
43 98 150
46 97 153
44 98 152
42 97 149
41 96 147
40 97 147
43 98 151
48 98 157
43 97 152
39 98 147
43 99 152
46 98 154
37 94 143
39 96 144
43 97 150
45 98 152
40 97 146
43 96 149
41 96 148
46 99 154
48 99 156
43 97 150
43 96 149
43 100 151
43 97 150
44 99 153
46 98 153
42 96 148
45 98 152
44 98 151
45 98 153
42 98 149
40 98 148
40 95 145
42 96 149
42 96 148
45 99 153
41 96 146
42 97 149
47 96 152
46 96 152
43 99 151
41 98 149
40 98 147
44 97 152
45 97 152
42 96 147
39 98 146
44 98 151
42 97 149
42 97 148
43 98 150
46 98 151
44 96 149
41 97 148
43 95 147
46 96 152
42 97 148
45 97 151
42 96 148
42 97 147
43 96 149
41 98 148
42 93 145
37 93 140
36 93 138
37 95 142
42 96 148
38 94 140
35 93 137
41 95 145
35 94 139
40 96 143
30 100 132
28 107 125
21 132 131
19 129 122
13 134 113
0 140 112
0 143 114
0 146 116
0 141 110
0 140 110
0 149 121
0 142 112
0 158 127
0 156 124
0 144 117
0 157 128
0 150 116
0 154 126
0 172 136
0 157 121
0 162 129
0 167 133
0 158 123
0 164 128
0 153 121
0 146 112
0 149 117
0 165 129
0 153 121
0 167 134
0 159 125
0 160 126
0 162 130
0 174 136
0 164 132
0 165 130
0 168 134
0 169 132
0 164 132
0 170 138
0 163 127
0 169 134
0 165 130
0 169 134
0 161 128
0 156 122
0 159 125
0 166 128
0 175 136
0 166 129
0 177 138
0 178 138
0 159 122
0 174 136
0 164 129
0 171 131
0 194 154
0 173 137
0 177 136
0 182 145
0 180 140
0 183 149
0 171 132
0 173 132
0 176 137
0 183 144
0 177 136
0 184 143
0 189 147
0 179 142
0 175 132
0 186 150
0 182 138
0 181 142
0 191 149
0 184 144
0 184 141
0 184 141
0 190 143
0 188 145
0 178 139
0 180 138
0 177 138
0 188 148
0 189 143
0 178 138
0 186 144
0 183 138
0 187 145
0 189 146
0 196 154
0 184 140
0 182 136
0 190 144
0 189 146
0 184 141
0 197 155
0 194 150
0 190 145
0 191 149
0 190 148
0 194 152
0 196 153
0 188 144
0 181 139
0 186 142
0 193 149
0 193 149
0 194 147
0 192 149
0 194 150
0 196 154
0 193 151
0 190 145
0 194 151
0 193 150
0 197 154
0 197 149
0 201 158
0 196 150
0 197 150
0 206 161
0 198 153
0 201 158
0 198 150
0 199 157
0 201 157
0 202 159
0 194 148
0 195 151
0 199 153
0 201 158
0 206 164
0 201 157
0 203 163
0 201 157
0 208 163
0 201 156
0 193 145
0 204 160
0 199 155
0 203 160
0 198 152
0 202 158
0 204 164
0 199 154
0 205 162
0 204 161
0 203 160
0 205 162
0 204 161
0 202 155
0 204 159
0 200 160
0 204 162
0 206 162
0 205 162
0 207 166
0 203 160
0 205 163
0 207 161
0 206 162
0 203 160
0 206 162
0 203 161
0 204 161
0 207 167
0 212 169
0 206 162
0 209 161
0 215 178
0 216 177
0 215 176
0 215 177
0 214 176
0 218 178
0 214 176
0 216 177
0 214 175
0 214 175
0 211 173
0 211 175
0 217 177
0 211 173
0 213 176
0 216 176
0 210 175
0 213 176
0 209 172
0 216 177
0 214 177
0 213 175
0 212 174
0 211 174
0 214 175
0 210 174
0 215 177
0 213 175
0 213 175
0 211 174
0 203 168
0 211 173
0 209 172
0 206 171
0 213 175
0 209 173
0 204 168
0 211 173
0 207 171
0 211 174
0 213 175
0 204 170
0 210 172
0 205 169
0 207 170
0 207 171
0 202 169
0 213 175
0 206 170
0 208 171
0 208 170
0 206 171
0 204 168
0 213 175
0 209 174
0 200 166
0 208 172
0 204 169
0 201 165
0 200 165
0 199 163
0 208 172
0 200 166
0 204 170
0 201 167
0 199 166
0 199 167
0 197 164
0 196 163
0 198 162
0 195 163
0 197 163
0 189 157
0 196 162
0 192 159
0 193 159
0 192 161
0 186 155
0 195 160
0 190 157
0 180 150
0 192 158
0 185 154
0 181 151
0 185 153
0 194 161
0 189 158
0 191 159
0 177 147
0 173 145
0 172 143
0 168 143
11 167 145
22 148 143
34 124 147
35 103 142
42 96 147
36 93 138
36 96 141
42 97 146
42 97 148
43 97 149
44 99 153
37 94 140
41 97 148
41 98 148
44 100 153
43 96 148
43 97 150
43 97 150
46 98 154
44 97 153
45 97 154
43 94 146
43 97 151
41 97 149
48 98 156
48 99 157
51 99 161
45 100 155
50 100 161
44 99 153
52 100 163
50 98 159
50 99 161
48 98 156
54 102 161
52 101 159
56 103 157
60 106 160
51 103 149
59 103 150
61 105 152
56 103 158
64 108 157
60 110 148
49 100 151
50 101 154
41 98 148
52 102 163
45 104 153
48 103 158
37 113 149
44 109 153
42 105 150
40 103 150
42 109 151
39 110 149
41 98 146
41 97 146
37 103 146
38 98 143
42 102 151
40 104 148
37 103 145
43 100 151
42 99 151
41 95 146
43 97 150
45 100 154
37 97 145
40 96 146
38 97 145
47 100 156
44 98 151
44 98 151
43 96 148
47 99 157
45 97 152
44 95 149
42 98 150
45 98 153
44 98 152
42 97 149
47 98 156
47 99 156
44 97 150
45 100 154
43 96 149
43 98 151
48 98 156
41 98 148
45 99 155
46 99 154
40 99 148
48 97 155
43 98 151
43 99 151
44 97 151
42 96 148
43 97 149
42 98 149
42 97 149
45 97 153
44 96 149
44 96 149
42 96 148
43 95 149
42 97 149
44 96 150
46 98 153
38 98 145
45 97 152
42 98 149
48 96 153
44 99 151
40 95 143
44 99 153
46 98 153
43 97 150
42 97 148
40 96 146
41 98 148
37 95 143
42 96 147
38 96 144
42 92 144
42 97 148
36 95 140
38 93 141
42 97 148
37 96 141
37 96 143
37 94 140
35 95 139
38 92 138
40 94 143
37 92 138
38 91 136
39 107 140
33 115 137
18 139 127
21 133 120
16 130 114
0 124 102
0 144 116
0 147 117
0 142 113
0 140 112
0 157 124
0 148 118
0 145 115
0 153 119
0 149 115
0 158 128
0 149 118
0 155 123
0 150 121
0 153 125
0 164 130
0 164 132
0 154 125
0 157 127
0 160 127
0 167 134
0 160 124
0 154 119
0 166 135
0 155 121
0 163 129
0 162 126
0 160 128
0 166 134
0 157 126
0 170 137
0 170 135
0 171 135
0 165 129
0 163 130
0 164 131
0 154 119
0 164 128
0 168 129
0 176 141
0 179 145
0 164 126
0 177 141
0 165 130
0 171 138
0 179 138
0 178 137
0 173 136
0 181 138
0 170 130
0 180 144
0 176 134
0 173 135
0 168 131
0 181 142
0 190 152
0 178 140
0 179 141
0 170 133
0 191 148
0 173 133
0 177 138
0 185 146
0 182 137
0 170 135
0 181 145
0 183 139
0 182 143
0 176 138
0 185 147
0 176 134
0 180 138
0 182 141
0 182 142
0 187 147
0 187 145
0 175 133
0 186 142
0 188 146
0 193 152
0 181 137
0 188 145
0 186 145
0 183 141
0 191 148
0 182 140
0 193 148
0 181 140
0 199 155
0 186 142
0 190 145
0 189 148
0 189 147
0 183 142
0 189 143
0 194 149
0 189 148
0 187 143
0 194 148
0 195 154
0 195 151
0 199 155
0 190 145
0 193 150
0 188 145
0 190 145
0 200 157
0 192 145
0 199 154
0 192 149
0 192 144
0 185 143
0 197 152
0 196 153
0 201 159
0 196 153
0 192 150
0 196 152
0 201 156
0 206 162
0 195 153
0 192 149
0 200 159
0 205 161
0 196 152
0 196 152
0 195 154
0 197 150
0 199 157
0 203 160
0 205 163
0 198 154
0 205 161
0 199 153
0 200 159
0 198 155
0 197 153
0 197 152
0 203 155
0 205 165
0 198 155
0 206 162
0 205 160
0 201 155
0 198 154
0 202 157
0 203 158
0 205 164
0 200 159
0 207 161
0 206 163
0 204 161
0 209 164
0 206 162
0 208 163
0 208 165
0 203 160
0 209 166
0 200 158
0 207 166
0 202 161
0 206 162
0 206 163
0 206 162
0 207 164
0 202 159
0 213 174
0 215 176
0 214 175
0 214 176
0 215 177
0 215 176
0 211 174
0 214 176
0 213 175
0 215 176
0 212 173
0 214 175
0 213 176
0 210 172
0 211 174
0 213 175
0 216 177
0 214 177
0 211 174
0 214 176
0 213 174
0 213 175
0 214 177
0 213 175
0 202 168
0 215 175
0 216 177
0 210 174
0 209 173
0 216 176
0 205 169
0 212 174
0 207 171
0 213 175
0 211 173
0 208 171
0 212 175
0 211 173
0 206 170
0 209 172
0 212 173
0 209 174
0 205 170
0 209 172
0 207 170
0 209 172
0 205 170
0 212 174
0 203 168
0 211 173
0 211 175
0 209 173
0 206 171
0 199 165
0 205 169
0 205 169
0 205 168
0 202 169
0 200 166
0 204 167
0 199 166
0 205 168
0 198 164
0 207 171
0 193 161
0 201 166
0 196 163
0 209 171
0 187 157
0 193 159
0 196 165
0 202 166
0 196 162
0 190 158
0 199 164
0 200 167
0 190 157
0 189 157
0 199 165
0 195 161
0 195 161
0 186 155
0 184 153
0 184 154
0 181 151
0 186 153
0 184 154
0 186 155
0 166 140
0 174 148
0 173 144
0 180 149
6 176 148
11 167 144
28 142 145
29 118 136
35 98 141
33 95 138
39 95 143
40 97 146
33 96 138
38 95 143
46 96 151
45 97 151
41 96 146
37 97 144
44 97 150
41 98 150
41 98 148
46 97 152
46 97 154
44 96 149
47 98 155
44 98 153
43 97 149
44 97 152
46 96 154
49 99 158
47 98 156
46 98 155
47 100 156
49 99 160
44 98 154
47 99 156
49 98 157
51 99 161
50 99 160
49 102 158
51 102 157
57 102 151
56 104 161
50 103 153
56 102 153
57 103 155
53 105 153
52 106 149
48 101 150
50 99 154
48 100 157
46 104 157
44 101 152
47 109 159
43 107 152
41 107 150
47 110 158
43 107 153
42 109 154
42 102 151
33 100 140
44 104 152
41 99 149
44 97 150
41 104 152
41 102 151
41 99 151
42 97 148
42 101 149
41 100 150
42 99 148
44 98 150
40 97 145
42 97 149
42 97 150
41 95 145
43 98 150
42 96 148
43 97 150
43 97 150
42 98 149
42 97 149
43 97 152
45 99 154
47 97 154
42 98 150
43 98 151
42 98 149
46 98 153
42 98 150
40 96 147
42 97 148
42 99 151
41 96 147
48 99 156
46 96 150
41 98 148
46 97 153
46 99 153
42 99 150
45 99 152
40 96 146
43 97 150
43 97 151
38 95 143
40 98 148
38 97 145
46 98 154
43 98 150
46 95 151
44 99 151
44 97 151
46 98 153
44 97 151
46 95 150
45 95 150
45 98 152
40 95 143
46 99 155
44 98 151
40 96 145
40 95 143
38 96 143
45 98 151
42 95 146
40 98 145
38 95 142
40 97 146
47 98 154
36 96 141
40 95 144
43 94 146
39 96 143
42 96 146
39 95 143
37 93 138
43 96 146
39 95 143
34 93 135
36 95 137
39 103 140
28 104 122
16 126 119
13 124 114
6 143 117
6 145 115
0 145 115
0 143 113
0 142 116
0 145 117
0 152 120
0 165 133
0 143 117
0 140 111
0 154 126
0 154 121
0 145 115
0 150 121
0 152 123
0 133 111
0 157 129
0 149 117
0 150 115
0 174 137
0 154 120
0 162 127
0 168 133
0 166 132
0 156 122
0 162 129
0 158 129
0 148 119
0 159 126
0 153 121
0 166 134
0 172 135
0 170 135
0 168 130
0 166 130
0 159 125
0 154 125
0 162 125
0 169 131
0 168 132
0 160 129
0 177 136
0 177 140
0 170 132
0 169 131
0 179 142
0 170 132
0 176 138
0 177 137
0 172 136
0 178 138
0 170 130
0 170 134
0 181 143
0 184 143
0 187 149
0 182 142
0 176 138
0 174 136
0 183 145
0 179 145
0 176 138
0 174 134
0 188 146
0 186 148
0 174 138
0 180 139
0 190 150
0 177 138
0 187 149
0 185 145
0 184 144
0 189 144
0 184 142
0 182 143
0 182 144
0 182 144
0 174 133
0 187 146
0 189 146
0 194 150
0 193 151
0 188 147
0 187 142
0 189 141
0 193 149
0 184 148
0 192 149
0 180 135
0 193 150
0 184 145
0 187 145
0 193 153
0 196 151
0 194 153
0 192 154
0 184 141
0 180 140
0 185 144
0 187 144
0 191 147
0 195 155
0 194 153
0 188 149
0 188 145
0 201 156
0 192 149
0 195 153
0 199 155
0 188 145
0 195 149
0 191 150
0 197 156
0 180 138
0 193 150
0 192 147
0 195 150
0 191 144
0 198 153
0 193 149
0 191 151
0 196 154
0 193 148
0 199 157
0 190 150
0 192 147
0 199 158
0 200 156
0 192 149
0 204 161
0 202 158
0 201 158
0 198 153
0 202 157
0 198 152
0 198 154
0 198 155
0 203 160
0 203 158
0 204 160
0 199 157
0 202 161
0 198 159
0 199 156
0 202 156
0 205 164
0 208 163
0 196 154
0 210 164
0 212 168
0 208 164
0 207 162
0 206 163
0 203 157
0 202 159
0 207 165
0 204 159
0 209 167
0 209 166
0 202 160
0 210 169
0 207 166
0 206 159
0 204 162
0 211 168
0 208 165
0 205 161
0 212 172
0 219 179
0 213 176
0 219 179
0 215 177
0 213 175
0 217 177
0 215 176
0 215 176
0 213 175
0 214 176
0 212 175
0 214 176
0 216 178
0 216 177
0 212 174
0 212 174
0 218 179
0 212 174
0 215 176
0 214 176
0 211 174
0 212 175
0 214 175
0 213 176
0 209 171
0 212 174
0 211 173
0 212 175
0 207 171
0 208 172
0 209 172
0 214 176
0 208 172
0 207 171
0 210 174
0 210 172
0 203 169
0 212 175
0 213 175
0 207 171
0 212 174
0 210 174
0 210 173
0 213 175
0 205 169
0 203 168
0 209 171
0 210 172
0 206 169
0 211 172
0 204 169
0 203 169
0 207 171
0 209 174
0 204 169
0 206 171
0 201 166
0 203 169
0 203 168
0 197 163
0 197 164
0 200 166
0 193 162
0 204 167
0 201 167
0 200 166
0 201 167
0 200 165
0 192 158
0 196 162
0 198 164
0 194 161
0 191 160
0 199 165
0 197 161
0 192 160
0 187 156
0 192 159
0 186 156
0 188 157
0 192 159
0 180 150
0 184 154
0 186 154
0 187 155
0 183 152
0 174 146
0 188 156
0 187 155
0 179 149
0 174 144
0 179 150
0 171 142
9 179 151
15 145 131
27 136 141
32 112 140
37 97 142
37 95 141
40 93 142
40 98 147
37 94 141
39 96 143
37 96 143
41 96 147
38 95 143
39 97 146
37 95 142
42 95 148
44 98 153
37 96 144
47 98 155
43 97 151
44 97 152
46 98 156
43 98 151
41 97 149
46 98 155
47 98 155
43 97 150
50 97 157
44 98 153
48 98 158
47 99 157
49 97 157
48 99 157
55 100 161
50 102 159
49 98 158
46 97 152
53 109 145
55 101 155
68 109 155
45 106 147
49 99 154
57 109 151
49 99 153
50 98 148
53 100 150
45 104 153
47 102 155
35 103 144
44 105 155
46 107 156
41 106 147
45 105 154
45 101 153
38 102 145
40 105 148
35 107 144
38 102 146
43 102 150
39 102 145
41 104 149
45 100 153
41 99 147
41 103 148
41 99 147
47 98 154
38 99 145
36 97 143
40 98 147
40 98 148
43 98 151
38 96 144
44 97 150
40 94 145
40 96 145
38 97 145
43 100 151
41 97 147
43 96 150
47 98 155
41 98 149
39 98 147
44 98 151
46 99 154
41 98 149
40 98 148
42 98 150
46 97 153
44 97 151
41 96 146
42 98 151
48 97 155
46 97 152
44 97 150
42 98 149
45 97 151
43 93 146
47 98 155
47 99 157
37 96 144
47 98 153
42 96 147
41 96 146
43 97 149
44 97 151
39 98 146
46 98 154
41 97 147
40 97 147
43 98 150
44 95 150
39 94 142
44 96 151
40 98 148
44 97 150
43 97 148
44 97 148
43 97 149
42 95 146
37 95 141
43 99 150
36 97 142
43 96 148
44 95 148
37 94 140
37 94 142
38 96 143
41 92 142
40 97 145
39 95 142
38 94 140
37 93 138
39 95 142
33 98 133
38 107 142
28 112 129
20 128 123
17 135 123
11 127 107
0 134 110
0 147 116
0 142 116
0 132 104
0 149 120
0 129 102
0 146 118
0 150 120
0 152 120
0 142 114
0 158 125
0 152 123
0 154 123
0 147 119
0 151 115
0 140 112
0 162 126
0 162 128
0 153 123
0 149 119
0 154 125
0 159 124
0 146 112
0 159 127
0 167 134
0 155 124
0 164 130
0 162 132
0 166 129
0 175 139
0 165 132
0 157 124
0 160 125
0 164 130
0 176 141
0 175 139
0 168 131
0 163 133
0 171 133
0 170 133
0 169 133
0 167 131
0 178 140
0 176 139
0 168 129
0 179 144
0 175 137
0 176 136
0 177 141
0 180 143
0 176 137
0 182 144
0 186 144
0 181 139
0 176 134
0 168 128
0 186 144
0 173 137
0 179 136
0 178 138
0 186 146
0 178 139
0 191 152
0 179 142
0 180 146
0 178 139
0 170 133
0 181 144
0 181 142
0 183 144
0 178 142
0 182 142
0 179 138
0 186 142
0 178 141
0 182 144
0 187 147
0 185 145
0 187 147
0 183 139
0 187 147
0 184 141
0 187 142
0 189 148
0 191 146
0 193 153
0 186 148
0 184 138
0 195 151
0 189 148
0 183 143
0 188 144
0 184 142
0 196 153
0 198 153
0 194 153
0 197 152
0 187 147
0 186 143
0 199 156
0 192 148
0 193 146
0 200 157
0 190 150
0 197 151
0 193 146
0 192 150
0 195 151
0 197 152
0 197 157
0 199 157
0 202 157
0 193 151
0 195 149
0 197 151
0 190 141
0 198 156
0 196 152
0 185 141
0 204 164
0 192 151
0 202 155
0 201 157
0 195 153
0 197 154
0 206 164
0 198 158
0 193 148
0 195 150
0 192 149
0 201 159
0 200 155
0 202 158
0 198 156
0 199 156
0 200 154
0 199 155
0 203 162
0 206 162
0 196 153
0 204 160
0 203 161
0 209 169
0 205 161
0 202 159
0 199 157
0 197 151
0 203 161
0 206 162
0 205 160
0 208 165
0 202 157
0 204 161
0 195 148
0 203 160
0 202 159
0 203 158
0 208 162
0 202 158
0 204 158
0 206 162
0 208 165
0 204 163
0 204 163
0 205 161
0 207 166
0 210 166
0 204 161
0 215 177
0 217 178
0 214 175
0 217 178
0 216 178
0 217 177
0 214 176
0 210 174
0 216 177
0 213 175
0 205 169
0 212 174
0 216 177
0 211 173
0 216 177
0 216 177
0 214 177
0 216 178
0 212 175
0 212 174
0 215 176
0 210 174
0 214 176
0 213 176
0 209 172
0 210 172
0 207 171
0 202 167
0 213 176
0 213 175
0 203 169
0 206 172
0 208 172
0 211 174
0 213 175
0 212 174
0 211 173
0 212 175
0 209 172
0 205 169
0 211 174
0 206 170
0 214 175
0 207 168
0 210 172
0 207 172
0 201 166
0 213 175
0 209 173
0 206 171
0 207 169
0 209 173
0 199 163
0 204 169
0 205 170
0 195 162
0 209 171
0 208 173
0 199 165
0 201 168
0 195 162
0 205 168
0 206 169
0 202 167
0 196 164
0 201 166
0 205 169
0 198 163
0 203 166
0 192 160
0 206 169
0 190 158
0 195 162
0 198 162
0 201 167
0 192 160
0 190 157
0 193 160
0 186 154
0 188 157
0 192 158
0 188 157
0 191 159
0 179 150
0 181 152
0 185 153
0 176 148
0 185 154
0 176 147
0 178 148
0 186 154
0 182 151
0 167 140
0 160 136
6 167 141
11 152 137
22 136 136
32 112 140
36 101 142
34 94 136
38 95 140
34 94 138
37 97 143
34 94 138
33 97 139
39 95 142
37 96 143
44 97 151
38 92 140
42 95 146
39 98 146
44 99 153
44 96 150
44 97 152
43 95 149
44 98 152
45 95 151
46 97 154
41 98 149
45 98 154
41 98 149
48 99 157
46 99 154
45 98 154
49 99 157
51 100 158
49 100 154
47 100 151
57 102 163
53 100 152
59 105 152
48 103 155
60 109 153
64 107 156
60 106 151
54 105 151
52 105 153
50 103 153
47 99 155
49 100 153
40 104 149
43 103 151
45 113 156
38 110 147
44 107 154
40 102 146
44 108 153
42 105 151
38 102 147
43 105 152
38 109 149
40 106 149
38 103 147
42 107 152
38 101 145
40 101 147
45 98 153
42 100 150
44 96 148
40 95 144
39 97 146
42 96 148
43 98 151
42 98 148
41 98 149
42 97 149
40 97 147
42 97 149
44 97 151
39 96 145
41 96 147
40 96 147
39 96 145
43 96 149
41 98 148
48 98 154
35 96 142
44 97 151
42 97 150
36 97 143
46 100 156
43 95 147
45 99 153
41 97 148
40 95 145
40 97 147
42 97 147
46 98 154
44 99 152
46 97 152
39 97 145
43 98 150
40 97 146
39 97 146
44 97 150
44 97 150
47 98 154
44 98 150
42 98 150
42 97 149
44 97 150
34 96 141
41 94 144
41 97 147
43 96 147
41 95 145
40 95 145
39 93 141
46 99 154
44 96 149
41 96 146
42 97 148
41 97 146
41 96 146
47 99 155
39 95 143
38 93 140
38 94 143
39 96 144
33 92 135
43 97 148
42 92 142
34 92 135
40 97 145
40 94 141
29 105 133
25 108 122
19 132 124
20 124 115
12 130 109
0 139 111
0 125 101
0 135 108
0 151 121
0 155 124
0 154 124
0 156 124
0 139 110
0 158 126
0 139 112
0 148 117
0 142 111
0 147 117
0 130 106
0 144 114
0 153 122
0 161 128
0 159 128
0 152 120
0 158 128
0 164 132
0 149 117
0 161 127
0 161 128
0 158 125
0 168 133
0 166 132
0 166 133
0 173 137
0 166 130
0 164 129
0 173 141
0 175 138
0 168 134
0 157 124
0 153 123
0 172 133
0 170 133
0 177 134
0 167 133
0 166 131
0 166 131
0 176 140
0 177 139
0 172 134
0 170 137
0 177 138
0 176 140
0 173 131
0 168 134
0 187 149
0 175 137
0 177 140
0 180 144
0 178 143
0 172 135
0 196 157
0 179 141
0 189 148
0 174 136
0 180 139
0 186 149
0 181 141
0 182 139
0 190 151
0 181 142
0 190 149
0 178 140
0 177 138
0 188 147
0 188 145
0 179 138
0 179 136
0 191 152
0 180 142
0 178 137
0 188 150
0 188 144
0 186 143
0 183 147
0 194 151
0 179 136
0 180 141
0 185 145
0 188 149
0 191 151
0 188 151
0 190 146
0 188 145
0 193 151
0 182 145
0 186 144
0 192 148
0 187 146
0 187 147
0 192 150
0 183 143
0 191 150
0 197 156
0 186 142
0 196 152
0 197 156
0 196 154
0 188 143
0 194 151
0 194 151
0 198 153
0 186 146
0 199 156
0 200 157
0 198 154
0 193 149
0 197 155
0 197 150
0 202 158
0 201 157
0 196 155
0 199 156
0 195 151
0 194 151
0 200 158
0 194 150
0 198 155
0 197 150
0 196 153
0 194 151
0 194 151
0 196 153
0 202 159
0 200 155
0 198 157
0 205 165
0 198 157
0 212 170
0 200 158
0 205 161
0 199 157
0 210 166
0 201 157
0 206 163
0 203 160
0 205 161
0 205 161
0 209 167
0 207 163
0 194 151
0 199 158
0 203 158
0 201 159
0 196 153
0 208 167
0 205 161
0 206 163
0 198 158
0 207 166
0 207 164
0 204 160
0 205 161
0 203 160
0 206 163
0 204 163
0 205 164
0 211 165
0 200 156
0 202 157
0 205 161
0 206 165
0 207 163
0 210 170
0 206 166
0 217 177
0 210 173
0 219 179
0 219 179
0 211 174
0 215 176
0 213 174
0 216 177
0 217 179
0 216 177
0 214 175
0 212 175
0 213 175
0 214 176
0 214 176
0 216 177
0 214 176
0 213 175
0 217 178
0 215 176
0 213 174
0 216 177
0 207 171
0 212 175
0 210 172
0 211 174
0 211 175
0 212 174
0 209 172
0 210 173
0 214 177
0 209 172
0 214 176
0 211 173
0 206 171
0 212 175
0 209 172
0 212 175
0 210 172
0 209 172
0 211 173
0 202 168
0 209 171
0 203 169
0 206 171
0 208 172
0 204 169
0 209 171
0 199 165
0 200 167
0 199 164
0 205 171
0 206 169
0 206 171
0 199 164
0 205 169
0 206 169
0 203 169
0 201 167
0 201 167
0 208 171
0 204 167
0 201 166
0 199 165
0 193 161
0 195 163
0 195 162
0 204 168
0 200 166
0 203 166
0 196 164
0 204 168
0 196 163
0 198 163
0 191 158
0 188 156
0 193 161
0 194 160
0 179 151
0 190 158
0 177 148
0 189 158
0 179 150
0 187 155
0 192 158
0 179 148
0 190 157
0 185 154
0 181 150
0 180 150
0 184 152
0 175 145
0 163 137
0 172 143
0 161 134
6 158 136
18 146 139
22 130 135
28 111 136
35 95 137
32 91 132
36 95 139
35 97 139
34 95 138
40 95 144
44 97 149
39 96 145
37 95 142
41 94 145
39 96 144
43 96 149
41 97 148
42 99 150
40 95 146
41 96 148
45 97 152
39 97 146
45 98 154
44 98 153
45 99 155
42 96 149
46 100 156
49 98 158
46 99 157
46 99 157
49 97 157
45 101 154
52 101 156
52 100 150
46 100 153
54 105 152
55 104 150
49 100 150
50 102 151
56 113 150
54 106 148
48 103 144
57 106 153
42 104 139
49 103 153
43 97 149
45 104 154
41 101 148
41 106 149
41 105 149
41 111 151
41 105 149
40 104 148
40 112 150
41 109 151
40 107 149
38 106 146
41 102 148
37 111 148
40 107 149
41 100 148
41 103 148
43 100 151
41 104 149
42 97 148
43 98 150
42 97 149
41 98 148
40 95 145
41 99 148
44 95 149
40 96 146
41 97 148
39 99 146
44 98 149
37 97 145
41 96 148
38 95 142
41 98 148
39 97 146
41 97 147
38 97 144
45 98 153
37 96 143
41 97 148
43 96 149
43 98 149
36 95 140
39 98 146
45 97 152
49 98 156
40 97 147
42 97 148
43 96 148
41 96 147
38 96 145
40 96 146
43 97 149
39 98 146
44 97 149
41 98 146
42 97 148
43 98 150
43 96 149
39 97 146
42 97 148
42 97 148
38 96 144
40 96 146
46 98 153
39 98 147
46 97 152
39 97 145
42 96 147
43 98 150
34 91 134
44 96 150
36 94 139
40 97 146
41 94 143
42 95 145
40 95 144
35 95 139
31 91 132
33 93 135
38 97 143
37 93 138
38 94 141
38 99 137
26 101 123
21 106 114
20 116 117
16 130 118
18 136 119
0 144 115
0 146 114
0 131 103
0 141 112
0 146 115
0 144 118
0 151 124
0 146 117
0 158 125
0 149 121
0 149 119
0 162 132
0 154 122
0 149 118
0 154 121
0 155 126
0 161 129
0 160 128
0 151 122
0 160 127
0 169 132
0 166 132
0 168 136
0 150 119
0 167 130
0 153 123
0 166 132
0 162 128
0 161 129
0 155 123
0 165 133
0 166 132
0 171 138
0 172 140
0 163 128
0 168 131
0 167 131
0 178 141
0 179 143
0 171 131
0 171 135
0 166 132
0 166 131
0 173 136
0 165 132
0 178 141
0 182 147
0 181 142
0 163 127
0 172 135
0 176 140
0 182 144
0 173 137
0 179 143
0 179 143
0 177 136
0 184 146
0 179 139
0 178 141
0 180 141
0 179 140
0 172 134
0 182 145
0 179 139
0 175 140
0 174 135
0 189 150
0 176 135
0 181 143
0 182 142
0 177 138
0 180 142
0 182 140
0 186 146
0 189 148
0 188 146
0 182 144
0 196 153
0 170 130
0 196 156
0 192 151
0 191 147
0 188 150
0 179 140
0 184 143
0 190 151
0 194 153
0 187 144
0 182 145
0 198 157
0 184 142
0 194 147
0 189 149
0 188 145
0 190 148
0 200 157
0 190 149
0 195 154
0 190 149
0 200 158
0 198 152
0 186 143
0 202 157
0 197 155
0 198 161
0 190 149
0 200 156
0 192 148
0 196 153
0 198 156
0 182 138
0 206 162
0 200 159
0 198 153
0 192 147
0 195 153
0 190 148
0 201 154
0 195 155
0 194 151
0 205 161
0 200 155
0 200 156
0 200 157
0 201 156
0 198 155
0 193 151
0 204 161
0 196 154
0 194 150
0 204 163
0 198 151
0 202 159
0 200 157
0 207 162
0 200 159
0 203 160
0 201 159
0 200 153
0 203 161
0 203 158
0 204 158
0 199 158
0 207 163
0 206 160
0 201 160
0 210 168
0 203 161
0 201 158
0 209 166
0 207 164
0 194 154
0 203 160
0 200 159
0 201 158
0 201 160
0 202 161
0 199 159
0 208 165
0 206 167
0 206 165
0 205 162
0 206 165
0 209 166
0 207 166
0 206 164
0 205 163
0 200 157
0 205 162
0 211 166
0 209 166
0 218 178
0 217 178
0 213 176
0 214 175
0 210 174
0 215 177
0 215 176
0 215 175
0 217 179
0 214 175
0 218 178
0 214 176
0 210 173
0 213 175
0 213 175
0 214 176
0 214 176
0 211 174
0 215 176
0 212 174
0 211 174
0 210 174
0 214 176
0 212 175
0 213 174
0 205 171
0 214 176
0 210 173
0 209 173
0 212 175
0 209 172
0 212 173
0 213 175
0 212 174
0 204 169
0 217 178
0 214 176
0 207 171
0 206 170
0 205 170
0 211 173
0 212 175
0 210 174
0 213 175
0 207 173
0 208 171
0 207 170
0 202 168
0 204 168
0 203 168
0 209 173
0 205 168
0 210 173
0 198 164
0 193 160
0 200 165
0 204 170
0 203 169
0 202 167
0 198 164
0 197 163
0 192 161
0 204 168
0 196 162
0 197 163
0 194 162
0 196 162
0 191 160
0 195 163
0 200 165
0 195 161
0 199 164
0 198 163
0 185 153
0 192 159
0 189 158
0 196 163
0 200 165
0 189 157
0 184 155
0 188 156
0 189 156
0 194 160
0 183 153
0 188 156
0 186 154
0 184 152
0 184 152
0 166 140
0 160 137
0 180 149
0 167 139
0 174 145
0 174 145
0 166 138
0 171 141
6 166 141
19 159 144
20 118 127
27 109 133
31 93 134
33 94 137
37 94 141
39 97 144
35 95 140
40 95 144
40 96 145
41 96 147
40 94 144
38 96 144
38 95 143
41 96 147
41 97 148
40 98 147
46 97 152
40 98 148
40 97 148
46 100 155
48 98 155
44 98 152
45 97 154
43 99 152
45 95 151
48 98 156
44 99 154
51 102 157
49 100 156
48 101 150
54 105 158
53 105 151
46 101 150
54 105 149
41 104 144
56 112 145
52 103 155
59 105 149
49 109 147
43 102 147
46 96 151
51 100 149
43 100 149
41 105 150
42 104 148
38 114 148
41 109 150
40 109 151
40 112 149
37 110 146
37 101 143
39 104 147
40 102 147
38 108 146
35 106 141
33 104 142
34 105 139
39 103 144
37 106 146
37 101 143
40 103 148
39 99 145
43 97 149
42 96 147
39 98 146
41 96 147
36 97 142
33 98 141
43 98 152
40 94 144
41 96 147
40 95 145
35 95 141
42 96 148
42 97 148
39 96 144
44 98 151
41 98 149
44 99 152
37 96 142
40 96 144
38 97 143
41 94 145
38 97 144
42 97 148
40 97 145
37 95 142
41 97 146
47 95 151
40 95 145
43 98 150
41 97 147
38 93 142
42 96 148
40 95 143
38 97 144
37 96 142
43 97 148
40 96 146
37 96 143
44 98 150
38 95 143
37 95 140
41 96 146
43 96 150
39 96 145
45 96 150
42 98 148
38 97 144
36 93 139
39 96 144
38 97 144
37 94 138
34 92 136
40 92 142
39 93 141
36 94 139
39 93 141
39 94 142
40 96 144
34 91 134
37 94 141
27 87 124
37 96 137
33 95 129
29 95 121
25 120 124
17 127 122
17 133 120
9 131 108
0 134 107
0 141 112
0 132 106
0 138 113
0 129 101
0 148 120
0 154 123
0 156 125
0 131 107
0 145 117
0 146 116
0 153 124
0 151 120
0 146 116
0 151 119
0 163 130
0 163 133
0 152 124
0 149 118
0 156 127
0 165 128
0 152 120
0 161 129
0 158 125
0 144 113
0 167 135
0 151 120
0 160 132
0 162 129
0 169 134
0 162 129
0 178 142
0 167 130
0 155 126
0 159 124
0 172 136
0 174 139
0 169 135
0 167 134
0 165 130
0 177 142
0 166 134
0 171 137
0 177 137
0 166 133
0 174 137
0 175 140
0 175 137
0 180 144
0 174 137
0 169 136
0 173 139
0 173 135
0 180 146
0 173 138
0 173 138
0 181 141
0 183 148
0 177 140
0 187 149
0 171 134
0 179 141
0 183 146
0 192 151
0 181 142
0 175 143
0 187 146
0 179 139
0 184 141
0 170 134
0 187 146
0 184 143
0 177 135
0 187 146
0 190 149
0 190 152
0 181 139
0 186 146
0 187 146
0 185 147
0 177 137
0 193 152
0 186 147
0 185 145
0 176 139
0 196 150
0 194 152
0 194 151
0 188 144
0 193 150
0 191 148
0 185 144
0 188 147
0 191 152
0 191 149
0 195 152
0 194 154
0 190 144
0 198 157
0 194 152
0 193 148
0 194 152
0 193 147
0 188 144
0 190 147
0 196 153
0 195 154
0 193 147
0 193 152
0 188 147
0 201 157
0 191 148
0 198 155
0 191 150
0 196 153
0 194 151
0 197 155
0 194 147
0 194 153
0 202 159
0 207 159
0 202 163
0 196 155
0 189 148
0 202 160
0 196 151
0 203 159
0 198 157
0 204 164
0 202 160
0 203 160
0 201 157
0 198 154
0 198 157
0 196 151
0 198 152
0 204 159
0 205 163
0 203 159
0 204 160
0 207 160
0 194 152
0 200 159
0 199 155
0 201 158
0 202 160
0 204 162
0 209 166
0 199 158
0 202 159
0 201 159
0 203 163
0 204 159
0 204 162
0 200 157
0 202 154
0 204 162
0 200 157
0 208 165
0 209 165
0 206 166
0 208 163
0 209 164
0 204 161
0 206 166
0 203 162
0 212 170
0 206 162
0 212 170
0 213 171
0 202 160
0 209 165
0 215 177
0 212 175
0 216 176
0 216 177
0 214 176
0 214 176
0 216 176
0 214 176
0 208 172
0 215 176
0 216 176
0 216 177
0 215 176
0 213 175
0 213 176
0 212 175
0 215 175
0 214 176
0 214 176
0 214 175
0 217 177
0 215 176
0 210 173
0 204 170
0 217 178
0 211 175
0 210 172
0 219 177
0 209 172
0 201 166
0 215 175
0 208 171
0 218 178
0 208 172
0 212 174
0 209 173
0 202 167
0 207 170
0 213 174
0 204 169
0 212 175
0 210 173
0 207 170
0 206 170
0 201 167
0 216 176
0 204 169
0 208 171
0 204 169
0 202 168
0 208 172
0 210 173
0 201 166
0 198 164
0 211 173
0 203 169
0 206 169
0 204 170
0 197 163
0 204 168
0 200 165
0 201 166
0 194 162
0 199 165
0 204 169
0 196 164
0 198 163
0 193 161
0 194 161
0 201 167
0 192 161
0 205 169
0 196 163
0 201 166
0 188 157
0 186 156
0 204 168
0 181 153
0 193 160
0 183 154
0 188 157
0 192 158
0 188 155
0 191 159
0 176 148
0 188 156
0 188 155
0 181 151
0 171 144
0 188 156
0 165 139
0 166 140
0 160 135
0 172 143
0 159 134
0 166 140
6 147 127
10 160 138
18 150 140
29 136 143
27 101 131
35 95 136
35 93 138
30 92 132
40 96 145
38 96 142
36 95 141
41 96 148
38 96 143
41 97 149
39 97 145
43 98 151
37 93 140
38 94 142
37 98 144
42 96 148
41 97 148
45 99 153
41 96 147
41 97 147
43 96 149
43 97 151
48 97 156
47 97 155
48 99 156
49 102 152
52 102 157
46 101 150
49 103 150
47 102 150
57 103 151
55 110 149
44 102 146
48 101 145
53 106 144
56 106 150
49 106 145
54 114 150
50 107 148
47 102 151
44 100 151
48 109 158
39 96 143
38 104 145
41 102 149
37 103 144
43 103 150
37 106 142
42 103 150
41 103 148
35 110 144
36 98 139
34 102 141
44 101 150
39 101 146
38 105 146
36 107 143
38 99 144
43 99 150
39 99 145
42 98 148
38 97 145
39 93 141
41 98 148
38 96 144
37 98 144
45 96 151
40 98 148
41 97 146
40 98 148
36 96 141
37 96 144
39 97 146
39 96 144
40 97 147
43 96 149
45 95 149
36 96 142
40 95 144
39 96 145
37 96 143
46 99 154
40 95 143
36 95 141
43 98 150
44 97 151
36 96 141
40 97 146
42 96 147
43 97 149
42 93 144
39 95 142
40 97 146
41 96 147
43 96 149
41 97 147
40 96 146
39 97 146
39 97 146
38 96 143
38 96 143
42 96 146
36 97 142
39 95 143
42 96 148
39 95 142
35 96 141
43 96 148
37 95 141
40 96 145
37 96 142
38 95 144
34 95 138
38 96 142
41 97 146
38 94 140
34 92 136
42 95 145
38 94 138
34 89 131
31 92 128
24 100 121
32 122 137
16 123 123
18 124 115
14 138 119
6 134 108
0 140 112
0 132 105
0 133 111
0 147 119
0 144 118
0 149 119
0 150 116
0 142 115
0 141 111
0 141 113
0 145 115
0 150 126
0 153 122
0 166 129
0 145 116
0 153 121
0 156 125
0 166 134
0 153 125
0 145 119
0 150 121
0 153 120
0 161 130
0 170 137
0 170 136
0 159 126
0 154 122
0 166 132
0 171 135
0 175 137
0 167 136
0 161 128
0 171 137
0 168 131
0 171 134
0 172 138
0 171 141
0 171 137
0 175 137
0 166 133
0 169 134
0 179 143
0 174 140
0 172 139
0 177 142
0 171 137
0 176 140
0 174 139
0 170 131
0 171 136
0 176 141
0 175 134
0 171 136
0 173 138
0 182 146
0 186 148
0 179 142
0 179 143
0 170 138
0 185 147
0 179 141
0 183 148
0 178 138
0 184 143
0 191 152
0 163 133
0 184 143
0 182 142
0 188 149
0 179 138
0 188 148
0 182 144
0 182 144
0 187 151
0 173 133
0 176 135
0 178 142
0 186 145
0 189 148
0 183 147
0 188 147
0 199 156
0 188 150
0 193 151
0 190 150
0 191 150
0 192 149
0 187 144
0 192 151
0 185 147
0 185 141
0 192 151
0 194 151
0 190 150
0 196 154
0 183 141
0 198 156
0 192 148
0 195 156
0 185 142
0 195 152
0 194 152
0 196 156
0 184 143
0 192 154
0 192 146
0 189 149
0 196 152
0 203 164
0 190 145
0 199 155
0 204 162
0 194 155
0 201 159
0 196 155
0 194 152
0 194 150
0 191 150
0 195 147
0 199 154
0 200 158
0 199 157
0 198 156
0 208 164
0 192 147
0 196 155
0 191 151
0 200 158
0 192 150
0 200 158
0 208 164
0 200 155
0 203 161
0 201 159
0 194 150
0 203 159
0 199 153
0 199 155
0 206 161
0 204 163
0 209 167
0 201 159
0 209 165
0 207 164
0 204 164
0 200 158
0 206 161
0 206 163
0 203 158
0 209 165
0 205 160
0 202 158
0 201 157
0 207 163
0 203 160
0 202 156
0 205 160
0 206 162
0 204 161
0 211 167
0 203 163
0 204 162
0 204 161
0 209 167
0 204 162
0 207 166
0 209 167
0 208 163
0 206 165
0 200 158
0 208 166
0 205 161
0 202 161
0 212 175
0 214 176
0 215 177
0 216 177
0 212 175
0 216 177
0 212 175
0 216 178
0 216 177
0 215 177
0 212 174
0 213 175
0 211 174
0 214 175
0 215 177
0 213 176
0 214 175
0 215 175
0 212 175
0 215 176
0 211 175
0 212 174
0 215 177
0 214 175
0 212 174
0 213 175
0 211 173
0 210 172
0 212 174
0 209 172
0 214 176
0 213 175
0 213 175
0 211 173
0 214 175
0 207 170
0 212 175
0 203 169
0 208 172
0 212 174
0 207 171
0 206 171
0 200 167
0 209 171
0 199 166
0 203 168
0 209 171
0 209 172
0 207 171
0 200 167
0 206 169
0 205 170
0 200 167
0 211 173
0 199 165
0 203 168
0 198 163
0 204 168
0 203 167
0 209 172
0 204 169
0 202 167
0 200 165
0 201 166
0 199 164
0 197 164
0 203 168
0 200 165
0 199 165
0 194 162
0 199 165
0 199 164
0 188 157
0 195 162
0 191 159
0 193 160
0 197 163
0 195 162
0 182 152
0 196 162
0 180 150
0 191 160
0 187 155
0 185 153
0 179 150
0 177 148
0 171 144
0 183 153
0 172 144
0 178 148
0 176 145
0 168 141
0 175 147
0 171 141
0 172 143
0 171 142
0 159 134
0 174 143
15 148 133
21 141 135
20 123 129
35 102 137
34 96 136
35 94 138
34 95 138
37 95 140
35 93 137
35 97 141
38 94 141
37 95 141
39 96 144
38 96 144
42 95 146
35 97 142
37 97 143
40 98 146
44 97 151
45 95 149
42 98 150
38 97 145
42 98 150
41 98 150
46 99 157
42 98 152
46 99 156
46 98 153
51 98 155
44 100 150
54 102 154
46 99 152
49 109 150
43 102 145
46 113 146
57 107 158
45 109 139
49 111 153
42 104 146
39 113 144
41 108 147
50 105 147
44 103 147
40 106 145
41 103 147
42 105 148
43 112 154
35 116 147
35 112 145
39 104 147
41 106 148
43 110 154
35 103 141
40 103 147
36 103 140
38 103 144
40 100 147
35 97 141
35 101 139
38 98 144
38 99 145
39 98 144
41 98 147
40 97 146
40 97 145
41 96 144
39 95 143
39 96 146
39 97 146
43 96 149
41 97 146
37 96 143
41 95 145
42 96 148
39 96 145
42 99 150
41 96 145
35 95 140
38 98 144
42 97 148
43 96 149
44 96 150
43 97 150
43 99 150
43 99 150
42 96 147
41 94 144
45 97 151
43 98 150
45 96 151
39 97 146
40 97 147
38 97 143
36 97 142
41 97 146
39 95 143
42 95 145
40 96 144
39 96 144
44 97 149
35 93 137
38 96 143
41 96 146
37 95 142
42 93 145
36 96 141
39 96 144
39 94 143
39 93 141
40 96 145
40 97 147
36 95 138
39 94 142
34 92 137
31 94 135
42 94 145
39 93 140
37 94 140
38 95 142
37 95 141
41 106 148
29 103 131
21 111 121
23 107 120
20 129 117
9 129 112
13 113 101
0 129 103
0 146 118
0 152 123
0 150 121
0 157 128
0 152 117
0 144 117
0 140 112
0 126 102
0 147 121
0 151 124
0 150 122
0 144 117
0 143 116
0 154 125
0 159 125
0 154 123
0 153 121
0 166 132
0 157 128
0 164 133
0 161 129
0 159 129
0 157 121
0 160 127
0 161 128
0 150 120
0 165 132
0 156 123
0 165 133
0 162 130
0 177 140
0 169 133
0 171 140
0 162 126
0 162 128
0 174 142
0 168 133
0 170 138
0 165 134
0 175 138
0 162 127
0 177 143
0 173 141
0 174 138
0 177 140
0 171 136
0 168 135
0 173 133
0 167 130
0 164 129
0 183 142
0 168 128
0 175 137
0 179 142
0 182 144
0 167 130
0 177 141
0 190 152
0 175 138
0 184 145
0 178 142
0 178 141
0 184 147
0 191 151
0 186 146
0 175 140
0 175 138
0 178 140
0 176 137
0 178 141
0 178 138
0 179 137
0 187 150
0 184 145
0 189 151
0 183 144
0 185 149
0 174 133
0 174 138
0 181 141
0 182 145
0 187 150
0 192 151
0 185 146
0 188 150
0 187 144
0 187 147
0 191 149
0 185 147
0 197 154
0 184 145
0 191 151
0 195 155
0 189 147
0 189 146
0 190 150
0 188 150
0 197 155
0 191 148
0 193 149
0 194 150
0 190 150
0 197 151
0 186 145
0 194 154
0 195 153
0 191 150
0 193 147
0 200 155
0 200 159
0 195 153
0 194 150
0 195 151
0 191 146
0 194 151
0 202 161
0 193 151
0 200 156
0 193 154
0 194 148
0 188 148
0 197 157
0 192 151
0 196 152
0 196 153
0 204 161
0 205 160
0 201 159
0 197 154
0 197 156
0 198 154
0 198 155
0 202 156
0 206 164
0 204 161
0 199 157
0 202 159
0 199 157
0 206 161
0 205 162
0 202 162
0 202 159
0 205 164
0 209 164
0 206 163
0 207 163
0 206 166
0 203 160
0 195 153
0 202 160
0 211 165
0 205 162
0 203 160
0 206 162
0 200 157
0 202 159
0 196 154
0 206 164
0 210 167
0 207 164
0 207 162
0 209 166
0 210 168
0 211 167
0 206 164
0 198 155
0 199 157
0 205 164
0 208 166
0 203 160
0 206 163
0 208 167
0 208 167
0 209 166
0 215 177
0 215 177
0 215 177
0 214 176
0 215 175
0 217 178
0 214 175
0 217 178
0 214 176
0 213 176
0 213 174
0 214 175
0 219 179
0 215 176
0 216 175
0 212 175
0 214 175
0 215 177
0 212 175
0 215 175
0 210 173
0 216 178
0 215 176
0 210 174
0 214 175
0 212 174
0 205 170
0 208 173
0 210 175
0 212 174
0 208 172
0 214 176
0 211 175
0 211 175
0 207 172
0 211 173
0 203 169
0 209 173
0 210 173
0 212 173
0 209 172
0 202 168
0 207 172
0 205 170
0 203 169
0 205 170
0 206 169
0 206 170
0 204 168
0 208 171
0 210 173
0 205 169
0 209 172
0 206 169
0 203 167
0 206 169
0 204 169
0 196 162
0 197 161
0 203 167
0 201 167
0 194 162
0 200 165
0 201 167
0 202 168
0 200 166
0 193 160
0 193 162
0 197 165
0 186 155
0 199 164
0 194 161
0 188 159
0 200 165
0 191 159
0 199 165
0 187 156
0 187 156
0 184 154
0 184 154
0 183 153
0 197 163
0 177 147
0 185 154
0 183 154
0 178 148
0 179 150
0 176 147
0 171 145
0 188 155
0 187 155
0 166 139
0 182 151
0 158 135
0 170 144
0 165 139
0 157 132
0 169 141
6 160 134
5 153 130
18 147 137
23 125 132
31 105 135
33 94 135
30 94 135
40 96 145
40 96 145
35 94 139
40 96 146
31 94 136
43 93 145
42 94 145
36 96 141
41 98 148
39 96 145
32 96 138
38 96 144
41 98 148
43 94 148
42 99 151
43 95 148
41 97 148
44 96 151
46 98 153
41 97 149
52 101 156
44 102 150
48 102 157
44 105 146
49 101 153
46 105 148
44 107 149
43 117 149
42 114 145
49 112 151
46 119 144
40 123 146
41 114 152
44 113 147
43 107 145
41 113 148
44 107 149
40 102 148
39 112 147
41 100 147
34 112 141
41 104 148
41 105 148
35 107 142
37 109 143
38 114 147
39 104 146
40 107 147
37 98 140
35 100 138
37 98 141
37 100 144
34 94 136
35 100 141
40 103 146
38 96 143
41 97 148
40 96 146
37 95 141
40 97 146
40 98 147
41 96 147
41 96 146
36 95 140
40 98 147
36 97 143
37 97 145
41 97 147
40 93 143
38 95 143
45 96 151
41 96 147
39 95 144
41 96 146
31 94 135
40 97 147
41 97 147
35 94 137
39 97 145
39 96 144
31 95 137
38 95 142
39 93 140
39 98 145
39 93 142
39 98 146
43 96 148
36 96 141
40 97 146
37 96 143
37 94 140
34 97 142
42 95 146
34 95 139
42 96 148
38 93 141
41 96 147
36 95 141
31 93 134
31 92 132
41 93 143
40 95 145
39 94 142
43 95 146
33 92 134
35 94 137
42 96 146
34 91 133
33 94 137
39 92 140
37 93 138
32 92 128
29 102 132
28 123 134
23 106 115
15 130 123
17 123 115
7 118 103
6 132 106
0 124 95
0 122 98
0 143 117
0 140 112
0 134 110
0 143 115
0 140 113
0 145 115
0 153 122
0 157 127
0 146 120
0 151 119
0 142 113
0 137 111
0 154 121
0 150 118
0 151 123
0 155 125
0 161 129
0 166 132
0 170 139
0 167 135
0 166 134
0 156 127
0 166 132
0 156 124
0 164 132
0 160 127
0 175 138
0 166 133
0 166 135
0 163 133
0 160 127
0 165 132
0 173 139
0 168 135
0 166 133
0 174 140
0 169 131
0 163 129
0 170 138
0 175 137
0 179 143
0 176 140
0 163 129
0 167 134
0 170 140
0 170 135
0 174 140
0 180 146
0 166 131
0 168 138
0 174 137
0 171 136
0 174 139
0 175 139
0 182 145
0 177 141
0 178 140
0 183 145
0 174 138
0 186 151
0 181 141
0 187 147
0 181 141
0 182 145
0 178 140
0 191 152
0 183 148
0 174 137
0 180 143
0 183 142
0 191 150
0 183 142
0 183 144
0 174 137
0 158 128
0 186 142
0 183 145
0 178 136
0 177 138
0 182 143
0 181 142
0 182 140
0 180 139
0 191 151
0 187 145
0 188 151
0 182 144
0 183 148
0 178 139
0 190 148
0 189 148
0 201 161
0 193 152
0 190 147
0 186 142
0 189 147
0 193 153
0 193 151
0 200 159
0 195 153
0 196 155
0 196 153
0 190 148
0 197 153
0 193 152
0 199 158
0 197 155
0 196 154
0 198 154
0 193 154
0 199 158
0 196 154
0 195 151
0 197 158
0 202 156
0 194 152
0 196 153
0 197 155
0 203 157
0 193 153
0 196 154
0 197 155
0 201 157
0 197 154
0 201 160
0 204 156
0 197 155
0 199 154
0 202 157
0 192 152
0 201 157
0 203 161
0 199 157
0 201 156
0 197 153
0 199 154
0 201 156
0 197 152
0 203 159
0 203 157
0 204 159
0 210 166
0 206 160
0 203 163
0 207 164
0 198 158
0 209 164
0 197 152
0 207 164
0 206 162
0 202 165
0 205 161
0 206 163
0 197 155
0 204 157
0 203 160
0 203 159
0 198 156
0 202 161
0 199 160
0 205 160
0 205 164
0 202 161
0 204 163
0 206 164
0 208 165
0 205 161
0 204 164
0 208 165
0 202 159
0 205 163
0 207 163
0 213 170
0 210 170
0 219 179
0 214 175
0 219 179
0 211 175
0 215 176
0 216 177
0 216 178
0 214 176
0 215 176
0 213 174
0 215 177
0 215 175
0 216 177
0 218 178
0 215 177
0 216 176
0 213 176
0 215 177
0 205 171
0 214 175
0 211 174
0 213 175
0 211 174
0 209 172
0 212 174
0 214 175
0 212 174
0 212 173
0 210 172
0 211 173
0 210 173
0 213 174
0 207 172
0 211 174
0 213 175
0 213 175
0 208 171
0 212 173
0 209 173
0 207 172
0 208 172
0 207 171
0 205 171
0 208 172
0 208 172
0 205 168
0 204 169
0 205 169
0 203 168
0 207 172
0 212 174
0 205 170
0 202 168
0 203 168
0 205 169
0 205 169
0 201 166
0 203 169
0 201 165
0 208 171
0 203 166
0 200 165
0 202 167
0 199 165
0 193 161
0 198 164
0 192 159
0 198 165
0 202 167
0 197 163
0 198 163
0 204 169
0 191 158
0 183 154
0 199 165
0 196 161
0 192 162
0 189 158
0 191 160
0 183 152
0 188 157
0 190 157
0 194 161
0 194 160
0 191 159
0 178 147
0 183 153
0 186 155
0 181 151
0 171 142
0 178 148
0 179 149
0 172 146
0 179 149
0 167 140
0 158 132
0 145 125
0 166 138
0 166 140
6 160 134
12 151 132
17 144 135
24 123 132
30 109 136
31 93 131
31 92 132
39 96 144
35 92 137
36 95 140
34 92 136
34 94 137
40 97 145
33 94 137
44 95 149
38 95 142
34 96 140
37 96 143
40 96 146
48 98 156
38 96 145
39 97 145
45 96 153
40 98 149
45 97 153
44 98 151
44 100 151
49 101 152
43 105 149
49 108 147
50 105 146
52 109 149
48 111 156
46 111 149
45 123 151
44 113 145
52 116 143
40 122 148
43 116 140
40 117 148
43 114 144
37 115 147
48 106 150
35 112 144
37 104 142
37 110 143
35 115 147
43 105 150
33 120 143
35 105 141
39 112 148
32 107 140
34 104 140
34 103 139
32 105 140
28 106 136
35 106 141
35 107 144
43 98 147
44 100 150
38 99 144
38 95 143
38 95 142
39 95 143
36 95 141
38 96 142
42 98 149
39 95 143
39 95 144
38 96 142
38 93 141
40 97 146
37 94 141
34 95 139
35 96 141
46 97 153
40 98 148
39 95 143
36 95 141
36 97 143
45 97 151
41 96 145
38 96 144
40 95 146
36 96 140
39 97 145
37 95 142
44 97 149
34 94 138
38 97 144
38 95 143
39 97 145
40 97 146
42 96 147
41 96 146
36 94 140
36 95 140
39 96 144
37 97 144
37 93 139
38 94 141
40 97 146
35 94 138
39 95 143
32 95 137
39 94 141
38 96 142
39 93 141
37 94 139
36 92 137
38 94 140
37 95 142
36 93 139
30 92 133
36 93 137
33 92 130
36 96 136
31 102 128
24 111 122
16 109 111
13 134 122
17 138 123
6 132 113
0 139 107
0 122 100
0 147 119
0 141 114
0 130 104
0 143 117
0 136 111
0 130 107
0 143 116
0 152 123
0 136 109
0 152 121
0 150 123
0 149 119
0 143 113
0 145 117
0 154 125
0 147 119
0 155 128
0 146 117
0 150 121
0 156 122
0 144 113
0 165 131
0 155 125
0 161 131
0 162 129
0 159 126
0 154 126
0 162 130
0 159 124
0 170 136
0 170 136
0 167 132
0 166 134
0 172 138
0 165 133
0 160 128
0 170 136
0 170 135
0 171 139
0 177 141
0 174 139
0 178 142
0 159 129
0 178 141
0 175 141
0 174 138
0 174 138
0 176 138
0 180 142
0 182 143
0 175 138
0 177 143
0 186 151
0 165 135
0 181 141
0 182 144
0 181 148
0 184 145
0 175 141
0 188 153
0 172 133
0 179 142
0 196 156
0 179 141
0 189 150
0 187 151
0 180 142
0 174 139
0 183 145
0 189 145
0 180 141
0 189 153
0 187 149
0 185 145
0 188 150
0 187 150
0 185 144
0 191 150
0 183 143
0 193 151
0 187 148
0 185 142
0 185 146
0 177 134
0 186 145
0 187 147
0 197 156
0 201 157
0 200 159
0 187 147
0 192 149
0 191 148
0 199 157
0 189 147
0 188 145
0 198 159
0 187 152
0 186 149
0 191 152
0 188 146
0 182 139
0 192 152
0 195 156
0 192 147
0 199 154
0 192 151
0 199 160
0 196 151
0 198 155
0 195 155
0 196 152
0 192 149
0 196 153
0 192 153
0 199 157
0 199 156
0 195 152
0 192 151
0 197 153
0 201 160
0 200 159
0 201 159
0 200 159
0 196 155
0 194 151
0 197 156
0 194 151
0 201 157
0 194 150
0 199 155
0 202 157
0 203 162
0 204 162
0 200 158
0 197 154
0 199 156
0 205 160
0 204 161
0 204 160
0 196 149
0 204 161
0 200 160
0 208 166
0 195 154
0 199 157
0 198 159
0 201 158
0 201 160
0 207 165
0 203 161
0 203 160
0 204 162
0 202 156
0 200 159
0 203 162
0 204 159
0 205 161
0 206 163
0 203 162
0 201 157
0 199 155
0 204 161
0 213 171
0 203 159
0 206 162
0 208 165
0 211 167
0 206 166
0 212 170
0 198 159
0 204 161
0 208 167
0 208 168
0 210 169
0 210 170
0 208 166
0 212 175
0 217 177
0 213 175
0 217 178
0 213 174
0 214 176
0 216 177
0 219 179
0 214 177
0 212 175
0 214 176
0 215 177
0 212 175
0 212 174
0 218 178
0 217 177
0 214 175
0 214 176
0 209 173
0 210 173
0 219 180
0 211 175
0 209 170
0 216 177
0 212 175
0 213 174
0 209 174
0 213 175
0 208 171
0 213 175
0 209 172
0 212 175
0 207 171
0 213 175
0 204 169
0 210 173
0 212 173
0 202 167
0 204 169
0 206 171
0 209 172
0 210 172
0 208 171
0 206 171
0 205 168
0 208 171
0 204 168
0 202 167
0 205 169
0 205 169
0 202 168
0 208 171
0 206 171
0 202 167
0 206 169
0 204 169
0 195 161
0 205 168
0 197 164
0 202 166
0 203 168
0 187 157
0 202 167
0 206 169
0 195 163
0 205 169
0 197 163
0 197 164
0 196 161
0 200 165
0 185 154
0 199 163
0 199 165
0 192 159
0 196 162
0 203 166
0 187 156
0 193 159
0 190 158
0 195 161
0 184 153
0 188 156
0 178 148
0 184 152
0 176 147
0 175 147
0 189 158
0 193 159
0 175 145
0 174 144
0 165 140
0 183 152
0 172 143
0 174 146
0 174 143
0 177 145
0 170 138
0 156 132
0 157 130
0 171 141
0 150 127
12 147 130
16 135 126
24 114 130
26 105 130
28 91 129
25 91 128
34 92 135
35 95 140
37 95 141
39 97 145
37 93 139
36 95 140
36 97 143
43 97 147
37 94 140
40 97 144
42 95 148
40 97 145
35 95 141
43 96 149
39 96 144
42 99 150
45 99 153
46 104 153
39 101 144
48 106 157
49 105 145
47 108 152
50 116 145
46 117 152
45 125 148
49 117 145
44 121 152
44 119 153
45 120 139
43 115 147
34 131 151
36 113 141
40 113 150
39 114 148
38 111 142
41 108 146
39 108 144
38 107 145
35 117 144
37 110 147
43 110 151
39 110 145
32 106 134
35 114 142
35 101 141
40 108 144
31 97 131
34 108 143
35 100 139
33 100 137
31 96 135
38 104 146
38 101 145
42 96 147
35 96 141
37 97 142
37 97 143
40 97 146
39 97 145
38 94 142
42 96 147
35 96 140
40 97 146
39 97 145
42 96 147
42 97 148
38 94 141
42 96 148
40 95 144
42 96 147
38 96 142
39 96 144
38 94 141
36 96 140
35 97 141
36 93 139
39 94 142
38 95 144
39 96 143
43 98 149
35 97 142
35 95 140
39 95 143
39 95 144
37 94 140
37 93 141
37 92 137
40 96 145
39 95 143
38 95 142
36 93 138
42 95 145
37 95 142
38 95 142
35 93 137
39 95 144
38 97 143
37 95 141
36 95 140
38 93 139
41 94 145
36 95 139
33 93 135
32 90 131
35 91 132
32 91 130
34 94 131
26 106 125
30 115 128
27 127 128
20 118 120
15 132 118
9 136 117
0 122 102
0 139 116
0 139 117
0 133 108
0 136 112
0 139 114
0 124 101
0 140 116
0 133 110
0 139 114
0 156 123
0 147 119
0 150 117
0 151 124
0 160 129
0 149 119
0 152 121
0 148 122
0 165 132
0 153 125
0 148 122
0 148 117
0 153 126
0 152 124
0 153 121
0 145 118
0 161 128
0 159 127
0 153 124
0 167 138
0 153 124
0 161 127
0 160 130
0 165 137
0 170 138
0 180 143
0 155 127
0 171 139
0 178 144
0 166 133
0 164 134
0 180 144
0 168 136
0 181 145
0 180 142
0 169 135
0 182 144
0 179 147
0 175 144
0 176 142
0 179 145
0 170 136
0 164 133
0 183 146
0 169 133
0 178 144
0 187 151
0 183 146
0 183 145
0 165 131
0 173 137
0 180 145
0 182 143
0 177 141
0 174 139
0 171 138
0 186 150
0 183 144
0 189 150
0 190 153
0 185 149
0 177 137
0 186 150
0 193 155
0 188 147
0 190 150
0 184 143
0 190 149
0 187 148
0 186 146
0 192 151
0 187 149
0 186 144
0 197 156
0 181 146
0 184 146
0 193 153
0 188 147
0 193 154
0 191 153
0 189 149
0 184 140
0 192 152
0 189 150
0 184 144
0 190 152
0 200 160
0 193 149
0 186 148
0 192 151
0 192 151
0 193 149
0 193 151
0 185 145
0 199 159
0 195 152
0 200 157
0 199 158
0 198 156
0 196 155
0 190 150
0 192 153
0 183 144
0 206 165
0 194 152
0 196 154
0 197 157
0 198 157
0 199 157
0 201 158
0 193 150
0 195 151
0 195 149
0 188 144
0 196 152
0 199 155
0 203 160
0 202 162
0 201 159
0 202 158
0 194 155
0 195 151
0 194 154
0 191 152
0 201 157
0 202 160
0 205 161
0 205 161
0 198 154
0 202 158
0 206 164
0 201 159
0 199 153
0 199 157
0 195 152
0 202 159
0 203 158
0 206 167
0 189 150
0 201 160
0 204 162
0 205 163
0 201 160
0 204 161
0 198 158
0 198 158
0 207 162
0 209 165
0 205 162
0 206 164
0 195 154
0 204 160
0 207 164
0 211 167
0 210 167
0 205 166
0 204 163
0 207 162
0 208 166
0 209 168
0 206 163
0 204 165
0 212 167
0 211 166
0 209 168
0 211 168
0 206 160
0 210 168
0 210 167
0 214 173
0 216 176
0 217 178
0 214 176
0 216 177
0 215 177
0 214 176
0 212 175
0 215 177
0 214 177
0 210 173
0 212 174
0 211 174
0 214 176
0 210 173
0 216 178
0 216 178
0 213 175
0 213 175
0 212 175
0 215 177
0 208 172
0 213 174
0 217 177
0 209 173
0 214 176
0 208 172
0 210 173
0 211 174
0 208 172
0 210 173
0 208 172
0 212 175
0 207 171
0 202 169
0 207 171
0 207 170
0 210 173
0 212 174
0 207 170
0 205 170
0 212 174
0 204 170
0 208 171
0 204 169
0 206 171
0 206 171
0 208 172
0 207 171
0 200 167
0 199 166
0 202 169
0 207 170
0 207 171
0 202 168
0 204 168
0 196 165
0 203 168
0 201 167
0 208 172
0 199 164
0 199 166
0 203 167
0 198 165
0 202 169
0 199 164
0 195 162
0 199 165
0 197 161
0 195 162
0 188 158
0 202 165
0 196 162
0 185 156
0 191 158
0 188 157
0 191 159
0 184 153
0 198 163
0 182 152
0 188 157
0 189 155
0 188 156
0 191 158
0 186 154
0 180 151
0 184 152
0 196 162
0 166 140
0 172 144
0 188 155
0 172 142
0 178 149
0 167 140
0 163 139
0 161 136
0 160 135
0 174 144
0 164 137
0 168 138
0 158 131
0 156 131
0 159 134
13 130 120
16 135 125
24 126 129
26 104 129
27 96 132
28 91 130
35 93 138
36 94 140
32 93 135
38 97 143
33 95 138
40 95 145
41 95 145
38 96 143
40 98 148
43 95 147
38 94 141
39 96 144
37 96 143
42 100 152
40 97 147
41 98 148
43 97 149
37 102 142
37 109 146
44 101 151
42 106 148
51 115 153
50 120 148
46 104 150
38 127 148
45 116 147
35 126 147
45 129 147
45 125 150
39 128 149
35 140 153
36 115 144
36 106 141
39 111 149
36 108 141
36 114 146
34 122 146
38 112 145
35 107 139
33 106 139
41 104 145
33 112 142
39 107 145
38 106 144
34 105 141
30 118 140
35 102 140
33 111 141
31 105 138
35 100 138
37 101 141
32 98 136
39 95 143
37 97 142
33 94 138
41 98 147
36 94 140
36 96 140
38 94 141
34 94 138
37 92 139
41 96 146
38 94 141
38 98 144
41 97 147
39 96 144
38 94 141
40 95 143
37 94 142
35 96 140
38 96 143
40 97 147
38 95 143
39 95 142
45 97 149
38 94 140
38 97 144
43 98 150
38 97 144
40 94 144
37 93 140
42 99 150
37 93 139
33 92 135
39 98 145
41 95 144
32 96 136
32 95 136
42 96 146
38 97 143
37 92 139
36 95 139
35 97 140
35 95 140
38 95 142
34 94 136
35 94 137
39 91 140
37 92 136
32 91 132
29 91 130
27 89 127
31 98 133
31 96 129
28 95 121
23 107 117
19 117 119
17 112 109
14 132 121
13 123 107
6 126 106
0 124 103
0 126 102
0 139 114
0 133 108
0 151 124
0 146 119
0 129 106
0 131 108
0 143 114
0 155 125
0 146 121
0 136 110
0 159 126
0 143 119
0 143 115
0 141 117
0 151 119
0 165 132
0 151 122
0 150 121
0 151 120
0 150 120
0 155 124
0 158 124
0 158 128
0 163 130
0 168 133
0 159 132
0 154 126
0 149 121
0 152 123
0 161 127
0 170 137
0 162 132
0 167 134
0 165 130
0 174 140
0 173 140
0 176 142
0 168 136
0 183 148
0 169 133
0 179 143
0 165 130
0 174 142
0 172 139
0 183 148
0 182 147
0 169 138
0 183 148
0 170 132
0 175 139
0 175 139
0 174 141
0 182 146
0 185 147
0 167 134
0 180 144
0 181 146
0 177 145
0 181 147
0 181 143
0 184 150
0 181 143
0 181 145
0 182 146
0 185 148
0 195 157
0 185 144
0 173 141
0 191 150
0 190 155
0 185 146
0 187 150
0 189 149
0 182 143
0 184 146
0 183 145
0 190 149
0 179 136
0 177 143
0 186 149
0 185 146
0 192 154
0 191 151
0 190 152
0 188 149
0 179 141
0 198 158
0 178 142
0 201 157
0 188 150
0 186 148
0 193 153
0 186 148
0 191 151
0 196 155
0 187 151
0 186 148
0 190 152
0 194 152
0 199 160
0 191 150
0 192 151
0 196 156
0 192 149
0 199 161
0 200 161
0 192 150
0 197 159
0 191 153
0 193 151
0 193 154
0 194 152
0 199 155
0 194 152
0 194 153
0 197 154
0 194 155
0 194 152
0 197 156
0 197 156
0 200 158
0 199 151
0 200 159
0 197 158
0 195 153
0 199 157
0 201 160
0 203 163
0 201 160
0 202 160
0 198 156
0 201 159
0 201 159
0 204 164
0 201 158
0 201 161
0 191 149
0 203 160
0 202 161
0 199 150
0 202 162
0 202 160
0 205 161
0 204 162
0 204 163
0 199 155
0 198 157
0 206 161
0 207 164
0 208 168
0 205 163
0 200 157
0 211 168
0 204 165
0 203 162
0 207 162
0 198 152
0 208 167
0 205 162
0 205 166
0 203 161
0 205 165
0 207 165
0 205 161
0 205 163
0 200 160
0 205 160
0 206 164
0 202 162
0 206 162
0 207 165
0 213 172
0 212 169
0 205 163
0 201 160
0 211 168
0 207 165
0 204 161
0 211 165
0 215 176
0 216 178
0 216 177
0 215 176
0 216 177
0 211 173
0 215 176
0 215 177
0 211 175
0 216 177
0 215 177
0 213 174
0 211 174
0 216 177
0 214 175
0 211 175
0 216 177
0 212 175
0 210 173
0 213 176
0 212 173
0 210 173
0 212 174
0 215 176
0 208 172
0 205 169
0 215 176
0 215 175
0 208 173
0 213 176
0 212 175
0 211 175
0 211 173
0 209 173
0 205 170
0 212 174
0 206 167
0 206 169
0 209 172
0 208 171
0 208 171
0 210 173
0 206 172
0 207 171
0 209 173
0 203 167
0 207 171
0 206 170
0 208 171
0 201 167
0 204 167
0 203 166
0 204 168
0 203 168
0 196 163
0 202 165
0 201 167
0 198 163
0 200 166
0 196 162
0 206 170
0 200 165
0 204 168
0 196 161
0 203 168
0 201 166
0 197 163
0 201 165
0 196 162
0 188 159
0 198 165
0 197 164
0 194 161
0 194 161
0 190 158
0 188 157
0 186 156
0 186 153
0 188 157
0 186 157
0 200 163
0 189 157
0 182 152
0 185 154
0 174 148
0 187 155
0 182 150
0 169 141
0 182 151
0 180 149
0 178 149
0 177 147
0 179 148
0 179 148
0 171 144
0 162 138
0 157 131
0 163 138
0 166 137
0 149 123
0 150 127
0 157 130
0 145 121
6 141 122
13 129 122
18 136 133
25 104 129
34 99 137
31 91 132
38 96 143
34 91 134
35 95 139
38 93 140
34 94 137
36 95 140
40 97 145
35 95 138
35 96 140
43 96 147
38 96 142
39 95 144
37 96 143
44 96 150
44 95 149
40 99 148
41 103 148
42 103 145
39 115 144
46 118 152
48 110 147
42 127 153
43 113 138
41 121 142
35 128 144
40 124 140
42 121 150
35 140 148
32 145 149
36 125 144
38 118 144
36 123 144
42 110 150
38 122 149
35 105 137
37 107 144
34 114 143
34 109 140
34 107 140
37 113 145
35 104 142
34 106 140
30 104 136
37 106 142
32 98 133
34 104 139
27 105 132
35 107 142
34 105 142
38 97 141
36 95 139
32 93 135
36 93 139
38 95 144
39 94 142
42 98 150
38 94 141
39 97 145
38 96 142
31 94 135
41 96 146
40 93 143
35 93 138
41 93 142
38 96 144
35 95 139
35 94 139
35 95 140
44 95 147
36 91 137
39 95 143
34 96 139
31 95 136
37 95 142
42 98 147
33 94 136
35 92 137
33 97 139
37 94 140
41 97 147
37 96 142
37 93 139
42 96 147
39 94 141
37 91 137
36 92 137
30 90 130
36 95 141
36 91 137
37 93 138
37 93 140
33 93 134
41 93 143
31 91 131
39 94 142
36 93 138
35 93 136
34 91 135
33 92 133
39 94 138
28 101 125
22 103 116
30 110 129
20 104 109
19 118 119
15 116 108
9 131 113
0 102 91
0 127 106
0 127 104
0 125 104
0 138 111
0 124 100
0 142 115
0 137 114
0 138 114
0 118 99
0 140 113
0 139 115
0 133 105
0 150 122
0 143 112
0 137 110
0 142 114
0 148 118
0 155 126
0 149 121
0 150 122
0 147 116
0 153 128
0 151 124
0 150 121
0 155 128
0 150 121
0 160 130
0 163 130
0 170 137
0 170 137
0 150 123
0 151 124
0 166 131
0 158 122
0 156 127
0 163 132
0 150 125
0 164 131
0 165 132
0 165 132
0 177 143
0 176 140
0 162 131
0 153 125
0 166 133
0 163 131
0 178 142
0 173 138
0 181 144
0 173 141
0 175 141
0 180 144
0 173 141
0 176 140
0 180 147
0 185 148
0 177 143
0 184 150
0 172 136
0 173 140
0 175 137
0 171 138
0 180 140
0 179 144
0 184 144
0 174 142
0 186 152
0 176 138
0 183 145
0 183 145
0 180 142
0 183 141
0 190 147
0 188 148
0 174 140
0 173 139
0 185 148
0 188 149
0 182 143
0 183 150
0 183 146
0 184 148
0 188 149
0 191 151
0 193 152
0 188 150
0 183 146
0 191 153
0 186 146
0 184 145
0 190 147
0 194 152
0 192 156
0 186 147
0 195 156
0 189 151
0 184 149
0 190 153
0 195 156
0 196 157
0 193 155
0 195 153
0 197 154
0 192 153
0 200 159
0 189 148
0 186 147
0 190 146
0 197 158
0 196 157
0 197 153
0 198 158
0 197 156
0 196 155
0 191 148
0 191 150
0 196 156
0 198 153
0 197 156
0 195 154
0 202 161
0 195 154
0 194 152
0 203 161
0 199 157
0 194 150
0 202 160
0 199 158
0 197 155
0 201 159
0 200 160
0 198 156
0 199 155
0 196 156
0 205 163
0 204 160
0 208 165
0 205 163
0 208 165
0 201 159
0 206 161
0 203 160
0 197 154
0 201 159
0 205 162
0 202 161
0 202 159
0 204 161
0 200 158
0 201 157
0 205 164
0 198 155
0 202 160
0 205 160
0 195 151
0 206 164
0 207 162
0 207 163
0 203 161
0 203 159
0 205 160
0 199 155
0 202 157
0 206 164
0 207 163
0 208 163
0 205 162
0 207 165
0 208 165
0 198 155
0 209 167
0 206 164
0 210 168
0 208 165
0 206 163
0 206 165
0 208 165
0 211 169
0 206 162
0 211 168
0 206 163
0 204 163
0 204 163
0 215 177
0 211 174
0 214 176
0 216 178
0 216 176
0 212 174
0 213 174
0 213 175
0 207 171
0 217 178
0 209 173
0 214 175
0 211 175
0 211 174
0 210 173
0 211 174
0 212 174
0 209 173
0 215 175
0 212 175
0 211 172
0 210 172
0 210 172
0 211 174
0 211 175
0 211 173
0 211 173
0 208 171
0 212 173
0 208 171
0 209 173
0 203 169
0 212 174
0 208 171
0 211 174
0 209 173
0 209 173
0 212 173
0 217 177
0 201 168
0 211 174
0 207 170
0 206 169
0 204 167
0 205 169
0 208 173
0 209 172
0 200 166
0 206 169
0 204 169
0 209 172
0 192 161
0 198 165
0 206 171
0 206 170
0 200 165
0 206 171
0 189 159
0 200 166
0 200 167
0 198 164
0 203 169
0 201 166
0 195 162
0 198 165
0 202 166
0 207 170
0 195 163
0 195 160
0 197 163
0 188 155
0 194 161
0 190 158
0 199 163
0 198 163
0 186 155
0 194 161
0 189 158
0 198 163
0 191 158
0 179 151
0 186 155
0 195 160
0 180 150
0 186 154
0 180 150
0 182 153
0 188 155
0 183 152
0 182 151
0 174 146
0 174 144
0 174 144
0 166 141
0 171 143
0 162 136
0 173 142
0 162 135
0 150 125
0 146 123
0 165 136
0 149 125
0 150 126
0 145 123
13 144 127
17 124 117
18 104 119
24 110 125
30 90 127
31 91 130
32 95 136
33 93 135
37 93 139
31 92 133
34 94 139
36 96 141
31 95 135
39 96 143
36 95 140
41 96 145
39 98 146
35 96 141
40 96 145
36 97 141
42 98 148
38 100 143
46 109 144
39 115 147
40 114 143
39 113 145
45 120 152
38 114 144
46 120 150
37 127 144
42 125 149
37 120 139
38 133 149
36 133 148
34 143 150
39 123 148
36 119 142
35 112 142
38 113 146
33 114 138
31 115 137
31 120 141
33 124 143
28 114 138
29 110 136
32 120 145
33 111 142
30 111 136
29 108 137
27 113 137
31 105 136
35 109 142
33 98 136
30 101 135
36 110 146
36 100 138
37 104 143
33 96 139
32 95 137
38 97 143
34 93 135
35 94 138
40 95 144
34 95 138
32 96 138
38 94 143
40 96 144
38 94 141
36 93 138
37 95 140
38 94 141
34 96 140
34 95 138
37 95 141
35 94 140
38 94 141
39 97 145
39 96 143
36 95 140
34 93 136
39 94 141
35 94 137
35 95 140
37 96 141
40 94 143
41 96 146
35 94 139
30 93 134
38 95 141
35 94 138
32 90 131
33 92 135
34 95 139
36 93 138
35 92 136
35 92 135
37 92 137
33 89 130
31 89 129
30 92 132
36 91 136
31 90 129
29 97 126
30 103 127
26 105 119
21 106 115
19 118 117
19 110 111
6 125 109
0 129 112
0 140 116
0 129 108
0 127 107
0 132 110
0 126 103
0 137 112
0 133 108
0 154 124
0 144 116
0 133 108
0 135 109
0 146 119
0 141 113
0 153 124
0 136 111
0 142 115
0 146 120
0 148 120
0 145 118
0 162 130
0 142 116
0 157 130
0 146 118
0 151 120
0 139 115
0 161 130
0 153 127
0 165 132
0 154 124
0 169 133
0 163 132
0 162 134
0 161 133
0 173 136
0 175 139
0 164 135
0 162 127
0 170 136
0 169 137
0 165 134
0 163 133
0 168 133
0 171 137
0 167 131
0 167 137
0 171 139
0 169 135
0 173 140
0 167 135
0 167 133
0 169 132
0 183 150
0 181 143
0 177 142
0 179 143
0 175 142
0 173 137
0 173 141
0 175 144
0 185 149
0 167 132
0 181 146
0 177 140
0 181 146
0 172 138
0 191 153
0 186 147
0 185 147
0 179 141
0 182 146
0 181 143
0 186 146
0 190 151
0 189 152
0 183 147
0 186 146
0 189 150
0 189 153
0 183 145
0 191 154
0 170 136
0 182 141
0 184 149
0 189 149
0 196 156
0 182 146
0 188 148
0 189 149
0 191 152
0 200 158
0 188 151
0 191 153
0 188 149
0 197 155
0 198 157
0 193 154
0 198 157
0 192 151
0 185 147
0 185 148
0 192 151
0 187 147
0 193 151
0 193 153
0 193 154
0 193 156
0 200 158
0 180 141
0 197 155
0 194 153
0 197 155
0 198 156
0 192 152
0 203 163
0 188 149
0 203 161
0 192 150
0 197 159
0 192 151
0 193 152
0 194 152
0 199 157
0 191 149
0 196 154
0 204 160
0 200 158
0 188 147
0 196 155
0 198 158
0 198 158
0 199 159
0 198 154
0 193 150
0 203 162
0 193 148
0 201 157
0 203 160
0 200 161
0 198 156
0 199 157
0 205 164
0 204 162
0 199 158
0 202 160
0 208 166
0 199 160
0 203 162
0 205 165
0 198 155
0 196 153
0 204 161
0 198 154
0 202 157
0 199 158
0 212 170
0 205 162
0 204 160
0 204 162
0 204 163
0 210 167
0 212 170
0 206 167
0 209 164
0 204 162
0 209 167
0 205 160
0 203 163
0 204 161
0 209 168
0 206 165
0 211 167
0 202 160
0 208 166
0 208 163
0 203 162
0 211 171
0 209 166
0 203 163
0 210 166
0 206 165
0 212 170
0 205 163
0 207 167
0 205 162
0 210 169
0 208 164
0 212 175
0 219 179
0 215 176
0 215 177
0 216 176
0 216 177
0 214 176
0 214 176
0 215 176
0 215 177
0 214 177
0 211 172
0 218 177
0 211 174
0 213 175
0 211 173
0 210 174
0 212 174
0 214 176
0 212 175
0 216 177
0 206 171
0 213 175
0 206 172
0 208 171
0 208 171
0 212 174
0 215 177
0 216 177
0 209 174
0 212 173
0 212 174
0 213 174
0 203 168
0 209 171
0 208 172
0 202 167
0 208 172
0 206 169
0 210 174
0 208 173
0 206 169
0 211 173
0 204 168
0 202 168
0 197 164
0 202 167
0 200 165
0 206 170
0 203 169
0 207 171
0 199 165
0 206 170
0 206 170
0 205 170
0 203 167
0 203 168
0 200 165
0 202 168
0 202 168
0 205 168
0 201 168
0 202 166
0 196 163
0 202 167
0 204 167
0 204 169
0 199 166
0 195 162
0 196 161
0 197 163
0 194 161
0 194 161
0 194 160
0 190 158
0 193 161
0 196 162
0 189 156
0 190 157
0 197 163
0 184 152
0 187 154
0 181 149
0 193 158
0 196 162
0 187 156
0 177 148
0 175 147
0 182 152
0 181 151
0 176 146
0 166 140
0 182 151
0 168 140
0 173 142
0 170 142
0 171 142
0 160 135
0 164 137
0 156 131
0 158 131
0 153 127
0 154 126
0 147 123
0 155 128
13 136 121
14 134 125
20 115 123
28 109 129
35 93 132
29 92 131
32 94 135
31 92 133
32 94 135
36 94 139
38 95 142
35 94 138
36 95 141
41 98 147
37 96 142
45 97 150
43 96 149
37 98 143
33 102 141
40 104 147
36 101 140
36 115 145
39 107 145
40 119 143
35 128 145
38 119 144
40 131 147
38 123 144
41 137 149
39 139 150
36 143 148
39 131 148
31 138 146
31 133 141
34 130 144
34 133 145
40 114 148
32 116 137
31 112 135
33 120 140
35 112 141
34 106 136
39 114 146
31 116 141
31 107 136
33 111 140
31 110 140
27 107 133
33 107 140
31 108 137
30 99 134
32 107 138
36 103 136
27 102 131
30 95 133
33 101 140
30 96 134
37 93 139
33 93 136
33 94 137
35 95 140
34 93 137
35 93 138
36 95 140
37 96 141
32 93 136
38 95 144
33 94 136
41 95 145
35 96 139
40 93 141
42 94 146
38 95 140
34 90 134
41 92 143
33 93 135
33 95 138
33 93 136
34 92 134
35 94 138
38 92 139
35 93 138
40 96 144
39 96 144
31 93 133
36 89 133
38 90 137
38 93 141
35 94 138
30 91 131
29 90 129
32 92 132
35 94 139
33 92 134
33 90 133
33 93 135
31 93 133
34 92 133
31 101 133
27 86 120
26 95 119
29 111 128
13 108 108
15 117 113
6 112 99
15 130 114
9 112 100
7 129 107
0 131 106
0 137 110
0 139 111
0 126 106
0 123 99
0 138 113
0 132 107
0 139 113
0 130 107
0 141 115
0 142 114
0 137 113
0 145 117
0 147 116
0 137 111
0 152 124
0 142 115
0 153 122
0 161 127
0 150 122
0 149 120
0 147 121
0 151 120
0 152 126
0 156 127
0 158 129
0 155 128
0 153 124
0 172 136
0 146 119
0 160 131
0 158 126
0 157 129
0 172 137
0 165 132
0 164 134
0 165 133
0 159 127
0 162 130
0 174 139
0 171 138
0 170 135
0 173 140
0 163 131
0 169 137
0 173 139
0 181 146
0 180 146
0 176 141
0 161 130
0 175 141
0 175 140
0 181 146
0 168 136
0 182 147
0 176 142
0 168 140
0 169 136
0 170 139
0 182 144
0 177 145
0 181 143
0 174 137
0 185 147
0 179 143
0 185 150
0 184 147
0 187 148
0 187 149
0 179 142
0 178 141
0 177 140
0 175 138
0 172 137
0 184 149
0 181 145
0 184 146
0 181 144
0 198 157
0 188 148
0 189 149
0 181 146
0 196 156
0 186 148
0 199 158
0 193 153
0 193 156
0 188 149
0 189 148
0 191 152
0 188 151
0 195 156
0 185 146
0 197 158
0 185 144
0 193 152
0 186 147
0 195 157
0 185 147
0 190 152
0 193 151
0 191 148
0 191 151
0 185 145
0 193 150
0 190 152
0 189 148
0 198 157
0 190 151
0 193 150
0 192 153
0 199 157
0 192 150
0 192 154
0 195 154
0 198 158
0 198 156
0 190 151
0 201 161
0 189 147
0 196 152
0 198 151
0 198 156
0 197 157
0 190 149
0 197 158
0 199 159
0 201 159
0 199 160
0 194 153
0 196 157
0 199 156
0 205 162
0 205 166
0 203 161
0 207 165
0 200 154
0 202 161
0 200 154
0 198 155
0 197 157
0 200 159
0 204 160
0 200 158
0 206 164
0 207 165
0 201 154
0 202 162
0 204 163
0 206 164
0 200 156
0 194 156
0 206 166
0 203 162
0 197 153
0 205 162
0 203 163
0 200 157
0 206 165
0 203 162
0 203 164
0 203 160
0 196 154
0 207 166
0 208 165
0 206 163
0 202 159
0 203 162
0 200 159
0 206 166
0 207 165
0 206 163
0 204 160
0 215 173
0 205 163
0 205 163
0 211 170
0 207 165
0 209 168
0 201 160
0 204 163
0 206 164
0 209 171
0 211 168
0 212 170
0 210 167
0 211 168
0 216 178
0 219 179
0 212 175
0 211 173
0 219 179
0 214 175
0 217 178
0 212 175
0 212 175
0 217 177
0 211 174
0 216 177
0 214 177
0 213 175
0 212 175
0 207 173
0 216 177
0 215 176
0 207 171
0 208 171
0 214 176
0 212 176
0 208 173
0 213 176
0 209 172
0 212 174
0 211 173
0 210 173
0 215 177
0 211 174
0 210 172
0 212 175
0 207 172
0 206 170
0 209 173
0 205 171
0 213 174
0 213 176
0 205 169
0 201 167
0 208 171
0 207 170
0 214 176
0 206 169
0 205 169
0 206 170
0 206 170
0 206 169
0 206 169
0 212 174
0 211 173
0 201 167
0 202 167
0 211 172
0 200 166
0 206 171
0 200 165
0 200 166
0 211 173
0 193 163
0 199 165
0 196 161
0 205 169
0 199 164
0 197 162
0 202 168
0 195 161
0 193 159
0 198 163
0 192 161
0 196 161
0 198 164
0 198 164
0 200 164
0 196 161
0 195 160
0 202 166
0 199 164
0 188 156
0 192 159
0 188 155
0 193 161
0 193 159
0 179 151
0 185 153
0 178 149
0 182 151
0 186 154
0 182 152
0 177 146
0 185 153
0 170 143
0 163 137
0 163 136
0 173 144
0 182 151
0 153 130
0 169 141
0 160 134
0 160 131
0 164 137
0 159 131
0 157 130
0 159 133
0 148 124
9 154 130
13 141 126
21 128 122
19 111 116
22 115 126
29 97 127
27 91 127
33 95 136
31 87 127
34 95 139
33 92 135
38 93 141
33 96 138
35 95 141
35 95 139
41 97 146
36 93 140
39 96 143
40 97 144
43 104 151
40 100 144
38 115 148
37 116 138
31 117 137
35 125 143
39 125 144
33 127 143
28 129 134
32 130 141
32 128 139
34 137 145
34 136 144
30 129 142
35 145 154
34 134 145
32 129 141
29 131 140
36 111 139
34 117 137
36 117 143
25 127 137
29 118 135
36 115 142
31 114 137
30 129 143
33 110 136
30 108 133
29 110 137
25 105 129
32 104 135
30 114 140
32 105 136
30 99 131
31 100 134
27 105 135
29 90 130
35 91 134
38 93 139
36 92 137
31 91 132
34 95 137
31 92 132
35 93 136
31 93 135
37 96 142
32 92 133
32 93 135
33 91 134
38 95 143
31 94 135
34 95 139
37 94 139
35 92 137
34 94 137
39 96 144
35 95 138
34 94 137
33 95 138
32 91 133
40 94 143
35 93 137
35 94 138
35 93 137
32 94 135
34 94 136
35 93 137
39 95 142
35 91 135
37 93 139
33 94 135
33 91 133
37 92 136
33 92 134
30 88 127
37 96 138
29 97 128
33 104 135
23 113 127
22 102 118
25 118 123
20 100 109
23 105 112
13 119 112
0 115 92
9 126 106
6 140 113
0 114 95
0 116 96
0 137 112
0 130 106
0 140 114
0 134 108
0 125 105
0 121 100
0 141 114
0 145 115
0 141 115
0 150 124
0 146 122
0 145 120
0 149 125
0 150 120
0 146 117
0 137 112
0 131 111
0 145 118
0 164 135
0 145 120
0 154 124
0 155 128
0 161 126
0 146 119
0 156 126
0 157 127
0 159 131
0 153 126
0 155 128
0 159 128
0 166 136
0 157 127
0 156 125
0 169 136
0 154 126
0 170 133
0 159 132
0 166 136
0 173 140
0 172 137
0 167 131
0 159 129
0 163 132
0 171 136
0 169 139
0 173 137
0 164 132
0 177 143
0 172 141
0 179 143
0 169 138
0 169 137
0 183 147
0 175 137
0 169 135
0 188 151
0 179 146
0 180 146
0 169 137
0 176 142
0 177 145
0 174 141
0 187 148
0 194 158
0 178 146
0 182 151
0 182 148
0 180 145
0 189 150
0 182 143
0 186 150
0 189 153
0 197 157
0 184 147
0 180 140
0 187 150
0 183 148
0 185 146
0 192 152
0 191 153
0 190 151
0 189 151
0 191 154
0 184 147
0 188 151
0 193 150
0 184 144
0 198 158
0 184 149
0 191 154
0 190 151
0 186 150
0 187 147
0 186 150
0 190 148
0 190 150
0 196 156
0 188 145
0 194 154
0 197 158
0 199 155
0 188 151
0 195 157
0 202 161
0 193 155
0 193 155
0 196 156
0 195 157
0 194 154
0 194 153
0 196 157
0 196 157
0 196 155
0 200 158
0 196 156
0 192 150
0 192 151
0 199 156
0 201 162
0 200 157
0 196 156
0 201 159
0 200 160
0 201 162
0 202 164
0 193 152
0 199 153
0 200 159
0 198 157
0 204 161
0 200 158
0 208 165
0 198 157
0 201 164
0 195 154
0 198 159
0 203 159
0 206 165
0 201 159
0 199 159
0 201 161
0 204 160
0 203 159
0 211 167
0 205 161
0 202 163
0 205 162
0 200 160
0 200 161
0 204 163
0 199 158
0 209 167
0 204 163
0 203 162
0 205 162
0 210 168
0 199 159
0 204 163
0 206 167
0 208 167
0 205 165
0 208 167
0 205 161
0 202 160
0 203 160
0 207 164
0 214 170
0 206 162
0 206 166
0 205 165
0 206 164
0 206 165
0 207 165
0 211 169
0 213 170
0 208 168
0 208 166
0 207 166
0 208 168
0 207 165
0 208 167
0 202 161
0 207 165
0 212 168
0 212 170
0 210 168
0 211 170
0 214 176
0 212 175
0 216 178
0 212 175
0 213 173
0 214 176
0 214 176
0 213 174
0 208 170
0 215 176
0 214 175
0 218 179
0 213 175
0 211 173
0 211 175
0 209 173
0 215 176
0 211 174
0 212 174
0 211 173
0 214 176
0 213 174
0 215 175
0 209 172
0 213 174
0 213 175
0 208 172
0 216 178
0 203 168
0 212 174
0 206 169
0 211 174
0 208 172
0 204 169
0 210 174
0 206 171
0 212 174
0 205 169
0 206 170
0 206 170
0 214 175
0 204 170
0 212 175
0 207 170
0 211 171
0 203 168
0 205 170
0 203 168
0 214 176
0 214 175
0 201 167
0 197 160
0 207 171
0 204 169
0 202 168
0 205 169
0 199 165
0 203 165
0 212 173
0 199 166
0 189 158
0 199 165
0 205 169
0 193 160
0 194 161
0 206 168
0 206 169
0 195 163
0 198 162
0 192 160
0 183 153
0 199 164
0 195 162
0 180 152
0 185 153
0 186 154
0 196 163
0 190 159
0 198 164
0 184 153
0 193 159
0 191 159
0 181 150
0 185 154
0 186 153
0 182 151
0 188 154
0 192 160
0 168 141
0 175 146
0 188 155
0 179 148
0 176 146
0 177 146
0 169 142
0 176 145
0 166 139
0 165 137
0 169 140
0 160 133
0 155 130
0 159 134
0 160 133
0 143 121
0 160 131
0 157 130
0 136 114
6 129 114
9 115 108
9 113 111
22 107 119
29 100 131
31 98 133
35 93 135
31 94 134
34 94 136
34 92 136
32 93 134
38 96 142
32 94 136
38 97 144
40 97 146
38 98 145
32 106 138
35 103 137
38 110 141
35 110 141
36 122 147
34 111 138
39 120 147
37 126 143
37 131 147
35 134 145
31 140 141
34 136 148
33 143 148
32 138 140
31 145 148
28 142 140
30 140 140
29 123 136
37 124 146
33 128 143
27 124 138
28 111 129
33 133 147
31 115 137
28 107 131
24 113 129
31 108 131
28 117 131
32 113 138
28 105 131
31 106 134
31 106 137
31 105 134
31 98 132
30 110 134
31 94 131
33 99 138
35 93 135
29 95 133
30 92 130
36 96 140
32 91 132
34 91 134
32 92 133
32 93 134
33 89 131
34 95 139
30 91 131
36 95 139
35 94 137
36 94 139
29 89 129
35 93 137
30 91 132
37 94 140
32 93 134
38 95 140
35 95 138
35 93 137
33 92 135
33 91 133
29 89 127
31 93 134
35 95 139
33 97 139
32 93 133
28 89 127
32 91 132
34 92 135
33 89 132
32 91 133
33 93 135
27 89 125
30 99 134
25 94 123
30 105 128
25 91 114
18 103 116
22 108 118
20 100 107
20 110 107
13 116 107
9 105 95
9 127 111
0 115 97
0 112 92
0 137 112
0 117 96
0 123 103
0 133 110
0 123 101
0 133 109
0 136 111
0 133 110
0 142 114
0 145 118
0 144 119
0 141 116
0 141 115
0 142 116
0 145 117
0 134 108
0 144 118
0 145 119
0 164 135
0 150 123
0 156 127
0 167 135
0 156 129
0 158 129
0 144 120
0 155 126
0 148 121
0 151 120
0 151 122
0 160 132
0 168 136
0 160 130
0 164 133
0 165 134
0 169 136
0 160 128
0 162 131
0 159 127
0 157 127
0 171 141
0 179 145
0 163 131
0 164 137
0 186 151
0 167 139
0 168 134
0 166 136
0 174 139
0 166 133
0 170 135
0 176 144
0 167 136
0 184 146
0 170 137
0 172 139
0 169 133
0 192 157
0 167 136
0 173 140
0 176 138
0 179 142
0 174 135
0 184 148
0 174 141
0 184 148
0 184 150
0 188 152
0 175 142
0 191 151
0 184 149
0 187 153
0 175 142
0 191 153
0 190 152
0 180 145
0 185 145
0 174 143
0 187 148
0 186 145
0 185 147
0 186 149
0 184 144
0 187 148
0 190 152
0 186 150
0 186 148
0 188 150
0 192 155
0 188 150
0 194 155
0 194 156
0 198 159
0 187 149
0 186 147
0 184 147
0 184 146
0 184 146
0 194 154
0 188 152
0 193 154
0 197 157
0 194 154
0 190 150
0 195 158
0 187 149
0 199 159
0 194 156
0 196 156
0 192 153
0 190 150
0 197 155
0 188 149
0 191 151
0 195 153
0 194 153
0 199 157
0 197 155
0 197 156
0 192 152
0 200 157
0 184 144
0 189 150
0 193 154
0 190 146
0 200 158
0 191 152
0 201 160
0 192 153
0 199 157
0 202 162
0 193 150
0 192 152
0 194 156
0 198 157
0 204 161
0 206 162
0 203 160
0 198 159
0 197 156
0 203 162
0 194 153
0 200 154
0 197 156
0 198 155
0 199 159
0 208 166
0 198 155
0 203 160
0 208 169
0 208 163
0 197 154
0 201 157
0 205 161
0 201 159
0 204 161
0 202 163
0 207 164
0 202 160
0 204 160
0 209 166
0 208 164
0 203 161
0 205 162
0 206 164
0 207 166
0 206 167
0 205 163
0 201 162
0 208 166
0 211 167
0 203 160
0 208 165
0 209 167
0 208 166
0 210 168
0 203 163
0 211 167
0 212 170
0 208 165
0 207 165
0 211 168
0 206 164
0 206 161
0 209 166
0 203 163
0 212 169
0 209 166
0 206 165
0 211 169
0 212 169
0 206 168
0 216 177
0 215 176
0 216 177
0 216 177
0 211 173
0 215 177
0 213 176
0 210 174
0 217 177
0 214 176
0 210 173
0 213 175
0 215 176
0 213 175
0 213 174
0 213 176
0 213 175
0 213 175
0 209 172
0 213 174
0 209 174
0 213 175
0 212 174
0 212 174
0 204 170
0 214 175
0 209 172
0 204 170
0 209 171
0 207 171
0 213 175
0 211 173
0 210 174
0 202 169
0 207 172
0 208 169
0 200 165
0 209 172
0 210 173
0 211 175
0 207 171
0 206 170
0 213 174
0 207 170
0 200 167
0 204 169
0 209 173
0 208 171
0 208 172
0 200 166
0 211 174
0 208 172
0 208 172
0 205 168
0 199 165
0 202 167
0 204 168
0 203 167
0 196 161
0 203 169
0 192 161
0 201 167
0 189 157
0 201 165
0 199 165
0 202 166
0 191 161
0 195 163
0 204 168
0 197 160
0 193 159
0 191 158
0 190 159
0 202 167
0 183 153
0 192 159
0 197 162
0 189 156
0 188 155
0 194 160
0 193 160
0 188 156
0 188 155
0 192 159
0 193 161
0 187 154
0 187 155
0 179 150
0 178 147
0 170 141
0 182 150
0 176 145
0 169 141
0 180 150
0 171 142
0 166 140
0 155 132
0 163 136
0 158 133
0 153 128
0 158 131
0 153 129
0 157 130
0 148 123
0 144 120
0 160 132
0 127 106
6 130 111
0 144 120
11 138 124
14 111 113
22 103 118
27 97 123
30 93 127
32 91 131
32 96 136
29 94 133
33 91 135
36 96 140
32 94 136
36 97 142
34 92 136
36 95 141
37 95 140
37 104 141
38 115 146
32 119 138
34 113 139
31 129 141
34 126 138
33 121 141
31 126 138
30 130 136
33 138 144
29 140 140
33 148 146
30 135 144
27 148 140
31 143 145
25 137 136
29 145 143
29 126 135
29 131 136
29 126 135
27 127 137
26 128 137
24 132 136
22 116 125
26 134 139
28 122 132
28 119 131
26 112 128
29 122 134
23 111 123
25 104 122
25 110 126
28 99 127
26 103 127
32 108 136
30 106 134
32 95 135
26 90 127
32 92 132
35 93 135
29 90 127
31 90 130
32 94 135
29 92 131
30 93 133
29 89 127
32 92 134
34 94 138
33 91 133
28 91 127
31 94 135
33 89 131
32 94 136
38 96 143
28 91 128
32 90 131
31 93 133
36 94 139
27 91 128
34 92 135
36 89 133
36 91 136
32 90 131
29 91 130
30 90 130
37 91 135
31 87 128
30 92 130
28 91 127
29 96 128
24 95 120
25 100 117
20 110 123
29 110 122
20 111 114
16 101 104
16 110 111
9 111 98
6 119 104
6 117 105
6 126 106
0 128 105
0 127 106
0 122 101
0 132 107
0 135 112
0 136 112
0 123 102
0 132 108
0 139 114
0 146 119
0 127 105
0 150 120
0 131 109
0 138 113
0 146 116
0 133 111
0 147 119
0 147 120
0 147 119
0 157 129
0 151 126
0 137 114
0 150 122
0 149 119
0 161 130
0 142 118
0 150 123
0 159 130
0 151 124
0 167 137
0 162 132
0 166 136
0 164 134
0 171 140
0 167 133
0 164 131
0 163 134
0 172 141
0 166 133
0 153 125
0 160 129
0 161 130
0 158 131
0 165 134
0 167 136
0 177 139
0 174 138
0 171 140
0 172 141
0 158 126
0 165 135
0 174 141
0 164 135
0 173 141
0 167 139
0 184 149
0 175 145
0 176 146
0 177 146
0 183 150
0 178 143
0 174 144
0 182 147
0 186 153
0 180 144
0 184 149
0 179 144
0 175 139
0 188 154
0 185 150
0 175 142
0 182 145
0 181 146
0 180 142
0 185 149
0 194 155
0 187 152
0 178 143
0 180 145
0 182 146
0 180 142
0 190 150
0 191 153
0 186 147
0 178 143
0 185 147
0 195 156
0 183 145
0 187 150
0 197 156
0 193 155
0 188 151
0 190 155
0 189 150
0 190 152
0 192 155
0 196 155
0 175 136
0 184 148
0 200 161
0 185 149
0 201 161
0 195 157
0 195 153
0 198 156
0 183 144
0 195 157
0 191 154
0 195 150
0 195 156
0 191 150
0 200 158
0 191 150
0 201 160
0 197 157
0 193 155
0 198 158
0 196 155
0 197 156
0 195 156
0 194 155
0 198 156
0 196 154
0 195 156
0 193 155
0 197 154
0 202 161
0 196 154
0 200 156
0 198 161
0 197 159
0 194 155
0 201 160
0 201 161
0 203 163
0 201 162
0 197 157
0 194 154
0 197 156
0 194 154
0 197 159
0 196 155
0 204 161
0 203 162
0 200 158
0 207 163
0 202 159
0 199 158
0 200 161
0 212 171
0 197 153
0 202 160
0 193 152
0 206 165
0 202 162
0 207 163
0 196 151
0 200 159
0 205 163
0 199 155
0 203 162
0 204 161
0 201 160
0 206 164
0 210 170
0 198 158
0 199 156
0 206 163
0 205 163
0 203 162
0 206 163
0 207 166
0 207 166
0 206 167
0 210 169
0 213 172
0 205 163
0 205 165
0 211 170
0 203 160
0 212 169
0 208 167
0 200 160
0 210 166
0 210 169
0 208 165
0 208 166
0 204 163
0 208 167
0 207 164
0 209 167
0 206 165
0 213 172
0 209 170
0 210 168
0 215 177
0 215 176
0 207 171
0 213 175
0 214 176
0 213 176
0 217 177
0 208 172
0 216 177
0 214 177
0 213 177
0 211 175
0 212 174
0 212 175
0 217 177
0 211 173
0 210 173
0 213 175
0 215 176
0 214 176
0 207 171
0 212 173
0 210 173
0 208 172
0 215 176
0 215 177
0 212 174
0 208 170
0 211 173
0 210 173
0 208 172
0 210 173
0 211 174
0 208 171
0 210 173
0 205 171
0 201 168
0 207 171
0 203 168
0 213 173
0 205 170
0 206 171
0 206 170
0 206 170
0 213 175
0 208 171
0 209 172
0 204 168
0 200 165
0 210 173
0 202 167
0 203 169
0 206 170
0 199 165
0 201 166
0 204 168
0 203 168
0 204 169
0 195 163
0 196 161
0 193 162
0 201 165
0 197 163
0 203 167
0 203 166
0 197 164
0 205 169
0 201 165
0 189 157
0 196 162
0 197 163
0 201 165
0 192 159
0 203 167
0 197 162
0 198 165
0 187 155
0 187 155
0 200 165
0 187 155
0 196 162
0 193 158
0 192 157
0 198 162
0 175 148
0 187 155
0 186 154
0 188 156
0 186 154
0 171 142
0 179 149
0 175 145
0 174 146
0 176 146
0 160 136
0 174 143
0 172 140
0 170 142
0 159 133
0 169 140
0 167 140
0 162 135
0 155 129
0 166 136
0 141 119
0 156 130
0 163 133
0 149 124
0 130 109
6 122 107
6 126 112
18 102 107
20 106 116
28 101 123
22 104 124
29 94 132
32 90 132
30 94 134
31 94 135
37 92 138
33 92 134
32 93 135
36 96 141
36 100 141
32 106 139
40 103 141
35 124 144
34 112 138
35 135 150
29 134 143
31 139 147
29 139 141
33 139 143
34 136 144
31 145 140
26 143 136
24 144 136
32 133 140
28 147 142
26 137 133
27 131 137
27 127 140
26 133 138
29 123 139
18 140 135
27 134 137
27 124 134
27 121 132
32 123 139
26 129 136
22 124 123
19 127 125
15 131 126
13 123 118
17 119 121
19 118 119
18 134 129
20 114 121
21 115 130
29 106 127
24 99 119
29 101 130
31 101 132
27 89 127
30 94 133
34 94 135
33 92 134
27 91 129
32 90 131
29 91 131
30 89 130
29 89 127
28 92 128
33 94 135
34 89 131
36 91 137
32 90 131
30 90 130
37 93 138
29 89 127
28 89 127
32 91 132
35 92 136
24 91 125
31 95 131
24 94 125
30 92 128
31 96 125
32 102 132
20 88 116
24 97 119
20 94 109
20 95 111
24 91 111
17 93 103
15 102 105
20 116 115
20 105 108
14 113 106
11 124 107
0 110 97
0 124 107
0 132 106
0 115 97
0 134 111
0 121 103
0 142 118
0 128 104
0 131 108
0 129 108
0 135 112
0 136 113
0 134 109
0 132 109
0 134 110
0 138 113
0 131 110
0 131 108
0 152 124
0 150 125
0 139 116
0 134 112
0 136 112
0 144 118
0 144 118
0 151 122
0 155 125
0 143 116
0 141 116
0 157 132
0 144 115
0 142 114
0 158 128
0 156 126
0 161 132
0 164 132
0 154 125
0 157 128
0 164 132
0 157 129
0 154 127
0 152 125
0 160 130
0 172 140
0 162 131
0 163 132
0 170 138
0 169 136
0 179 144
0 161 131
0 168 135
0 177 143
0 174 139
0 173 137
0 165 132
0 172 140
0 167 138
0 175 141
0 174 142
0 174 142
0 189 151
0 182 145
0 171 141
0 161 129
0 173 141
0 179 144
0 186 150
0 182 145
0 171 140
0 177 146
0 184 148
0 183 150
0 170 135
0 176 140
0 177 142
0 179 143
0 175 137
0 185 147
0 184 148
0 183 148
0 186 151
0 192 154
0 190 152
0 185 147
0 185 147
0 195 156
0 184 149
0 201 162
0 189 150
0 185 147
0 179 143
0 186 149
0 193 156
0 186 144
0 190 152
0 194 157
0 192 156
0 184 145
0 199 158
0 186 150
0 188 149
0 181 147
0 193 155
0 195 158
0 193 156
0 194 156
0 190 148
0 186 148
0 197 158
0 190 155
0 187 147
0 191 154
0 201 159
0 198 158
0 197 158
0 195 153
0 193 152
0 192 153
0 199 159
0 188 148
0 200 159
0 198 156
0 197 160
0 192 156
0 195 155
0 195 155
0 196 154
0 197 158
0 185 144
0 195 155
0 206 166
0 197 157
0 194 156
0 196 157
0 194 156
0 206 161
0 192 152
0 195 156
0 194 152
0 201 160
0 192 148
0 207 165
0 200 161
0 201 160
0 201 159
0 196 154
0 198 160
0 200 158
0 204 165
0 205 164
0 205 161
0 198 158
0 203 158
0 199 159
0 202 160
0 201 160
0 202 160
0 202 160
0 203 161
0 207 163
0 204 161
0 192 151
0 205 162
0 203 163
0 206 162
0 208 165
0 207 163
0 205 163
0 203 161
0 199 159
0 202 161
0 202 161
0 212 171
0 209 168
0 210 168
0 211 168
0 207 164
0 210 168
0 202 162
0 208 165
0 207 164
0 203 164
0 210 170
0 206 163
0 205 161
0 206 163
0 205 166
0 210 170
0 210 169
0 200 160
0 207 166
0 209 168
0 212 168
0 205 162
0 216 174
0 208 168
0 208 164
0 203 159
0 207 163
0 213 170
0 213 175
0 217 178
0 209 173
0 219 178
0 211 174
0 215 177
0 214 175
0 214 175
0 215 177
0 212 175
0 219 179
0 214 175
0 210 172
0 214 176
0 211 173
0 209 173
0 214 176
0 211 173
0 216 178
0 212 176
0 215 177
0 215 175
0 208 171
0 211 174
0 205 168
0 212 174
0 211 174
0 208 172
0 208 172
0 207 170
0 208 172
0 211 174
0 207 171
0 210 173
0 209 172
0 207 170
0 209 173
0 211 172
0 202 167
0 206 172
0 212 174
0 206 171
0 210 173
0 209 172
0 213 174
0 204 168
0 211 173
0 210 173
0 204 168
0 207 171
0 208 172
0 198 165
0 203 168
0 201 164
0 205 168
0 210 171
0 202 168
0 202 167
0 199 164
0 202 167
0 199 164
0 208 170
0 201 166
0 202 167
0 201 168
0 200 167
0 201 166
0 203 169
0 195 162
0 193 161
0 198 164
0 199 164
0 193 160
0 198 165
0 193 160
0 192 161
0 191 157
0 186 154
0 186 154
0 190 157
0 193 160
0 191 158
0 191 158
0 185 154
0 190 159
0 186 154
0 184 153
0 189 156
0 180 150
0 174 144
0 185 153
0 179 149
0 167 140
0 175 147
0 173 143
0 175 145
0 161 135
0 160 135
0 162 135
0 175 146
0 171 141
0 161 136
0 158 131
0 150 125
0 143 120
0 148 126
0 152 126
0 140 118
0 144 120
0 140 117
0 147 123
9 132 116
16 122 117
11 111 111
28 111 127
29 99 129
27 92 127
32 93 135
27 89 126
30 92 132
34 95 137
35 97 142
34 93 136
35 96 141
36 104 141
35 113 140
31 112 135
32 115 138
35 114 138
33 119 135
23 139 139
32 146 142
33 137 143
27 151 145
25 158 145
31 150 145
20 150 136
32 152 149
24 148 142
29 144 141
30 143 146
25 141 141
18 135 130
27 137 137
26 121 133
22 129 132
27 131 138
24 141 140
25 118 128
20 137 133
19 109 116
20 141 132
18 113 115
19 132 125
17 128 121
16 110 106
15 124 115
18 118 115
11 115 111
18 111 117
17 103 114
17 107 117
24 108 123
18 99 119
20 90 111
28 96 124
23 106 125
24 97 121
32 87 126
27 94 122
26 94 124
26 95 124
31 96 131
33 100 135
32 94 131
20 94 119
27 99 125
32 91 129
24 91 119
29 97 126
27 93 125
29 87 116
28 95 126
28 97 123
24 85 112
28 99 121
28 89 114
25 101 116
15 99 107
22 104 111
17 105 107
18 110 112
13 104 102
15 100 99
13 100 97
13 112 105
0 113 98
9 116 102
0 118 99
0 116 96
0 126 104
0 118 98
0 108 93
0 131 105
0 144 118
0 144 117
0 129 109
0 120 99
0 134 111
0 119 100
0 153 125
0 152 126
0 148 122
0 148 120
0 152 124
0 139 114
0 135 113
0 142 118
0 129 107
0 138 115
0 162 133
0 145 117
0 142 116
0 144 118
0 144 119
0 145 119
0 150 126
0 158 128
0 144 119
0 151 126
0 149 121
0 156 128
0 154 124
0 162 132
0 155 128
0 159 129
0 158 128
0 164 133
0 156 125
0 162 129
0 171 138
0 172 141
0 169 133
0 164 136
0 166 133
0 170 137
0 168 136
0 168 139
0 182 147
0 165 130
0 162 133
0 163 133
0 170 140
0 176 141
0 169 140
0 168 138
0 181 144
0 181 145
0 179 148
0 182 147
0 175 142
0 177 142
0 178 143
0 179 147
0 163 130
0 173 140
0 179 143
0 187 146
0 186 150
0 179 144
0 180 144
0 181 146
0 187 149
0 182 148
0 184 148
0 180 145
0 178 139
0 178 142
0 178 143
0 187 151
0 170 138
0 185 148
0 187 149
0 187 150
0 185 148
0 189 152
0 198 158
0 183 146
0 192 156
0 181 148
0 198 156
0 179 143
0 193 155
0 191 153
0 193 153
0 195 154
0 189 153
0 186 152
0 193 154
0 183 150
0 194 159
0 193 155
0 186 148
0 193 155
0 194 155
0 192 156
0 186 147
0 188 150
0 189 150
0 195 154
0 194 155
0 191 152
0 201 159
0 197 155
0 191 151
0 187 145
0 194 156
0 195 153
0 194 152
0 188 152
0 204 163
0 191 152
0 196 155
0 194 153
0 198 156
0 198 160
0 199 160
0 197 157
0 203 163
0 193 155
0 199 157
0 199 159
0 199 158
0 195 158
0 197 158
0 199 160
0 201 159
0 200 160
0 203 159
0 203 163
0 188 148
0 206 163
0 205 162
0 199 158
0 206 161
0 197 157
0 207 166
0 196 155
0 206 163
0 197 157
0 200 160
0 204 164
0 199 160
0 198 155
0 198 155
0 196 156
0 208 168
0 202 159
0 199 157
0 198 158
0 206 165
0 199 159
0 209 169
0 209 167
0 208 166
0 207 165
0 200 157
0 206 163
0 205 165
0 207 164
0 210 168
0 207 164
0 207 167
0 210 168
0 204 161
0 199 158
0 205 163
0 210 169
0 209 168
0 209 167
0 210 167
0 208 164
0 212 169
0 203 161
0 204 162
0 213 171
0 209 169
0 206 164
0 214 172
0 207 164
0 211 171
0 210 170
0 211 169
0 209 167
0 208 166
0 210 169
0 209 166
0 212 169
0 212 169
0 208 167
0 216 177
0 213 175
0 212 173
0 217 177
0 212 175
0 214 176
0 212 174
0 215 176
0 215 176
0 213 175
0 212 175
0 212 174
0 213 176
0 212 175
0 216 176
0 213 176
0 216 176
0 214 176
0 206 169
0 212 175
0 216 176
0 210 172
0 213 174
0 206 170
0 210 173
0 205 169
0 212 175
0 204 169
0 203 167
0 212 174
0 208 170
0 211 173
0 210 172
0 208 172
0 214 175
0 208 170
0 209 172
0 213 174
0 206 171
0 215 175
0 209 171
0 203 168
0 203 169
0 203 169
0 200 165
0 203 166
0 205 170
0 206 169
0 206 169
0 201 167
0 206 169
0 202 167
0 200 165
0 194 162
0 206 169
0 200 166
0 204 168
0 199 165
0 196 163
0 202 167
0 199 164
0 198 163
0 198 165
0 203 168
0 195 163
0 208 171
0 205 168
0 203 167
0 197 163
0 196 163
0 202 166
0 195 162
0 199 163
0 196 162
0 194 160
0 182 153
0 199 164
0 182 152
0 198 163
0 191 158
0 197 163
0 189 157
0 187 154
0 184 153
0 182 152
0 173 145
0 187 154
0 181 150
0 184 153
0 174 145
0 182 152
0 179 148
0 173 144
0 170 142
0 177 148
0 170 142
0 172 143
0 159 132
0 168 139
0 169 140
0 163 137
0 165 139
0 148 127
0 161 132
0 149 124
0 160 134
0 152 126
0 161 131
0 140 118
0 148 124
0 134 111
0 128 107
12 127 112
11 114 108
23 100 112
21 105 117
20 91 107
25 96 119
28 99 129
27 90 127
24 93 128
38 94 141
29 92 131
34 95 136
35 102 140
31 107 138
33 114 140
29 129 138
24 133 135
32 136 143
22 152 137
29 144 144
26 141 136
27 148 141
19 150 135
31 139 134
27 150 141
24 156 139
23 153 140
28 136 140
26 127 130
28 123 129
29 129 135
23 134 134
27 121 129
23 124 130
18 131 129
20 131 127
27 112 124
26 138 135
14 124 121
19 127 123
19 136 128
11 126 117
13 131 117
6 118 105
13 125 112
9 115 105
9 125 109
16 127 115
9 114 103
13 110 106
17 115 114
16 107 109
20 113 115
23 111 117
16 115 117
13 106 110
23 111 118
22 102 115
19 97 109
21 115 118
15 102 112
21 92 109
18 92 109
19 95 111
24 99 115
14 99 106
18 96 104
19 89 102
20 98 111
24 112 120
18 99 104
21 101 110
17 106 110
15 105 105
14 100 100
13 117 109
15 112 106
9 108 98
16 100 96
6 117 104
0 125 105
6 120 103
0 113 97
0 115 97
0 113 94
0 130 109
0 127 104
0 117 98
0 138 114
0 132 108
0 137 112
0 143 117
0 132 111
0 125 108
0 133 108
0 138 112
0 139 114
0 147 120
0 145 118
0 132 107
0 129 106
0 139 115
0 145 123
0 120 97
0 135 111
0 135 112
0 150 122
0 136 112
0 144 118
0 152 125
0 153 124
0 143 117
0 144 119
0 144 122
0 162 134
0 136 110
0 159 132
0 154 125
0 166 136
0 153 126
0 152 124
0 156 129
0 154 128
0 162 134
0 144 117
0 155 125
0 151 124
0 166 134
0 159 131
0 168 138
0 174 142
0 171 139
0 168 135
0 183 148
0 173 142
0 169 136
0 165 137
0 165 131
0 169 141
0 179 144
0 186 147
0 166 134
0 176 143
0 181 146
0 168 136
0 173 140
0 172 136
0 174 142
0 175 141
0 184 148
0 185 151
0 181 144
0 174 139
0 186 148
0 174 141
0 175 142
0 176 138
0 177 142
0 179 148
0 181 144
0 184 148
0 187 151
0 181 146
0 183 148
0 182 148
0 173 139
0 160 130
0 187 151
0 173 142
0 179 145
0 186 152
0 175 145
0 180 145
0 182 143
0 182 147
0 186 145
0 192 153
0 185 148
0 188 152
0 195 157
0 184 147
0 195 156
0 179 147
0 194 157
0 186 149
0 188 154
0 181 143
0 192 152
0 197 158
0 189 153
0 192 153
0 198 159
0 189 152
0 188 150
0 186 151
0 196 158
0 199 158
0 200 158
0 190 155
0 201 162
0 201 161
0 194 155
0 199 159
0 196 157
0 194 154
0 198 157
0 199 160
0 197 156
0 196 153
0 199 156
0 197 155
0 199 158
0 198 161
0 197 157
0 201 159
0 196 155
0 193 149
0 205 167
0 203 164
0 203 164
0 198 157
0 199 160
0 200 160
0 200 157
0 197 159
0 199 160
0 197 157
0 195 158
0 199 158
0 202 161
0 205 164
0 201 159
0 203 161
0 209 169
0 205 163
0 202 163
0 200 159
0 186 150
0 206 163
0 207 166
0 193 151
0 196 157
0 203 164
0 204 163
0 205 164
0 208 165
0 201 160
0 201 159
0 205 164
0 205 160
0 199 157
0 203 162
0 207 165
0 209 169
0 208 167
0 207 164
0 201 159
0 204 162
0 205 167
0 209 164
0 207 167
0 206 163
0 207 164
0 208 165
0 206 163
0 200 158
0 207 167
0 207 163
0 213 172
0 207 165
0 208 164
0 206 165
0 208 167
0 212 170
0 203 163
0 206 166
0 203 160
0 208 167
0 210 169
0 203 163
0 210 169
0 208 168
0 203 161
0 213 171
0 212 169
0 211 171
0 209 165
0 207 168
0 212 175
0 214 175
0 213 175
0 215 175
0 217 177
0 215 177
0 212 174
0 216 177
0 213 175
0 213 174
0 216 177
0 211 175
0 214 176
0 211 174
0 214 175
0 212 175
0 215 177
0 212 174
0 216 178
0 212 175
0 205 170
0 209 172
0 214 175
0 212 174
0 213 175
0 214 176
0 207 171
0 211 173
0 210 173
0 206 170
0 206 171
0 213 174
0 212 175
0 209 171
0 206 170
0 209 172
0 207 171
0 206 171
0 207 171
0 202 167
0 205 168
0 205 168
0 207 171
0 202 168
0 205 169
0 205 170
0 205 169
0 199 166
0 208 170
0 209 172
0 199 166
0 201 166
0 207 169
0 212 173
0 201 166
0 201 165
0 210 172
0 203 167
0 200 166
0 203 168
0 204 169
0 201 166
0 206 170
0 190 158
0 196 164
0 195 161
0 203 168
0 203 166
0 199 165
0 190 158
0 197 163
0 190 156
0 190 158
0 186 154
0 199 165
0 195 162
0 190 157
0 186 153
0 184 153
0 192 158
0 181 151
0 187 156
0 193 159
0 188 157
0 180 151
0 184 153
0 187 155
0 176 148
0 181 151
0 174 145
0 182 152
0 174 145
0 178 149
0 164 137
0 170 142
0 176 147
0 181 149
0 162 136
0 166 139
0 163 135
0 169 140
0 163 136
0 154 128
0 146 125
0 155 129
0 149 124
0 156 130
0 139 117
0 146 121
0 132 111
0 143 116
0 135 112
0 135 113
9 119 105
9 122 111
19 117 115
18 102 108
20 91 108
27 101 125
29 98 131
27 91 124
37 95 140
29 92 130
34 99 137
34 97 136
36 109 138
35 115 141
30 125 139
28 130 134
29 132 141
26 148 143
23 128 129
25 141 135
30 143 141
23 151 140
20 160 143
19 163 141
25 157 145
15 159 141
26 150 144
26 136 133
20 146 138
22 137 130
19 145 137
25 114 120
23 133 131
15 137 127
19 136 128
16 132 126
15 130 122
18 131 125
11 120 112
13 132 120
18 122 115
15 116 109
11 141 123
7 124 106
0 142 118
0 131 109
0 111 94
0 127 106
9 115 100
0 129 108
6 113 98
9 117 105
6 115 99
11 111 100
9 133 113
13 119 110
14 110 104
16 115 110
15 118 110
9 115 103
18 119 112
13 115 109
6 117 106
16 107 107
11 114 107
13 110 105
18 111 103
9 106 95
15 115 108
9 113 99
6 102 91
11 102 93
9 116 102
9 109 98
6 115 100
0 126 104
0 112 94
0 127 105
0 125 106
0 135 110
0 133 109
0 123 101
0 127 105
0 125 105
0 130 107
0 119 100
0 131 109
0 119 98
0 144 120
0 127 104
0 141 115
0 129 107
0 128 106
0 121 103
0 129 104
0 128 105
0 138 113
0 139 115
0 145 117
0 139 115
0 159 130
0 146 120
0 133 111
0 146 122
0 140 115
0 157 127
0 148 121
0 152 125
0 149 125
0 149 124
0 159 129
0 145 120
0 148 119
0 150 122
0 151 123
0 150 124
0 149 125
0 153 129
0 153 127
0 160 131
0 152 128
0 169 137
0 167 134
0 154 127
0 161 132
0 151 123
0 168 137
0 171 142
0 150 123
0 164 131
0 160 132
0 158 131
0 166 134
0 164 133
0 159 130
0 161 131
0 171 138
0 159 132
0 165 131
0 167 135
0 178 144
0 163 132
0 176 143
0 174 142
0 172 141
0 172 138
0 168 136
0 178 145
0 176 142
0 185 150
0 179 145
0 182 148
0 178 145
0 180 144
0 184 149
0 190 152
0 171 138
0 184 148
0 185 148
0 177 143
0 180 147
0 179 144
0 174 139
0 179 143
0 182 149
0 175 143
0 186 150
0 185 147
0 188 155
0 186 150
0 189 152
0 182 146
0 184 150
0 188 150
0 183 146
0 190 151
0 185 149
0 198 159
0 186 151
0 189 150
0 191 153
0 181 144
0 199 160
0 187 151
0 193 157
0 193 152
0 193 154
0 199 157
0 193 155
0 181 147
0 198 158
0 192 153
0 190 153
0 186 148
0 195 153
0 198 161
0 181 143
0 191 151
0 196 159
0 200 160
0 197 160
0 198 159
0 190 151
0 197 156
0 194 154
0 203 161
0 195 157
0 188 149
0 199 156
0 203 162
0 196 156
0 203 164
0 199 159
0 199 158
0 194 157
0 194 158
0 198 160
0 196 158
0 202 159
0 202 161
0 204 162
0 201 158
0 195 152
0 195 154
0 203 163
0 200 161
0 204 165
0 197 156
0 200 160
0 199 155
0 200 160
0 185 147
0 196 159
0 207 167
0 194 157
0 208 168
0 201 158
0 203 159
0 199 157
0 201 159
0 207 167
0 203 160
0 208 165
0 204 163
0 198 157
0 203 159
0 199 156
0 199 160
0 206 166
0 208 166
0 205 164
0 203 161
0 202 161
0 206 165
0 198 159
0 206 166
0 204 162
0 204 165
0 204 163
0 204 162
0 197 155
0 209 165
0 206 162
0 203 162
0 209 169
0 209 169
0 210 169
0 206 166
0 206 166
0 211 169
0 210 167
0 201 157
0 210 167
0 205 163
0 210 167
0 208 168
0 207 163
0 205 164
0 207 166
0 209 170
0 207 167
0 204 160
0 203 164
0 210 166
0 211 170
0 208 167
0 208 170
0 215 176
0 213 176
0 213 173
0 211 175
0 214 175
0 216 177
0 209 172
0 211 175
0 214 175
0 207 170
0 217 177
0 212 174
0 212 174
0 216 177
0 214 175
0 212 175
0 210 173
0 206 170
0 214 177
0 213 174
0 211 174
0 211 174
0 217 178
0 207 170
0 211 174
0 208 171
0 204 168
0 212 175
0 214 176
0 212 175
0 207 172
0 205 169
0 212 174
0 211 174
0 196 163
0 203 168
0 209 171
0 205 170
0 207 170
0 209 173
0 197 164
0 210 172
0 209 171
0 207 171
0 213 174
0 201 166
0 212 172
0 207 171
0 206 170
0 213 175
0 202 167
0 197 162
0 197 163
0 203 167
0 202 168
0 203 167
0 203 167
0 203 167
0 203 167
0 194 161
0 199 166
0 200 165
0 197 162
0 201 167
0 198 163
0 202 166
0 201 167
0 202 166
0 204 169
0 190 157
0 195 161
0 203 166
0 197 160
0 194 161
0 192 158
0 192 160
0 193 160
0 186 155
0 194 162
0 186 154
0 185 154
0 190 158
0 190 158
0 186 154
0 191 157
0 196 161
0 187 154
0 186 152
0 181 151
0 177 146
0 181 149
0 179 147
0 184 152
0 183 152
0 169 142
0 184 151
0 178 148
0 168 142
0 167 140
0 173 144
0 157 130
0 177 146
0 163 136
0 147 122
0 150 126
0 156 129
0 158 131
0 160 133
0 149 124
0 142 119
0 145 118
0 148 123
0 125 107
0 130 108
11 122 110
7 126 113
13 117 110
25 102 115
25 102 120
25 93 115
27 93 122
27 86 119
34 92 136
34 92 133
29 102 133
33 97 132
36 109 141
28 124 139
26 126 135
29 131 134
24 141 136
23 145 136
20 147 136
18 161 140
20 169 145
23 160 142
22 170 146
20 156 136
17 157 142
20 156 140
18 150 137
18 156 145
21 140 132
19 136 128
21 132 126
16 150 136
19 139 129
12 136 122
18 136 130
14 139 127
19 134 123
13 114 103
11 139 124
11 131 119
15 137 123
9 136 119
9 130 114
0 130 110
0 128 106
0 138 114
0 122 103
0 127 106
0 136 111
0 113 95
0 117 99
0 125 105
0 113 97
6 112 97
0 119 100
0 102 87
6 120 101
7 112 96
6 131 110
6 111 95
0 109 93
0 112 94
6 118 98
9 116 101
6 116 98
0 123 103
0 117 98
0 115 97
0 125 104
0 120 100
0 129 107
0 125 103
0 120 101
0 114 95
0 127 104
0 112 94
0 119 99
0 117 98
0 130 109
0 121 101
0 132 107
0 118 100
0 139 114
0 132 110
0 133 111
0 132 111
0 116 97
0 133 108
0 126 104
0 134 109
0 124 104
0 128 107
0 121 100
0 146 119
0 132 108
0 129 108
0 139 115
0 148 122
0 144 118
0 153 125
0 139 113
0 145 121
0 157 129
0 138 112
0 141 115
0 143 118
0 149 119
0 149 124
0 154 125
0 144 119
0 152 127
0 167 135
0 148 121
0 149 124
0 158 129
0 151 124
0 154 127
0 165 136
0 155 126
0 162 137
0 167 134
0 156 130
0 172 140
0 171 139
0 171 141
0 168 139
0 167 136
0 166 137
0 173 142
0 171 141
0 172 139
0 167 137
0 168 139
0 171 141
0 166 136
0 175 144
0 176 141
0 171 137
0 172 138
0 180 148
0 175 139
0 174 140
0 176 143
0 175 142
0 175 142
0 172 138
0 170 138
0 165 139
0 174 140
0 176 144
0 176 141
0 179 147
0 179 146
0 179 146
0 181 142
0 183 147
0 190 156
0 181 148
0 171 139
0 190 155
0 181 146
0 185 151
0 187 152
0 169 135
0 179 145
0 178 143
0 181 148
0 179 144
0 190 155
0 190 153
0 191 151
0 187 153
0 183 149
0 195 158
0 192 155
0 194 155
0 195 157
0 177 142
0 180 144
0 183 150
0 188 153
0 199 159
0 202 165
0 194 154
0 193 157
0 184 149
0 206 165
0 197 159
0 199 158
0 194 157
0 189 152
0 198 160
0 199 158
0 187 150
0 187 150
0 193 151
0 192 157
0 197 159
0 191 156
0 199 159
0 201 161
0 194 154
0 194 150
0 199 158
0 190 150
0 201 160
0 200 159
0 198 158
0 193 156
0 201 162
0 192 153
0 203 160
0 205 164
0 195 155
0 192 151
0 205 164
0 198 158
0 199 157
0 201 161
0 199 161
0 205 163
0 201 158
0 193 154
0 203 165
0 207 166
0 202 162
0 206 163
0 204 163
0 199 158
0 201 160
0 197 158
0 189 149
0 203 161
0 197 158
0 206 161
0 195 155
0 204 161
0 200 163
0 204 163
0 194 155
0 206 164
0 202 160
0 211 169
0 207 164
0 202 160
0 207 166
0 202 161
0 206 166
0 204 163
0 206 164
0 206 164
0 204 162
0 201 159
0 210 167
0 198 157
0 204 164
0 201 158
0 208 167
0 208 166
0 207 164
0 206 166
0 199 157
0 205 165
0 207 169
0 212 170
0 206 165
0 207 165
0 207 166
0 204 165
0 210 168
0 203 164
0 204 164
0 213 171
0 207 165
0 212 167
0 206 164
0 212 170
0 206 167
0 209 169
0 213 170
0 213 172
0 213 171
0 206 163
0 211 169
0 209 170
0 211 170
0 212 174
0 209 173
0 212 174
0 215 177
0 217 177
0 214 176
0 215 176
0 216 178
0 212 173
0 212 175
0 215 176
0 215 177
0 210 173
0 210 173
0 215 177
0 211 173
0 211 173
0 211 175
0 212 174
0 211 174
0 208 171
0 214 176
0 210 173
0 212 175
0 212 173
0 212 174
0 208 171
0 206 170
0 216 177
0 210 173
0 209 173
0 205 170
0 208 172
0 213 174
0 212 173
0 214 175
0 210 172
0 208 173
0 213 173
0 197 165
0 211 174
0 203 169
0 204 169
0 211 173
0 206 170
0 205 169
0 209 171
0 204 168
0 209 172
0 202 167
0 200 164
0 205 170
0 206 169
0 201 167
0 202 167
0 205 170
0 210 173
0 197 163
0 200 166
0 203 168
0 201 166
0 194 159
0 189 157
0 194 161
0 202 166
0 197 164
0 196 162
0 201 164
0 199 164
0 198 164
0 192 158
0 195 163
0 192 158
0 194 159
0 189 156
0 194 162
0 190 157
0 181 150
0 199 164
0 188 156
0 193 160
0 188 156
0 184 155
0 192 159
0 179 150
0 193 160
0 191 157
0 187 155
0 171 143
0 189 156
0 179 150
0 179 147
0 174 145
0 173 144
0 172 144
0 174 146
0 172 144
0 153 129
0 164 135
0 168 139
0 166 139
0 164 138
0 160 136
0 171 140
0 168 140
0 150 126
0 152 128
0 160 134
0 146 122
0 142 117
0 131 111
0 134 112
0 135 113
0 140 115
0 124 102
7 117 103
0 133 117
13 97 97
16 101 105
17 99 106
19 103 117
25 102 123
25 92 122
27 94 124
30 96 130
26 108 131
31 114 133
24 129 135
25 125 133
27 138 137
23 152 144
17 148 136
19 154 138
16 164 137
14 165 140
20 158 137
17 164 139
16 178 150
16 164 139
14 164 142
16 148 133
16 145 128
15 150 130
15 155 134
13 137 125
19 132 124
18 145 132
16 135 124
13 128 115
9 139 121
6 150 128
9 125 109
6 125 109
0 132 110
0 128 109
6 134 112
0 134 114
0 129 107
0 131 110
0 126 105
0 146 118
0 118 99
0 116 98
0 129 106
0 122 102
0 125 104
0 134 110
0 113 95
0 140 116
0 118 100
0 100 87
0 117 98
0 123 99
0 118 98
0 120 99
0 130 108
0 117 99
0 130 106
0 122 101
0 119 96
0 105 88
0 125 105
0 125 106
0 113 96
0 122 102
0 131 108
0 115 96
0 118 97
0 124 103
0 129 107
0 127 105
0 150 124
0 117 98
0 138 113
0 138 114
0 131 109
0 140 115
0 122 101
0 130 109
0 127 105
0 135 113
0 124 100
0 140 116
0 142 119
0 134 109
0 142 118
0 136 113
0 135 113
0 148 123
0 134 110
0 139 115
0 145 119
0 138 116
0 148 122
0 152 122
0 153 127
0 154 126
0 158 129
0 156 131
0 146 119
0 159 131
0 136 113
0 148 123
0 152 129
0 139 115
0 144 118
0 157 131
0 158 128
0 152 125
0 163 131
0 149 124
0 167 135
0 150 124
0 164 133
0 162 134
0 172 142
0 171 139
0 170 138
0 172 142
0 158 130
0 164 135
0 169 138
0 180 144
0 168 138
0 171 141
0 174 143
0 168 135
0 178 148
0 176 142
0 176 141
0 175 142
0 159 133
0 173 140
0 171 140
0 173 141
0 189 153
0 169 134
0 178 142
0 171 139
0 176 146
0 170 138
0 178 144
0 179 145
0 184 148
0 179 147
0 176 142
0 178 141
0 176 144
0 187 154
0 183 146
0 185 151
0 172 139
0 186 150
0 178 146
0 186 152
0 187 152
0 180 144
0 187 153
0 191 158
0 189 156
0 198 162
0 182 144
0 189 155
0 177 144
0 192 154
0 189 155
0 185 150
0 187 150
0 187 151
0 186 151
0 194 156
0 191 150
0 192 153
0 198 160
0 185 150
0 189 153
0 178 144
0 194 154
0 192 155
0 195 155
0 196 158
0 183 146
0 196 158
0 192 153
0 194 157
0 190 154
0 195 156
0 188 149
0 195 159
0 198 159
0 198 155
0 195 157
0 192 155
0 197 159
0 203 161
0 200 160
0 204 164
0 195 158
0 202 160
0 195 158
0 197 158
0 201 158
0 199 159
0 195 156
0 206 167
0 201 161
0 199 159
0 197 158
0 201 159
0 200 161
0 204 163
0 198 158
0 197 159
0 202 160
0 204 162
0 199 159
0 191 150
0 205 164
0 200 160
0 199 159
0 205 164
0 199 157
0 197 156
0 201 160
0 202 162
0 199 158
0 202 161
0 205 166
0 204 165
0 205 165
0 205 164
0 205 165
0 207 166
0 203 163
0 204 165
0 202 162
0 204 163
0 206 163
0 210 168
0 198 157
0 202 161
0 207 165
0 205 167
0 203 161
0 203 161
0 205 164
0 208 165
0 213 173
0 201 162
0 206 163
0 206 165
0 208 165
0 211 170
0 205 163
0 205 161
0 210 166
0 204 161
0 211 169
0 206 163
0 208 167
0 204 162
0 206 165
0 210 170
0 207 164
0 209 167
0 211 169
0 207 164
0 209 169
0 209 167
0 212 172
0 212 172
0 209 168
0 213 171
0 206 166
0 209 166
0 206 164
0 210 168
0 209 170
0 211 170
0 206 164
0 214 176
0 212 174
0 216 178
0 216 176
0 212 175
0 211 173
0 212 173
0 210 173
0 209 172
0 212 174
0 212 174
0 214 175
0 210 172
0 212 174
0 210 174
0 214 176
0 211 174
0 209 172
0 210 173
0 212 174
0 213 176
0 213 175
0 211 172
0 207 171
0 210 173
0 211 174
0 212 175
0 213 174
0 202 169
0 209 172
0 209 171
0 212 174
0 208 173
0 209 173
0 212 174
0 206 171
0 209 173
0 202 168
0 206 170
0 198 163
0 206 168
0 210 173
0 198 166
0 207 170
0 211 174
0 213 174
0 203 167
0 202 165
0 204 169
0 193 162
0 199 165
0 205 168
0 199 165
0 205 168
0 205 168
0 203 168
0 201 167
0 212 173
0 198 165
0 204 169
0 198 165
0 202 167
0 202 165
0 194 160
0 195 161
0 204 168
0 198 164
0 191 158
0 201 166
0 201 166
0 191 159
0 195 163
0 186 156
0 198 163
0 194 160
0 185 155
0 189 158
0 196 161
0 189 159
0 198 162
0 191 158
0 181 150
0 194 161
0 186 154
0 195 160
0 186 154
0 171 144
0 182 150
0 179 149
0 186 154
0 178 149
0 179 147
0 183 151
0 181 149
0 180 149
0 182 149
0 170 143
0 159 135
0 173 144
0 164 136
0 170 142
0 173 143
0 166 138
0 153 128
0 161 135
0 153 130
0 142 120
0 157 131
0 162 132
0 153 129
0 149 123
0 136 113
0 137 114
0 146 121
0 126 105
0 124 105
9 121 107
11 135 118
11 117 106
25 110 118
18 107 108
21 111 119
25 90 113
18 90 105
29 99 122
26 113 123
29 112 129
32 120 136
30 125 137
21 140 133
16 157 136
22 144 133
20 149 130
14 149 127
13 171 142
16 167 142
13 174 143
10 163 134
11 173 146
15 149 129
15 159 137
9 147 127
9 155 130
11 145 122
11 152 127
9 137 117
9 132 114
7 149 124
0 143 120
0 146 121
6 140 118
6 142 118
0 124 105
0 137 115
0 145 118
0 136 112
0 130 109
0 120 100
0 133 111
0 140 115
0 128 107
0 127 104
0 124 104
0 138 114
0 124 104
0 128 106
0 133 108
0 132 108
0 133 110
0 136 112
0 133 109
0 123 103
0 120 100
0 120 101
0 130 109
0 131 108
0 128 107
0 132 109
0 113 94
0 121 101
0 109 91
0 117 99
0 122 102
0 132 109
0 133 110
0 125 102
0 118 100
0 123 103
0 133 107
0 122 102
0 121 101
0 117 98
0 126 103
0 117 101
0 130 109
0 116 97
0 141 115
0 135 111
0 131 109
0 130 111
0 120 100
0 126 102
0 146 122
0 133 112
0 142 117
0 151 126
0 142 119
0 142 120
0 145 122
0 138 114
0 147 121
0 144 119
0 144 121
0 140 115
0 136 115
0 149 124
0 148 124
0 148 123
0 153 127
0 148 121
0 149 122
0 159 132
0 153 127
0 147 123
0 142 118
0 154 124
0 164 132
0 162 135
0 144 119
0 160 134
0 161 132
0 155 127
0 158 129
0 169 138
0 157 127
0 158 128
0 170 137
0 163 134
0 156 130
0 168 137
0 167 136
0 167 138
0 167 139
0 175 143
0 173 141
0 164 136
0 172 141
0 177 145
0 173 141
0 168 136
0 172 140
0 185 151
0 173 142
0 164 131
0 165 135
0 174 144
0 164 136
0 188 152
0 174 142
0 183 149
0 180 150
0 173 139
0 176 142
0 186 151
0 178 146
0 174 143
0 188 151
0 188 152
0 178 144
0 180 147
0 180 146
0 186 151
0 188 151
0 186 151
0 192 155
0 191 156
0 190 155
0 185 149
0 186 149
0 193 156
0 184 155
0 184 147
0 189 149
0 180 143
0 189 153
0 185 148
0 190 153
0 188 149
0 188 151
0 175 140
0 196 156
0 193 155
0 194 155
0 194 156
0 197 160
0 195 156
0 193 156
0 198 158
0 198 157
0 185 148
0 195 157
0 195 158
0 189 154
0 193 156
0 191 152
0 178 142
0 194 157
0 192 157
0 202 162
0 194 154
0 194 154
0 195 157
0 196 160
0 201 161
0 199 160
0 202 161
0 196 162
0 187 151
0 206 166
0 200 161
0 191 152
0 204 163
0 193 159
0 198 160
0 203 161
0 198 157
0 201 161
0 195 158
0 204 163
0 200 160
0 198 157
0 203 164
0 194 152
0 192 156
0 204 163
0 195 153
0 198 159
0 202 161
0 205 168
0 195 158
0 200 160
0 197 154
0 210 170
0 200 159
0 200 164
0 201 161
0 199 161
0 202 161
0 210 166
0 200 161
0 205 164
0 205 164
0 205 162
0 204 164
0 209 167
0 206 166
0 199 160
0 203 158
0 205 162
0 203 163
0 207 166
0 205 166
0 206 161
0 204 165
0 211 167
0 208 164
0 204 164
0 206 167
0 204 163
0 205 165
0 204 166
0 200 159
0 208 166
0 201 160
0 213 172
0 210 167
0 207 166
0 210 168
0 205 167
0 208 167
0 208 168
0 214 174
0 204 163
0 209 167
0 209 168
0 207 165
0 212 169
0 211 168
0 204 162
0 208 163
0 212 170
0 210 170
0 210 169
0 208 168
0 211 170
0 209 168
0 210 170
0 208 167
0 208 166
0 206 165
0 217 177
0 216 178
0 213 174
0 214 176
0 212 176
0 213 174
0 214 175
0 212 174
0 215 177
0 214 176
0 212 174
0 212 175
0 210 171
0 212 174
0 207 171
0 215 177
0 207 171
0 207 172
0 210 172
0 212 173
0 209 172
0 212 174
0 212 175
0 209 173
0 210 173
0 211 173
0 215 175
0 212 174
0 209 170
0 207 171
0 211 172
0 209 172
0 209 172
0 216 176
0 206 170
0 205 169
0 210 171
0 212 173
0 206 170
0 207 171
0 205 170
0 207 169
0 208 172
0 201 166
0 206 169
0 206 171
0 202 166
0 205 169
0 202 166
0 207 170
0 205 168
0 208 170
0 201 168
0 197 164
0 207 169
0 201 167
0 208 172
0 202 166
0 204 167
0 207 171
0 201 165
0 196 162
0 205 168
0 204 167
0 199 163
0 191 158
0 199 164
0 197 164
0 205 169
0 192 159
0 191 157
0 199 163
0 193 161
0 199 166
0 202 165
0 196 162
0 191 159
0 189 156
0 188 156
0 181 152
0 197 161
0 199 163
0 190 156
0 196 163
0 191 157
0 186 154
0 180 151
0 194 159
0 176 146
0 185 154
0 183 152
0 182 152
0 186 153
0 180 149
0 187 155
0 169 142
0 164 137
0 171 143
0 176 147
0 166 138
0 162 137
0 173 143
0 173 142
0 159 132
0 156 130
0 165 136
0 164 136
0 152 128
0 149 126
0 154 128
0 149 124
0 146 123
0 146 121
0 137 116
0 127 107
0 145 118
0 127 106
0 120 103
9 120 105
13 112 104
21 114 116
17 107 108
21 86 102
13 104 103
24 98 112
26 109 122
21 123 125
19 128 119
11 141 129
14 151 134
11 149 129
16 148 134
16 156 134
6 155 128
12 173 142
13 176 146
0 168 132
9 158 126
9 161 132
12 163 134
0 166 134
6 141 112
6 156 126
6 137 114
0 152 124
0 161 133
0 135 111
0 153 126
0 144 118
0 147 121
0 156 128
0 146 121
0 124 103
0 152 124
0 139 115
0 142 119
0 136 112
0 138 115
0 138 115
0 144 117
0 144 119
0 142 119
0 130 109
0 128 106
0 127 106
0 127 106
0 132 108
0 130 107
0 133 108
0 118 101
0 146 120
0 133 110
0 128 106
0 135 111
0 126 106
0 131 109
0 106 92
0 127 106
0 133 109
0 130 108
0 123 103
0 123 104
0 144 118
0 127 105
0 118 100
0 141 116
0 118 101
0 116 99
0 136 112
0 130 109
0 135 113
0 124 103
0 127 107
0 145 119
0 123 101
0 121 101
0 137 113
0 136 113
0 146 121
0 127 106
0 138 116
0 151 125
0 123 105
0 131 110
0 142 118
0 142 118
0 142 118
0 135 112
0 146 122
0 140 118
0 151 124
0 159 131
0 132 110
0 141 116
0 139 115
0 153 123
0 142 120
0 156 131
0 151 125
0 153 125
0 157 129
0 162 132
0 156 125
0 144 117
0 167 137
0 152 125
0 152 127
0 160 130
0 165 136
0 159 132
0 158 131
0 156 128
0 161 132
0 168 139
0 167 133
0 157 130
0 161 131
0 167 138
0 159 132
0 166 136
0 170 139
0 165 134
0 174 143
0 167 135
0 160 131
0 179 145
0 182 147
0 169 138
0 176 143
0 177 144
0 172 139
0 171 140
0 169 139
0 180 146
0 181 146
0 181 149
0 173 140
0 177 144
0 175 144
0 173 140
0 176 144
0 165 132
0 189 154
0 182 147
0 176 145
0 180 148
0 180 145
0 196 158
0 180 144
0 187 147
0 184 147
0 175 140
0 185 149
0 179 147
0 191 152
0 182 145
0 184 154
0 195 154
0 194 156
0 185 151
0 183 152
0 184 150
0 190 154
0 189 154
0 185 146
0 179 143
0 189 155
0 193 158
0 197 159
0 191 155
0 189 153
0 189 154
0 191 154
0 194 155
0 182 145
0 183 148
0 187 152
0 195 154
0 198 160
0 202 162
0 193 156
0 190 152
0 199 161
0 195 158
0 185 148
0 194 152
0 196 158
0 196 155
0 194 155
0 198 159
0 198 160
0 199 160
0 189 154
0 186 151
0 188 151
0 195 157
0 201 162
0 192 152
0 200 158
0 196 155
0 203 161
0 201 162
0 200 161
0 188 153
0 196 153
0 202 162
0 201 160
0 198 162
0 198 159
0 199 160
0 195 155
0 203 163
0 204 165
0 199 163
0 189 149
0 199 161
0 201 163
0 204 163
0 201 163
0 197 160
0 202 161
0 207 167
0 202 161
0 198 160
0 203 166
0 207 167
0 198 158
0 197 159
0 205 162
0 196 157
0 197 159
0 204 164
0 206 164
0 201 161
0 205 164
0 199 162
0 202 160
0 201 162
0 204 162
0 205 163
0 207 163
0 199 161
0 209 169
0 202 162
0 206 163
0 207 165
0 208 167
0 203 161
0 208 165
0 211 168
0 209 168
0 203 162
0 209 167
0 209 168
0 205 166
0 210 169
0 207 168
0 204 163
0 201 160
0 211 173
0 208 164
0 212 171
0 211 170
0 205 165
0 204 163
0 210 169
0 210 168
0 210 169
0 213 169
0 206 164
0 207 166
0 212 170
0 208 168
0 210 169
0 209 168
0 207 165
0 209 166
0 207 163
0 207 167
0 211 170
0 212 175
0 213 176
0 214 176
0 217 177
0 211 174
0 209 172
0 216 177
0 210 174
0 215 176
0 214 175
0 210 172
0 212 175
0 209 173
0 210 172
0 212 174
0 215 176
0 214 175
0 211 174
0 213 174
0 214 174
0 212 175
0 213 175
0 210 172
0 210 173
0 211 173
0 214 176
0 212 175
0 209 172
0 210 172
0 210 173
0 209 171
0 213 174
0 208 171
0 205 168
0 206 171
0 201 167
0 206 171
0 209 172
0 203 167
0 207 170
0 200 166
0 196 163
0 205 170
0 205 169
0 212 174
0 208 171
0 201 167
0 202 169
0 202 167
0 200 166
0 207 170
0 204 169
0 205 169
0 200 165
0 202 168
0 202 166
0 199 162
0 198 162
0 199 166
0 201 166
0 205 170
0 203 169
0 205 169
0 195 162
0 207 169
0 196 165
0 197 162
0 193 161
0 202 167
0 202 167
0 198 163
0 200 163
0 199 163
0 197 163
0 191 159
0 192 159
0 201 166
0 189 157
0 185 154
0 195 160
0 188 157
0 182 152
0 187 154
0 188 157
0 189 155
0 166 141
0 184 153
0 185 154
0 187 155
0 190 157
0 190 156
0 176 148
0 172 142
0 177 148
0 176 145
0 165 139
0 173 143
0 174 144
0 173 142
0 170 140
0 173 143
0 153 129
0 179 147
0 169 137
0 155 130
0 157 132
0 156 130
0 150 126
0 160 133
0 159 132
0 150 125
0 150 122
0 148 121
0 135 112
0 151 123
0 150 124
0 119 102
0 142 118
0 112 95
9 119 104
6 128 109
11 116 102
15 110 104
16 112 108
16 120 113
23 124 124
16 129 119
16 150 132
13 138 127
14 150 131
11 148 127
11 160 135
9 163 132
0 166 135
0 159 131
0 170 136
0 166 129
0 174 138
0 167 135
0 157 125
0 171 140
0 162 128
0 156 126
0 156 129
0 148 122
7 158 128
0 150 119
0 141 116
0 151 124
0 156 129
0 133 111
0 139 117
0 164 134
0 147 123
0 144 120
0 141 116
0 148 123
0 149 123
0 150 125
0 132 110
0 142 118
0 148 121
0 126 105
0 133 111
0 127 106
0 133 111
0 125 104
0 123 101
0 136 111
0 138 114
0 131 108
0 139 117
0 136 114
0 123 102
0 124 103
0 141 115
0 126 106
0 128 105
0 128 107
0 131 109
0 131 110
0 143 115
0 129 106
0 121 103
0 131 110
0 141 116
0 133 109
0 137 113
0 131 108
0 126 104
0 127 105
0 138 113
0 134 109
0 133 111
0 145 117
0 130 108
0 140 116
0 145 120
0 138 115
0 134 112
0 151 123
0 133 111
0 145 119
0 155 127
0 129 107
0 136 113
0 144 120
0 137 115
0 156 130
0 145 122
0 136 114
0 143 119
0 143 120
0 155 128
0 154 123
0 157 129
0 144 120
0 142 121
0 148 121
0 147 123
0 133 112
0 155 129
0 154 127
0 161 130
0 160 131
0 166 135
0 164 132
0 156 128
0 162 131
0 164 136
0 161 130
0 173 141
0 161 133
0 172 140
0 157 127
0 162 132
0 173 143
0 155 124
0 174 139
0 170 138
0 171 142
0 167 139
0 166 138
0 169 139
0 168 137
0 177 142
0 167 137
0 178 147
0 184 149
0 177 146
0 168 138
0 175 143
0 167 136
0 181 149
0 180 146
0 176 141
0 176 143
0 183 149
0 183 146
0 175 142
0 193 158
0 184 150
0 181 146
0 182 149
0 189 154
0 180 147
0 194 158
0 175 144
0 187 151
0 184 150
0 182 145
0 184 150
0 179 145
0 182 147
0 183 153
0 184 148
0 183 152
0 183 146
0 189 152
0 180 146
0 196 162
0 183 149
0 190 152
0 184 146
0 193 155
0 192 155
0 198 161
0 187 149
0 193 155
0 190 155
0 187 150
0 192 157
0 196 159
0 186 149
0 186 150
0 193 155
0 194 155
0 193 153
0 194 156
0 190 152
0 198 161
0 193 156
0 185 149
0 203 163
0 200 164
0 190 153
0 196 159
0 199 161
0 201 164
0 196 158
0 204 167
0 196 156
0 193 156
0 190 155
0 202 164
0 196 159
0 199 159
0 211 170
0 194 155
0 193 154
0 201 163
0 203 162
0 191 151
0 202 162
0 199 159
0 198 156
0 196 157
0 201 161
0 203 164
0 201 161
0 198 160
0 196 155
0 197 159
0 199 162
0 197 159
0 191 158
0 207 166
0 199 161
0 203 160
0 201 160
0 199 159
0 201 160
0 207 169
0 206 166
0 199 159
0 207 166
0 193 154
0 205 166
0 202 162
0 201 159
0 204 163
0 202 162
0 205 164
0 207 166
0 205 164
0 207 164
0 205 166
0 208 166
0 204 163
0 198 157
0 199 159
0 206 164
0 204 166
0 207 164
0 206 165
0 202 160
0 207 168
0 206 163
0 201 164
0 204 162
0 199 161
0 204 162
0 210 169
0 207 169
0 208 169
0 206 165
0 203 162
0 206 165
0 201 163
0 209 167
0 213 172
0 207 164
0 210 169
0 202 162
0 209 169
0 208 167
0 208 167
0 207 165
0 213 171
0 201 162
0 207 165
0 209 168
0 209 172
0 213 172
0 211 169
0 212 171
0 210 167
0 209 166
0 210 169
0 207 165
0 213 175
0 216 176
0 214 177
0 217 178
0 216 177
0 209 173
0 212 175
0 216 177
0 215 176
0 211 174
0 218 178
0 213 176
0 210 172
0 211 174
0 215 177
0 216 177
0 211 174
0 214 176
0 209 173
0 212 175
0 207 172
0 214 176
0 204 170
0 207 171
0 216 175
0 210 174
0 206 171
0 211 174
0 209 172
0 214 174
0 208 172
0 203 167
0 212 174
0 209 172
0 213 174
0 206 171
0 205 171
0 208 170
0 207 170
0 212 175
0 210 172
0 207 170
0 203 170
0 206 171
0 205 170
0 206 169
0 205 169
0 200 165
0 199 166
0 213 174
0 206 169
0 206 170
0 205 169
0 204 169
0 206 170
0 202 166
0 207 170
0 203 169
0 197 163
0 211 174
0 188 156
0 197 164
0 209 170
0 198 163
0 204 168
0 197 163
0 199 165
0 201 167
0 201 166
0 195 162
0 189 156
0 200 166
0 196 161
0 194 160
0 196 161
0 185 153
0 192 159
0 197 162
0 189 157
0 190 158
0 187 154
0 190 156
0 199 164
0 194 160
0 183 153
0 177 147
0 190 158
0 182 150
0 190 158
0 188 156
0 182 152
0 177 147
0 181 152
0 181 152
0 176 147
0 189 155
0 183 151
0 160 135
0 174 145
0 174 144
0 161 132
0 183 152
0 177 145
0 167 138
0 174 142
0 171 142
0 160 134
0 164 134
0 161 134
0 167 139
0 157 131
0 149 123
0 151 124
0 135 114
0 145 120
0 131 110
0 136 115
0 127 108
0 137 112
0 133 110
6 133 111
13 129 113
6 93 82
16 124 112
6 123 107
9 129 112
13 121 107
13 138 119
9 145 124
13 156 134
15 154 133
0 141 116
6 166 135
0 165 131
0 157 130
0 170 138
0 173 139
0 182 146
0 161 131
0 167 135
0 158 124
0 156 126
0 159 129
0 162 131
0 146 119
0 155 128
0 150 123
0 147 121
0 167 135
0 148 121
0 147 123
0 146 123
0 142 120
0 142 120
0 152 125
0 143 121
0 141 116
0 151 126
0 147 122
0 143 119
0 131 111
0 141 116
0 147 120
0 137 113
0 134 110
0 131 110
0 124 103
0 130 108
0 132 107
0 126 106
0 142 118
0 137 114
0 142 117
0 128 105
0 142 117
0 144 118
0 124 105
0 139 117
0 134 111
0 131 108
0 137 115
0 131 109
0 144 119
0 141 117
0 133 111
0 137 116
0 140 116
0 130 108
0 133 110
0 144 120
0 141 117
0 144 118
0 136 112
0 139 114
0 126 105
0 135 110
0 152 125
0 142 120
0 140 116
0 143 119
0 124 102
0 151 125
0 151 124
0 149 123
0 157 131
0 154 127
0 138 112
0 157 129
0 159 131
0 154 127
0 141 117
0 146 121
0 149 124
0 150 124
0 151 127
0 143 119
0 159 134
0 158 129
0 146 123
0 147 121
0 159 135
0 160 132
0 164 135
0 147 123
0 166 136
0 164 134
0 165 137
0 163 130
0 157 129
0 162 133
0 165 134
0 171 142
0 171 138
0 164 134
0 163 133
0 155 130
0 177 145
0 164 135
0 173 139
0 168 140
0 155 127
0 172 143
0 170 136
0 169 138
0 177 142
0 180 148
0 179 150
0 171 140
0 177 144
0 168 137
0 173 144
0 182 150
0 165 136
0 174 142
0 176 143
0 183 149
0 184 150
0 179 146
0 174 144
0 176 144
0 179 148
0 180 144
0 181 147
0 181 147
0 185 149
0 187 152
0 190 157
0 165 137
0 176 144
0 178 147
0 197 162
0 189 153
0 180 148
0 188 152
0 184 147
0 187 150
0 200 162
0 187 153
0 183 150
0 181 144
0 193 157
0 189 151
0 196 160
0 187 151
0 185 150
0 191 154
0 185 150
0 190 151
0 192 153
0 195 158
0 192 155
0 197 160
0 192 156
0 187 150
0 201 161
0 199 159
0 194 157
0 193 155
0 193 156
0 190 155
0 194 156
0 197 160
0 192 155
0 191 155
0 193 158
0 192 154
0 192 155
0 189 156
0 199 159
0 196 157
0 195 157
0 199 158
0 198 160
0 194 156
0 200 162
0 204 163
0 205 166
0 203 162
0 202 160
0 199 161
0 196 157
0 197 155
0 197 159
0 191 153
0 202 160
0 201 165
0 198 159
0 195 157
0 196 158
0 203 161
0 196 157
0 195 161
0 201 160
0 196 158
0 204 165
0 202 161
0 204 161
0 194 154
0 202 163
0 199 163
0 207 165
0 202 160
0 203 162
0 205 164
0 211 170
0 200 160
0 203 162
0 200 163
0 204 163
0 206 166
0 205 165
0 202 163
0 204 164
0 199 158
0 205 165
0 206 165
0 203 162
0 210 169
0 203 162
0 203 164
0 204 164
0 203 164
0 206 165
0 200 159
0 201 162
0 201 161
0 213 171
0 207 162
0 203 164
0 208 169
0 205 166
0 204 163
0 207 166
0 204 162
0 208 167
0 208 168
0 210 166
0 206 163
0 205 165
0 205 164
0 201 162
0 209 168
0 207 166
0 210 169
0 214 171
0 217 175
0 203 161
0 215 173
0 210 169
0 214 172
0 211 169
0 210 170
0 209 167
0 209 168
0 214 172
0 206 167
0 208 167
0 206 167
0 207 166
0 208 165
0 212 176
0 213 176
0 211 175
0 212 174
0 215 176
0 214 176
0 209 172
0 214 176
0 209 172
0 213 175
0 212 173
0 208 172
0 213 174
0 211 175
0 209 172
0 212 174
0 212 174
0 213 175
0 210 173
0 215 177
0 211 172
0 211 173
0 211 174
0 213 174
0 213 175
0 211 173
0 214 175
0 213 175
0 212 174
0 204 169
0 209 172
0 209 173
0 210 172
0 213 174
0 206 169
0 209 171
0 209 171
0 206 171
0 205 170
0 205 169
0 206 170
0 210 173
0 207 169
0 205 168
0 208 169
0 208 172
0 208 171
0 205 170
0 206 171
0 204 169
0 209 172
0 204 168
0 196 163
0 208 170
0 208 171
0 198 163
0 203 167
0 202 167
0 200 166
0 201 166
0 202 167
0 204 169
0 206 169
0 204 167
0 203 169
0 199 163
0 200 165
0 190 158
0 201 166
0 192 161
0 196 162
0 201 166
0 197 162
0 186 155
0 189 156
0 190 159
0 196 161
0 189 157
0 189 157
0 193 159
0 193 158
0 183 153
0 194 160
0 189 156
0 189 157
0 193 158
0 198 163
0 183 150
0 191 159
0 190 156
0 178 148
0 182 152
0 183 151
0 184 152
0 181 151
0 164 137
0 178 147
0 183 150
0 167 138
0 170 140
0 173 143
0 176 144
0 168 141
0 171 142
0 172 141
0 166 137
0 157 133
0 167 135
0 157 130
0 156 131
0 160 131
0 143 119
0 152 126
0 144 120
0 142 119
0 142 118
0 142 117
0 137 114
0 154 125
0 130 107
0 121 101
0 118 100
0 130 108
0 128 107
6 135 114
0 131 107
6 144 122
9 163 136
13 153 128
0 157 129
7 159 130
0 164 132
0 169 138
0 173 134
0 173 140
0 170 138
0 174 141
0 168 137
0 180 148
0 158 130
0 178 144
0 168 136
0 164 131
0 154 127
0 146 119
0 149 119
0 165 133
0 155 125
0 161 131
0 155 128
0 153 128
0 154 126
0 146 124
0 142 119
0 149 123
0 142 118
0 145 122
0 153 126
0 131 110
0 165 133
0 146 120
0 149 120
0 145 120
0 154 126
0 135 114
0 151 124
0 142 114
0 128 105
0 144 120
0 134 111
0 148 123
0 123 104
0 129 109
0 143 119
0 138 116
0 136 114
0 138 116
0 137 114
0 148 120
0 140 116
0 130 110
0 141 118
0 119 101
0 136 114
0 137 113
0 134 111
0 145 119
0 128 107
0 146 121
0 129 108
0 134 116
0 133 110
0 156 128
0 139 115
0 142 119
0 135 113
0 142 115
0 133 112
0 143 120
0 146 121
0 138 116
0 143 119
0 151 125
0 148 121
0 150 123
0 135 111
0 159 132
0 154 127
0 147 123
0 161 132
0 145 121
0 143 118
0 152 123
0 148 122
0 162 133
0 152 125
0 152 127
0 154 127
0 145 123
0 167 137
0 157 132
0 169 138
0 163 134
0 165 137
0 155 130
0 172 140
0 160 130
0 168 138
0 155 127
0 163 131
0 171 138
0 161 132
0 166 135
0 170 138
0 157 130
0 173 142
0 169 140
0 168 140
0 168 139
0 173 141
0 177 147
0 173 141
0 169 136
0 186 152
0 168 137
0 183 148
0 167 136
0 167 137
0 174 144
0 187 153
0 177 144
0 169 137
0 176 144
0 178 147
0 171 138
0 193 157
0 179 148
0 169 140
0 184 149
0 171 140
0 180 148
0 187 152
0 187 153
0 169 135
0 177 146
0 191 155
0 178 146
0 187 151
0 177 146
0 187 154
0 187 152
0 185 154
0 193 156
0 186 150
0 183 149
0 180 147
0 189 153
0 176 140
0 188 154
0 187 153
0 187 153
0 193 157
0 188 151
0 188 149
0 194 154
0 191 155
0 195 157
0 178 144
0 194 159
0 190 154
0 189 153
0 195 156
0 195 159
0 191 153
0 191 154
0 190 150
0 191 154
0 191 153
0 186 149
0 193 155
0 199 160
0 195 158
0 199 163
0 198 159
0 191 157
0 197 160
0 195 156
0 196 158
0 192 155
0 194 154
0 195 158
0 196 158
0 198 160
0 200 162
0 196 157
0 198 158
0 204 162
0 198 161
0 196 155
0 199 160
0 196 157
0 195 158
0 199 161
0 203 162
0 197 160
0 204 163
0 205 165
0 196 157
0 196 157
0 194 157
0 204 167
0 197 161
0 208 165
0 199 160
0 202 166
0 200 161
0 191 150
0 200 161
0 195 154
0 200 161
0 198 158
0 201 161
0 200 161
0 199 159
0 203 163
0 202 161
0 197 155
0 206 166
0 203 163
0 200 160
0 205 167
0 202 163
0 198 161
0 200 162
0 205 163
0 200 159
0 206 165
0 203 161
0 209 167
0 202 164
0 205 164
0 200 160
0 198 159
0 208 169
0 206 163
0 204 166
0 203 161
0 208 167
0 206 164
0 208 166
0 209 166
0 204 166
0 205 162
0 204 163
0 210 168
0 209 166
0 210 166
0 206 164
0 212 171
0 208 166
0 207 166
0 207 166
0 205 166
0 211 171
0 209 170
0 203 161
0 204 164
0 213 171
0 205 164
0 203 166
0 213 171
0 209 168
0 211 168
0 210 168
0 212 169
0 205 163
0 211 168
0 203 163
0 205 166
0 205 166
0 218 177
0 215 176
0 211 174
0 217 178
0 210 172
0 210 173
0 205 171
0 209 172
0 213 175
0 214 177
0 209 173
0 215 177
0 216 178
0 210 173
0 212 174
0 209 172
0 214 174
0 216 176
0 209 172
0 215 176
0 214 175
0 212 174
0 212 174
0 215 176
0 211 174
0 210 173
0 205 171
0 210 172
0 213 174
0 212 172
0 210 172
0 209 171
0 210 171
0 204 168
0 206 169
0 207 170
0 204 169
0 209 171
0 205 169
0 208 172
0 206 169
0 209 170
0 205 169
0 206 170
0 205 169
0 209 172
0 202 167
0 201 166
0 209 171
0 201 166
0 208 171
0 201 166
0 200 166
0 203 166
0 202 167
0 201 165
0 203 167
0 202 166
0 197 163
0 203 167
0 198 165
0 207 170
0 201 166
0 194 160
0 188 156
0 202 166
0 190 159
0 202 167
0 200 164
0 197 162
0 197 164
0 202 168
0 201 165
0 189 157
0 197 162
0 191 158
0 194 160
0 199 163
0 194 159
0 199 163
0 197 163
0 189 157
0 184 155
0 190 159
0 186 155
0 191 158
0 179 149
0 189 157
0 188 155
0 188 156
0 179 149
0 177 147
0 176 148
0 184 152
0 182 152
0 176 147
0 180 150
0 180 147
0 167 139
0 178 148
0 177 148
0 169 140
0 174 144
0 158 132
0 173 143
0 166 140
0 157 130
0 170 141
0 162 134
0 146 123
0 149 126
0 156 129
0 166 136
0 142 118
0 148 125
0 146 121
0 139 115
0 151 127
0 150 124
0 144 120
0 139 115
0 131 112
0 129 108
0 122 100
0 127 105
0 144 118
0 147 121
0 137 111
0 154 124
0 160 128
0 158 130
0 170 138
0 174 140
0 162 128
0 174 141
0 176 140
0 172 142
0 178 145
0 165 134
0 173 143
0 165 133
0 176 142
0 154 125
0 155 126
0 156 128
0 166 136
0 160 130
0 166 137
0 148 119
0 157 132
0 156 130
0 150 124
0 149 124
0 142 117
0 146 124
0 148 124
0 148 123
0 144 120
0 151 124
0 153 127
0 148 122
0 152 127
0 127 108
0 154 125
0 139 117
0 144 118
0 138 117
0 147 120
0 140 116
0 138 116
0 131 110
0 131 111
0 130 111
0 146 119
0 136 113
0 133 111
0 147 122
0 142 116
0 151 124
0 141 117
0 151 126
0 144 118
0 137 114
0 148 122
0 146 121
0 135 113
0 144 120
0 145 120
0 137 115
0 146 122
0 142 118
0 124 103
0 133 111
0 146 122
0 140 115
0 141 118
0 148 123
0 130 108
0 143 117
0 147 123
0 136 114
0 154 126
0 146 123
0 154 128
0 156 130
0 156 127
0 145 121
0 141 118
0 151 123
0 155 130
0 158 129
0 167 138
0 155 127
0 149 125
0 151 124
0 156 126
0 154 129
0 152 129
0 157 127
0 163 137
0 158 131
0 158 128
0 154 129
0 159 132
0 162 134
0 166 137
0 158 130
0 162 135
0 152 127
0 170 140
0 172 138
0 175 142
0 174 140
0 165 136
0 164 134
0 174 144
0 167 137
0 154 129
0 170 138
0 177 145
0 167 138
0 175 140
0 170 137
0 176 141
0 177 145
0 177 147
0 186 151
0 171 142
0 179 145
0 182 149
0 186 152
0 179 147
0 175 146
0 179 147
0 173 140
0 186 150
0 179 147
0 176 144
0 181 147
0 179 146
0 180 144
0 178 145
0 176 143
0 175 144
0 193 158
0 194 157
0 181 149
0 185 149
0 192 158
0 179 146
0 190 153
0 192 153
0 190 157
0 187 152
0 191 156
0 187 151
0 192 156
0 186 150
0 183 148
0 185 150
0 190 153
0 190 155
0 190 150
0 186 152
0 190 152
0 192 156
0 192 154
0 191 155
0 198 161
0 185 151
0 193 155
0 182 148
0 189 151
0 189 151
0 197 159
0 196 158
0 196 159
0 190 153
0 202 164
0 193 158
0 189 155
0 195 154
0 194 158
0 197 158
0 193 157
0 199 160
0 192 154
0 201 163
0 201 160
0 200 162
0 191 155
0 191 152
0 205 164
0 192 151
0 201 164
0 197 157
0 193 157
0 205 161
0 203 161
0 196 156
0 193 158
0 206 167
0 201 161
0 195 155
0 203 165
0 196 156
0 199 162
0 203 165
0 190 152
0 191 152
0 199 159
0 198 160
0 202 159
0 204 164
0 206 167
0 207 167
0 201 163
0 200 160
0 203 162
0 205 166
0 199 160
0 205 164
0 203 162
0 202 161
0 203 164
0 203 162
0 203 164
0 202 158
0 205 167
0 201 162
0 208 165
0 204 162
0 200 159
0 204 162
0 204 160
0 206 164
0 211 170
0 197 157
0 204 165
0 206 166
0 207 167
0 204 166
0 204 162
0 205 163
0 203 161
0 208 167
0 209 167
0 202 163
0 212 172
0 210 169
0 207 165
0 203 162
0 204 163
0 206 166
0 207 164
0 210 167
0 211 171
0 209 167
0 208 169
0 206 164
0 205 164
0 208 167
0 208 165
0 207 168
0 207 166
0 206 166
0 213 171
0 207 165
0 214 170
0 206 166
0 209 168
0 213 173
0 202 162
0 208 166
0 213 169
0 206 166
0 206 164
0 210 168
0 210 170
0 208 167
0 213 176
0 210 173
0 212 173
0 213 176
0 209 171
0 209 173
0 212 175
0 216 176
0 210 174
0 216 177
0 213 175
0 214 175
0 215 175
0 214 175
0 214 175
0 216 177
0 210 172
0 213 176
0 214 176
0 210 173
0 211 172
0 208 173
0 211 173
0 209 172
0 215 177
0 213 175
0 205 170
0 207 171
0 204 170
0 213 174
0 202 167
0 211 175
0 207 168
0 204 167
0 216 175
0 207 172
0 206 170
0 214 174
0 212 173
0 208 171
0 206 170
0 206 170
0 211 171
0 210 172
0 206 169
0 200 166
0 209 171
0 212 172
0 204 170
0 206 170
0 204 169
0 208 171
0 202 166
0 202 165
0 209 171
0 197 165
0 205 169
0 207 171
0 208 171
0 197 164
0 196 162
0 199 164
0 193 160
0 197 163
0 197 160
0 199 163
0 197 163
0 205 169
0 197 162
0 198 164
0 207 168
0 195 163
0 193 160
0 187 157
0 201 166
0 192 159
0 198 164
0 189 158
0 197 162
0 192 160
0 191 158
0 191 158
0 189 156
0 192 159
0 191 157
0 189 155
0 185 153
0 183 151
0 192 159
0 174 146
0 179 149
0 178 152
0 180 150
0 186 153
0 178 149
0 186 153
0 181 150
0 175 146
0 170 141
0 177 146
0 171 142
0 183 150
0 180 150
0 175 145
0 177 145
0 174 143
0 171 142
0 171 140
0 165 135
0 160 134
0 165 135
0 158 130
0 155 129
0 161 134
0 161 133
0 155 127
0 138 117
0 139 117
0 141 117
0 144 120
0 150 123
0 132 111
0 129 106
0 132 110
0 134 111
0 141 117
0 143 120
0 140 114
0 152 126
0 148 121
0 163 130
0 183 148
0 167 135
0 180 143
0 171 138
0 171 135
0 172 141
0 178 145
0 165 132
0 169 136
0 172 140
0 182 147
0 171 137
0 169 137
0 152 127
0 161 134
0 162 133
0 162 133
0 163 133
0 142 118
0 156 130
0 142 119
0 164 134
0 159 133
0 154 128
0 154 127
0 152 127
0 145 121
0 149 124
0 152 126
0 150 126
0 146 122
0 155 127
0 142 118
0 145 121
0 137 115
0 147 122
0 140 115
0 142 119
0 149 123
0 137 116
0 139 116
0 129 108
0 135 114
0 130 108
0 142 118
0 140 117
0 147 121
0 148 124
0 145 119
0 145 119
0 132 112
0 141 116
0 146 122
0 139 115
0 151 125
0 147 122
0 148 123
0 140 116
0 141 118
0 138 115
0 151 126
0 142 119
0 145 122
0 141 119
0 145 122
0 150 126
0 149 126
0 150 127
0 150 126
0 157 129
0 153 127
0 144 118
0 162 132
0 149 126
0 143 122
0 155 129
0 157 127
0 151 128
0 151 126
0 156 130
0 154 128
0 146 124
0 145 120
0 166 140
0 144 120
0 166 139
0 164 135
0 174 143
0 155 128
0 154 127
0 163 135
0 162 131
0 163 135
0 155 129
0 168 136
0 165 137
0 171 140
0 163 135
0 166 134
0 169 140
0 173 145
0 174 143
0 161 133
0 163 139
0 177 144
0 172 140
0 174 141
0 176 146
0 175 146
0 176 145
0 175 145
0 184 150
0 170 143
0 176 143
0 181 150
0 174 141
0 182 148
0 177 144
0 180 148
0 168 134
0 174 142
0 179 146
0 175 144
0 176 144
0 195 160
0 183 151
0 186 149
0 185 150
0 187 151
0 180 147
0 187 153
0 161 132
0 188 152
0 179 147
0 178 145
0 185 151
0 182 152
0 190 156
0 181 148
0 193 157
0 179 147
0 184 151
0 191 155
0 186 151
0 184 148
0 190 157
0 184 150
0 196 162
0 193 156
0 184 150
0 184 151
0 195 159
0 193 159
0 194 157
0 184 151
0 198 160
0 188 150
0 193 154
0 184 150
0 191 153
0 194 157
0 198 162
0 208 169
0 197 158
0 178 145
0 190 153
0 198 160
0 197 160
0 202 165
0 200 161
0 191 156
0 200 159
0 191 155
0 195 158
0 199 157
0 198 160
0 198 157
0 200 161
0 200 163
0 201 163
0 200 162
0 189 151
0 202 162
0 194 154
0 199 157
0 198 162
0 204 165
0 202 164
0 200 160
0 198 160
0 204 163
0 196 158
0 200 160
0 198 158
0 206 167
0 202 164
0 201 160
0 204 162
0 198 162
0 204 165
0 201 161
0 202 160
0 201 160
0 207 165
0 198 160
0 204 163
0 200 160
0 204 164
0 202 165
0 196 157
0 195 157
0 207 169
0 206 165
0 204 166
0 203 166
0 202 162
0 207 167
0 206 164
0 207 166
0 201 157
0 199 159
0 210 170
0 205 163
0 206 165
0 208 166
0 203 162
0 206 165
0 206 167
0 211 169
0 208 168
0 205 166
0 208 166
0 207 164
0 205 165
0 208 169
0 202 165
0 206 164
0 210 167
0 208 166
0 209 168
0 194 154
0 213 172
0 203 164
0 207 167
0 205 162
0 206 165
0 203 163
0 204 163
0 208 165
0 209 166
0 205 162
0 214 173
0 206 166
0 209 171
0 211 170
0 207 168
0 201 162
0 213 169
0 211 170
0 203 164
0 205 166
0 214 171
0 209 167
0 211 171
0 213 172
0 202 161
0 214 173
0 210 169
0 202 162
0 215 178
0 214 176
0 215 177
0 219 179
0 214 176
0 214 176
0 213 174
0 208 171
0 211 173
0 216 177
0 216 177
0 209 173
0 208 172
0 212 175
0 215 176
0 214 175
0 215 177
0 208 172
0 211 173
0 210 172
0 208 171
0 205 169
0 203 168
0 210 173
0 210 173
0 211 174
0 203 170
0 208 171
0 208 169
0 207 170
0 206 169
0 215 177
0 208 171
0 212 175
0 206 170
0 209 171
0 215 176
0 210 173
0 203 168
0 206 170
0 206 169
0 208 171
0 204 169
0 200 166
0 198 165
0 209 172
0 203 168
0 210 172
0 203 167
0 208 170
0 211 174
0 206 168
0 204 168
0 204 168
0 199 165
0 202 166
0 203 169
0 196 163
0 205 169
0 201 164
0 208 171
0 203 167
0 199 164
0 201 165
0 198 164
0 196 163
0 194 161
0 193 160
0 197 163
0 199 164
0 203 167
0 192 159
0 198 162
0 198 163
0 193 159
0 197 164
0 195 162
0 200 165
0 195 162
0 191 158
0 189 156
0 191 157
0 191 158
0 191 157
0 183 151
0 193 158
0 200 164
0 181 149
0 195 160
0 187 155
0 181 151
0 183 151
0 192 156
0 186 153
0 189 156
0 173 143
0 178 148
0 175 147
0 174 145
0 176 145
0 179 148
0 175 146
0 166 139
0 165 139
0 178 147
0 169 141
0 163 137
0 162 133
0 159 132
0 169 140
0 161 133
0 143 122
0 155 129
0 160 132
0 163 134
0 148 123
0 158 130
0 148 125
0 142 118
0 132 110
0 141 117
0 136 113
0 135 113
0 149 124
0 131 111
0 142 115
0 147 121
0 151 121
0 160 130
0 149 122
0 160 130
0 172 138
0 161 129
0 172 138
0 179 148
0 173 140
0 184 150
0 170 141
0 163 131
0 169 139
0 170 137
0 174 143
0 150 124
0 175 143
0 160 131
0 161 132
0 170 142
0 166 136
0 156 128
0 157 129
0 150 123
0 160 132
0 162 132
0 153 127
0 148 124
0 155 130
0 172 141
0 153 125
0 129 110
0 142 118
0 154 130
0 144 120
0 141 119
0 142 120
0 144 121
0 154 129
0 135 113
0 135 113
0 147 121
0 146 120
0 142 119
0 144 118
0 143 118
0 136 114
0 130 110
0 144 119
0 152 125
0 150 124
0 145 121
0 153 127
0 154 127
0 154 128
0 147 122
0 140 117
0 138 116
0 138 117
0 142 119
0 155 129
0 145 120
0 152 126
0 151 125
0 136 116
0 156 128
0 147 121
0 152 124
0 147 121
0 142 119
0 141 116
0 145 121
0 156 126
0 145 120
0 152 128
0 161 132
0 135 114
0 161 135
0 176 146
0 151 127
0 152 124
0 156 127
0 148 124
0 159 132
0 147 123
0 161 133
0 161 133
0 155 126
0 151 127
0 160 129
0 161 132
0 165 135
0 156 128
0 168 138
0 161 131
0 154 127
0 161 135
0 175 143
0 171 142
0 164 135
0 174 140
0 163 136
0 162 135
0 160 131
0 165 138
0 163 135
0 168 140
0 178 147
0 173 140
0 164 137
0 167 140
0 169 138
0 170 137
0 156 132
0 164 134
0 180 148
0 178 145
0 181 147
0 180 148
0 164 135
0 188 154
0 170 140
0 174 143
0 177 147
0 187 153
0 184 150
0 172 142
0 191 156
0 186 151
0 173 145
0 186 150
0 175 145
0 181 147
0 173 144
0 192 155
0 183 149
0 179 145
0 183 149
0 188 151
0 175 144
0 185 149
0 196 160
0 184 146
0 187 152
0 184 150
0 184 151
0 188 153
0 188 149
0 176 144
0 193 158
0 191 151
0 199 161
0 179 143
0 181 147
0 187 151
0 200 162
0 194 157
0 191 156
0 183 145
0 190 154
0 204 165
0 193 156
0 187 152
0 195 157
0 186 151
0 191 154
0 196 160
0 199 162
0 194 158
0 204 163
0 188 152
0 198 159
0 189 154
0 189 150
0 200 163
0 196 159
0 194 156
0 191 152
0 192 156
0 199 161
0 193 154
0 201 164
0 201 162
0 201 164
0 202 163
0 189 154
0 198 160
0 206 168
0 190 155
0 201 161
0 205 166
0 197 160
0 196 156
0 195 158
0 196 158
0 202 163
0 194 155
0 200 157
0 201 163
0 196 158
0 201 161
0 198 159
0 203 163
0 195 158
0 201 163
0 203 162
0 198 161
0 199 161
0 203 162
0 200 160
0 198 159
0 202 162
0 202 165
0 207 166
0 197 158
0 200 160
0 201 161
0 206 165
0 201 162
0 205 161
0 205 167
0 207 167
0 199 160
0 209 167
0 202 159
0 206 164
0 207 166
0 206 163
0 205 164
0 205 165
0 208 168
0 205 164
0 209 168
0 204 164
0 208 167
0 207 162
0 205 164
0 201 163
0 205 164
0 210 165
0 206 166
0 206 166
0 202 159
0 208 167
0 201 160
0 211 172
0 212 172
0 206 166
0 203 166
0 202 161
0 208 166
0 212 171
0 203 163
0 212 171
0 211 171
0 206 165
0 211 170
0 204 165
0 207 168
0 213 172
0 212 172
0 212 169
0 213 170
0 212 172
0 212 172
0 208 168
0 211 170
0 211 171
0 209 169
0 210 172
0 209 169
0 208 169
0 212 170
0 216 176
0 214 176
0 216 176
0 215 176
0 217 177
0 212 175
0 217 178
0 218 178
0 214 176
0 216 176
0 215 175
0 212 175
0 215 177
0 216 177
0 205 170
0 209 172
0 210 173
0 204 169
0 211 175
0 211 173
0 211 174
0 208 171
0 213 176
0 211 174
0 210 170
0 213 173
0 211 173
0 211 174
0 206 168
0 208 172
0 207 171
0 206 169
0 206 169
0 206 169
0 203 169
0 208 172
0 207 172
0 214 175
0 210 171
0 208 171
0 204 169
0 206 170
0 212 173
0 209 171
0 213 174
0 205 169
0 204 168
0 204 169
0 209 173
0 204 170
0 210 173
0 209 172
0 199 165
0 201 167
0 202 167
0 199 165
0 204 168
0 201 166
0 202 167
0 201 164
0 200 165
0 205 168
0 202 165
0 197 163
0 187 156
0 197 165
0 198 164
0 207 169
0 198 165
0 203 167
0 200 165
0 191 158
0 195 161
0 198 162
0 197 162
0 198 163
0 199 164
0 199 165
0 198 164
0 201 165
0 196 162
0 193 160
0 189 157
0 192 160
0 195 162
0 194 160
0 184 152
0 196 162
0 182 150
0 187 154
0 193 161
0 190 157
0 177 147
0 182 151
0 188 154
0 181 150
0 184 152
0 190 155
0 170 143
0 182 151
0 177 149
0 169 138
0 169 142
0 179 147
0 173 142
0 183 151
0 170 139
0 169 139
0 173 143
0 158 133
0 160 133
0 151 127
0 160 134
0 159 132
0 161 134
0 158 131
0 165 135
0 153 128
0 159 131
0 148 124
0 151 126
0 160 132
0 142 118
0 145 121
0 154 127
0 148 122
0 165 135
0 151 124
0 159 132
0 168 134
0 172 141
0 179 147
0 156 129
0 169 137
0 170 141
0 185 151
0 190 152
0 182 146
0 175 142
0 175 143
0 180 147
0 166 136
0 163 136
0 175 143
0 172 141
0 153 123
0 168 138
0 157 129
0 154 128
0 162 135
0 159 132
0 152 127
0 153 128
0 154 128
0 170 139
0 151 126
0 159 133
0 152 124
0 142 118
0 148 124
0 145 122
0 146 123
0 140 117
0 140 116
0 155 128
0 155 128
0 142 118
0 129 108
0 138 117
0 144 118
0 161 131
0 135 115
0 148 121
0 135 113
0 155 128
0 152 125
0 145 121
0 139 117
0 143 119
0 158 129
0 146 120
0 139 118
0 133 110
0 144 121
0 147 124
0 143 119
0 138 115
0 151 127
0 148 125
0 143 120
0 146 122
0 162 133
0 146 122
0 149 123
0 153 126
0 165 136
0 143 116
0 155 126
0 144 121
0 139 118
0 162 134
0 148 122
0 166 136
0 159 130
0 151 124
0 159 130
0 151 123
0 161 135
0 170 140
0 159 131
0 151 126
0 153 125
0 167 137
0 178 146
0 160 131
0 159 133
0 154 129
0 167 137
0 177 145
0 160 133
0 151 126
0 158 133
0 157 129
0 163 135
0 171 142
0 181 150
0 160 134
0 165 138
0 167 138
0 150 125
0 165 138
0 173 141
0 164 132
0 179 143
0 176 145
0 168 141
0 167 138
0 186 151
0 169 140
0 176 143
0 169 138
0 175 144
0 174 143
0 178 147
0 177 145
0 174 141
0 179 148
0 171 139
0 176 141
0 171 141
0 180 146
0 181 149
0 181 146
0 177 146
0 180 147
0 180 149
0 181 147
0 181 147
0 191 154
0 180 145
0 189 155
0 175 145
0 186 150
0 183 147
0 191 154
0 183 148
0 183 148
0 197 162
0 189 156
0 194 158
0 188 153
0 188 155
0 179 146
0 189 154
0 188 153
0 185 150
0 194 158
0 192 157
0 190 157
0 192 158
0 191 156
0 199 163
0 192 157
0 192 155
0 197 160
0 180 147
0 191 157
0 189 154
0 187 153
0 187 152
0 195 160
0 197 158
0 198 160
0 190 154
0 189 156
0 199 161
0 194 158
0 191 155
0 198 163
0 193 156
0 200 163
0 194 160
0 192 156
0 200 160
0 202 161
0 192 158
0 198 158
0 198 162
0 192 156
0 197 159
0 197 156
0 198 159
0 197 155
0 200 163
0 208 168
0 203 164
0 196 158
0 194 158
0 199 161
0 190 151
0 198 158
0 196 158
0 204 163
0 199 163
0 207 167
0 210 169
0 198 158
0 200 158
0 195 156
0 205 167
0 199 160
0 199 157
0 207 168
0 203 163
0 193 154
0 201 158
0 197 158
0 196 157
0 206 166
0 203 163
0 201 160
0 202 161
0 206 166
0 204 164
0 200 160
0 202 164
0 206 165
0 209 169
0 200 160
0 207 169
0 205 164
0 203 164
0 204 164
0 203 163
0 207 165
0 205 169
0 205 165
0 204 160
0 206 166
0 203 160
0 207 165
0 209 167
0 207 165
0 205 165
0 207 165
0 209 166
0 211 171
0 208 168
0 206 163
0 211 168
0 206 164
0 204 164
0 208 166
0 202 162
0 203 164
0 207 167
0 207 167
0 212 174
0 203 163
0 215 173
0 211 172
0 211 169
0 211 172
0 205 164
0 208 167
0 210 169
0 209 170
0 206 167
0 209 168
0 205 164
0 206 166
0 212 172
0 207 164
0 208 167
0 204 162
0 201 159
0 212 172
0 205 164
0 211 170
0 209 166
0 215 176
0 216 177
0 212 174
0 210 174
0 212 174
0 210 173
0 216 177
0 215 176
0 213 175
0 215 177
0 212 175
0 216 176
0 212 174
0 215 175
0 215 176
0 211 174
0 207 171
0 212 173
0 212 174
0 212 174
0 210 171
0 212 175
0 215 177
0 211 174
0 209 173
0 211 173
0 212 174
0 208 171
0 211 174
0 208 171
0 209 173
0 210 172
0 207 171
0 206 168
0 202 167
0 207 171
0 201 167
0 207 172
0 199 166
0 202 167
0 203 169
0 203 168
0 205 168
0 212 174
0 207 170
0 208 172
0 211 173
0 200 165
0 205 168
0 208 170
0 203 167
0 207 169
0 210 173
0 191 160
0 205 168
0 201 167
0 200 166
0 202 167
0 200 166
0 200 166
0 200 167
0 201 166
0 198 162
0 201 167
0 207 171
0 199 165
0 199 163
0 202 166
0 197 161
0 195 159
0 200 163
0 201 163
0 191 159
0 197 162
0 196 161
0 189 159
0 198 165
0 192 161
0 188 156
0 200 165
0 194 160
0 186 153
0 200 165
0 192 160
0 190 158
0 200 163
0 198 162
0 178 150
0 189 157
0 196 161
0 195 161
0 177 149
0 174 145
0 182 151
0 181 150
0 176 148
0 175 146
0 174 145
0 182 150
0 177 149
0 186 153
0 174 144
0 185 152
0 169 143
0 159 134
0 170 139
0 177 143
0 191 156
0 167 138
0 159 132
0 158 131
0 160 133
0 158 130
0 161 133
0 170 140
0 161 132
0 167 138
0 137 117
0 154 127
0 150 126
0 152 127
0 155 127
0 145 120
0 151 125
0 151 123
0 159 130
0 151 125
0 169 140
0 166 135
0 162 133
0 177 146
0 175 141
0 194 157
0 173 142
0 175 145
0 178 146
0 181 148
0 187 152
0 178 146
0 172 140
0 170 138
0 173 143
0 173 140
0 160 131
0 173 141
0 157 130
0 162 132
0 165 135
0 161 132
0 162 133
0 155 130
0 173 142
0 152 126
0 170 138
0 153 127
0 160 134
0 152 128
0 140 119
0 147 122
0 139 117
0 163 133
0 145 119
0 148 124
0 155 130
0 136 114
0 153 126
0 145 122
0 167 140
0 153 127
0 152 126
0 149 125
0 142 120
0 154 128
0 152 128
0 140 116
0 149 121
0 136 116
0 142 118
0 147 123
0 148 126
0 148 121
0 146 123
0 150 124
0 130 110
0 155 128
0 148 123
0 140 117
0 134 113
0 154 130
0 149 125
0 147 122
0 147 122
0 145 120
0 154 126
0 157 130
0 154 127
0 166 136
0 165 135
0 157 129
0 150 128
0 156 129
0 162 134
0 171 141
0 169 138
0 154 128
0 155 129
0 147 120
0 160 133
0 162 132
0 153 128
0 157 133
0 151 124
0 172 140
0 157 130
0 165 136
0 174 143
0 167 139
0 159 131
0 164 136
0 172 142
0 159 131
0 163 135
0 164 135
0 168 136
0 165 136
0 165 135
0 168 140
0 173 142
0 171 141
0 169 141
0 155 130
0 174 144
0 169 140
0 171 139
0 167 139
0 173 140
0 175 143
0 186 154
0 163 134
0 170 139
0 180 148
0 176 143
0 177 144
0 169 141
0 171 142
0 179 147
0 168 139
0 183 149
0 175 144
0 174 146
0 180 149
0 182 150
0 176 146
0 193 157
0 186 153
0 182 151
0 180 149
0 188 155
0 188 155
0 182 150
0 188 152
0 184 151
0 182 148
0 185 148
0 186 154
0 188 154
0 179 149
0 189 151
0 193 157
0 196 158
0 184 150
0 186 149
0 193 158
0 184 149
0 193 157
0 192 156
0 195 158
0 193 157
0 194 156
0 185 151
0 186 150
0 190 154
0 193 158
0 189 152
0 186 154
0 192 155
0 197 159
0 192 156
0 198 159
0 207 166
0 192 157
0 191 154
0 190 155
0 192 158
0 196 159
0 196 159
0 192 155
0 201 164
0 194 158
0 193 153
0 194 155
0 202 163
0 198 159
0 196 159
0 184 146
0 199 164
0 197 160
0 207 167
0 200 161
0 199 162
0 187 148
0 194 154
0 193 155
0 204 163
0 207 168
0 192 155
0 199 162
0 193 156
0 201 163
0 201 163
0 206 166
0 205 164
0 205 166
0 201 159
0 200 159
0 195 158
0 202 161
0 204 166
0 198 159
0 199 159
0 202 162
0 199 161
0 201 160
0 207 168
0 199 161
0 198 158
0 208 165
0 197 159
0 207 168
0 206 163
0 207 168
0 210 171
0 205 166
0 200 160
0 202 163
0 205 162
0 200 161
0 207 168
0 203 166
0 205 163
0 206 164
0 198 158
0 202 164
0 209 167
0 201 161
0 206 166
0 206 166
0 203 163
0 206 166
0 211 170
0 203 164
0 210 170
0 206 168
0 203 158
0 215 174
0 214 174
0 204 161
0 209 164
0 211 169
0 208 169
0 201 162
0 208 168
0 209 167
0 206 161
0 210 171
0 208 169
0 204 164
0 208 168
0 204 165
0 204 166
0 208 168
0 210 168
0 206 165
0 207 169
0 212 170
0 209 168
0 201 161
0 216 175
0 205 165
0 210 168
0 207 166
0 210 171
0 209 167
0 211 169
0 209 171
0 210 170
0 209 167
0 210 169
0 211 169
0 210 167
0 215 175
0 210 174
0 213 176
0 211 173
0 215 176
0 216 176
0 214 175
0 215 176
0 210 172
0 215 176
0 214 176
0 219 178
0 215 176
0 213 174
0 210 174
0 210 173
0 211 174
0 210 172
0 213 176
0 212 173
0 212 174
0 212 175
0 212 173
0 213 175
0 211 173
0 212 173
0 214 175
0 207 170
0 211 173
0 209 172
0 208 171
0 216 177
0 210 171
0 209 172
0 205 169
0 204 169
0 202 164
0 208 170
0 207 171
0 212 175
0 207 170
0 207 170
0 205 167
0 205 168
0 202 168
0 209 171
0 202 168
0 204 167
0 207 169
0 199 166
0 205 167
0 203 169
0 204 169
0 205 169
0 203 168
0 205 168
0 206 170
0 201 165
0 198 162
0 207 169
0 204 167
0 205 170
0 201 166
0 204 168
0 196 162
0 197 164
0 202 166
0 197 163
0 205 167
0 197 162
0 198 162
0 191 158
0 205 169
0 197 162
0 204 168
0 198 160
0 201 165
0 194 158
0 200 164
0 198 163
0 191 157
0 191 157
0 191 157
0 194 159
0 188 157
0 201 163
0 182 152
0 182 152
0 200 165
0 190 156
0 193 160
0 182 149
0 188 155
0 188 157
0 182 150
0 186 154
0 190 155
0 177 147
0 183 151
0 188 155
0 173 143
0 172 142
0 183 151
0 158 134
0 174 144
0 174 144
0 168 140
0 166 139
0 171 141
0 158 132
0 185 151
0 174 144
0 171 142
0 161 134
0 162 136
0 168 136
0 156 132
0 149 123
0 164 134
0 152 125
0 157 130
0 153 128
0 142 119
0 148 124
0 151 124
0 164 134
0 163 133
0 159 132
0 171 139
0 165 134
0 165 135
0 166 135
0 164 136
0 183 147
0 179 145
0 171 138
0 180 147
0 179 146
0 179 145
0 180 146
0 183 150
0 177 142
0 167 136
0 181 151
0 185 151
0 168 138
0 150 126
0 169 141
0 164 136
0 156 130
0 143 119
0 155 130
0 159 131
0 168 137
0 159 133
0 162 135
0 156 128
0 147 123
0 166 137
0 159 131
0 154 128
0 148 124
0 148 126
0 137 117
0 158 130
0 152 124
0 148 124
0 157 132
0 136 115
0 147 122
0 147 123
0 158 130
0 147 124
0 163 135
0 152 127
0 157 131
0 159 130
0 148 123
0 135 114
0 151 125
0 157 132
0 151 125
0 149 126
0 159 133
0 157 130
0 154 127
0 154 125
0 131 111
0 153 128
0 170 139
0 149 125
0 157 128
0 153 129
0 161 133
0 149 123
0 168 140
0 155 129
0 152 127
0 155 128
0 148 124
0 153 125
0 147 124
0 157 131
0 159 133
0 156 132
0 152 124
0 169 141
0 163 134
0 151 126
0 158 129
0 156 128
0 152 125
0 165 135
0 157 132
0 165 136
0 160 131
0 167 137
0 169 139
0 155 131
0 182 150
0 176 144
0 159 133
0 173 144
0 166 136
0 176 145
0 162 134
0 165 136
0 163 133
0 168 139
0 173 141
0 172 142
0 176 147
0 169 138
0 183 151
0 175 142
0 181 148
0 181 151
0 171 139
0 172 139
0 174 142
0 177 144
0 185 150
0 161 135
0 178 147
0 181 151
0 178 146
0 176 145
0 187 153
0 179 145
0 188 154
0 185 148
0 174 145
0 177 147
0 181 146
0 183 150
0 192 157
0 192 156
0 175 140
0 177 146
0 187 151
0 176 143
0 192 154
0 184 153
0 184 150
0 179 146
0 188 153
0 181 147
0 181 147
0 192 156
0 184 149
0 191 154
0 182 146
0 200 162
0 196 156
0 191 156
0 187 151
0 191 155
0 191 157
0 182 148
0 190 154
0 185 153
0 196 159
0 190 153
0 197 161
0 188 154
0 196 157
0 203 166
0 202 164
0 192 155
0 203 164
0 194 156
0 195 160
0 193 155
0 193 156
0 191 156
0 192 154
0 192 156
0 197 161
0 195 156
0 196 159
0 196 158
0 199 163
0 200 161
0 199 161
0 202 164
0 195 155
0 198 159
0 192 159
0 196 158
0 195 156
0 202 163
0 192 157
0 201 162
0 202 162
0 192 154
0 197 156
0 195 158
0 207 167
0 195 158
0 198 158
0 201 162
0 206 165
0 199 160
0 204 165
0 200 162
0 210 169
0 204 166
0 203 164
0 197 162
0 200 161
0 208 167
0 194 157
0 199 162
0 201 161
0 196 157
0 203 162
0 201 161
0 204 164
0 207 169
0 198 158
0 207 167
0 207 166
0 207 165
0 207 166
0 203 161
0 201 162
0 207 168
0 207 168
0 204 164
0 203 163
0 201 163
0 199 162
0 207 165
0 209 167
0 201 162
0 210 170
0 203 164
0 209 167
0 207 166
0 208 167
0 207 165
0 202 162
0 207 164
0 210 170
0 208 167
0 208 168
0 206 166
0 210 169
0 209 169
0 210 172
0 209 170
0 207 164
0 210 168
0 204 164
0 210 169
0 209 170
0 211 171
0 206 165
0 206 165
0 209 166
0 212 171
0 210 169
0 205 165
0 204 162
0 208 166
0 206 167
0 207 169
0 209 170
0 207 168
0 210 171
0 211 169
0 214 173
0 206 167
0 211 170
0 214 174
0 215 174
0 207 166
0 215 173
0 212 170
0 211 170
0 213 175
0 215 177
0 211 173
0 212 174
0 219 179
0 207 172
0 217 178
0 216 176
0 216 176
0 213 176
0 214 176
0 209 172
0 209 172
0 212 175
0 211 174
0 212 174
0 210 172
0 211 174
0 211 174
0 205 169
0 209 173
0 213 175
0 213 174
0 213 175
0 211 173
0 212 174
0 208 170
0 209 171
0 208 172
0 205 168
0 202 168
0 209 172
0 206 169
0 206 169
0 207 170
0 206 169
0 202 168
0 206 169
0 201 168
0 209 170
0 204 166
0 203 166
0 205 170
0 211 172
0 201 165
0 201 167
0 208 171
0 201 167
0 200 165
0 203 167
0 205 169
0 205 168
0 206 168
0 193 160
0 202 167
0 208 170
0 204 168
0 198 164
0 206 168
0 200 167
0 204 167
0 194 160
0 198 163
0 197 161
0 200 164
0 203 168
0 197 161
0 205 167
0 205 168
0 197 164
0 195 161
0 194 158
0 193 161
0 187 156
0 199 164
0 197 164
0 193 160
0 191 159
0 198 163
0 190 156
0 191 158
0 197 162
0 191 159
0 196 162
0 194 162
0 188 157
0 180 150
0 185 152
0 185 154
0 186 154
0 186 154
0 187 156
0 194 160
0 190 158
0 178 148
0 173 143
0 188 154
0 169 140
0 180 149
0 184 152
0 180 149
0 178 146
0 178 148
0 175 146
0 177 145
0 170 142
0 175 144
0 180 149
0 180 145
0 170 141
0 178 147
0 170 141
0 157 130
0 169 140
0 157 132
0 157 130
0 164 136
0 163 135
0 156 131
0 163 134
0 152 127
0 152 125
0 147 121
0 147 122
0 143 119
0 163 135
0 158 129
0 152 128
0 160 132
0 172 138
0 172 143
0 163 136
0 182 149
0 181 150
0 182 150
0 176 144
0 184 152
0 185 152
0 178 146
0 181 149
0 178 147
0 173 141
0 180 147
0 168 139
0 186 152
0 164 135
0 171 140
0 167 139
0 173 143
0 166 137
0 159 132
0 172 142
0 141 120
0 168 140
0 152 127
0 154 127
0 159 134
0 168 138
0 166 137
0 137 118
0 161 133
0 153 129
0 154 128
0 160 132
0 151 127
0 148 123
0 150 127
0 156 129
0 157 132
0 150 124
0 146 123
0 158 130
0 158 129
0 149 126
0 154 129
0 153 125
0 147 124
0 157 130
0 163 136
0 155 130
0 148 121
0 134 114
0 158 131
0 160 133
0 154 126
0 162 133
0 157 130
0 160 133
0 146 122
0 158 132
0 169 140
0 163 134
0 153 126
0 150 125
0 147 125
0 156 130
0 157 129
0 151 128
0 163 136
0 158 131
0 165 136
0 155 130
0 167 137
0 149 125
0 162 136
0 152 127
0 150 124
0 157 129
0 163 134
0 158 132
0 163 137
0 150 126
0 166 138
0 173 140
0 172 142
0 163 134
0 162 134
0 175 147
0 159 132
0 168 138
0 180 148
0 165 137
0 170 141
0 173 144
0 176 143
0 159 133
0 172 142
0 171 140
0 170 140
0 171 140
0 165 137
0 174 142
0 184 151
0 176 146
0 177 146
0 178 147
0 179 147
0 177 143
0 178 147
0 181 150
0 177 147
0 179 142
0 180 147
0 180 147
0 180 149
0 177 146
0 175 143
0 170 140
0 176 147
0 183 152
0 191 156
0 173 140
0 181 149
0 182 149
0 182 148
0 181 148
0 183 148
0 181 145
0 198 158
0 183 147
0 187 152
0 178 145
0 183 148
0 195 159
0 192 154
0 190 155
0 195 156
0 187 152
0 188 152
0 189 152
0 184 152
0 183 149
0 187 155
0 185 152
0 196 160
0 184 150
0 179 148
0 189 154
0 190 155
0 192 158
0 191 156
0 181 151
0 189 154
0 192 154
0 196 160
0 188 154
0 197 164
0 194 157
0 199 161
0 190 155
0 193 155
0 203 162
0 199 162
0 198 163
0 196 158
0 191 153
0 197 158
0 198 163
0 196 158
0 193 158
0 194 157
0 194 158
0 200 163
0 195 157
0 195 157
0 193 155
0 203 165
0 196 159
0 203 165
0 201 163
0 198 160
0 201 161
0 195 158
0 192 159
0 209 168
0 203 162
0 201 163
0 202 163
0 190 154
0 197 158
0 199 162
0 194 157
0 199 159
0 203 164
0 202 163
0 198 162
0 207 166
0 205 168
0 197 159
0 205 165
0 204 165
0 196 156
0 199 159
0 202 163
0 203 165
0 202 164
0 204 164
0 201 161
0 198 161
0 209 168
0 207 169
0 201 159
0 208 169
0 204 167
0 200 161
0 205 163
0 204 164
0 202 165
0 206 164
0 209 168
0 204 166
0 202 161
0 205 162
0 208 166
0 202 158
0 203 165
0 207 167
0 208 168
0 209 169
0 208 167
0 215 176
0 208 167
0 208 167
0 212 171
0 204 163
0 212 172
0 204 165
0 206 164
0 209 170
0 205 162
0 215 174
0 207 168
0 204 162
0 207 166
0 212 170
0 213 172
0 210 168
0 208 169
0 214 172
0 208 167
0 211 170
0 212 173
0 211 169
0 205 166
0 209 168
0 209 168
0 211 168
0 209 168
0 212 172
0 203 163
0 209 167
0 210 169
0 210 171
0 215 175
0 209 170
0 209 167
0 211 171
0 217 176
0 212 171
0 210 169
0 206 170
0 213 175
0 212 174
0 215 177
0 214 177
0 213 176
0 211 173
0 208 172
0 210 172
0 209 172
0 215 176
0 209 173
0 215 175
0 210 173
0 214 175
0 211 173
0 210 175
0 211 173
0 213 174
0 218 176
0 211 173
0 210 173
0 213 175
0 211 174
0 211 174
0 203 170
0 207 170
0 208 170
0 212 173
0 215 175
0 204 170
0 207 171
0 213 175
0 208 172
0 212 175
0 210 173
0 210 173
0 211 173
0 207 169
0 206 169
0 213 174
0 215 175
0 207 171
0 206 167
0 208 171
0 214 174
0 208 172
0 205 168
0 202 168
0 204 168
0 208 171
0 206 169
0 198 163
0 207 169
0 207 170
0 200 166
0 200 165
0 201 168
0 204 165
0 195 161
0 203 168
0 200 164
0 200 165
0 197 163
0 203 166
0 188 157
0 208 167
0 192 159
0 196 161
0 201 165
0 200 166
0 198 162
0 199 164
0 195 160
0 190 158
0 196 161
0 192 159
0 201 165
0 197 161
0 189 155
0 192 160
0 194 160
0 195 160
0 189 154
0 192 159
0 197 161
0 193 160
0 189 157
0 181 152
0 185 152
0 186 155
0 172 143
0 194 160
0 181 150
0 188 155
0 186 154
0 191 158
0 185 152
0 190 157
0 177 147
0 177 147
0 179 149
0 186 154
0 170 142
0 177 147
0 175 146
0 164 140
0 170 142
0 179 146
0 183 151
0 177 147
0 163 135
0 168 139
0 164 136
0 170 141
0 160 133
0 169 140
0 158 134
0 164 137
0 166 138
0 158 132
0 153 127
0 159 131
0 168 140
0 165 138
0 171 139
0 167 137
0 163 135
0 165 137
0 175 144
0 172 145
0 168 139
0 173 143
0 184 151
0 176 145
0 177 145
0 176 145
0 197 161
0 182 151
0 176 144
0 172 141
0 171 141
0 181 149
0 163 135
0 172 142
0 164 136
0 164 135
0 172 143
0 167 138
0 168 142
0 154 129
0 164 133
0 174 143
0 161 134
0 159 132
0 179 146
0 163 136
0 161 135
0 150 127
0 156 130
0 158 131
0 144 122
0 157 132
0 154 127
0 162 134
0 148 123
0 162 135
0 157 131
0 148 123
0 159 133
0 157 131
0 154 128
0 141 117
0 156 129
0 166 138
0 167 138
0 151 126
0 163 135
0 161 133
0 160 133
0 167 137
0 152 129
0 153 127
0 160 133
0 149 125
0 146 123
0 162 133
0 155 129
0 155 128
0 143 120
0 140 117
0 164 135
0 160 131
0 168 138
0 157 132
0 170 138
0 163 136
0 157 130
0 155 130
0 157 130
0 160 134
0 149 126
0 163 137
0 153 128
0 149 126
0 165 137
0 165 136
0 152 127
0 159 132
0 154 127
0 149 124
0 172 145
0 155 127
0 176 145
0 162 133
0 171 140
0 162 136
0 168 139
0 164 136
0 175 146
0 167 139
0 177 147
0 172 140
0 164 136
0 175 143
0 171 142
0 191 157
0 172 141
0 174 143
0 173 144
0 178 145
0 167 139
0 182 152
0 174 143
0 177 145
0 173 144
0 178 147
0 171 140
0 178 148
0 177 144
0 178 147
0 173 143
0 182 149
0 179 147
0 182 149
0 173 142
0 182 150
0 181 150
0 178 146
0 182 147
0 186 151
0 181 150
0 185 152
0 178 148
0 189 157
0 182 151
0 181 149
0 180 147
0 176 142
0 183 150
0 180 147
0 189 153
0 188 152
0 180 147
0 188 154
0 195 160
0 183 149
0 185 152
0 194 159
0 190 154
0 196 162
0 183 149
0 188 153
0 190 155
0 192 156
0 188 154
0 193 157
0 186 152
0 195 158
0 184 149
0 200 162
0 195 160
0 197 159
0 187 150
0 195 156
0 185 151
0 196 161
0 188 155
0 189 155
0 193 158
0 185 152
0 200 164
0 194 158
0 196 158
0 189 153
0 193 157
0 194 158
0 197 161
0 192 156
0 190 153
0 195 158
0 194 157
0 194 158
0 200 163
0 193 159
0 194 156
0 197 159
0 198 160
0 193 155
0 195 159
0 201 164
0 201 162
0 195 160
0 199 163
0 198 159
0 199 164
0 204 164
0 199 162
0 197 159
0 193 154
0 197 158
0 206 166
0 198 161
0 203 163
0 201 161
0 197 160
0 198 162
0 203 163
0 202 163
0 199 161
0 204 165
0 202 165
0 201 163
0 196 157
0 206 168
0 200 162
0 206 168
0 198 159
0 202 163
0 204 162
0 206 168
0 206 167
0 201 161
0 209 169
0 204 164
0 204 163
0 205 165
0 210 168
0 202 163
0 204 162
0 200 160
0 207 168
0 204 162
0 209 170
0 202 164
0 209 167
0 206 165
0 201 164
0 206 168
0 206 166
0 211 171
0 200 162
0 209 168
0 208 167
0 212 171
0 205 166
0 213 172
0 211 171
0 211 169
0 210 168
0 209 168
0 209 170
0 206 166
0 211 171
0 207 166
0 207 168
0 200 159
0 212 171
0 206 167
0 212 171
0 208 169
0 208 168
0 208 168
0 214 173
0 213 173
0 210 168
0 209 169
0 212 172
0 209 168
0 210 172
0 211 170
0 207 167
0 210 169
0 210 172
0 208 169
0 212 174
0 211 172
0 209 170
0 211 170
0 213 173
0 213 175
0 213 174
0 213 175
0 214 175
0 213 174
0 212 174
0 215 176
0 210 172
0 213 175
0 215 176
0 206 169
0 211 173
0 209 172
0 216 176
0 213 174
0 209 172
0 206 170
0 211 173
0 213 175
0 208 171
0 210 172
0 209 173
0 213 175
0 210 172
0 212 174
0 206 170
0 214 175
0 213 174
0 206 169
0 203 166
0 208 171
0 205 169
0 213 174
0 211 174
0 208 171
0 209 171
0 214 177
0 207 170
0 210 171
0 208 169
0 200 167
0 208 171
0 207 171
0 211 172
0 208 170
0 205 170
0 205 169
0 209 172
0 201 168
0 204 168
0 206 171
0 205 169
0 206 169
0 200 165
0 204 166
0 206 170
0 201 166
0 202 166
0 204 169
0 199 165
0 197 166
0 198 164
0 208 169
0 204 167
0 195 161
0 198 164
0 200 165
0 205 170
0 198 165
0 201 165
0 197 163
0 201 167
0 198 166
0 197 162
0 196 162
0 192 159
0 188 158
0 197 163
0 198 163
0 195 161
0 193 158
0 199 162
0 185 154
0 185 153
0 194 161
0 189 155
0 184 152
0 192 159
0 187 155
0 183 151
0 185 154
0 184 152
0 182 152
0 178 148
0 184 152
0 184 152
0 188 154
0 188 156
0 181 150
0 179 149
0 188 152
0 174 145
0 181 151
0 175 146
0 180 148
0 178 147
0 177 147
0 167 139
0 172 143
0 166 137
0 167 138
0 170 140
0 162 134
0 171 142
0 181 148
0 162 137
0 173 144
0 168 139
0 169 142
0 167 138
0 165 137
0 165 137
0 162 133
0 172 144
0 174 145
0 161 135
0 165 139
0 173 143
0 171 141
0 174 141
0 176 145
0 180 146
0 171 142
0 180 148
0 175 144
0 182 149
0 178 149
0 186 155
0 184 150
0 186 149
0 184 151
0 172 142
0 171 141
0 176 145
0 183 149
0 174 142
0 179 147
0 167 138
0 176 145
0 174 143
0 165 138
0 164 135
0 159 134
0 168 139
0 161 134
0 174 143
0 169 139
0 168 141
0 168 137
0 166 138
0 151 128
0 161 134
0 154 128
0 167 139
0 167 138
0 170 140
0 153 129
0 164 136
0 161 133
0 152 126
0 148 124
0 156 130
0 154 128
0 150 124
0 157 131
0 155 131
0 152 126
0 157 131
0 161 134
0 161 133
0 153 127
0 153 129
0 146 123
0 148 124
0 158 133
0 154 127
0 161 133
0 145 122
0 147 125
0 145 122
0 163 134
0 151 124
0 158 132
0 159 132
0 159 132
0 158 133
0 163 136
0 160 134
0 162 133
0 158 129
0 164 134
0 162 133
0 172 144
0 173 144
0 150 126
0 159 132
0 162 135
0 156 129
0 159 131
0 161 135
0 164 134
0 163 134
0 164 139
0 170 141
0 170 139
0 173 142
0 173 144
0 157 132
0 174 142
0 172 143
0 168 137
0 178 144
0 170 143
0 169 140
0 167 139
0 177 146
0 175 142
0 176 145
0 177 145
0 168 139
0 175 143
0 175 145
0 163 137
0 177 147
0 183 150
0 174 142
0 170 140
0 178 147
0 182 148
0 175 145
0 178 147
0 170 141
0 178 147
0 177 146
0 179 148
0 185 154
0 184 152
0 190 156
0 174 144
0 182 150
0 185 149
0 190 155
0 173 144
0 186 152
0 181 151
0 186 153
0 182 148
0 187 150
0 180 146
0 187 152
0 185 151
0 191 155
0 187 154
0 189 157
0 188 150
0 193 158
0 184 151
0 198 160
0 183 150
0 193 154
0 191 156
0 184 151
0 182 150
0 195 161
0 191 156
0 198 159
0 192 158
0 189 155
0 184 150
0 197 162
0 191 156
0 189 157
0 193 156
0 191 154
0 185 150
0 190 157
0 186 150
0 188 151
0 193 155
0 196 159
0 199 161
0 194 157
0 199 159
0 196 163
0 197 159
0 191 152
0 195 159
0 200 160
0 196 159
0 191 155
0 192 156
0 204 167
0 189 151
0 198 160
0 203 165
0 198 162
0 201 161
0 205 165
0 194 158
0 201 159
0 206 168
0 198 164
0 191 152
0 201 161
0 200 164
0 199 161
0 202 163
0 204 166
0 197 158
0 199 162
0 205 165
0 208 169
0 207 165
0 197 162
0 203 164
0 202 163
0 194 158
0 207 166
0 195 158
0 199 160
0 204 165
0 199 160
0 207 167
0 195 156
0 209 168
0 202 163
0 209 169
0 207 168
0 205 165
0 202 161
0 202 162
0 203 163
0 210 170
0 207 165
0 211 170
0 206 167
0 201 161
0 207 170
0 205 167
0 203 164
0 202 162
0 203 164
0 203 164
0 208 166
0 206 166
0 201 161
0 208 167
0 204 165
0 206 166
0 212 171
0 210 169
0 212 174
0 207 166
0 211 170
0 209 167
0 211 170
0 210 170
0 204 164
0 201 160
0 209 168
0 209 169
0 207 167
0 210 170
0 205 164
0 211 171
0 205 165
0 205 166
0 211 168
0 207 169
0 211 169
0 213 174
0 210 168
0 212 170
0 208 167
0 213 172
0 210 170
0 211 172
0 204 165
0 207 170
0 212 171
0 207 166
0 210 168
0 208 168
0 211 171
0 212 170
0 210 170
0 213 172
0 214 174
0 212 171
0 208 167
0 217 177
0 212 174
0 214 175
0 213 175
0 208 170
0 212 175
0 214 176
0 212 173
0 213 175
0 214 176
0 215 177
0 212 174
0 212 174
0 212 174
0 215 176
0 213 175
0 210 171
0 211 173
0 210 173
0 215 176
0 214 175
0 211 172
0 213 174
0 214 175
0 209 171
0 209 173
0 211 173
0 207 169
0 208 172
0 211 173
0 213 175
0 203 169
0 209 173
0 211 174
0 208 171
0 205 169
0 207 169
0 209 173
0 205 168
0 212 172
0 206 169
0 212 174
0 207 171
0 202 166
0 208 172
0 201 168
0 200 164
0 202 167
0 212 175
0 210 173
0 210 171
0 206 170
0 202 168
0 204 168
0 203 165
0 202 165
0 207 169
0 205 168
0 207 171
0 202 166
0 206 170
0 205 169
0 195 161
0 208 172
0 202 164
0 202 165
0 202 167
0 199 164
0 194 160
0 197 162
0 200 165
0 190 156
0 194 160
0 197 161
0 204 168
0 206 168
0 197 161
0 189 156
0 193 162
0 194 157
0 191 157
0 199 163
0 193 159
0 189 157
0 199 162
0 190 157
0 192 158
0 181 151
0 194 161
0 196 160
0 175 146
0 181 151
0 196 161
0 185 153
0 190 156
0 190 158
0 186 154
0 183 151
0 193 158
0 183 151
0 182 150
0 183 151
0 180 149
0 173 145
0 181 150
0 180 148
0 179 147
0 176 145
0 179 149
0 166 138
0 176 145
0 162 135
0 178 148
0 165 136
0 179 146
0 175 146
0 160 134
0 178 146
0 165 138
0 158 133
0 170 142
0 173 143
0 161 132
0 161 133
0 158 132
0 176 142
0 162 135
0 161 133
0 175 141
0 166 137
0 177 146
0 183 151
0 182 151
0 187 153
0 190 158
0 181 151
0 189 154
0 186 150
0 177 146
0 182 150
0 176 145
0 181 145
0 175 147
0 182 150
0 184 151
0 165 138
0 157 129
0 176 143
0 181 148
0 171 140
0 165 136
0 161 134
0 166 136
0 152 130
0 160 134
0 169 139
0 163 134
0 170 141
0 170 138
0 161 135
0 157 131
0 161 134
0 166 138
0 154 129
0 155 129
0 162 134
0 162 134
0 159 132
0 162 135
0 165 138
0 165 135
0 168 138
0 164 134
0 159 132
0 170 141
0 157 131
0 157 132
0 154 128
0 144 121
0 164 135
0 153 128
0 163 134
0 161 131
0 161 134
0 159 131
0 172 141
0 166 138
0 169 141
0 154 129
0 161 133
0 145 123
0 161 134
0 158 128
0 155 129
0 150 127
0 159 132
0 167 137
0 159 132
0 136 115
0 167 138
0 167 140
0 164 136
0 166 138
0 158 130
0 166 136
0 163 134
0 170 138
0 171 143
0 169 138
0 168 139
0 171 143
0 161 133
0 159 133
0 163 136
0 169 138
0 172 143
0 177 145
0 168 140
0 163 136
0 172 141
0 162 134
0 172 141
0 170 141
0 180 146
0 170 142
0 160 132
0 162 136
0 173 143
0 173 143
0 176 146
0 177 143
0 186 154
0 176 144
0 178 147
0 180 148
0 178 146
0 167 137
0 182 151
0 182 152
0 177 147
0 180 148
0 186 153
0 174 143
0 171 137
0 184 152
0 173 144
0 187 155
0 183 150
0 179 146
0 190 155
0 189 154
0 183 151
0 176 144
0 193 158
0 184 150
0 184 150
0 183 148
0 191 156
0 191 156
0 192 158
0 183 149
0 189 157
0 195 159
0 183 150
0 184 152
0 189 157
0 185 154
0 185 151
0 184 150
0 191 156
0 194 159
0 197 161
0 191 156
0 195 156
0 193 160
0 184 149
0 190 155
0 192 160
0 189 155
0 191 158
0 189 153
0 194 155
0 196 160
0 203 164
0 198 161
0 200 160
0 195 157
0 193 158
0 189 153
0 194 158
0 192 157
0 186 149
0 193 159
0 199 162
0 200 163
0 190 154
0 191 157
0 193 156
0 191 154
0 203 165
0 202 165
0 199 162
0 195 155
0 195 156
0 195 156
0 197 159
0 199 161
0 201 162
0 201 162
0 200 162
0 197 160
0 210 169
0 202 164
0 203 164
0 205 167
0 204 163
0 198 160
0 203 163
0 208 169
0 202 162
0 203 162
0 204 164
0 203 164
0 208 166
0 202 165
0 201 162
0 196 157
0 208 168
0 201 162
0 198 161
0 203 164
0 205 165
0 200 160
0 202 164
0 199 161
0 207 168
0 204 163
0 205 165
0 201 162
0 200 162
0 202 164
0 204 166
0 197 160
0 207 166
0 200 164
0 206 167
0 206 164
0 207 166
0 205 166
0 205 164
0 206 167
0 208 170
0 201 162
0 213 172
0 205 164
0 203 162
0 206 166
0 206 167
0 214 172
0 207 169
0 209 169
0 213 172
0 208 168
0 205 165
0 203 164
0 202 161
0 206 166
0 205 164
0 208 168
0 209 170
0 209 170
0 208 166
0 203 165
0 205 166
0 213 172
0 210 170
0 207 166
0 205 164
0 208 169
0 211 169
0 206 166
0 211 172
0 208 168
0 211 171
0 208 167
0 213 172
0 211 170
0 209 167
0 213 171
0 209 170
0 209 168
0 213 172
0 207 167
0 210 169
0 209 168
0 210 168
0 209 168
0 208 168
0 208 168
0 207 165
0 210 173
0 215 178
0 216 177
0 212 175
0 210 173
0 214 176
0 218 179
0 216 177
0 212 175
0 208 171
0 209 172
0 209 171
0 213 174
0 211 175
0 213 174
0 215 176
0 212 175
0 210 173
0 213 175
0 210 173
0 211 173
0 207 172
0 213 175
0 208 171
0 204 169
0 204 167
0 205 171
0 208 172
0 214 175
0 210 171
0 215 175
0 209 172
0 209 171
0 209 173
0 210 172
0 201 167
0 210 171
0 213 174
0 198 164
0 208 172
0 204 168
0 208 170
0 203 169
0 202 168
0 203 168
0 207 171
0 206 170
0 205 166
0 202 166
0 205 166
0 203 168
0 205 167
0 204 167
0 200 165
0 195 162
0 206 169
0 206 167
0 200 166
0 200 166
0 207 171
0 198 163
0 201 164
0 202 167
0 200 164
0 199 164
0 203 166
0 208 171
0 195 160
0 199 163
0 196 162
0 205 169
0 192 158
0 200 166
0 202 167
0 201 166
0 193 159
0 202 167
0 196 162
0 197 162
0 196 162
0 200 165
0 192 159
0 196 161
0 199 165
0 188 156
0 194 160
0 185 153
0 193 158
0 189 156
0 186 155
0 195 160
0 182 151
0 189 154
0 192 157
0 187 155
0 184 154
0 186 155
0 184 152
0 180 149
0 186 155
0 184 152
0 179 149
0 183 151
0 171 141
0 187 154
0 191 156
0 182 151
0 176 144
0 180 149
0 172 144
0 175 145
0 179 148
0 188 156
0 172 142
0 168 139
0 164 135
0 171 142
0 162 135
0 183 149
0 163 136
0 162 136
0 155 130
0 165 140
0 166 141
0 154 131
0 168 140
0 179 147
0 180 149
0 176 145
0 171 142
0 182 150
0 180 147
0 183 150
0 184 152
0 187 152
0 178 145
0 197 161
0 183 151
0 188 153
0 187 155
0 185 151
0 188 154
0 180 148
0 181 149
0 170 142
0 176 145
0 179 147
0 178 148
0 171 144
0 162 136
0 167 138
0 169 140
0 168 137
0 168 140
0 171 140
0 167 139
0 168 139
0 154 129
0 159 132
0 173 144
0 163 135
0 167 139
0 155 129
0 155 131
0 137 117
0 165 136
0 158 132
0 165 138
0 174 143
0 159 133
0 164 135
0 169 140
0 161 134
0 156 130
0 162 136
0 163 136
0 167 139
0 159 132
0 161 134
0 158 131
0 168 139
0 162 136
0 164 137
0 158 132
0 157 133
0 170 140
0 163 135
0 176 145
0 158 134
0 155 128
0 166 134
0 156 131
0 171 141
0 179 146
0 167 137
0 167 137
0 164 136
0 163 135
0 156 132
0 153 128
0 158 130
0 150 124
0 166 140
0 183 151
0 161 134
0 171 143
0 167 139
0 170 141
0 163 133
0 163 136
0 176 146
0 178 144
0 171 141
0 173 142
0 169 140
0 164 133
0 181 149
0 171 141
0 162 135
0 171 142
0 170 139
0 177 147
0 185 152
0 171 141
0 176 146
0 177 145
0 169 139
0 173 142
0 187 153
0 178 148
0 178 144
0 163 134
0 180 149
0 174 143
0 180 147
0 178 146
0 185 149
0 180 149
0 178 145
0 180 149
0 182 149
0 180 149
0 182 148
0 182 149
0 178 147
0 185 152
0 172 144
0 181 147
0 174 141
0 172 144
0 176 145
0 175 145
0 194 158
0 186 154
0 185 155
0 188 153
0 195 160
0 183 150
0 189 154
0 187 150
0 184 152
0 183 151
0 179 146
0 198 161
0 191 154
0 192 157
0 193 155
0 192 155
0 185 151
0 188 152
0 185 148
0 190 153
0 190 153
0 184 151
0 188 154
0 192 160
0 194 158
0 194 157
0 198 162
0 192 155
0 193 156
0 192 158
0 199 163
0 197 160
0 196 159
0 193 158
0 194 161
0 196 159
0 196 158
0 197 157
0 197 160
0 204 167
0 200 163
0 202 161
0 195 160
0 204 165
0 195 158
0 193 155
0 200 164
0 198 159
0 198 163
0 194 159
0 197 160
0 199 162
0 200 163
0 195 157
0 190 153
0 198 162
0 192 157
0 195 156
0 197 159
0 197 158
0 204 166
0 201 165
0 199 163
0 195 155
0 202 160
0 202 163
0 202 163
0 200 160
0 203 164
0 201 162
0 200 160
0 199 160
0 205 168
0 195 159
0 199 159
0 199 160
0 202 163
0 207 168
0 204 164
0 195 159
0 203 163
0 205 162
0 204 165
0 201 160
0 206 168
0 196 157
0 194 158
0 210 171
0 203 164
0 203 165
0 204 166
0 206 164
0 210 168
0 204 165
0 202 163
0 205 166
0 203 166
0 207 166
0 200 161
0 210 167
0 201 160
0 206 167
0 211 169
0 201 161
0 204 166
0 207 165
0 211 170
0 212 170
0 200 161
0 202 160
0 201 160
0 211 170
0 207 167
0 204 165
0 211 170
0 209 169
0 205 163
0 209 166
0 208 168
0 205 163
0 208 167
0 209 166
0 211 170
0 208 167
0 212 172
0 208 167
0 211 171
0 213 172
0 211 170
0 207 168
0 206 167
0 209 168
0 211 172
0 210 171
0 205 166
0 209 169
0 211 170
0 216 175
0 210 170
0 203 165
0 209 168
0 210 171
0 208 169
0 210 170
0 210 168
0 213 173
0 209 171
0 206 166
0 214 175
0 214 176
0 218 178
0 216 176
0 213 175
0 214 175
0 213 175
0 209 170
0 212 174
0 216 177
0 214 175
0 217 177
0 211 174
0 212 176
0 211 174
0 212 175
0 211 174
0 210 172
0 209 171
0 211 174
0 211 173
0 215 175
0 214 176
0 209 172
0 213 174
0 207 169
0 209 172
0 208 171
0 206 169
0 206 171
0 208 171
0 206 170
0 205 170
0 209 172
0 212 173
0 210 172
0 208 172
0 204 168
0 214 175
0 198 165
0 208 170
0 201 167
0 211 173
0 213 173
0 199 165
0 205 168
0 206 169
0 197 162
0 203 167
0 202 167
0 206 169
0 208 171
0 204 168
0 207 169
0 206 168
0 199 164
0 206 169
0 205 169
0 206 169
0 206 170
0 203 166
0 197 164
0 199 165
0 201 165
0 205 169
0 205 168
0 200 164
0 196 163
0 201 166
0 201 165
0 195 160
0 200 164
0 198 164
0 198 164
0 191 159
0 203 167
0 199 164
0 200 164
0 194 159
0 194 160
0 191 158
0 196 162
0 190 157
0 188 157
0 196 162
0 191 158
0 194 160
0 185 153
0 195 162
0 198 163
0 193 159
0 190 156
0 189 156
0 192 158
0 188 154
0 179 149
0 180 151
0 193 158
0 182 153
0 180 151
0 187 154
0 186 152
0 175 146
0 184 153
0 183 150
0 178 146
0 180 150
0 186 151
0 176 146
0 173 142
0 171 141
0 175 144
0 168 138
0 185 152
0 185 152
0 173 144
0 166 138
0 169 141
0 165 137
0 177 147
0 175 144
0 169 138
0 173 144
0 169 142
0 173 142
0 173 142
0 180 150
0 174 145
0 178 145
0 174 141
0 182 150
0 181 150
0 181 149
0 189 154
0 193 156
0 194 158
0 185 153
0 199 163
0 184 150
0 181 149
0 180 150
0 190 157
0 168 140
0 178 146
0 171 144
0 169 139
0 175 145
0 173 142
0 167 140
0 171 141
0 166 139
0 156 131
0 180 148
0 177 145
0 157 133
0 167 136
0 168 139
0 166 139
0 164 135
0 160 135
0 175 145
0 170 141
0 156 132
0 171 141
0 167 136
0 154 131
0 144 121
0 162 134
0 171 141
0 158 133
0 164 135
0 161 134
0 159 131
0 157 132
0 157 130
0 159 132
0 152 127
0 164 134
0 152 129
0 170 141
0 158 132
0 164 138
0 158 133
0 169 139
0 166 136
0 170 140
0 178 146
0 173 145
0 159 132
0 161 130
0 167 138
0 168 140
0 158 131
0 154 129
0 161 133
0 164 135
0 169 141
0 163 137
0 177 147
0 165 136
0 160 130
0 165 137
0 172 140
0 162 133
0 165 136
0 167 137
0 175 143
0 171 143
0 157 131
0 156 132
0 173 143
0 180 148
0 159 133
0 175 145
0 169 140
0 164 138
0 172 144
0 174 144
0 170 140
0 182 149
0 168 139
0 167 139
0 181 148
0 172 141
0 173 144
0 166 137
0 176 146
0 170 144
0 176 146
0 176 145
0 184 150
0 177 148
0 176 142
0 185 153
0 176 146
0 180 149
0 176 144
0 185 153
0 182 149
0 184 152
0 184 151
0 174 145
0 179 147
0 186 151
0 181 150
0 176 148
0 188 154
0 177 148
0 188 156
0 189 155
0 186 150
0 196 159
0 186 153
0 184 152
0 181 148
0 188 154
0 188 154
0 188 154
0 189 155
0 191 157
0 195 159
0 186 155
0 190 155
0 182 149
0 191 155
0 192 156
0 183 150
0 188 154
0 190 152
0 195 159
0 195 159
0 190 156
0 191 156
0 185 155
0 187 153
0 192 156
0 189 153
0 185 151
0 200 163
0 193 158
0 187 151
0 190 156
0 198 162
0 196 161
0 195 160
0 200 162
0 203 164
0 199 161
0 202 163
0 198 161
0 191 158
0 196 159
0 199 163
0 199 161
0 193 158
0 189 152
0 199 162
0 193 155
0 189 153
0 202 163
0 200 162
0 197 159
0 199 161
0 200 163
0 199 162
0 200 164
0 198 163
0 198 161
0 209 169
0 197 160
0 204 166
0 197 159
0 200 165
0 193 158
0 194 158
0 195 158
0 198 159
0 203 164
0 200 161
0 199 162
0 205 167
0 197 160
0 207 167
0 202 162
0 206 165
0 195 158
0 209 169
0 207 167
0 203 165
0 194 160
0 203 161
0 197 160
0 201 164
0 209 170
0 212 173
0 204 166
0 201 165
0 200 162
0 203 163
0 199 163
0 206 164
0 203 164
0 201 163
0 203 162
0 204 165
0 201 164
0 202 163
0 206 167
0 207 167
0 210 170
0 205 165
0 204 164
0 207 167
0 206 164
0 208 166
0 206 168
0 209 171
0 202 165
0 205 165
0 207 167
0 214 175
0 208 169
0 201 163
0 206 167
0 208 166
0 206 167
0 207 166
0 205 165
0 207 167
0 204 163
0 206 165
0 204 164
0 208 168
0 203 164
0 206 169
0 206 168
0 209 169
0 208 166
0 204 164
0 208 168
0 209 170
0 211 170
0 208 169
0 206 164
0 211 172
0 211 169
0 208 168
0 210 168
0 213 173
0 214 175
0 211 169
0 210 169
0 211 171
0 213 174
0 212 173
0 211 171
0 208 168
0 212 171
0 212 170
0 213 173
0 215 176
0 208 172
0 213 175
0 213 176
0 213 175
0 215 175
0 215 175
0 212 174
0 209 173
0 212 172
0 208 172
0 211 174
0 215 176
0 216 178
0 210 174
0 211 173
0 204 168
0 207 172
0 209 171
0 208 171
0 209 172
0 215 176
0 214 175
0 214 176
0 209 173
0 204 169
0 205 170
0 212 173
0 214 175
0 208 171
0 208 171
0 205 169
0 208 172
0 205 170
0 203 167
0 201 167
0 206 168
0 203 167
0 206 169
0 207 168
0 210 173
0 208 171
0 203 168
0 207 170
0 207 171
0 211 172
0 208 171
0 206 169
0 208 172
0 204 168
0 204 169
0 204 168
0 204 168
0 207 171
0 201 165
0 203 166
0 202 165
0 198 164
0 205 169
0 197 163
0 203 167
0 200 164
0 201 166
0 208 169
0 205 167
0 202 165
0 200 165
0 195 161
0 203 166
0 198 164
0 204 167
0 201 166
0 207 169
0 200 163
0 189 157
0 199 163
0 189 157
0 191 160
0 197 161
0 201 165
0 194 160
0 188 155
0 192 158
0 196 162
0 203 166
0 192 159
0 199 163
0 194 160
0 190 156
0 186 154
0 193 158
0 187 155
0 198 163
0 183 154
0 187 155
0 183 152
0 189 157
0 185 153
0 183 152
0 190 155
0 190 155
0 176 147
0 186 153
0 187 155
0 188 155
0 184 151
0 186 153
0 179 148
0 183 151
0 180 149
0 179 148
0 179 148
0 177 145
0 175 145
0 180 150
0 181 149
0 176 147
0 167 139
0 173 143
0 174 145
0 169 140
0 170 141
0 168 138
0 171 140
0 169 141
0 166 140
0 177 146
0 182 151
0 181 149
0 178 149
0 167 140
0 186 154
0 190 157
0 189 155
0 193 156
0 186 155
0 193 159
0 189 156
0 186 154
0 183 149
0 183 150
0 180 150
0 176 147
0 166 138
0 169 139
0 175 145
0 178 147
0 177 145
0 171 142
0 165 139
0 175 145
0 167 140
0 169 140
0 164 137
0 178 148
0 168 140
0 164 136
0 173 144
0 168 139
0 159 134
0 169 140
0 162 135
0 167 139
0 161 134
0 169 139
0 173 142
0 167 138
0 148 126
0 171 141
0 164 135
0 168 139
0 161 133
0 158 132
0 163 136
0 165 135
0 164 134
0 169 139
0 156 133
0 155 130
0 158 129
0 164 136
0 160 134
0 160 133
0 172 144
0 162 136
0 168 139
0 162 134
0 168 140
0 159 131
0 170 143
0 161 134
0 165 136
0 152 127
0 176 144
0 155 127
0 156 131
0 172 140
0 164 135
0 164 137
0 159 134
0 160 133
0 171 141
0 169 139
0 173 145
0 172 144
0 161 134
0 162 136
0 177 146
0 163 135
0 171 143
0 171 142
0 177 147
0 183 149
0 172 142
0 174 143
0 174 144
0 174 144
0 174 143
0 168 139
0 188 156
0 170 141
0 173 143
0 178 144
0 176 145
0 175 146
0 175 143
0 168 141
0 175 144
0 169 143
0 184 151
0 187 154
0 178 148
0 174 145
0 179 148
0 190 156
0 176 144
0 180 148
0 178 147
0 179 147
0 174 144
0 182 150
0 177 147
0 176 143
0 186 153
0 185 152
0 173 141
0 179 148
0 178 143
0 181 151
0 189 155
0 180 148
0 195 159
0 182 149
0 182 150
0 184 151
0 186 152
0 185 152
0 190 157
0 185 151
0 190 157
0 184 151
0 188 154
0 195 158
0 188 155
0 193 157
0 192 159
0 188 154
0 187 153
0 188 153
0 196 162
0 192 158
0 189 155
0 187 155
0 187 151
0 193 158
0 192 156
0 190 156
0 192 159
0 195 159
0 193 157
0 188 152
0 193 160
0 197 161
0 194 158
0 193 157
0 191 156
0 192 155
0 197 163
0 197 159
0 199 160
0 192 156
0 200 163
0 196 159
0 201 165
0 191 154
0 197 158
0 199 162
0 199 162
0 204 164
0 198 161
0 195 159
0 198 161
0 194 158
0 201 164
0 205 166
0 202 163
0 199 160
0 201 164
0 210 172
0 198 161
0 205 165
0 203 166
0 200 161
0 202 163
0 199 159
0 205 168
0 198 163
0 198 161
0 195 157
0 200 160
0 197 159
0 201 165
0 198 159
0 197 161
0 203 164
0 204 164
0 199 161
0 208 169
0 199 162
0 201 162
0 198 157
0 206 169
0 203 163
0 200 164
0 209 167
0 203 166
0 205 165
0 205 165
0 202 162
0 208 169
0 206 166
0 201 165
0 201 163
0 206 167
0 202 164
0 208 168
0 202 164
0 209 169
0 208 168
0 201 162
0 209 170
0 212 170
0 207 166
0 201 164
0 206 167
0 211 169
0 201 162
0 208 167
0 199 160
0 213 173
0 200 162
0 205 168
0 204 165
0 206 168
0 204 165
0 209 166
0 212 172
0 209 168
0 209 168
0 210 169
0 210 168
0 208 168
0 212 168
0 204 163
0 212 172
0 208 168
0 205 166
0 199 161
0 207 167
0 206 165
0 200 161
0 210 169
0 204 165
0 212 172
0 204 163
0 209 169
0 212 172
0 211 172
0 211 170
0 214 172
0 209 169
0 208 168
0 215 176
0 211 171
0 213 173
0 209 167
0 214 173
0 208 170
0 213 171
0 212 170
0 213 174
0 213 175
0 212 175
0 213 176
0 209 172
0 208 172
0 215 175
0 211 173
0 214 175
0 211 173
0 211 173
0 213 175
0 216 178
0 212 174
0 214 175
0 211 173
0 207 171
0 208 170
0 214 175
0 206 170
0 214 176
0 213 175
0 208 172
0 213 175
0 214 176
0 207 170
0 212 173
0 209 172
0 211 172
0 211 174
0 211 172
0 210 171
0 214 175
0 208 172
0 211 172
0 215 177
0 204 169
0 202 166
0 210 172
0 210 172
0 202 167
0 203 167
0 208 172
0 203 168
0 210 172
0 200 166
0 211 174
0 203 167
0 199 164
0 207 169
0 207 171
0 210 170
0 204 167
0 202 166
0 208 169
0 209 169
0 201 167
0 205 170
0 201 166
0 203 167
0 210 171
0 207 169
0 204 167
0 200 164
0 207 169
0 208 170
0 205 168
0 197 162
0 200 163
0 200 163
0 195 161
0 196 163
0 193 159
0 199 166
0 196 162
0 199 163
0 199 164
0 197 162
0 201 166
0 189 158
0 194 161
0 195 161
0 198 159
0 185 154
0 197 162
0 195 161
0 189 157
0 190 158
0 199 163
0 189 156
0 187 156
0 187 153
0 187 154
0 187 156
0 197 161
0 198 161
0 196 160
0 179 148
0 189 154
0 179 150
0 179 149
0 188 154
0 188 156
0 191 155
0 187 153
0 180 148
0 185 153
0 185 152
0 175 147
0 186 152
0 182 152
0 186 153
0 183 149
0 169 137
0 186 151
0 176 148
0 184 151
0 174 145
0 173 144
0 171 141
0 174 145
0 173 144
0 176 144
0 173 144
0 185 149
0 170 141
0 174 144
0 176 145
0 169 140
0 183 151
0 183 150
0 195 159
0 178 147
0 195 160
0 176 145
0 182 152
0 187 153
0 182 150
0 181 148
0 191 158
0 179 146
0 180 146
0 186 152
0 191 157
0 176 146
0 185 154
0 175 144
0 174 143
0 167 140
0 167 141
0 168 140
0 170 140
0 176 143
0 169 141
0 171 142
0 174 144
0 176 146
0 164 136
0 161 133
0 172 142
0 156 130
0 170 141
0 154 130
0 169 140
0 163 135
0 153 128
0 167 137
0 161 132
0 173 144
0 166 135
0 167 138
0 173 143
0 176 146
0 166 138
0 152 127
0 168 138
0 169 140
0 163 138
0 177 145
0 170 140
0 160 133
0 173 142
0 155 129
0 164 136
0 159 132
0 172 142
0 165 136
0 162 135
0 159 132
0 159 131
0 162 134
0 166 138
0 168 139
0 171 142
0 177 148
0 178 147
0 157 131
0 165 137
0 177 146
0 181 148
0 174 145
0 171 142
0 164 136
0 159 135
0 156 130
0 170 140
0 186 153
0 174 144
0 180 149
0 171 142
0 183 150
0 164 137
0 183 151
0 185 152
0 177 147
0 163 137
0 170 141
0 174 146
0 174 144
0 175 145
0 173 141
0 167 139
0 170 141
0 180 148
0 169 143
0 176 147
0 181 150
0 178 148
0 170 141
0 177 146
0 178 147
0 181 148
0 178 145
0 181 149
0 171 140
0 182 147
0 176 147
0 181 152
0 169 139
0 183 153
0 180 148
0 189 153
0 190 155
0 191 158
0 188 154
0 182 148
0 186 153
0 188 158
0 181 147
0 179 149
0 193 156
0 189 155
0 181 149
0 193 156
0 182 149
0 183 151
0 179 148
0 189 153
0 196 161
0 186 154
0 180 148
0 192 157
0 195 159
0 183 147
0 198 163
0 189 156
0 191 157
0 194 157
0 197 161
0 190 155
0 180 149
0 186 155
0 192 156
0 191 156
0 195 156
0 191 155
0 196 159
0 197 161
0 191 157
0 194 157
0 196 161
0 203 163
0 192 156
0 198 162
0 198 162
0 196 159
0 198 163
0 196 159
0 194 157
0 199 161
0 192 157
0 193 157
0 183 150
0 187 152
0 195 161
0 194 158
0 194 159
0 199 161
0 201 162
0 199 160
0 204 166
0 190 155
0 203 164
0 198 163
0 194 158
0 202 166
0 203 164
0 202 164
0 204 163
0 201 164
0 201 164
0 198 160
0 204 166
0 207 170
0 199 161
0 190 154
0 200 162
0 201 162
0 203 167
0 204 167
0 198 161
0 205 164
0 204 166
0 205 166
0 201 163
0 211 169
0 204 167
0 197 163
0 205 168
0 193 156
0 205 164
0 207 168
0 199 158
0 207 167
0 206 170
0 208 168
0 208 171
0 206 168
0 206 163
0 209 169
0 205 166
0 207 167
0 205 165
0 205 165
0 204 165
0 203 165
0 209 169
0 208 166
0 208 166
0 206 166
0 208 169
0 215 174
0 206 167
0 203 163
0 208 167
0 207 167
0 206 166
0 210 168
0 209 170
0 201 162
0 208 167
0 205 167
0 211 171
0 207 168
0 208 168
0 212 170
0 209 169
0 205 168
0 211 170
0 214 173
0 206 162
0 209 166
0 215 172
0 213 173
0 210 169
0 203 164
0 204 165
0 209 168
0 211 171
0 206 164
0 207 168
0 209 167
0 210 169
0 210 170
0 214 174
0 212 172
0 208 169
0 214 173
0 211 171
0 211 170
0 213 173
0 212 172
0 214 175
0 207 167
0 216 174
0 206 165
0 207 168
0 209 169
0 208 166
0 213 173
0 215 177
0 209 171
0 214 175
0 212 174
0 211 173
0 218 177
0 206 171
0 211 173
0 214 175
0 213 174
0 215 176
0 217 177
0 216 175
0 211 173
0 217 177
0 213 175
0 215 176
0 207 170
0 213 174
0 211 173
0 211 173
0 212 175
0 206 169
0 206 170
0 209 171
0 203 167
0 213 175
0 210 172
0 204 167
0 215 176
0 205 169
0 208 172
0 204 168
0 210 174
0 215 176
0 212 174
0 208 171
0 204 168
0 210 171
0 203 167
0 208 171
0 203 168
0 205 169
0 207 170
0 203 168
0 202 167
0 212 172
0 209 171
0 205 168
0 197 163
0 212 172
0 201 165
0 203 166
0 206 169
0 212 173
0 203 167
0 201 165
0 193 159
0 200 164
0 202 165
0 199 165
0 206 169
0 202 166
0 197 162
0 205 168
0 205 169
0 200 166
0 202 166
0 202 166
0 199 163
0 210 169
0 203 165
0 192 158
0 198 164
0 198 163
0 196 162
0 200 162
0 199 161
0 203 165
0 190 158
0 189 157
0 189 156
0 193 158
0 188 157
0 195 162
0 195 160
0 189 158
0 198 163
0 188 153
0 180 151
0 200 164
0 197 162
0 185 152
0 188 156
0 190 157
0 195 159
0 190 160
0 200 164
0 195 160
0 186 153
0 189 156
0 189 156
0 200 165
0 188 156
0 193 157
0 189 155
0 182 151
0 181 148
0 182 150
0 191 156
0 176 145
0 187 155
0 176 145
0 177 146
0 176 145
0 180 148
0 174 144
0 177 146
0 180 148
0 180 150
0 186 153
0 170 141
0 184 152
0 178 145
0 172 143
0 177 144
0 182 149
0 170 139
0 183 151
0 194 162
0 192 158
0 178 148
0 190 157
0 191 158
0 183 151
0 189 157
0 192 158
0 187 154
0 183 151
0 190 157
0 199 163
0 185 152
0 180 149
0 187 154
0 185 153
0 182 152
0 167 136
0 179 148
0 176 145
0 177 144
0 175 145
0 168 139
0 184 152
0 180 148
0 183 151
0 172 142
0 181 149
0 165 136
0 170 141
0 174 143
0 177 145
0 165 136
0 168 140
0 155 130
0 175 144
0 154 129
0 177 147
0 170 142
0 169 141
0 168 138
0 161 133
0 179 148
0 169 141
0 159 133
0 173 143
0 163 134
0 164 135
0 167 138
0 167 139
0 162 136
0 156 132
0 172 142
0 173 144
0 170 141
0 175 144
0 166 138
0 169 141
0 162 134
0 180 149
0 180 148
0 176 147
0 171 141
0 173 142
0 179 149
0 168 139
0 173 144
0 160 131
0 164 137
0 166 138
0 163 135
0 159 133
0 176 147
0 164 136
0 172 144
0 168 137
0 174 144
0 171 144
0 173 143
0 172 141
0 170 138
0 171 141
0 173 144
0 173 144
0 180 147
0 179 148
0 177 147
0 163 137
0 180 148
0 182 152
0 168 140
0 177 144
0 191 158
0 171 142
0 169 143
0 175 142
0 177 145
0 162 134
0 188 155
0 178 146
0 173 144
0 179 147
0 183 149
0 177 145
0 177 145
0 183 151
0 178 145
0 187 154
0 175 146
0 181 149
0 186 153
0 182 149
0 172 140
0 192 155
0 194 159
0 187 155
0 188 154
0 175 143
0 182 149
0 176 145
0 188 154
0 184 150
0 196 160
0 187 154
0 190 154
0 187 154
0 180 150
0 183 148
0 192 159
0 187 152
0 192 157
0 189 153
0 177 145
0 184 151
0 186 152
0 189 156
0 191 158
0 188 154
0 199 162
0 189 155
0 188 150
0 188 153
0 201 161
0 192 156
0 195 161
0 200 165
0 200 164
0 197 162
0 200 160
0 200 164
0 184 148
0 203 164
0 191 157
0 194 159
0 196 162
0 204 164
0 192 156
0 194 159
0 202 165
0 192 158
0 198 160
0 191 156
0 199 161
0 206 168
0 202 165
0 197 161
0 197 159
0 203 164
0 192 157
0 200 161
0 197 162
0 202 164
0 209 171
0 201 163
0 190 156
0 203 165
0 201 161
0 200 162
0 195 159
0 202 164
0 199 161
0 202 165
0 201 166
0 198 162
0 204 166
0 201 162
0 204 164
0 205 165
0 200 163
0 205 164
0 209 168
0 198 162
0 200 162
0 206 166
0 202 164
0 207 168
0 199 163
0 203 165
0 201 162
0 209 170
0 208 167
0 206 168
0 205 166
0 210 169
0 202 165
0 204 167
0 209 172
0 206 168
0 200 161
0 200 163
0 202 162
0 198 162
0 205 167
0 214 169
0 209 168
0 204 163
0 203 166
0 208 170
0 207 166
0 205 166
0 206 167
0 203 164
0 206 168
0 201 162
0 208 168
0 210 171
0 204 168
0 204 164
0 208 169
0 213 172
0 207 167
0 211 171
0 208 169
0 207 167
0 206 166
0 208 165
0 211 169
0 209 170
0 209 168
0 211 171
0 206 168
0 203 162
0 210 171
0 207 168
0 210 170
0 215 176
0 203 164
0 203 165
0 207 166
0 213 173
0 215 176
0 207 164
0 207 168
0 204 164
0 207 167
0 206 167
0 208 170
0 204 164
0 211 171
0 209 171
0 208 167
0 213 171
0 212 173
0 209 167
0 215 172
0 208 167
0 211 172
0 210 172
0 212 172
0 212 171
0 210 169
0 216 175
0 210 173
0 216 177
0 217 177
0 214 176
0 208 173
0 206 169
0 216 176
0 214 175
0 211 172
0 206 170
0 213 175
0 211 172
0 210 172
0 211 172
0 212 172
0 206 171
0 214 175
0 215 176
0 214 176
0 208 171
0 214 175
0 208 171
0 202 165
0 211 171
0 213 174
0 209 172
0 210 173
0 207 169
0 210 172
0 208 172
0 215 176
0 212 172
0 211 171
0 211 172
0 210 173
0 210 171
0 205 167
0 209 172
0 211 174
0 203 168
0 204 168
0 204 170
0 204 167
0 206 169
0 207 169
0 214 174
0 208 170
0 199 165
0 209 172
0 210 170
0 197 161
0 209 171
0 204 168
0 203 166
0 201 168
0 204 168
0 203 167
0 204 167
0 204 168
0 201 165
0 198 161
0 205 166
0 196 162
0 194 158
0 201 166
0 205 168
0 199 164
0 205 170
0 200 165
0 197 164
0 199 164
0 203 165
0 202 166
0 201 164
0 202 164
0 199 165
0 199 162
0 198 161
0 195 160
0 197 160
0 195 161
0 197 162
0 194 160
0 196 161
0 180 150
0 193 158
0 200 166
0 199 165
0 197 161
0 189 158
0 197 161
0 202 166
0 190 158
0 178 147
0 191 159
0 183 151
0 192 158
0 188 155
0 188 155
0 192 159
0 194 160
0 179 150
0 190 155
0 184 152
0 187 154
0 176 145
0 188 157
0 180 149
0 185 153
0 181 151
0 189 156
0 171 144
0 172 143
0 178 148
0 176 147
0 189 155
0 176 144
0 172 146
0 170 142
0 188 154
0 167 138
0 179 149
0 176 147
0 178 146
0 187 153
0 192 158
0 189 157
0 184 152
0 184 152
0 196 162
0 187 154
0 195 160
0 192 158
0 182 151
0 183 150
0 188 156
0 192 158
0 190 156
0 188 155
0 191 157
0 186 153
0 186 153
0 177 147
0 188 154
0 189 155
0 179 149
0 186 153
0 172 143
0 179 148
0 180 147
0 175 145
0 170 142
0 175 143
0 166 139
0 167 139
0 175 145
0 165 138
0 177 146
0 179 149
0 162 137
0 158 132
0 178 147
0 174 146
0 152 128
0 171 141
0 173 143
0 157 132
0 158 131
0 160 133
0 183 151
0 179 147
0 159 132
0 158 134
0 164 138
0 163 137
0 165 133
0 161 133
0 166 139
0 170 143
0 168 137
0 181 150
0 162 136
0 167 141
0 162 135
0 164 137
0 180 147
0 179 148
0 159 134
0 169 141
0 172 144
0 178 145
0 176 145
0 168 140
0 166 139
0 171 144
0 169 141
0 183 151
0 166 141
0 163 136
0 179 149
0 168 139
0 171 143
0 179 149
0 172 141
0 170 142
0 161 136
0 175 147
0 168 139
0 168 141
0 169 139
0 166 138
0 172 141
0 176 148
0 191 156
0 178 146
0 185 153
0 180 146
0 180 149
0 169 141
0 179 148
0 175 146
0 177 147
0 180 148
0 176 145
0 187 154
0 181 150
0 175 145
0 185 152
0 185 151
0 185 155
0 182 149
0 177 143
0 185 153
0 177 147
0 183 151
0 183 150
0 178 144
0 185 151
0 184 153
0 184 150
0 182 150
0 181 151
0 176 144
0 179 151
0 174 144
0 187 155
0 198 160
0 196 161
0 199 163
0 175 148
0 183 152
0 184 152
0 191 158
0 192 157
0 180 149
0 183 151
0 189 155
0 192 156
0 185 153
0 200 162
0 185 152
0 193 159
0 185 152
0 183 149
0 191 156
0 189 159
0 186 153
0 194 158
0 190 154
0 191 157
0 180 148
0 187 154
0 190 153
0 191 156
0 195 161
0 189 155
0 193 157
0 196 156
0 196 162
0 199 163
0 191 160
0 197 162
0 193 157
0 199 162
0 196 157
0 199 162
0 208 169
0 199 163
0 197 162
0 201 163
0 197 161
0 199 162
0 194 160
0 193 158
0 197 160
0 196 159
0 197 160
0 192 156
0 198 162
0 201 164
0 193 159
0 198 159
0 200 162
0 197 159
0 206 167
0 196 162
0 199 161
0 198 159
0 195 158
0 205 167
0 197 161
0 192 154
0 200 162
0 199 163
0 207 169
0 203 167
0 193 155
0 208 169
0 205 163
0 204 167
0 208 170
0 202 162
0 201 162
0 202 163
0 200 164
0 205 167
0 207 169
0 211 172
0 204 165
0 206 165
0 203 163
0 205 167
0 197 160
0 206 166
0 199 162
0 200 162
0 210 170
0 204 162
0 205 166
0 207 168
0 207 167
0 209 170
0 199 161
0 208 168
0 208 168
0 206 168
0 210 172
0 204 166
0 211 170
0 208 168
0 203 162
0 206 168
0 209 169
0 207 165
0 212 170
0 208 167
0 204 164
0 210 168
0 203 163
0 207 166
0 207 167
0 207 168
0 211 171
0 212 170
0 210 170
0 208 167
0 202 166
0 212 171
0 210 170
0 213 172
0 214 175
0 206 169
0 213 173
0 211 170
0 212 173
0 210 170
0 203 165
0 210 170
0 210 170
0 208 169
0 208 168
0 210 170
0 210 170
0 206 166
0 211 169
0 212 171
0 211 168
0 208 167
0 208 170
0 207 168
0 212 172
0 214 173
0 208 167
0 214 176
0 215 174
0 208 167
0 212 171
0 215 173
0 213 171
0 212 174
0 214 175
0 217 177
0 214 175
0 210 173
0 212 174
0 215 176
0 206 171
0 211 174
0 214 176
0 211 173
0 207 171
0 203 169
0 214 175
0 211 173
0 204 169
0 209 172
0 215 177
0 213 175
0 208 170
0 211 173
0 212 172
0 202 169
0 212 175
0 207 171
0 215 174
0 213 174
0 210 172
0 197 164
0 208 169
0 208 172
0 205 169
0 218 177
0 209 170
0 205 169
0 211 173
0 205 169
0 205 169
0 202 167
0 206 169
0 217 176
0 209 172
0 205 169
0 204 168
0 208 170
0 211 172
0 203 168
0 207 171
0 211 172
0 212 172
0 203 166
0 202 168
0 208 171
0 205 168
0 200 164
0 208 170
0 206 169
0 204 169
0 201 164
0 209 169
0 201 167
0 209 171
0 198 164
0 200 164
0 196 161
0 204 168
0 199 163
0 202 165
0 198 163
0 200 164
0 200 165
0 204 165
0 197 161
0 202 165
0 199 162
0 201 166
0 204 167
0 196 160
0 197 163
0 199 164
0 196 163
0 195 161
0 192 158
0 197 162
0 198 163
0 183 151
0 189 155
0 198 163
0 190 155
0 178 150
0 194 158
0 192 158
0 196 161
0 189 154
0 190 157
0 194 159
0 182 151
0 199 163
0 194 160
0 187 154
0 189 155
0 184 153
0 183 153
0 187 154
0 187 154
0 191 157
0 181 151
0 186 154
0 191 157
0 188 155
0 186 152
0 189 157
0 182 152
0 175 146
0 182 151
0 179 147
0 182 149
0 178 149
0 183 151
0 181 148
0 189 156
0 175 143
0 174 144
0 176 147
0 183 153
0 178 147
0 183 153
0 193 159
0 188 155
0 170 143
0 181 149
0 196 161
0 190 158
0 194 160
0 191 157
0 196 160
0 194 157
0 185 153
0 192 156
0 186 154
0 194 157
0 182 151
0 191 157
0 185 153
0 186 153
0 177 147
0 185 152
0 178 147
0 184 151
0 177 146
0 188 156
0 177 146
0 177 146
0 165 137
0 169 142
0 183 149
0 183 150
0 170 142
0 172 143
0 157 133
0 174 144
0 174 145
0 164 137
0 168 141
0 162 135
0 175 143
0 167 138
0 171 141
0 170 142
0 171 142
0 173 142
0 169 140
0 168 141
0 164 137
0 176 145
0 173 144
0 178 147
0 164 138
0 177 146
0 169 140
0 165 138
0 176 146
0 175 143
0 171 141
0 171 141
0 162 136
0 166 140
0 178 147
0 180 147
0 179 148
0 175 146
0 172 141
0 167 139
0 172 139
0 173 143
0 166 139
0 167 140
0 173 144
0 173 143
0 172 140
0 176 146
0 184 153
0 180 150
0 178 148
0 166 138
0 173 142
0 175 145
0 166 138
0 179 146
0 184 151
0 172 141
0 173 143
0 182 152
0 179 149
0 170 140
0 178 146
0 184 151
0 180 146
0 173 145
0 171 145
0 182 150
0 182 151
0 172 143
0 168 142
0 176 144
0 179 148
0 187 153
0 180 148
0 189 153
0 183 152
0 184 152
0 180 148
0 180 148
0 182 151
0 175 144
0 168 139
0 171 140
0 183 153
0 181 150
0 186 153
0 182 151
0 185 154
0 185 151
0 193 158
0 186 154
0 189 158
0 185 150
0 193 158
0 199 165
0 187 153
0 199 164
0 186 153
0 189 155
0 180 150
0 183 151
0 180 149
0 186 152
0 192 158
0 192 153
0 186 153
0 190 157
0 198 162
0 188 153
0 183 149
0 196 162
0 197 162
0 185 153
0 194 160
0 185 152
0 187 156
0 198 163
0 201 164
0 196 162
0 196 157
0 201 164
0 185 152
0 195 158
0 195 158
0 194 158
0 194 158
0 192 156
0 198 161
0 203 166
0 193 158
0 199 164
0 194 159
0 196 160
0 195 159
0 206 166
0 197 160
0 196 161
0 193 157
0 201 164
0 205 166
0 201 162
0 201 164
0 200 162
0 195 159
0 199 161
0 199 163
0 200 163
0 196 161
0 198 160
0 194 157
0 197 159
0 203 165
0 197 160
0 200 162
0 197 161
0 207 168
0 202 164
0 196 160
0 207 169
0 203 163
0 205 168
0 198 160
0 202 162
0 198 164
0 204 167
0 200 162
0 198 158
0 194 155
0 207 167
0 201 161
0 211 171
0 201 161
0 204 165
0 201 160
0 201 162
0 201 163
0 199 161
0 201 161
0 211 172
0 198 160
0 201 164
0 199 162
0 204 166
0 209 170
0 207 167
0 209 170
0 202 162
0 202 162
0 203 162
0 202 162
0 204 166
0 210 168
0 207 167
0 205 165
0 196 158
0 208 166
0 209 171
0 203 165
0 207 166
0 206 164
0 208 168
0 204 166
0 207 167
0 204 163
0 207 170
0 211 171
0 209 170
0 207 167
0 208 168
0 211 169
0 211 172
0 204 166
0 212 170
0 208 168
0 210 169
0 205 165
0 207 166
0 207 168
0 209 168
0 211 169
0 215 175
0 210 169
0 209 169
0 206 164
0 209 169
0 210 171
0 208 169
0 204 164
0 214 174
0 209 170
0 208 167
0 204 165
0 214 172
0 205 161
0 215 174
0 213 173
0 206 166
0 209 168
0 205 165
0 212 170
0 213 171
0 209 171
0 216 173
0 206 166
0 211 172
0 211 171
0 209 173
0 214 176
0 215 176
0 215 176
0 210 173
0 216 176
0 215 176
0 208 171
0 210 173
0 214 175
0 214 176
0 209 170
0 213 176
0 208 171
0 210 173
0 212 174
0 212 173
0 210 173
0 212 174
0 210 174
0 213 176
0 208 171
0 212 174
0 211 173
0 215 176
0 208 171
0 199 166
0 206 169
0 206 168
0 214 175
0 205 169
0 208 169
0 212 172
0 209 170
0 203 167
0 205 169
0 207 169
0 205 169
0 210 171
0 212 173
0 212 173
0 210 170
0 204 168
0 205 168
0 207 170
0 209 172
0 209 171
0 205 168
0 210 170
0 204 166
0 208 171
0 208 169
0 203 167
0 206 169
0 201 166
0 203 165
0 201 166
0 205 167
0 203 167
0 205 168
0 205 167
0 194 160
0 202 163
0 198 163
0 213 173
0 199 165
0 201 167
0 202 166
0 192 160
0 206 168
0 200 165
0 206 167
0 202 165
0 196 160
0 203 168
0 197 162
0 184 152
0 196 162
0 202 166
0 194 160
0 208 169
0 189 157
0 196 161
0 199 164
0 200 164
0 198 163
0 190 157
0 195 159
0 190 156
0 197 161
0 192 159
0 190 158
0 195 159
0 194 161
0 193 161
0 186 155
0 188 157
0 198 162
0 181 153
0 190 156
0 191 155
0 191 157
0 190 158
0 186 154
0 193 160
0 189 155
0 184 152
0 178 149
0 189 155
0 188 156
0 184 154
0 187 154
0 184 153
0 190 157
0 184 151
0 184 152
0 186 152
0 181 150
0 187 152
0 174 145
0 178 148
0 177 148
0 184 152
0 195 160
0 181 149
0 179 149
0 187 156
0 174 144
0 181 151
0 186 155
0 196 163
0 185 151
0 183 151
0 183 150
0 190 156
0 190 158
0 187 155
0 190 157
0 196 161
0 182 152
0 191 158
0 184 151
0 188 155
0 183 152
0 185 152
0 178 147
0 176 146
0 185 153
0 180 149
0 175 146
0 179 147
0 171 144
0 172 142
0 172 141
0 174 146
0 170 143
0 176 146
0 184 151
0 164 136
0 165 138
0 182 150
0 169 143
0 180 147
0 161 134
0 180 150
0 173 142
0 167 139
0 165 136
0 174 143
0 170 141
0 176 148
0 172 142
0 168 140
0 165 138
0 172 143
0 173 143
0 158 134
0 178 146
0 170 141
0 177 148
0 168 142
0 165 136
0 162 136
0 168 141
0 175 146
0 176 146
0 179 148
0 171 142
0 172 144
0 163 137
0 177 146
0 164 138
0 177 146
0 169 141
0 154 129
0 163 137
0 173 143
0 177 146
0 173 143
0 166 140
0 163 138
0 161 134
0 180 150
0 177 145
0 177 147
0 181 149
0 164 137
0 177 148
0 173 143
0 182 150
0 181 150
0 181 148
0 176 145
0 190 154
0 178 147
0 180 150
0 188 154
0 172 143
0 169 139
0 184 151
0 177 149
0 178 147
0 187 154
0 182 150
0 185 152
0 186 151
0 179 147
0 171 143
0 181 150
0 185 151
0 189 155
0 183 153
0 180 148
0 185 153
0 181 148
0 181 151
0 181 149
0 179 149
0 187 154
0 182 150
0 183 152
0 184 153
0 186 153
0 185 152
0 185 153
0 187 155
0 180 147
0 180 148
0 183 150
0 200 162
0 184 151
0 180 151
0 190 156
0 186 155
0 182 148
0 189 153
0 193 156
0 195 159
0 188 156
0 186 151
0 194 159
0 193 159
0 195 161
0 189 156
0 192 155
0 194 158
0 191 157
0 195 162
0 197 159
0 196 158
0 199 164
0 191 157
0 196 160
0 190 154
0 195 158
0 195 158
0 194 160
0 194 159
0 201 165
0 193 159
0 194 158
0 189 153
0 197 160
0 198 163
0 199 164
0 193 157
0 194 159
0 199 162
0 187 153
0 195 157
0 195 160
0 199 163
0 200 166
0 183 151
0 201 163
0 198 163
0 199 162
0 198 161
0 200 162
0 195 159
0 197 159
0 205 168
0 202 165
0 204 165
0 196 160
0 203 166
0 204 166
0 202 162
0 196 161
0 203 166
0 204 168
0 204 165
0 195 161
0 207 168
0 204 168
0 207 166
0 206 168
0 209 171
0 200 162
0 204 164
0 208 169
0 207 167
0 202 164
0 202 164
0 203 166
0 206 166
0 208 167
0 201 161
0 206 165
0 205 168
0 193 158
0 205 167
0 208 167
0 205 166
0 211 174
0 205 165
0 202 164
0 206 167
0 201 164
0 206 168
0 209 169
0 200 161
0 197 160
0 210 170
0 207 167
0 211 172
0 211 169
0 206 165
0 210 170
0 214 172
0 204 165
0 207 168
0 202 163
0 209 168
0 212 170
0 206 165
0 207 167
0 204 166
0 207 165
0 210 170
0 206 169
0 210 171
0 208 169
0 205 165
0 205 166
0 210 168
0 204 163
0 210 172
0 208 167
0 210 170
0 202 162
0 210 169
0 207 168
0 209 170
0 210 170
0 209 168
0 214 175
0 206 167
0 211 172
0 209 169
0 207 167
0 214 173
0 209 167
0 212 173
0 209 169
0 205 163
0 211 170
0 208 168
0 213 171
0 216 176
0 215 174
0 212 172
0 214 173
0 214 174
0 214 173
0 212 171
0 211 171
0 215 174
0 209 169
0 206 168
0 211 175
0 213 175
0 214 175
0 213 173
0 214 175
0 215 174
0 214 174
0 212 175
0 216 176
0 213 174
0 214 175
0 218 177
0 217 178
0 213 175
0 216 175
0 211 174
0 209 172
0 215 175
0 214 176
0 211 172
0 216 177
0 210 172
0 213 175
0 209 173
0 209 170
0 206 170
0 212 173
0 208 170
0 209 173
0 205 170
0 210 171
0 214 174
0 215 176
0 209 171
0 208 172
0 205 169
0 208 171
0 213 174
0 209 171
0 211 172
0 207 170
0 208 170
0 207 168
0 207 170
0 212 174
0 206 169
0 206 168
0 204 166
0 208 168
0 207 169
0 203 167
0 210 172
0 197 162
0 204 168
0 207 168
0 205 169
0 204 167
0 208 169
0 204 168
0 202 168
0 199 163
0 190 160
0 206 167
0 198 162
0 197 164
0 202 167
0 204 167
0 200 164
0 201 165
0 196 160
0 197 162
0 194 160
0 196 161
0 200 164
0 203 163
0 206 166
0 205 168
0 200 165
0 198 164
0 191 159
0 195 161
0 195 161
0 188 156
0 202 167
0 192 158
0 191 158
0 191 159
0 194 160
0 184 152
0 198 162
0 195 159
0 190 156
0 194 160
0 197 160
0 195 160
0 182 151
0 187 153
0 199 164
0 185 154
0 193 159
0 193 159
0 191 157
0 189 156
0 186 154
0 183 152
0 190 157
0 184 153
0 191 157
0 184 152
0 197 161
0 185 152
0 184 153
0 182 151
0 185 152
0 183 153
0 181 150
0 185 150
0 189 157
0 181 149
0 188 155
0 179 149
0 177 148
0 180 151
0 186 155
0 173 147
0 185 153
0 195 161
0 184 153
0 187 155
0 195 160
0 179 147
0 191 157
0 184 150
0 197 162
0 191 158
0 193 158
0 197 161
0 193 159
0 193 159
0 192 159
0 191 155
0 188 155
0 184 152
0 193 157
0 185 153
0 186 154
0 183 149
0 181 151
0 190 157
0 172 143
0 178 148
0 172 142
0 170 140
0 170 141
0 183 153
0 176 148
0 174 143
0 177 147
0 172 143
0 172 143
0 175 146
0 178 147
0 167 138
0 166 138
0 174 145
0 171 143
0 170 143
0 169 140
0 167 139
0 162 137
0 167 138
0 171 141
0 175 145
0 179 146
0 177 145
0 168 139
0 177 147
0 170 143
0 151 129
0 167 140
0 174 144
0 179 147
0 177 146
0 175 146
0 170 142
0 172 144
0 175 147
0 175 146
0 162 137
0 171 141
0 178 146
0 176 146
0 176 146
0 177 145
0 174 145
0 167 141
0 176 148
0 181 149
0 187 154
0 176 147
0 172 141
0 164 137
0 186 152
0 186 153
0 176 143
0 168 140
0 175 145
0 180 149
0 168 140
0 174 144
0 181 150
0 177 148
0 178 149
0 176 147
0 172 144
0 183 152
0 172 142
0 179 151
0 181 150
0 178 147
0 184 152
0 177 145
0 176 143
0 189 157
0 171 141
0 180 148
0 174 141
0 178 145
0 183 153
0 176 146
0 181 149
0 179 149
0 191 156
0 189 155
0 182 150
0 184 152
0 189 157
0 167 140
0 187 151
0 182 150
0 187 153
0 186 154
0 177 146
0 183 152
0 186 152
0 195 161
0 195 160
0 192 157
0 189 157
0 196 160
0 186 153
0 183 150
0 186 152
0 191 158
0 199 162
0 190 156
0 186 155
0 198 158
0 188 154
0 177 146
0 179 147
0 191 156
0 192 159
0 195 159
0 185 152
0 191 157
0 188 153
0 198 162
0 192 156
0 205 167
0 192 155
0 190 154
0 193 156
0 199 161
0 189 150
0 193 158
0 197 163
0 189 155
0 192 156
0 201 165
0 190 158
0 195 161
0 190 156
0 199 165
0 196 158
0 199 163
0 192 159
0 198 163
0 201 165
0 201 163
0 195 159
0 199 161
0 197 163
0 203 165
0 204 166
0 196 159
0 199 164
0 208 170
0 200 163
0 205 168
0 197 159
0 199 164
0 202 164
0 198 161
0 197 161
0 199 160
0 202 161
0 205 167
0 197 161
0 200 161
0 202 163
0 201 163
0 202 163
0 200 162
0 205 163
0 202 165
0 203 166
0 196 158
0 207 169
0 205 167
0 204 166
0 204 166
0 201 164
0 209 171
0 193 159
0 200 165
0 200 162
0 204 165
0 201 164
0 197 160
0 197 162
0 209 170
0 202 161
0 204 166
0 202 164
0 201 163
0 208 167
0 205 165
0 212 169
0 208 170
0 204 166
0 211 170
0 210 169
0 208 170
0 204 165
0 211 169
0 209 171
0 208 169
0 211 170
0 209 168
0 208 168
0 202 165
0 210 169
0 200 162
0 205 166
0 211 169
0 214 174
0 204 163
0 204 167
0 210 171
0 206 167
0 204 165
0 206 166
0 215 173
0 210 171
0 209 168
0 210 170
0 212 172
0 212 171
0 211 169
0 209 169
0 207 169
0 209 171
0 215 174
0 209 166
0 216 174
0 212 171
0 208 167
0 207 167
0 209 169
0 207 166
0 208 166
0 212 169
0 210 171
0 210 170
0 210 169
0 212 171
0 210 170
0 211 171
0 210 170
0 207 168
0 213 173
0 211 170
0 215 174
0 210 169
0 204 165
0 216 176
0 207 167
0 215 173
0 210 169
0 214 175
0 210 172
0 208 171
0 214 176
0 214 176
0 212 174
0 209 172
0 212 174
0 214 176
0 214 174
0 216 177
0 213 176
0 212 173
0 211 173
0 210 173
0 212 174
0 212 175
0 208 170
0 208 172
0 210 175
0 206 171
0 213 174
0 214 174
0 208 172
0 209 170
0 211 174
0 215 176
0 215 175
0 213 173
0 214 174
0 208 172
0 213 174
0 206 171
0 213 175
0 202 165
0 207 171
0 209 170
0 210 171
0 208 171
0 209 172
0 209 171
0 209 173
0 208 171
0 206 170
0 208 169
0 201 166
0 209 172
0 207 170
0 212 173
0 201 163
0 204 168
0 204 168
0 204 169
0 198 163
0 198 164
0 203 167
0 195 161
0 210 171
0 205 168
0 209 171
0 197 162
0 206 169
0 206 170
0 208 169
0 202 166
0 198 163
0 201 166
0 199 163
0 203 168
0 205 167
0 204 166
0 202 163
0 200 165
0 203 165
0 195 161
0 197 161
0 202 165
0 200 163
0 200 165
0 202 167
0 187 154
0 200 164
0 194 159
0 190 159
0 186 154
0 196 162
0 189 157
0 193 159
0 198 163
0 192 158
0 182 152
0 191 157
0 187 155
0 191 158
0 188 154
0 208 169
0 193 158
0 188 155
0 191 157
0 188 154
0 188 156
0 191 157
0 187 155
0 184 153
0 195 161
0 194 160
0 180 150
0 181 150
0 190 156
0 194 158
0 195 161
0 192 159
0 180 151
0 186 152
0 182 149
0 185 152
0 182 150
0 180 150
0 184 152
0 184 153
0 187 155
0 188 156
0 180 149
0 182 151
0 187 156
0 192 158
0 190 156
0 187 156
0 190 156
0 186 154
0 199 162
0 201 164
0 186 155
0 188 157
0 191 157
0 196 161
0 196 159
0 196 161
0 198 161
0 189 156
0 191 157
0 194 159
0 185 152
0 188 155
0 185 149
0 180 148
0 186 153
0 180 150
0 184 152
0 176 147
0 174 145
0 185 153
0 182 150
0 175 144
0 172 143
0 167 139
0 174 144
0 187 154
0 170 142
0 181 149
0 181 150
0 175 146
0 178 147
0 170 142
0 180 147
0 181 149
0 176 145
0 180 149
0 174 143
0 173 145
0 177 147
0 179 149
0 175 145
0 167 139
0 172 144
0 177 145
0 180 149
0 176 146
0 164 137
0 179 149
0 172 144
0 168 138
0 169 139
0 182 149
0 185 151
0 172 144
0 177 148
0 167 140
0 170 143
0 174 147
0 162 138
0 162 137
0 176 146
0 175 144
0 174 144
0 182 148
0 179 148
0 187 154
0 179 149
0 187 152
0 179 150
0 172 143
0 174 145
0 169 138
0 176 144
0 175 145
0 181 149
0 183 151
0 187 153
0 180 149
0 170 141
0 178 146
0 180 147
0 186 153
0 187 154
0 179 147
0 181 150
0 181 148
0 191 155
0 181 150
0 180 148
0 178 148
0 190 156
0 169 142
0 184 151
0 183 150
0 176 146
0 195 157
0 188 154
0 190 157
0 190 156
0 192 157
0 183 152
0 185 154
0 190 156
0 179 147
0 168 140
0 177 146
0 177 147
0 184 153
0 181 150
0 191 159
0 187 154
0 195 159
0 186 153
0 194 159
0 180 149
0 185 151
0 191 157
0 187 154
0 188 154
0 189 157
0 188 153
0 181 149
0 193 158
0 196 160
0 189 154
0 188 154
0 190 153
0 188 155
0 194 158
0 194 158
0 193 157
0 200 162
0 198 161
0 195 160
0 200 163
0 197 161
0 191 158
0 196 161
0 194 160
0 196 160
0 197 162
0 199 162
0 201 165
0 197 161
0 200 162
0 195 161
0 184 153
0 198 161
0 194 158
0 194 160
0 201 162
0 196 160
0 205 167
0 197 164
0 197 161
0 202 166
0 199 161
0 200 163
0 206 168
0 210 171
0 209 171
0 199 163
0 199 162
0 188 152
0 199 160
0 204 164
0 204 165
0 199 164
0 197 162
0 204 167
0 199 161
0 197 162
0 208 170
0 201 161
0 200 164
0 207 168
0 195 161
0 199 164
0 205 167
0 196 162
0 202 163
0 197 159
0 208 168
0 208 167
0 203 166
0 197 163
0 199 161
0 200 163
0 207 168
0 204 166
0 206 167
0 202 165
0 208 167
0 199 162
0 199 163
0 205 165
0 210 169
0 201 164
0 208 169
0 204 167
0 208 168
0 207 169
0 209 170
0 199 162
0 206 167
0 205 165
0 199 160
0 205 165
0 203 163
0 208 167
0 208 167
0 209 170
0 211 171
0 206 164
0 210 173
0 207 170
0 202 164
0 207 168
0 208 169
0 216 176
0 211 173
0 200 161
0 202 163
0 210 170
0 205 167
0 206 169
0 208 168
0 204 166
0 213 172
0 210 170
0 208 168
0 212 173
0 212 173
0 206 168
0 213 172
0 200 162
0 213 175
0 210 170
0 208 167
0 204 166
0 209 168
0 206 166
0 201 165
0 209 170
0 205 165
0 208 169
0 206 164
0 207 167
0 211 171
0 212 173
0 213 170
0 218 176
0 204 164
0 217 177
0 210 171
0 213 173
0 212 171
0 208 170
0 217 174
0 218 178
0 213 173
0 210 170
0 215 175
0 208 166
0 213 173
0 215 173
0 213 172
0 213 173
0 205 169
0 217 175
0 213 175
0 217 177
0 211 171
0 217 178
0 212 175
0 212 175
0 216 176
0 214 175
0 210 173
0 216 176
0 211 175
0 212 174
0 212 175
0 209 172
0 212 174
0 211 173
0 213 174
0 210 172
0 210 173
0 211 173
0 204 169
0 209 171
0 213 174
0 213 173
0 209 173
0 209 172
0 208 170
0 206 169
0 210 172
0 207 170
0 208 170
0 205 169
0 209 174
0 210 172
0 208 169
0 208 170
0 208 170
0 212 173
0 204 168
0 206 169
0 207 169
0 213 173
0 209 170
0 203 168
0 204 167
0 203 166
0 209 168
0 201 165
0 210 171
0 202 165
0 202 167
0 207 171
0 204 167
0 213 171
0 202 165
0 202 166
0 200 165
0 205 167
0 214 174
0 204 167
0 208 170
0 202 165
0 199 164
0 205 168
0 204 167
0 194 160
0 196 161
0 196 161
0 202 167
0 197 163
0 199 165
0 197 162
0 203 167
0 202 166
0 203 166
0 201 164
0 204 167
0 199 162
0 203 166
0 191 158
0 197 163
0 185 154
0 195 162
0 197 164
0 198 164
0 188 156
0 201 163
0 191 159
0 198 163
0 197 162
0 185 155
0 192 157
0 183 152
0 192 158
0 195 159
0 193 159
0 191 156
0 188 155
0 186 154
0 187 154
0 183 152
0 189 155
0 195 160
0 187 154
0 181 149
0 189 157
0 189 156
0 180 148
0 184 152
0 187 154
0 185 154
0 189 157
0 189 156
0 185 152
0 187 154
0 179 150
0 186 154
0 187 157
0 176 148
0 187 153
0 180 149
0 187 152
0 191 157
0 183 153
0 195 160
0 187 157
0 197 162
0 195 160
0 187 155
0 195 161
0 197 161
0 192 159
0 197 164
0 198 163
0 196 159
0 194 158
0 190 154
0 188 157
0 187 154
0 186 154
0 182 150
0 182 151
0 192 158
0 177 146
0 183 149
0 184 150
0 180 148
0 186 154
0 181 150
0 176 146
0 187 156
0 169 141
0 181 149
0 182 150
0 175 146
0 171 143
0 176 146
0 175 145
0 180 147
0 177 147
0 181 150
0 183 151
0 169 141
0 176 146
0 179 146
0 166 137
0 175 145
0 168 138
0 177 147
0 181 149
0 173 141
0 174 146
0 170 145
0 178 147
0 182 149
0 165 139
0 181 148
0 172 142
0 180 148
0 174 145
0 183 153
0 174 144
0 168 140
0 172 144
0 175 145
0 171 144
0 174 143
0 167 140
0 169 142
0 179 148
0 169 140
0 166 140
0 180 150
0 180 150
0 180 150
0 174 145
0 182 149
0 181 149
0 176 145
0 176 144
0 180 149
0 184 153
0 178 148
0 181 151
0 169 138
0 172 144
0 174 143
0 178 148
0 178 148
0 187 152
0 173 146
0 180 150
0 184 154
0 178 148
0 177 148
0 182 151
0 181 150
0 184 150
0 190 157
0 183 151
0 179 150
0 180 149
0 188 154
0 173 144
0 185 153
0 180 148
0 181 149
0 197 160
0 193 158
0 192 158
0 186 153
0 178 150
0 182 151
0 188 154
0 182 150
0 178 148
0 185 153
0 187 153
0 190 155
0 176 149
0 176 146
0 195 160
0 187 156
0 183 149
0 181 150
0 194 158
0 181 147
0 195 157
0 196 160
0 184 151
0 192 157
0 188 156
0 195 160
0 188 153
0 192 159
0 189 155
0 191 159
0 197 160
0 186 152
0 196 161
0 197 161
0 200 165
0 192 160
0 187 153
0 200 164
0 191 158
0 193 156
0 191 156
0 193 158
0 201 164
0 196 162
0 193 158
0 188 153
0 200 164
0 195 160
0 197 161
0 184 149
0 197 163
0 203 165
0 196 160
0 201 163
0 201 165
0 189 154
0 190 156
0 203 165
0 195 159
0 193 156
0 199 164
0 195 156
0 203 166
0 211 172
0 201 165
0 201 165
0 199 161
0 200 162
0 204 167
0 193 159
0 196 161
0 194 160
0 200 164
0 202 163
0 200 165
0 202 163
0 201 163
0 200 161
0 206 166
0 204 166
0 197 159
0 206 166
0 197 161
0 205 168
0 207 169
0 204 167
0 196 161
0 209 170
0 200 163
0 197 161
0 211 170
0 208 170
0 195 158
0 200 162
0 206 165
0 208 170
0 203 164
0 212 172
0 213 172
0 203 168
0 207 169
0 203 164
0 208 168
0 207 167
0 207 166
0 198 162
0 209 168
0 206 167
0 201 161
0 202 164
0 208 169
0 206 166
0 203 165
0 209 168
0 210 170
0 205 168
0 207 169
0 207 170
0 205 165
0 207 168
0 204 165
0 205 164
0 207 166
0 206 166
0 208 168
0 206 166
0 211 173
0 206 165
0 208 168
0 209 169
0 206 167
0 204 167
0 202 165
0 214 171
0 206 164
0 209 170
0 210 170
0 207 167
0 208 168
0 206 167
0 209 168
0 208 170
0 212 171
0 212 171
0 205 165
0 208 168
0 211 171
0 210 171
0 216 174
0 208 167
0 214 172
0 205 167
0 209 169
0 212 173
0 215 174
0 210 169
0 207 166
0 206 167
0 211 173
0 213 173
0 210 168
0 211 172
0 211 170
0 210 168
0 212 171
0 211 170
0 211 172
0 208 169
0 216 173
0 212 171
0 206 167
0 214 176
0 213 175
0 214 176
0 215 176
0 219 178
0 217 176
0 211 175
0 217 177
0 212 174
0 211 173
0 214 175
0 209 172
0 215 175
0 207 171
0 211 172
0 212 173
0 211 173
0 214 175
0 211 172
0 212 174
0 206 170
0 206 169
0 210 172
0 210 173
0 212 174
0 213 175
0 208 171
0 211 172
0 210 171
0 215 176
0 209 172
0 212 173
0 212 173
0 210 171
0 203 166
0 212 173
0 206 169
0 208 168
0 198 162
0 208 169
0 204 168
0 204 167
0 210 171
0 208 171
0 212 173
0 206 169
0 204 169
0 210 172
0 206 170
0 205 169
0 201 166
0 198 163
0 212 174
0 201 165
0 203 168
0 205 168
0 204 168
0 212 173
0 212 173
0 200 164
0 206 168
0 199 163
0 202 166
0 201 167
0 207 169
0 196 160
0 203 166
0 207 169
0 203 164
0 194 160
0 198 163
0 202 167
0 198 164
0 201 165
0 199 164
0 200 162
0 195 161
0 200 165
0 203 165
0 194 160
0 198 163
0 203 166
0 193 158
0 196 161
0 192 157
0 198 161
0 190 157
0 198 163
0 199 163
0 198 163
0 205 168
0 204 166
0 188 157
0 183 155
0 188 156
0 195 158
0 193 159
0 191 156
0 191 158
0 186 155
0 196 161
0 188 154
0 193 158
0 189 154
0 188 156
0 194 160
0 179 151
0 191 157
0 191 155
0 195 160
0 191 157
0 188 156
0 182 151
0 183 152
0 189 155
0 189 155
0 178 147
0 184 152
0 189 158
0 183 150
0 179 150
0 183 151
0 193 156
0 185 153
0 185 155
0 194 160
0 187 155
0 196 163
0 202 165
0 194 160
0 194 158
0 200 163
0 189 157
0 190 158
0 196 161
0 192 158
0 190 158
0 195 161
0 198 163
0 192 159
0 190 157
0 194 161
0 196 160
0 184 150
0 182 151
0 185 153
0 176 145
0 188 154
0 171 142
0 183 152
0 186 153
0 186 153
0 191 157
0 180 149
0 181 149
0 164 137
0 182 150
0 177 148
0 176 145
0 183 152
0 182 152
0 181 150
0 166 140
0 182 152
0 175 147
0 170 140
0 181 150
0 187 154
0 171 142
0 173 144
0 178 148
0 175 146
0 183 150
0 172 144
0 173 144
0 175 146
0 173 145
0 170 142
0 181 150
0 182 151
0 179 149
0 177 144
0 182 150
0 174 144
0 176 145
0 179 149
0 173 144
0 178 148
0 173 144
0 170 140
0 181 150
0 181 149
0 174 146
0 179 148
0 167 138
0 179 149
0 184 150
0 181 149
0 180 150
0 173 142
0 176 147
0 179 149
0 180 149
0 179 150
0 179 149
0 181 147
0 179 149
0 182 149
0 179 148
0 185 153
0 191 158
0 175 145
0 184 152
0 173 145
0 184 153
0 177 145
0 178 148
0 175 145
0 175 145
0 168 139
0 186 153
0 183 152
0 172 143
0 186 153
0 182 149
0 176 148
0 172 146
0 178 146
0 183 151
0 188 158
0 188 156
0 193 157
0 180 148
0 193 160
0 190 157
0 177 147
0 180 150
0 189 155
0 183 153
0 192 161
0 187 156
0 189 153
0 188 155
0 191 156
0 188 154
0 199 163
0 185 151
0 196 161
0 189 157
0 183 149
0 186 154
0 190 157
0 188 154
0 190 155
0 191 158
0 197 163
0 189 153
0 186 151
0 192 155
0 189 157
0 193 159
0 194 162
0 190 155
0 193 158
0 195 159
0 192 158
0 196 162
0 199 164
0 193 158
0 201 164
0 192 160
0 183 150
0 192 157
0 187 157
0 190 156
0 196 157
0 195 160
0 199 162
0 197 159
0 191 155
0 200 163
0 196 161
0 199 162
0 182 148
0 195 159
0 202 164
0 197 162
0 200 165
0 192 158
0 199 163
0 200 164
0 200 164
0 196 161
0 205 167
0 195 159
0 200 163
0 200 163
0 200 163
0 202 165
0 199 164
0 203 165
0 193 160
0 201 165
0 205 168
0 193 155
0 199 165
0 206 168
0 202 163
0 206 167
0 194 160
0 201 163
0 205 167
0 209 169
0 202 166
0 201 162
0 207 168
0 204 167
0 208 168
0 202 163
0 202 163
0 206 170
0 204 166
0 204 163
0 209 170
0 195 159
0 211 174
0 202 165
0 206 165
0 206 166
0 204 167
0 202 164
0 210 170
0 204 166
0 200 162
0 203 167
0 209 171
0 204 166
0 209 170
0 203 165
0 201 163
0 207 169
0 206 166
0 210 169
0 206 165
0 207 167
0 207 166
0 207 167
0 208 168
0 205 167
0 207 167
0 205 167
0 208 168
0 206 171
0 206 164
0 207 169
0 207 169
0 211 172
0 209 169
0 211 173
0 202 165
0 215 172
0 215 175
0 200 163
0 208 166
0 203 162
0 208 170
0 210 170
0 205 165
0 204 164
0 209 170
0 209 169
0 208 167
0 212 170
0 207 166
0 210 168
0 209 169
0 208 171
0 213 174
0 210 170
0 214 173
0 213 171
0 212 173
0 210 171
0 209 170
0 216 172
0 203 166
0 209 168
0 205 163
0 215 173
0 212 172
0 207 168
0 211 170
0 212 172
0 208 167
0 211 172
0 210 170
0 213 173
0 210 172
0 213 174
0 211 172
0 212 173
0 211 174
0 213 176
0 214 174
0 210 174
0 213 175
0 216 176
0 210 172
0 205 169
0 210 173
0 214 174
0 204 168
0 213 175
0 213 175
0 212 174
0 209 171
0 213 174
0 214 173
0 216 176
0 208 172
0 212 175
0 215 175
0 207 171
0 207 171
0 210 171
0 212 174
0 208 172
0 210 171
0 212 175
0 210 172
0 209 169
0 210 172
0 212 173
0 210 172
0 206 169
0 211 174
0 207 170
0 212 172
0 208 169
0 206 167
0 211 172
0 209 170
0 211 173
0 210 172
0 207 170
0 203 167
0 205 169
0 208 170
0 209 171
0 208 166
0 203 167
0 210 171
0 205 170
0 202 165
0 202 166
0 202 164
0 208 170
0 192 158
0 206 167
0 201 165
0 200 164
0 206 168
0 209 171
0 202 166
0 206 169
0 196 161
0 202 167
0 200 163
0 197 163
0 199 163
0 198 162
0 201 164
0 186 155
0 203 166
0 193 161
0 197 161
0 198 163
0 197 161
0 200 165
0 197 162
0 198 161
0 197 160
0 202 165
0 196 163
0 203 165
0 192 159
0 197 160
0 190 157
0 200 164
0 196 162
0 199 163
0 202 166
0 190 156
0 190 156
0 192 157
0 201 164
0 194 160
0 193 159
0 186 155
0 190 157
0 192 157
0 187 157
0 185 153
0 186 156
0 198 162
0 193 160
0 188 155
0 198 163
0 196 159
0 187 155
0 196 158
0 184 153
0 191 157
0 192 157
0 179 151
0 175 146
0 185 153
0 187 156
0 181 149
0 190 158
0 184 151
0 191 159
0 173 145
0 192 158
0 198 163
0 188 156
0 195 160
0 199 162
0 190 156
0 193 159
0 192 159
0 193 160
0 207 170
0 202 168
0 194 159
0 184 150
0 199 162
0 186 153
0 189 158
0 191 159
0 191 156
0 192 157
0 186 153
0 194 160
0 188 156
0 184 153
0 190 156
0 187 155
0 183 151
0 185 153
0 184 151
0 190 157
0 186 152
0 180 148
0 176 144
0 174 146
0 179 148
0 177 147
0 181 150
0 183 150
0 172 142
0 177 147
0 166 139
0 177 147
0 178 147
0 179 147
0 171 143
0 177 147
0 179 148
0 168 139
0 171 141
0 186 153
0 174 146
0 180 150
0 166 140
0 176 146
0 181 149
0 189 156
0 176 147
0 175 149
0 183 151
0 176 146
0 176 145
0 183 153
0 185 153
0 178 149
0 173 144
0 164 139
0 174 146
0 178 149
0 180 148
0 172 141
0 165 140
0 185 152
0 177 150
0 181 150
0 161 136
0 182 150
0 165 140
0 184 154
0 179 147
0 183 150
0 180 147
0 183 152
0 176 145
0 167 138
0 175 145
0 180 150
0 181 150
0 175 144
0 181 152
0 181 150
0 180 149
0 176 145
0 171 141
0 187 154
0 184 152
0 180 149
0 184 152
0 182 151
0 185 152
0 189 155
0 183 148
0 185 150
0 186 154
0 191 159
0 185 153
0 192 159
0 189 158
0 184 152
0 184 154
0 189 156
0 182 153
0 187 154
0 188 156
0 188 156
0 184 152
0 184 152
0 198 164
0 186 153
0 185 153
0 192 156
0 188 156
0 188 158
0 181 151
0 197 161
0 196 162
0 189 153
0 179 148
0 183 151
0 192 156
0 201 165
0 195 161
0 200 162
0 196 162
0 195 160
0 198 162
0 192 159
0 194 159
0 186 154
0 198 161
0 193 156
0 195 160
0 194 157
0 195 156
0 190 158
0 191 155
0 204 167
0 193 158
0 196 161
0 200 163
0 190 158
0 203 165
0 195 160
0 192 155
0 192 157
0 197 160
0 192 157
0 195 161
0 198 163
0 189 155
0 201 162
0 194 158
0 203 168
0 199 162
0 200 162
0 208 169
0 198 161
0 198 164
0 197 160
0 195 159
0 198 163
0 205 167
0 205 167
0 200 163
0 195 162
0 201 164
0 198 161
0 202 164
0 197 162
0 197 159
0 202 163
0 202 165
0 210 171
0 199 164
0 195 160
0 204 167
0 203 165
0 207 168
0 205 166
0 198 160
0 202 161
0 203 163
0 202 164
0 208 171
0 210 170
0 202 164
0 201 162
0 202 166
0 199 160
0 199 162
0 207 170
0 208 171
0 208 169
0 206 166
0 208 169
0 204 168
0 206 168
0 209 171
0 208 168
0 206 167
0 210 171
0 212 172
0 199 162
0 212 170
0 206 166
0 204 166
0 208 168
0 205 167
0 202 163
0 207 168
0 210 168
0 212 172
0 204 164
0 208 170
0 206 168
0 207 165
0 208 169
0 210 169
0 207 170
0 206 166
0 209 168
0 210 169
0 209 170
0 213 171
0 210 172
0 206 167
0 207 167
0 203 164
0 206 165
0 207 169
0 209 169
0 212 174
0 213 173
0 204 166
0 211 172
0 211 169
0 211 173
0 210 168
0 213 172
0 209 170
0 210 172
0 212 171
0 214 173
0 206 167
0 210 169
0 208 167
0 215 175
0 207 168
0 209 170
0 207 167
0 217 177
0 213 171
0 212 170
0 212 171
0 208 171
0 209 169
0 218 178
0 211 168
0 208 169
0 209 168
0 211 170
0 209 168
0 212 172
0 211 169
0 216 176
0 211 169
0 209 169
0 218 177
0 212 170
0 213 174
0 209 173
0 217 177
0 210 172
0 217 177
0 214 175
0 215 176
0 211 173
0 208 170
0 212 173
0 213 175
0 212 173
0 214 174
0 215 177
0 212 173
0 210 173
0 207 170
0 211 173
0 208 171
0 216 176
0 213 174
0 211 173
0 210 172
0 213 175
0 216 176
0 211 173
0 213 173
0 211 173
0 206 168
0 210 174
0 211 173
0 209 171
0 209 170
0 204 168
0 204 169
0 207 169
0 210 173
0 209 170
0 200 165
0 212 174
0 209 172
0 212 173
0 201 165
0 213 174
0 202 167
0 202 165
0 212 172
0 210 171
0 206 168
0 205 168
0 210 172
0 207 169
0 206 169
0 207 170
0 206 167
0 204 165
0 211 171
0 206 168
0 202 166
0 205 167
0 203 165
0 204 169
0 206 168
0 207 167
0 197 160
0 208 169
0 203 167
0 202 167
0 197 163
0 211 172
0 209 169
0 203 168
0 196 161
0 204 167
0 189 158
0 203 165
0 198 162
0 206 168
0 180 151
0 196 160
0 198 162
0 194 162
0 199 163
0 204 167
0 186 155
0 199 165
0 198 162
0 199 164
0 199 163
0 199 163
0 186 153
0 195 159
0 196 160
0 191 158
0 196 160
0 196 160
0 191 157
0 184 152
0 197 162
0 202 166
0 191 160
0 188 156
0 192 158
0 197 162
0 190 158
0 192 159
0 194 160
0 197 163
0 192 158
0 181 151
0 188 156
0 192 158
0 184 152
0 178 149
0 188 155
0 188 154
0 194 159
0 187 155
0 191 158
0 180 150
0 188 154
0 185 154
0 193 160
0 180 150
0 188 157
0 186 154
0 200 165
0 183 151
0 191 158
0 193 158
0 201 165
0 194 160
0 200 165
0 197 158
0 196 159
0 188 156
0 194 160
0 195 161
0 194 158
0 195 160
0 191 159
0 188 157
0 198 164
0 179 148
0 186 156
0 173 144
0 185 155
0 191 157
0 176 146
0 187 155
0 187 154
0 184 152
0 180 150
0 174 144
0 177 147
0 185 152
0 188 156
0 181 150
0 176 145
0 185 152
0 176 144
0 174 144
0 190 157
0 177 148
0 172 143
0 180 147
0 183 149
0 169 142
0 177 147
0 178 147
0 186 155
0 168 140
0 188 153
0 176 146
0 177 148
0 171 143
0 177 149
0 192 157
0 176 146
0 187 154
0 182 151
0 167 138
0 180 147
0 179 148
0 178 149
0 186 152
0 183 151
0 177 147
0 167 140
0 178 146
0 176 146
0 177 144
0 178 148
0 178 148
0 186 154
0 184 152
0 171 142
0 185 152
0 184 154
0 173 145
0 180 150
0 172 142
0 190 155
0 188 155
0 180 149
0 179 150
0 186 154
0 180 149
0 182 152
0 181 149
0 183 150
0 194 161
0 183 151
0 185 149
0 184 151
0 190 158
0 180 148
0 175 145
0 184 152
0 185 152
0 181 149
0 182 151
0 182 152
0 185 152
0 185 154
0 181 151
0 180 150
0 179 147
0 188 156
0 181 151
0 189 157
0 190 157
0 187 156
0 182 150
0 182 150
0 189 154
0 191 156
0 181 149
0 189 155
0 192 159
0 195 163
0 184 153
0 188 156
0 191 157
0 190 155
0 190 155
0 197 161
0 195 160
0 189 155
0 191 156
0 185 154
0 193 157
0 199 163
0 191 155
0 184 152
0 189 158
0 192 157
0 194 160
0 192 160
0 197 162
0 191 157
0 193 159
0 200 164
0 196 160
0 193 159
0 184 152
0 201 164
0 196 157
0 194 158
0 198 164
0 194 158
0 196 160
0 193 160
0 201 166
0 200 164
0 206 166
0 191 157
0 197 162
0 194 158
0 201 162
0 206 168
0 204 166
0 194 160
0 201 164
0 200 160
0 199 160
0 202 166
0 193 159
0 193 155
0 198 162
0 198 162
0 198 161
0 201 165
0 200 163
0 204 168
0 206 169
0 197 161
0 200 162
0 198 162
0 200 164
0 196 160
0 206 167
0 204 166
0 197 165
0 199 162
0 201 166
0 194 158
0 201 164
0 203 166
0 206 166
0 206 166
0 205 169
0 199 162
0 204 166
0 210 173
0 208 167
0 202 161
0 203 165
0 202 163
0 206 166
0 203 162
0 204 167
0 210 172
0 211 172
0 206 168
0 211 172
0 211 170
0 205 165
0 204 167
0 203 166
0 202 164
0 209 170
0 206 167
0 210 170
0 211 167
0 205 167
0 207 170
0 209 170
0 211 170
0 204 167
0 209 169
0 206 167
0 206 167
0 207 167
0 208 168
0 206 169
0 203 166
0 207 166
0 209 167
0 212 171
0 210 172
0 206 168
0 209 169
0 208 170
0 209 169
0 205 165
0 209 170
0 213 171
0 209 169
0 211 172
0 209 167
0 211 173
0 207 169
0 213 173
0 211 172
0 206 167
0 209 168
0 209 170
0 205 166
0 210 170
0 209 169
0 213 174
0 214 174
0 211 170
0 208 168
0 209 169
0 209 168
0 208 171
0 216 175
0 210 172
0 215 175
0 208 167
0 211 170
0 214 174
0 206 166
0 206 167
0 212 174
0 209 170
0 213 173
0 211 172
0 206 167
0 213 172
0 202 162
0 205 165
0 211 169
0 207 169
0 211 170
0 207 169
0 214 172
0 210 171
0 210 174
0 208 173
0 214 174
0 216 175
0 214 175
0 208 170
0 212 175
0 214 175
0 209 172
0 209 171
0 211 173
0 210 173
0 214 174
0 212 175
0 213 174
0 206 168
0 216 177
0 213 174
0 216 174
0 206 170
0 208 172
0 212 173
0 210 173
0 210 171
0 208 170
0 208 169
0 208 170
0 215 174
0 206 168
0 211 172
0 213 174
0 216 175
0 207 170
0 207 171
0 207 170
0 211 172
0 209 169
0 205 168
0 204 169
0 210 171
0 204 167
0 203 167
0 202 164
0 200 165
0 204 166
0 210 171
0 204 168
0 210 172
0 202 167
0 209 169
0 209 171
0 208 171
0 206 168
0 211 172
0 208 171
0 212 172
0 201 166
0 205 169
0 203 165
0 203 168
0 199 163
0 207 168
0 207 168
0 212 170
0 198 164
0 200 167
0 203 165
0 205 167
0 210 171
0 199 163
0 201 167
0 204 168
0 210 170
0 197 162
0 200 163
0 199 162
0 203 163
0 206 167
0 193 159
0 195 158
0 198 163
0 197 162
0 194 159
0 198 162
0 199 163
0 198 162
0 201 164
0 184 152
0 203 166
0 191 156
0 191 157
0 193 158
0 206 167
0 202 165
0 191 157
0 193 160
0 195 161
0 196 161
0 187 157
0 198 164
0 196 161
0 195 161
0 195 161
0 192 156
0 193 160
0 194 160
0 188 155
0 190 155
0 196 159
0 185 153
0 192 158
0 188 154
0 194 161
0 192 159
0 197 160
0 196 160
0 187 154
0 184 153
0 177 147
0 182 151
0 187 155
0 190 157
0 191 158
0 191 157
0 192 159
0 186 153
0 196 162
0 186 155
0 192 159
0 200 164
0 183 152
0 198 164
0 201 164
0 196 160
0 198 160
0 198 163
0 191 158
0 193 159
0 187 157
0 197 162
0 194 157
0 202 165
0 195 162
0 186 154
0 193 160
0 195 159
0 193 159
0 186 155
0 187 154
0 186 153
0 180 150
0 181 148
0 190 155
0 185 152
0 183 152
0 177 146
0 188 154
0 179 148
0 181 150
0 184 151
0 177 147
0 181 148
0 182 150
0 169 140
0 167 140
0 177 147
0 173 144
0 178 148
0 172 144
0 178 145
0 180 148
0 181 149
0 179 148
0 175 146
0 176 146
0 179 149
0 186 153
0 176 146
0 183 152
0 172 144
0 185 154
0 185 153
0 171 144
0 170 141
0 180 149
0 172 144
0 171 145
0 179 148
0 187 154
0 184 152
0 176 148
0 188 155
0 172 141
0 186 156
0 184 155
0 180 149
0 177 148
0 177 148
0 173 145
0 184 151
0 175 145
0 178 147
0 177 148
0 186 154
0 181 149
0 177 147
0 189 156
0 178 148
0 196 162
0 182 150
0 181 150
0 180 152
0 182 150
0 176 149
0 188 153
0 182 151
0 185 154
0 193 157
0 196 162
0 179 146
0 193 157
0 191 159
0 179 150
0 188 158
0 183 151
0 186 154
0 177 149
0 190 157
0 180 152
0 183 150
0 194 160
0 186 152
0 185 151
0 190 157
0 184 151
0 194 157
0 180 148
0 183 152
0 189 157
0 194 160
0 193 158
0 188 156
0 189 155
0 185 150
0 183 154
0 190 155
0 189 155
0 192 158
0 189 156
0 191 157
0 193 160
0 191 155
0 190 155
0 193 158
0 187 155
0 191 156
0 190 158
0 199 162
0 193 160
0 198 160
0 191 157
0 191 160
0 193 159
0 191 158
0 191 158
0 197 162
0 193 158
0 199 162
0 198 163
0 203 165
0 199 164
0 190 157
0 197 160
0 196 161
0 197 160
0 193 160
0 190 155
0 195 158
0 198 162
0 198 163
0 202 166
0 202 167
0 192 158
0 203 165
0 194 160
0 199 164
0 193 157
0 204 167
0 200 164
0 202 164
0 193 156
0 192 156
0 208 168
0 200 163
0 195 160
0 200 163
0 204 164
0 202 164
0 202 164
0 201 165
0 203 167
0 205 167
0 200 161
0 201 163
0 195 160
0 206 167
0 199 164
0 210 171
0 199 163
0 208 170
0 205 168
0 203 165
0 200 161
0 205 165
0 202 162
0 209 171
0 206 167
0 209 170
0 204 166
0 208 169
0 201 162
0 213 174
0 197 162
0 204 166
0 198 162
0 207 167
0 207 166
0 208 170
0 203 164
0 205 167
0 210 169
0 207 168
0 205 167
0 205 167
0 202 164
0 205 166
0 209 168
0 207 168
0 208 169
0 206 166
0 210 169
0 210 173
0 209 169
0 209 170
0 208 167
0 206 168
0 209 168
0 207 169
0 211 170
0 210 170
0 211 170
0 211 172
0 204 168
0 207 167
0 213 172
0 207 166
0 212 171
0 205 168
0 210 171
0 202 165
0 211 172
0 212 172
0 206 167
0 203 164
0 207 167
0 202 164
0 214 175
0 213 174
0 209 170
0 207 169
0 209 170
0 211 169
0 210 169
0 211 170
0 213 174
0 205 165
0 208 169
0 210 171
0 213 172
0 209 170
0 213 172
0 213 171
0 214 173
0 209 170
0 211 170
0 211 170
0 214 174
0 211 170
0 214 175
0 212 173
0 212 173
0 213 172
0 213 171
0 211 171
0 209 171
0 209 169
0 214 173
0 211 170
0 211 171
0 213 173
0 218 178
0 218 177
0 215 177
0 214 175
0 213 175
0 215 177
0 210 173
0 213 175
0 215 174
0 211 174
0 208 170
0 215 177
0 213 176
0 212 175
0 209 172
0 214 174
0 210 173
0 214 174
0 210 172
0 205 168
0 209 172
0 212 174
0 205 168
0 213 173
0 211 174
0 208 171
0 212 175
0 208 172
0 212 173
0 208 171
0 213 173
0 208 171
0 209 170
0 202 168
0 211 173
0 210 171
0 211 173
0 214 175
0 205 169
0 208 169
0 210 170
0 206 170
0 215 175
0 202 166
0 205 167
0 205 169
0 207 169
0 205 164
0 212 173
0 208 170
0 204 167
0 214 174
0 205 167
0 208 169
0 207 171
0 204 166
0 209 170
0 201 164
0 205 167
0 205 169
0 207 169
0 205 167
0 200 164
0 202 165
0 204 167
0 205 168
0 203 165
0 203 166
0 195 158
0 204 166
0 201 165
0 207 169
0 205 166
0 197 162
0 198 162
0 197 164
0 194 160
0 200 162
0 197 160
0 205 165
0 203 167
0 196 162
0 197 161
0 200 164
0 194 159
0 204 165
0 193 158
0 196 161
0 189 153
0 195 161
0 193 158
0 202 166
0 191 155
0 195 161
0 205 169
0 193 159
0 194 159
0 192 157
0 196 162
0 198 163
0 195 161
0 198 161
0 190 158
0 200 163
0 188 155
0 193 158
0 187 154
0 195 160
0 190 157
0 193 159
0 186 154
0 197 162
0 191 157
0 196 162
0 184 152
0 184 153
0 190 157
0 185 155
0 188 155
0 186 154
0 187 154
0 188 155
0 187 154
0 197 164
0 188 157
0 191 157
0 193 159
0 191 159
0 202 167
0 191 157
0 192 159
0 202 166
0 199 165
0 196 160
0 196 164
0 193 159
0 201 165
0 197 164
0 188 156
0 189 158
0 198 162
0 190 159
0 198 160
0 188 156
0 193 158
0 189 154
0 187 154
0 199 163
0 183 152
0 177 148
0 179 149
0 184 153
0 180 150
0 180 149
0 184 152
0 177 149
0 187 154
0 191 155
0 188 154
0 176 145
0 188 155
0 181 152
0 178 147
0 179 151
0 187 154
0 176 146
0 177 145
0 182 150
0 186 152
0 183 150
0 194 159
0 183 151
0 175 145
0 183 151
0 182 151
0 186 155
0 193 159
0 187 156
0 183 152
0 183 152
0 181 150
0 181 150
0 176 148
0 185 153
0 183 151
0 183 153
0 178 148
0 180 150
0 178 149
0 184 150
0 180 149
0 181 151
0 185 154
0 188 153
0 181 150
0 176 149
0 187 154
0 178 148
0 181 149
0 181 149
0 185 153
0 190 157
0 180 149
0 191 159
0 183 152
0 184 153
0 187 155
0 184 152
0 191 156
0 184 154
0 187 156
0 180 148
0 182 150
0 184 153
0 190 156
0 185 153
0 183 153
0 184 152
0 179 148
0 191 156
0 192 155
0 189 153
0 188 154
0 179 150
0 189 157
0 202 166
0 187 154
0 193 160
0 191 156
0 178 148
0 198 163
0 184 153
0 186 155
0 189 156
0 177 148
0 185 154
0 181 151
0 187 154
0 200 165
0 188 154
0 194 160
0 193 159
0 188 158
0 201 166
0 189 155
0 193 159
0 185 155
0 192 159
0 193 160
0 185 153
0 197 162
0 196 163
0 189 154
0 190 156
0 192 159
0 191 157
0 189 156
0 196 161
0 184 151
0 193 158
0 192 155
0 192 159
0 193 160
0 196 162
0 196 159
0 193 158
0 196 160
0 197 165
0 192 156
0 197 160
0 196 161
0 202 165
0 203 165
0 193 157
0 196 158
0 198 162
0 203 167
0 199 162
0 198 164
0 200 165
0 201 164
0 191 156
0 196 159
0 203 167
0 197 159
0 204 166
0 197 162
0 204 167
0 192 157
0 202 165
0 202 162
0 204 168
0 206 169
0 201 162
0 198 163
0 200 167
0 198 159
0 198 161
0 194 161
0 201 164
0 206 166
0 202 164
0 207 168
0 200 165
0 206 168
0 203 164
0 201 166
0 199 162
0 205 166
0 194 158
0 197 162
0 204 167
0 196 162
0 208 171
0 201 164
0 204 165
0 208 170
0 206 167
0 197 162
0 199 165
0 204 166
0 203 166
0 205 167
0 210 170
0 201 163
0 204 164
0 209 171
0 202 165
0 205 166
0 211 171
0 212 172
0 212 174
0 210 171
0 209 167
0 204 168
0 208 168
0 209 168
0 206 165
0 209 169
0 213 174
0 203 163
0 204 166
0 209 172
0 204 167
0 211 171
0 208 170
0 204 163
0 200 161
0 203 165
0 207 169
0 208 167
0 207 166
0 209 168
0 211 171
0 206 167
0 206 166
0 209 170
0 205 165
0 210 171
0 214 173
0 210 170
0 208 169
0 211 172
0 209 168
0 210 171
0 208 167
0 213 173
0 206 168
0 213 172
0 209 171
0 213 173
0 211 172
0 211 172
0 211 169
0 215 174
0 209 168
0 216 175
0 212 172
0 208 167
0 207 169
0 210 170
0 212 172
0 212 171
0 213 173
0 216 176
0 211 172
0 214 175
0 209 170
0 214 174
0 211 171
0 210 167
0 211 170
0 209 168
0 213 170
0 213 174
0 209 170
0 215 176
0 212 173
0 212 171
0 213 174
0 213 175
0 212 175
0 214 176
0 215 176
0 209 171
0 216 179
0 216 176
0 207 169
0 213 174
0 214 176
0 212 174
0 210 172
0 217 176
0 214 173
0 210 172
0 212 174
0 206 169
0 212 173
0 212 174
0 216 176
0 213 174
0 216 176
0 212 173
0 210 172
0 204 169
0 208 170
0 204 168
0 212 173
0 207 171
0 212 172
0 212 173
0 205 169
0 210 170
0 208 170
0 210 172
0 208 169
0 203 166
0 202 167
0 208 171
0 205 167
0 207 171
0 202 166
0 206 169
0 208 170
0 213 171
0 213 173
0 206 168
0 207 169
0 201 165
0 205 166
0 204 167
0 204 165
0 197 162
0 206 168
0 208 168
0 205 166
0 211 171
0 206 166
0 212 172
0 209 169
0 207 167
0 200 165
0 211 171
0 204 166
0 194 161
0 199 163
0 201 165
0 199 163
0 200 163
0 195 161
0 199 163
0 196 161
0 206 167
0 201 163
0 198 164
0 186 154
0 203 165
0 202 166
0 196 162
0 192 157
0 200 164
0 200 162
0 198 161
0 197 162
0 207 168
0 197 163
0 191 156
0 193 160
0 201 165
0 197 161
0 200 165
0 203 164
0 185 154
0 185 154
0 192 157
0 189 158
0 196 162
0 187 154
0 192 158
0 191 157
0 195 163
0 199 163
0 197 160
0 191 158
0 193 159
0 197 161
0 204 166
0 191 158
0 192 159
0 195 160
0 194 160
0 188 156
0 193 159
0 192 158
0 188 156
0 188 157
0 185 154
0 195 161
0 189 156
0 185 154
0 188 156
0 199 163
0 187 156
0 192 159
0 194 160
0 195 162
0 196 162
0 194 161
0 203 167
0 194 161
0 198 163
0 206 168
0 200 166
0 200 165
0 201 165
0 199 163
0 202 166
0 203 167
0 193 160
0 196 161
0 196 162
0 191 157
0 191 156
0 190 154
0 194 159
0 192 160
0 181 151
0 186 153
0 198 162
0 193 159
0 183 152
0 187 155
0 183 153
0 183 151
0 180 148
0 179 148
0 169 141
0 175 146
0 184 153
0 186 153
0 182 152
0 183 153
0 183 150
0 181 151
0 178 147
0 174 146
0 177 148
0 173 144
0 184 151
0 190 157
0 185 152
0 182 151
0 178 147
0 177 147
0 176 147
0 186 153
0 186 152
0 172 145
0 185 153
0 176 146
0 177 146
0 178 147
0 172 144
0 176 148
0 180 150
0 178 147
0 177 149
0 184 150
0 188 154
0 180 151
0 183 150
0 179 148
0 184 152
0 173 146
0 186 151
0 180 151
0 184 152
0 181 150
0 184 150
0 180 149
0 177 147
0 180 150
0 179 148
0 177 149
0 191 156
0 188 157
0 185 153
0 178 149
0 186 155
0 184 151
0 180 151
0 193 158
0 192 160
0 176 146
0 184 154
0 178 151
0 183 152
0 190 154
0 181 149
0 178 148
0 186 153
0 189 154
0 181 151
0 184 153
0 189 157
0 194 160
0 181 150
0 187 155
0 190 157
0 195 160
0 190 156
0 191 158
0 182 153
0 178 148
0 192 156
0 193 159
0 180 149
0 194 161
0 187 154
0 194 161
0 189 156
0 193 160
0 197 158
0 186 153
0 194 159
0 184 149
0 190 154
0 188 153
0 188 152
0 186 151
0 192 157
0 195 162
0 187 153
0 192 160
0 186 154
0 189 157
0 193 159
0 203 166
0 197 161
0 197 163
0 194 160
0 200 162
0 199 164
0 191 158
0 187 154
0 190 155
0 191 158
0 193 160
0 197 162
0 203 167
0 193 158
0 204 167
0 198 162
0 197 163
0 201 165
0 197 160
0 201 164
0 192 158
0 190 157
0 206 171
0 200 165
0 198 163
0 189 156
0 193 159
0 199 164
0 197 162
0 203 165
0 202 164
0 203 167
0 201 164
0 200 163
0 203 167
0 208 168
0 200 164
0 199 162
0 201 164
0 201 163
0 198 160
0 207 168
0 202 165
0 201 161
0 204 165
0 203 167
0 199 162
0 209 169
0 197 161
0 205 165
0 199 163
0 198 159
0 201 164
0 200 163
0 205 168
0 208 172
0 206 169
0 198 163
0 201 165
0 200 163
0 208 171
0 202 165
0 205 167
0 205 167
0 206 168
0 202 166
0 203 167
0 207 171
0 207 168
0 201 163
0 204 167
0 210 172
0 211 173
0 207 168
0 210 172
0 202 165
0 201 163
0 203 165
0 208 170
0 212 172
0 197 159
0 206 168
0 201 165
0 204 168
0 207 169
0 211 173
0 206 169
0 209 168
0 206 167
0 211 173
0 207 167
0 204 168
0 205 166
0 211 172
0 202 161
0 207 171
0 203 163
0 206 169
0 213 175
0 207 169
0 209 167
0 208 168
0 214 172
0 206 168
0 215 176
0 210 171
0 205 168
0 203 164
0 201 165
0 211 172
0 209 169
0 202 163
0 212 171
0 209 169
0 212 173
0 209 170
0 207 168
0 215 175
0 206 168
0 207 166
0 212 170
0 212 174
0 210 171
0 215 173
0 214 173
0 210 173
0 210 170
0 216 174
0 211 171
0 208 171
0 211 171
0 210 171
0 214 173
0 209 169
0 210 170
0 208 169
0 213 172
0 213 175
0 213 174
0 210 170
0 212 171
0 213 172
0 215 171
0 213 175
0 213 175
0 208 171
0 219 178
0 213 175
0 216 176
0 213 175
0 212 174
0 212 175
0 213 175
0 207 169
0 212 175
0 214 173
0 215 176
0 212 175
0 213 174
0 209 172
0 203 168
0 212 174
0 206 169
0 209 173
0 208 169
0 209 171
0 213 171
0 209 170
0 215 176
0 218 178
0 211 173
0 213 172
0 210 173
0 210 170
0 209 172
0 211 171
0 208 169
0 206 170
0 209 170
0 213 174
0 207 169
0 212 173
0 203 164
0 203 167
0 207 168
0 217 175
0 203 165
0 210 171
0 208 170
0 206 170
0 202 167
0 208 171
0 208 169
0 201 163
0 206 169
0 207 169
0 205 168
0 201 165
0 208 169
0 203 166
0 206 169
0 205 167
0 202 163
0 207 169
0 203 168
0 200 166
0 202 166
0 200 164
0 201 165
0 199 164
0 198 162
0 206 167
0 199 162
0 200 164
0 200 163
0 199 164
0 204 168
0 196 162
0 199 162
0 194 159
0 204 165
0 195 162
0 197 162
0 203 165
0 204 165
0 198 160
0 200 164
0 196 162
0 189 156
0 210 170
0 192 159
0 192 158
0 187 155
0 194 160
0 198 163
0 199 162
0 203 164
0 195 160
0 197 161
0 186 154
0 192 159
0 190 157
0 193 158
0 195 158
0 197 161
0 204 166
0 185 153
0 200 163
0 195 159
0 191 158
0 191 158
0 184 154
0 195 159
0 195 157
0 198 163
0 192 156
0 189 155
0 187 156
0 200 165
0 201 165
0 191 159
0 192 159
0 192 158
0 187 155
0 186 154
0 185 154
0 192 159
0 199 164
0 199 165
0 194 162
0 193 160
0 199 163
0 199 164
0 203 167
0 200 164
0 203 166
0 194 162
0 198 163
0 190 158
0 194 161
0 196 160
0 199 165
0 202 167
0 189 158
0 203 166
0 185 153
0 187 154
0 200 163
0 182 152
0 181 149
0 186 154
0 192 156
0 183 150
0 197 161
0 184 151
0 186 155
0 179 149
0 191 160
0 184 151
0 188 156
0 180 149
0 188 154
0 179 149
0 190 155
0 184 153
0 184 151
0 174 146
0 186 153
0 187 155
0 184 151
0 192 160
0 184 153
0 182 152
0 178 148
0 185 150
0 180 149
0 190 158
0 177 147
0 184 153
0 185 151
0 183 151
0 191 159
0 179 147
0 186 154
0 182 149
0 175 146
0 178 147
0 188 154
0 183 152
0 173 146
0 197 162
0 184 152
0 182 150
0 190 157
0 189 157
0 184 152
0 186 153
0 179 149
0 181 150
0 190 157
0 186 155
0 190 155
0 181 151
0 175 146
0 188 156
0 188 157
0 181 151
0 178 150
0 192 160
0 192 160
0 179 150
0 185 153
0 177 151
0 189 155
0 192 157
0 192 158
0 186 154
0 188 154
0 187 157
0 194 159
0 187 154
0 185 153
0 182 149
0 186 155
0 194 160
0 187 156
0 187 155
0 191 156
0 175 147
0 185 154
0 188 154
0 181 151
0 204 167
0 187 153
0 178 147
0 197 162
0 188 154
0 188 155
0 195 161
0 190 157
0 196 159
0 183 152
0 189 156
0 182 153
0 184 154
0 197 162
0 187 154
0 197 163
0 189 157
0 202 167
0 193 158
0 180 148
0 187 155
0 196 161
0 188 155
0 199 163
0 195 161
0 187 156
0 195 161
0 199 161
0 190 158
0 195 158
0 198 162
0 195 159
0 194 159
0 197 163
0 194 160
0 196 159
0 202 165
0 198 161
0 190 156
0 194 160
0 203 167
0 202 165
0 196 161
0 206 169
0 196 160
0 194 159
0 201 163
0 200 162
0 203 166
0 192 158
0 204 168
0 203 167
0 197 163
0 204 166
0 190 157
0 208 170
0 198 162
0 207 170
0 196 161
0 204 166
0 206 168
0 198 162
0 201 163
0 200 163
0 203 165
0 199 162
0 198 158
0 195 160
0 207 169
0 197 160
0 205 167
0 202 163
0 203 167
0 203 165
0 196 160
0 198 162
0 206 168
0 199 162
0 205 168
0 203 166
0 203 165
0 210 172
0 204 167
0 200 162
0 207 168
0 199 164
0 203 166
0 201 164
0 205 167
0 204 166
0 205 168
0 212 174
0 207 169
0 202 163
0 204 165
0 206 168
0 203 165
0 203 166
0 213 174
0 204 166
0 203 163
0 202 165
0 205 167
0 207 170
0 203 166
0 212 170
0 208 170
0 207 168
0 207 170
0 202 162
0 203 166
0 208 170
0 214 173
0 204 168
0 211 172
0 204 165
0 205 164
0 203 163
0 209 167
0 209 169
0 206 168
0 211 170
0 213 174
0 213 172
0 209 168
0 206 169
0 208 170
0 211 172
0 206 168
0 210 172
0 210 170
0 204 165
0 210 173
0 208 167
0 215 177
0 210 169
0 210 170
0 205 165
0 210 170
0 211 172
0 210 170
0 205 165
0 209 172
0 213 173
0 212 171
0 208 167
0 210 169
0 209 171
0 202 166
0 214 173
0 210 170
0 213 175
0 208 168
0 212 172
0 215 174
0 207 166
0 210 170
0 213 173
0 210 169
0 210 171
0 211 172
0 216 175
0 210 169
0 210 171
0 215 174
0 211 170
0 215 174
0 210 168
0 213 175
0 212 172
0 216 175
0 214 175
0 215 175
0 209 172
0 213 176
0 213 175
0 214 175
0 207 170
0 214 174
0 214 175
0 213 172
0 210 170
0 217 176
0 213 173
0 216 176
0 213 176
0 210 171
0 214 174
0 207 170
0 211 172
0 211 172
0 208 170
0 202 167
0 212 174
0 212 174
0 204 168
0 211 173
0 210 170
0 209 170
0 207 170
0 213 173
0 210 170
0 209 172
0 214 174
0 210 172
0 209 170
0 203 166
0 209 172
0 209 172
0 210 171
0 208 170
0 207 168
0 210 171
0 208 169
0 209 170
0 204 166
0 207 169
0 213 173
0 207 168
0 205 166
0 205 168
0 206 166
0 203 167
0 203 164
0 204 165
0 205 168
0 201 166
0 199 164
0 208 169
0 202 166
0 202 164
0 196 161
0 207 166
0 207 169
0 205 168
0 203 166
0 207 166
0 206 165
0 203 165
0 202 165
0 202 165
0 202 164
0 198 163
0 197 163
0 202 164
0 200 163
0 201 164
0 196 159
0 200 162
0 204 166
0 202 166
0 203 166
0 199 162
0 190 158
0 195 160
0 202 164
0 204 166
0 198 163
0 199 163
0 196 161
0 207 169
0 196 161
0 197 161
0 197 161
0 198 162
0 189 153
0 194 161
0 190 157
0 192 159
0 193 159
0 196 162
0 194 160
0 199 160
0 192 156
0 195 162
0 197 161
0 193 159
0 193 158
0 199 162
0 194 160
0 194 159
0 191 159
0 200 165
0 191 157
0 195 158
0 187 155
0 188 155
0 200 164
0 201 164
0 186 155
0 185 154
0 194 159
0 193 160
0 189 158
0 196 162
0 190 158
0 198 162
0 199 164
0 192 159
0 197 163
0 205 167
0 196 161
0 193 159
0 197 164
0 196 162
0 201 165
0 198 163
0 204 169
0 198 163
0 194 159
0 196 162
0 198 164
0 193 157
0 190 158
0 195 161
0 194 161
0 194 156
0 193 159
0 187 153
0 183 152
0 180 149
0 195 161
0 180 151
0 191 156
0 186 153
0 178 149
0 195 161
0 177 148
0 183 152
0 187 156
0 185 153
0 184 154
0 185 153
0 184 153
0 169 141
0 187 155
0 189 156
0 199 164
0 194 160
0 182 151
0 189 155
0 187 153
0 179 150
0 175 147
0 189 158
0 171 144
0 188 155
0 184 152
0 182 151
0 192 158
0 186 153
0 182 149
0 177 148
0 180 148
0 169 141
0 182 150
0 193 160
0 163 138
0 192 159
0 181 149
0 181 149
0 185 153
0 196 160
0 182 149
0 181 150
0 198 163
0 185 154
0 187 155
0 185 153
0 185 154
0 180 152
0 186 152
0 186 154
0 178 147
0 184 153
0 182 151
0 188 156
0 174 146
0 192 159
0 192 158
0 195 159
0 193 158
0 183 150
0 191 158
0 186 153
0 185 154
0 191 157
0 193 159
0 193 158
0 196 161
0 190 158
0 191 160
0 190 156
0 186 152
0 188 155
0 189 155
0 192 158
0 197 162
0 189 157
0 191 157
0 188 155
0 185 153
0 185 153
0 183 152
0 192 157
0 188 157
0 188 156
0 191 156
0 197 160
0 191 157
0 198 162
0 201 166
0 193 159
0 185 151
0 198 160
0 186 155
0 199 163
0 194 162
0 197 161
0 202 167
0 187 155
0 188 154
0 190 156
0 196 162
0 194 157
0 187 155
0 193 160
0 201 163
0 191 156
0 195 159
0 197 162
0 187 154
0 196 160
0 199 163
0 201 164
0 193 159
0 196 161
0 200 164
0 205 167
0 200 165
0 189 156
0 196 160
0 197 161
0 192 156
0 201 163
0 201 162
0 201 164
0 197 159
0 195 162
0 200 162
0 201 165
0 202 166
0 206 168
0 204 166
0 201 165
0 205 168
0 202 163
0 203 166
0 199 161
0 201 164
0 200 164
0 201 165
0 203 165
0 206 166
0 207 167
0 203 167
0 201 164
0 198 161
0 209 168
0 199 165
0 194 161
0 204 166
0 205 167
0 195 159
0 200 163
0 195 159
0 207 168
0 205 168
0 207 169
0 211 172
0 207 170
0 211 171
0 201 165
0 207 169
0 205 166
0 199 162
0 204 167
0 205 166
0 206 167
0 206 167
0 203 163
0 196 158
0 208 171
0 207 167
0 208 168
0 207 170
0 199 162
0 206 168
0 204 166
0 208 170
0 205 163
0 209 170
0 204 167
0 207 167
0 212 173
0 205 168
0 208 170
0 203 167
0 205 166
0 208 168
0 210 171
0 204 167
0 202 163
0 207 168
0 206 166
0 205 168
0 204 166
0 210 170
0 209 170
0 210 169
0 203 166
0 209 169
0 212 171
0 204 166
0 210 171
0 201 165
0 208 172
0 209 169
0 213 173
0 213 169
0 205 169
0 210 169
0 205 166
0 206 166
0 214 173
0 211 171
0 206 167
0 212 174
0 208 170
0 206 167
0 209 171
0 210 172
0 208 167
0 210 172
0 206 166
0 210 168
0 214 173
0 212 171
0 209 169
0 209 171
0 210 169
0 209 170
0 210 171
0 214 173
0 211 171
0 211 170
0 211 170
0 211 172
0 204 167
0 217 175
0 212 171
0 213 172
0 206 168
0 216 174
0 215 172
0 218 177
0 213 172
0 213 172
0 212 174
0 215 175
0 209 171
