P3
400 225
255
0 220 181
0 221 181
0 221 181
0 222 181
0 220 180
0 221 181
0 221 181
0 221 181
0 221 181
0 221 181
0 221 180
0 222 181
0 221 181
0 220 181
0 221 181
0 221 181
0 221 181
0 222 181
0 222 181
0 220 180
0 220 180
0 222 181
0 221 181
0 221 181
0 222 181
0 221 181
0 221 181
0 221 181
0 220 181
0 221 181
0 221 181
0 222 181
0 220 180
0 221 181
0 222 181
0 222 181
0 221 181
0 220 180
0 221 181
0 220 181
0 221 181
0 222 181
0 220 181
0 221 181
0 222 181
0 221 181
0 221 180
0 221 181
0 221 181
0 221 181
0 222 181
0 221 181
0 220 181
0 221 181
0 221 181
0 221 181
0 221 181
0 222 181
0 221 181
0 221 181
0 222 181
0 221 181
0 221 181
0 221 181
0 221 181
0 221 181
0 222 181
0 222 181
0 221 181
0 222 181
0 220 180
0 221 181
0 222 181
0 222 181
0 221 181
0 221 181
0 221 180
0 221 181
0 220 180
0 221 181
0 221 181
0 221 181
0 222 181
0 221 180
0 221 181
0 220 181
0 220 180
0 221 181
0 221 180
0 221 181
0 221 181
0 220 180
0 220 180
0 221 181
0 220 181
0 221 181
0 221 181
0 221 181
0 220 180
0 222 181
0 221 181
0 221 181
0 220 181
0 222 181
0 221 181
0 218 179
0 222 181
0 221 181
0 221 181
0 220 180
0 221 181
0 221 180
0 222 181
0 221 181
0 222 181
0 220 180
0 222 181
0 221 181
0 222 181
0 221 180
0 221 180
0 221 181
0 221 181
0 221 180
0 221 181
0 222 181
0 221 181
0 219 180
0 222 181
0 221 181
0 221 179
0 222 181
0 221 181
0 222 181
0 222 181
0 222 181
0 221 181
0 221 181
0 221 181
0 220 179
0 221 180
0 220 181
0 221 181
0 220 179
0 220 180
0 221 181
0 220 180
0 221 180
0 221 181
0 219 180
0 220 180
0 222 181
0 220 179
0 221 180
0 221 180
0 221 180
0 220 180
0 221 181
0 220 180
0 221 181
0 220 180
0 220 181
0 221 181
0 220 180
0 221 181
0 220 180
0 220 179
0 221 181
0 221 181
0 220 180
0 218 179
0 221 179
0 221 181
0 220 180
0 221 181
0 220 180
0 220 180
0 220 179
0 221 181
0 220 181
0 220 181
0 221 181
0 219 180
0 220 179
0 220 180
0 221 181
0 221 181
0 220 180
0 221 181
0 221 181
0 220 180
0 220 180
0 221 181
0 221 180
0 221 180
0 220 179
0 221 180
0 219 179
0 221 181
0 221 181
0 220 180
0 221 180
0 220 179
0 219 179
0 218 179
0 220 180
0 220 179
0 218 178
0 219 179
0 221 181
0 221 181
0 219 179
0 221 181
0 221 180
0 220 180
0 220 180
0 219 179
0 219 179
0 220 181
0 218 179
0 217 178
0 219 179
0 221 181
0 222 181
0 221 180
0 221 180
0 218 179
0 218 178
0 218 179
0 220 180
0 221 181
0 220 180
0 219 178
0 221 181
0 220 180
0 219 179
0 221 181
0 221 180
0 219 179
0 220 179
0 219 179
0 221 181
0 222 181
0 221 181
0 220 181
0 220 179
0 220 180
0 221 181
0 220 180
0 221 181
0 222 181
0 220 180
0 221 181
0 221 181
0 219 179
0 221 181
0 220 180
0 221 181
0 220 180
0 222 181
0 221 180
0 221 180
0 220 180
0 221 181
0 221 180
0 221 180
0 219 179
0 221 181
0 220 180
0 221 181
0 220 180
0 221 180
0 220 179
0 220 180
0 222 181
0 222 181
0 220 180
0 221 181
0 220 180
0 221 180
0 220 179
0 222 181
0 222 181
0 220 180
0 221 179
0 221 181
0 222 181
0 221 181
0 221 181
0 221 180
0 222 180
0 221 181
0 221 181
0 220 180
0 220 181
0 221 180
0 221 180
0 220 180
0 221 181
0 220 181
0 221 180
0 222 181
0 222 181
0 221 181
0 220 179
0 221 181
0 221 181
0 221 181
0 221 180
0 221 181
0 222 181
0 222 181
0 220 181
0 222 181
0 221 181
0 221 181
0 218 178
0 220 180
0 222 181
0 221 181
0 221 180
0 221 181
0 220 180
0 220 179
0 220 180
0 221 179
0 220 180
0 221 180
0 221 181
0 221 180
0 221 180
0 221 181
0 221 181
0 219 178
0 220 180
0 219 179
0 220 181
0 219 179
0 220 180
0 220 179
0 221 181
0 221 180
0 221 181
0 220 180
0 221 181
0 219 178
0 221 180
0 221 180
0 221 180
0 221 180
0 221 181
0 220 180
0 221 181
0 220 180
0 221 181
0 221 181
0 220 181
0 221 181
0 221 181
0 220 180
0 221 181
0 222 181
0 221 181
0 219 178
0 222 181
0 220 180
0 220 180
0 221 181
0 222 181
0 222 181
0 221 180
0 221 180
0 221 181
0 222 181
0 221 181
0 222 181
0 222 181
0 221 181
0 221 181
0 221 181
0 220 180
0 221 181
0 222 181
0 221 181
0 221 181
0 221 181
0 221 181
0 221 181
0 223 181
0 221 181
0 220 179
0 221 181
0 222 181
0 222 181
0 222 181
0 222 181
0 220 180
0 220 180
0 221 181
0 220 180
0 220 180
0 221 181
0 221 181
0 220 180
0 221 181
0 221 181
0 221 181
0 220 180
0 221 181
0 221 181
0 221 181
0 221 181
0 221 181
0 221 181
0 221 181
0 221 181
0 221 181
0 221 181
0 222 180
0 221 181
0 221 181
0 221 181
0 221 181
0 221 181
0 221 181
0 221 181
0 222 181
0 222 181
0 221 181
0 222 181
0 221 181
0 221 180
0 221 181
0 220 181
0 221 181
0 221 181
0 221 181
0 221 181
0 222 181
0 221 181
0 221 181
0 222 181
0 221 181
0 222 181
0 221 181
0 223 181
0 220 181
0 221 181
0 221 181
0 221 180
0 222 181
0 221 181
0 221 181
0 220 180
0 221 181
0 222 181
0 221 180
0 221 181
0 221 180
0 221 181
0 221 181
0 220 181
0 221 181
0 220 181
0 222 181
0 221 180
0 221 181
0 220 180
0 221 181
0 221 180
0 220 181
0 220 181
0 221 181
0 221 181
0 222 181
0 221 181
0 220 179
0 222 181
0 222 181
0 221 181
0 221 181
0 221 181
0 222 181
0 221 181
0 220 181
0 220 180
0 222 181
0 221 181
0 222 181
0 220 181
0 221 181
0 221 181
0 221 180
0 221 181
0 222 181
0 222 181
0 220 180
0 221 181
0 220 181
0 221 181
0 221 181
0 221 181
0 222 181
0 221 181
0 221 181
0 221 181
0 221 180
0 220 180
0 221 181
0 222 181
0 221 181
0 221 179
0 222 181
0 220 181
0 222 181
0 220 180
0 222 181
0 221 180
0 222 181
0 221 181
0 220 180
0 219 180
0 220 180
0 221 180
0 222 181
0 220 179
0 221 181
0 222 181
0 221 181
0 221 181
0 218 180
0 221 181
0 221 180
0 221 181
0 221 180
0 221 181
0 220 180
0 221 180
0 220 180
0 220 180
0 221 181
0 220 180
0 222 181
0 221 181
0 221 181
0 222 180
0 221 181
0 221 181
0 220 180
0 219 178
0 221 181
0 219 179
0 221 181
0 220 180
0 221 180
0 221 180
0 220 179
0 221 180
0 220 181
0 221 181
0 221 181
0 220 181
0 221 180
0 222 181
0 222 179
0 221 180
0 220 179
0 221 181
0 220 179
0 219 179
0 222 181
0 221 180
0 221 181
0 221 181
0 222 181
0 221 179
0 220 180
0 222 181
0 220 181
0 221 180
0 221 181
0 220 180
0 219 179
0 222 181
0 221 180
0 219 178
0 221 180
0 222 181
0 220 179
0 219 179
0 222 181
0 219 180
0 222 181
0 221 181
0 222 181
0 221 181
0 220 180
0 219 179
0 220 180
0 220 181
0 219 179
0 220 180
0 220 180
0 219 179
0 220 180
0 222 181
0 220 180
0 220 180
0 221 180
0 220 180
0 221 181
0 220 181
0 220 180
0 221 181
0 221 180
0 221 181
0 220 180
0 220 180
0 222 181
0 219 178
0 220 180
0 221 180
0 220 179
0 221 180
0 220 180
0 218 180
0 222 181
0 219 178
0 220 180
0 222 181
0 221 181
0 220 180
0 219 179
0 220 180
0 220 180
0 220 180
0 220 180
0 221 181
0 219 179
0 220 180
0 221 181
0 220 180
0 221 180
0 220 180
0 221 180
0 220 180
0 221 181
0 220 181
0 221 181
0 220 179
0 220 180
0 220 180
0 221 180
0 221 180
0 220 180
0 220 180
0 218 178
0 220 179
0 221 181
0 221 180
0 221 181
0 221 180
0 220 179
0 220 180
0 222 181
0 220 179
0 221 180
0 221 180
0 221 181
0 220 181
0 220 180
0 220 180
0 220 180
0 221 181
0 222 181
0 220 180
0 221 181
0 220 180
0 221 180
0 221 181
0 221 181
0 220 180
0 219 179
0 221 181
0 220 180
0 221 181
0 219 179
0 220 180
0 221 179
0 221 181
0 219 179
0 221 181
0 220 179
0 220 180
0 220 180
0 220 180
0 220 180
0 221 181
0 222 181
0 221 180
0 220 181
0 220 181
0 221 181
0 220 180
0 220 180
0 220 180
0 221 180
0 220 180
0 220 180
0 221 181
0 220 180
0 221 181
0 222 180
0 222 180
0 218 177
0 221 181
0 221 181
0 221 181
0 221 180
0 221 181
0 221 181
0 221 180
0 219 180
0 220 181
0 221 181
0 221 181
0 221 180
0 220 179
0 220 180
0 222 181
0 222 181
0 221 181
0 220 181
0 222 181
0 221 181
0 222 181
0 221 181
0 221 181
0 221 181
0 220 180
0 221 181
0 220 181
0 222 181
0 222 181
0 219 179
0 221 180
0 221 181
0 220 181
0 222 181
0 218 179
0 220 180
0 220 180
0 219 180
0 221 180
0 221 181
0 221 181
0 220 180
0 220 180
0 221 181
0 220 178
0 220 181
0 222 181
0 221 181
0 221 181
0 219 180
0 221 181
0 221 181
0 220 181
0 221 181
0 221 181
0 221 180
0 220 181
0 221 181
0 221 181
0 220 181
0 221 181
0 221 181
0 220 180
0 220 180
0 222 181
0 221 181
0 221 181
0 221 181
0 220 180
0 221 180
0 220 180
0 221 180
0 220 180
0 221 179
0 219 181
0 220 180
0 220 181
0 222 181
0 221 180
0 220 180
0 221 181
0 219 179
0 221 181
0 221 181
0 221 181
0 222 181
0 220 181
0 222 181
0 222 181
0 221 181
0 222 181
0 221 181
0 222 181
0 221 181
0 221 181
0 220 181
0 221 181
0 220 181
0 220 180
0 221 181
0 221 180
0 220 180
0 221 180
0 221 180
0 222 181
0 221 181
0 222 181
0 221 181
0 221 181
0 221 181
0 221 181
0 222 181
0 222 181
0 221 181
0 221 181
0 221 180
0 220 181
0 221 181
0 222 181
0 221 181
0 221 181
0 221 180
0 222 181
0 221 181
0 221 181
0 221 181
0 222 181
0 221 181
0 221 181
0 222 181
0 221 181
0 220 180
0 221 181
0 221 181
0 221 181
0 220 181
0 221 181
0 221 181
0 221 181
0 221 181
0 221 181
0 221 181
0 220 181
0 221 181
0 221 181
0 220 180
0 220 181
0 221 181
0 220 181
0 222 181
0 222 181
0 221 181
0 221 181
0 221 180
0 221 181
0 221 181
0 221 180
0 221 181
0 220 180
0 221 180
0 221 181
0 222 181
0 221 181
0 221 181
0 222 181
0 222 181
0 220 180
0 222 181
0 221 181
0 221 180
0 221 180
0 221 181
0 220 181
0 219 179
0 221 181
0 220 180
0 222 181
0 221 180
0 221 180
0 222 181
0 222 181
0 220 181
0 221 181
0 221 180
0 221 181
0 221 181
0 222 181
0 220 180
0 220 181
0 220 180
0 220 180
0 222 181
0 222 181
0 221 181
0 221 181
0 221 181
0 222 181
0 221 180
0 222 181
0 222 181
0 221 181
0 222 181
0 222 180
0 221 181
0 221 181
0 221 181
0 221 181
0 220 181
0 220 180
0 221 181
0 221 180
0 220 181
0 221 181
0 221 181
0 221 180
0 219 180
0 221 181
0 218 179
0 219 179
0 221 181
0 221 181
0 221 180
0 221 180
0 220 180
0 221 180
0 220 181
0 219 179
0 221 181
0 219 179
0 221 181
0 221 181
0 221 180
0 220 180
0 220 180
0 220 180
0 221 181
0 220 180
0 220 179
0 220 179
0 220 180
0 221 181
0 220 180
0 219 180
0 221 181
0 221 181
0 220 180
0 221 180
0 221 180
0 222 181
0 220 181
0 221 181
0 222 181
0 221 180
0 221 180
0 220 179
0 222 181
0 221 181
0 220 180
0 220 181
0 220 179
0 221 180
0 219 180
0 221 181
0 222 181
0 221 180
0 218 178
0 221 180
0 220 180
0 220 181
0 220 180
0 218 179
0 219 179
0 221 181
0 222 181
0 219 179
0 220 180
0 221 181
0 221 181
0 220 180
0 221 180
0 221 180
0 222 181
0 222 181
0 221 181
0 220 180
0 221 181
0 220 180
0 221 181
0 221 181
0 220 180
0 218 179
0 220 181
0 219 180
0 221 181
0 219 179
0 219 179
0 218 179
0 221 180
0 222 180
0 220 179
0 220 180
0 222 180
0 220 180
0 222 181
0 222 181
0 221 180
0 221 180
0 221 179
0 221 180
0 220 180
0 220 179
0 220 179
0 220 180
0 221 181
0 220 180
0 220 180
0 220 180
0 220 180
0 220 180
0 220 181
0 221 180
0 220 179
0 220 179
0 221 181
0 219 180
0 220 179
0 218 179
0 221 181
0 221 180
0 222 181
0 220 180
0 219 178
0 220 180
0 220 180
0 222 180
0 221 180
0 221 181
0 221 181
0 219 178
0 221 181
0 220 180
0 221 180
0 221 181
0 221 181
0 221 180
0 220 180
0 221 180
0 221 181
0 221 181
0 221 181
0 220 180
0 222 181
0 221 181
0 221 181
0 221 180
0 221 180
0 219 180
0 221 180
0 220 180
0 222 181
0 220 180
0 221 181
0 221 181
0 219 179
0 221 179
0 219 180
0 220 180
0 220 179
0 222 181
0 222 181
0 221 181
0 220 180
0 220 181
0 220 179
0 221 181
0 220 180
0 220 180
0 221 181
0 221 181
0 221 180
0 221 180
0 221 181
0 220 181
0 222 181
0 221 180
0 219 179
0 221 181
0 222 181
0 221 181
0 220 180
0 221 180
0 220 180
0 220 180
0 220 180
0 221 181
0 221 180
0 221 180
0 220 180
0 221 181
0 219 180
0 220 180
0 221 181
0 219 180
0 221 181
0 218 178
0 222 181
0 221 181
0 222 181
0 220 180
0 221 181
0 220 180
0 220 180
0 220 178
0 221 181
0 220 179
0 222 181
0 221 181
0 221 181
0 220 180
0 220 180
0 220 180
0 221 180
0 221 181
0 222 181
0 220 181
0 221 181
0 220 181
0 221 180
0 220 180
0 221 180
0 220 180
0 221 181
0 221 181
0 221 181
0 221 180
0 219 180
0 222 181
0 221 181
0 221 180
0 221 181
0 220 181
0 220 181
0 219 179
0 222 181
0 221 181
0 219 179
0 222 181
0 220 181
0 219 179
0 219 180
0 219 180
0 221 181
0 221 181
0 221 181
0 220 181
0 222 181
0 221 181
0 220 180
0 222 181
0 221 181
0 221 181
0 222 180
0 221 181
0 221 181
0 220 181
0 220 180
0 221 181
0 221 181
0 221 181
0 220 180
0 221 181
0 221 181
0 220 180
0 221 181
0 221 181
0 221 181
0 220 181
0 221 181
0 221 181
0 220 180
0 219 179
0 222 181
0 221 181
0 220 180
0 221 181
0 221 181
0 221 181
0 220 180
0 222 181
0 221 181
0 219 179
0 221 181
0 221 181
0 221 181
0 221 181
0 220 181
0 222 181
0 221 181
0 221 181
0 221 181
0 221 181
0 221 180
0 222 181
0 222 181
0 221 181
0 221 181
0 221 181
0 221 181
0 221 181
0 221 181
0 221 181
0 220 181
0 221 180
0 221 181
0 221 181
0 222 181
0 221 181
0 222 181
0 220 180
0 222 181
0 219 179
0 220 181
0 222 181
0 221 181
0 222 181
0 220 180
0 220 180
0 221 181
0 222 181
0 220 180
0 221 181
0 222 181
0 222 181
0 222 181
0 220 180
0 220 180
0 221 181
0 221 181
0 221 181
0 221 181
0 221 180
0 221 181
0 221 181
0 220 180
0 222 181
0 222 181
0 221 181
0 221 181
0 221 181
0 222 181
0 221 181
0 221 181
0 222 181
0 222 181
0 221 181
0 220 181
0 220 181
0 221 181
0 222 181
0 220 180
0 221 181
0 220 181
0 221 181
0 221 181
0 222 181
0 220 180
0 221 181
0 221 181
0 220 180
0 220 181
0 221 181
0 220 180
0 220 180
0 221 181
0 222 181
0 221 181
0 221 181
0 222 181
0 221 180
0 222 181
0 221 181
0 220 180
0 221 181
0 219 180
0 221 180
0 220 181
0 221 181
0 221 181
0 221 180
0 221 180
0 221 181
0 220 180
0 222 181
0 222 181
0 221 181
0 221 181
0 221 181
0 221 180
0 221 181
0 222 181
0 219 180
0 221 181
0 219 179
0 219 179
0 221 181
0 220 180
0 220 180
0 222 180
0 222 180
0 220 180
0 222 181
0 221 181
0 221 181
0 221 181
0 221 181
0 221 181
0 222 181
0 221 181
0 220 180
0 220 180
0 221 181
0 221 181
0 220 180
0 221 180
0 220 180
0 221 181
0 220 179
0 221 181
0 222 181
0 220 180
0 220 179
0 221 180
0 221 181
0 222 181
0 218 179
0 219 179
0 220 179
0 220 179
0 220 180
0 221 181
0 219 179
0 221 180
0 220 180
0 222 181
0 221 181
0 221 181
0 221 180
0 221 181
0 221 181
0 220 181
0 221 181
0 220 180
0 221 180
0 221 181
0 219 179
0 220 180
0 220 180
0 222 181
0 220 180
0 221 180
0 220 180
0 221 181
0 221 181
0 218 179
0 218 179
0 221 181
0 221 180
0 222 181
0 221 180
0 221 181
0 221 181
0 221 181
0 219 178
0 221 180
0 220 180
0 222 181
0 221 180
0 219 179
0 221 181
0 222 181
0 219 179
0 221 181
0 219 179
0 217 178
0 221 181
0 221 181
0 220 180
0 220 179
0 222 181
0 218 178
0 221 180
0 218 179
0 220 179
0 221 181
0 221 180
0 219 180
0 220 180
0 220 180
0 221 180
0 221 181
0 221 180
0 221 180
0 219 180
0 220 180
0 220 180
0 221 181
0 219 179
0 221 181
0 220 180
0 222 181
0 222 181
0 219 179
0 221 181
0 221 181
0 220 180
0 220 180
0 222 181
0 219 180
0 220 180
0 221 181
0 221 181
0 221 181
0 219 180
0 219 179
0 221 180
0 221 181
0 221 181
0 221 181
0 220 180
0 221 181
0 221 180
0 221 181
0 220 180
0 220 181
0 220 180
0 222 181
0 220 181
0 219 180
0 221 180
0 220 179
0 220 179
0 222 181
0 221 180
0 220 180
0 219 179
0 221 181
0 221 180
0 220 180
0 222 181
0 221 181
0 219 180
0 220 180
0 219 179
0 219 179
0 221 181
0 219 178
0 220 180
0 220 180
0 220 178
0 221 180
0 220 180
0 220 180
0 221 181
0 220 180
0 221 181
0 220 180
0 220 179
0 218 179
0 221 181
0 220 179
0 219 179
0 221 181
0 221 180
0 220 180
0 221 181
0 219 179
0 221 180
0 219 180
0 222 181
0 219 179
0 220 180
0 221 180
0 221 181
0 220 181
0 221 180
0 221 181
0 220 180
0 221 181
0 221 181
0 220 180
0 221 181
0 219 179
0 221 181
0 221 180
0 221 181
0 219 180
0 222 181
0 220 180
0 221 180
0 221 181
0 221 179
0 218 179
0 222 181
0 221 180
0 220 180
0 221 180
0 220 180
0 221 181
0 220 180
0 220 180
0 222 181
0 220 180
0 221 181
0 220 180
0 220 179
0 221 180
0 221 181
0 218 178
0 221 180
0 221 181
0 221 179
0 221 180
0 220 180
0 221 181
0 221 181
0 220 180
0 221 181
0 222 181
0 222 180
0 222 180
0 221 181
0 220 181
0 222 181
0 221 181
0 221 181
0 222 181
0 221 180
0 221 181
0 222 181
0 221 181
0 219 179
0 222 181
0 222 181
0 220 181
0 220 181
0 220 181
0 220 180
0 220 179
0 222 181
0 221 181
0 221 180
0 221 181
0 222 181
0 221 181
0 222 181
0 221 180
0 221 181
0 221 181
0 222 181
0 221 181
0 222 181
0 220 180
0 220 180
0 221 181
0 222 181
0 222 181
0 221 180
0 220 181
0 220 181
0 221 181
0 220 180
0 222 181
0 221 181
0 221 180
0 221 181
0 221 181
0 222 181
0 221 181
0 221 181
0 219 179
0 222 181
0 222 181
0 221 181
0 222 181
0 221 181
0 222 181
0 221 181
0 220 181
0 221 181
0 222 181
0 221 181
0 221 181
0 222 181
0 221 181
0 221 181
0 221 181
0 222 181
0 222 181
0 220 181
0 221 181
0 222 181
0 220 181
0 222 181
0 221 181
0 222 181
0 221 181
0 222 181
0 221 181
0 222 181
0 221 181
0 219 180
0 222 181
0 222 181
0 220 181
0 222 181
0 221 181
0 222 181
0 220 181
0 221 181
0 221 181
0 221 181
0 221 181
0 221 181
0 221 181
0 222 181
0 222 181
0 222 181
0 221 181
0 221 181
0 222 181
0 221 181
0 221 181
0 220 181
0 223 181
0 219 180
0 222 181
0 222 181
0 221 181
0 221 181
0 221 181
0 222 181
0 222 181
0 221 181
0 222 181
0 220 180
0 222 181
0 222 180
0 221 181
0 221 181
0 221 181
0 221 181
0 221 181
0 220 180
0 220 181
0 220 180
0 221 181
0 221 181
0 223 181
0 220 180
0 221 181
0 221 180
0 222 180
0 221 181
0 220 181
0 221 181
0 222 181
0 221 181
0 221 181
0 221 181
0 221 181
0 220 180
0 222 181
0 221 181
0 220 180
0 221 181
0 221 181
0 220 180
0 221 181
0 220 180
0 220 180
0 221 181
0 221 181
0 221 181
0 221 181
0 221 181
0 221 181
0 220 180
0 221 181
0 221 180
0 221 181
0 221 181
0 220 180
0 221 181
0 220 180
0 221 181
0 222 181
0 219 180
0 221 181
0 222 181
0 221 179
0 220 180
0 221 181
0 220 181
0 220 180
0 221 181
0 222 181
0 221 181
0 221 181
0 221 181
0 221 181
0 220 180
0 221 180
0 221 181
0 221 181
0 222 181
0 222 181
0 222 180
0 221 181
0 219 179
0 221 181
0 221 181
0 222 180
0 221 181
0 220 181
0 221 180
0 221 181
0 223 181
0 221 180
0 220 179
0 221 181
0 221 181
0 220 180
0 221 181
0 220 180
0 221 180
0 221 181
0 220 180
0 219 180
0 220 181
0 218 179
0 221 181
0 221 180
0 221 181
0 221 180
0 221 181
0 220 180
0 220 180
0 221 180
0 221 181
0 220 180
0 220 180
0 218 178
0 221 180
0 218 179
0 220 181
0 220 180
0 221 179
0 220 180
0 219 179
0 221 181
0 222 181
0 220 180
0 221 181
0 222 180
0 221 181
0 219 179
0 221 180
0 221 181
0 220 179
0 220 180
0 221 181
0 222 181
0 221 181
0 218 178
0 220 180
0 221 181
0 221 181
0 219 179
0 221 181
0 219 179
0 220 180
0 221 179
0 219 178
0 221 181
0 221 180
0 221 181
0 221 180
0 217 179
0 221 180
0 222 181
0 219 178
0 220 180
0 220 180
0 221 180
0 218 179
0 219 179
0 221 181
0 219 178
0 221 181
0 219 179
0 219 178
0 219 180
0 221 181
0 220 180
0 220 179
0 221 181
0 220 180
0 219 180
0 220 179
0 221 181
0 220 180
0 220 179
0 218 179
0 221 181
0 219 180
0 221 181
0 221 180
0 221 180
0 220 178
0 218 179
0 219 180
0 220 181
0 220 180
0 220 181
0 221 180
0 221 179
0 218 178
0 219 179
0 219 179
0 220 179
0 222 181
0 217 178
0 221 180
0 220 179
0 221 181
0 221 180
0 221 181
0 220 181
0 221 180
0 220 180
0 221 181
0 217 178
0 217 178
0 221 181
0 221 181
0 221 181
0 220 180
0 219 180
0 219 179
0 220 180
0 221 181
0 222 180
0 219 180
0 220 180
0 220 180
0 220 180
0 221 181
0 220 180
0 221 181
0 220 180
0 221 181
0 221 180
0 220 181
0 219 180
0 221 181
0 220 179
0 219 180
0 221 179
0 221 180
0 223 181
0 220 180
0 221 181
0 219 179
0 219 180
0 222 181
0 221 180
0 221 181
0 221 180
0 221 181
0 221 181
0 222 181
0 221 181
0 221 181
0 220 181
0 221 180
0 220 181
0 221 181
0 221 181
0 220 180
0 221 181
0 221 181
0 221 181
0 221 181
0 220 181
0 221 181
0 218 179
0 220 179
0 221 181
0 221 181
0 221 180
0 220 180
0 221 181
0 219 179
0 221 180
0 219 180
0 221 181
0 221 181
0 220 180
0 221 181
0 220 180
0 221 180
0 221 181
0 221 180
0 221 181
0 221 181
0 220 180
0 220 181
0 220 180
0 221 181
0 218 179
0 221 181
0 221 180
0 220 180
0 221 181
0 221 181
0 221 180
0 219 179
0 221 181
0 221 180
0 221 180
0 221 181
0 220 179
0 222 181
0 222 181
0 221 181
0 220 180
0 221 180
0 221 181
0 220 180
0 220 180
0 220 180
0 221 181
0 220 180
0 220 181
0 222 181
0 221 180
0 221 180
0 218 179
0 221 181
0 221 181
0 221 181
0 221 181
0 221 180
0 221 181
0 219 180
0 221 180
0 222 181
0 221 180
0 222 181
0 222 181
0 221 181
0 221 181
0 221 181
0 221 181
0 220 180
0 222 181
0 220 179
0 221 181
0 222 181
0 221 181
0 221 181
0 221 180
0 222 181
0 221 181
0 221 181
0 221 181
0 221 181
0 221 181
0 222 181
0 222 181
0 221 180
0 221 181
0 221 181
0 221 179
0 222 181
0 222 181
0 222 181
0 221 180
0 221 181
0 221 181
0 221 181
0 221 181
0 221 181
0 221 181
0 222 181
0 222 181
0 221 181
0 222 181
0 221 181
0 221 181
0 221 181
0 220 180
0 221 181
0 222 181
0 221 181
0 221 181
0 222 181
0 220 180
0 221 181
0 221 181
0 221 181
0 220 180
0 221 181
0 221 181
0 221 181
0 221 181
0 222 181
0 221 181
0 220 181
0 222 181
0 221 181
0 221 181
0 222 181
0 221 181
0 221 181
0 221 181
0 221 181
0 221 181
0 220 180
0 222 181
0 222 181
0 222 181
0 222 181
0 222 181
0 220 180
0 222 181
0 221 181
0 222 181
0 221 181
0 221 181
0 220 180
0 221 181
0 221 181
0 222 181
0 222 181
0 221 180
0 219 180
0 221 180
0 221 181
0 221 181
0 222 181
0 220 180
0 221 181
0 220 180
0 220 181
0 221 181
0 221 180
0 222 181
0 222 181
0 220 180
0 221 181
0 222 181
0 221 181
0 221 181
0 220 180
0 221 181
0 221 181
0 222 181
0 221 181
0 221 181
0 220 180
0 221 181
0 222 181
0 221 181
0 219 180
0 221 181
0 221 181
0 220 179
0 221 180
0 221 181
0 221 180
0 219 180
0 219 180
0 221 181
0 220 179
0 220 180
0 221 180
0 221 181
0 221 181
0 221 181
0 220 181
0 221 181
0 221 180
0 221 181
0 222 181
0 221 181
0 219 180
0 221 181
0 221 181
0 221 180
0 221 180
0 220 180
0 222 181
0 221 180
0 221 181
0 221 181
0 219 179
0 222 181
0 220 180
0 221 181
0 219 180
0 221 181
0 220 180
0 220 181
0 220 180
0 221 180
0 221 181
0 221 180
0 220 180
0 219 179
0 220 181
0 219 180
0 221 180
0 221 181
0 220 180
0 221 181
0 221 179
0 220 180
0 220 180
0 222 181
0 221 181
0 219 180
0 221 181
0 221 181
0 220 181
0 220 180
0 221 181
0 221 181
0 219 180
0 222 181
0 219 179
0 221 181
0 220 180
0 221 181
0 218 178
0 218 179
0 222 180
0 218 179
0 221 181
0 222 181
0 221 181
0 220 180
0 221 181
0 219 179
0 218 179
0 220 179
0 220 179
0 221 180
0 220 179
0 220 179
0 220 180
0 220 180
0 218 179
0 220 179
0 219 179
0 222 181
0 220 181
0 220 180
0 220 180
0 221 181
0 220 180
0 219 180
0 221 181
0 219 179
0 221 181
0 219 179
0 218 178
0 221 181
0 220 180
0 220 180
0 220 180
0 219 179
0 221 181
0 221 181
0 220 179
0 221 181
0 221 180
0 222 181
0 220 179
0 221 180
0 221 180
0 221 181
0 221 181
0 221 181
0 221 180
0 219 179
0 220 179
0 222 181
0 219 178
0 220 180
0 220 179
0 222 181
0 221 181
0 219 180
0 220 180
0 221 181
0 220 179
0 221 179
0 219 179
0 220 181
0 221 180
0 220 180
0 219 179
0 221 181
0 222 181
0 222 181
0 220 180
0 221 181
0 219 180
0 221 180
0 219 181
0 218 178
0 221 181
0 220 180
0 219 180
0 222 181
0 221 180
0 221 181
0 220 180
0 220 180
0 220 180
0 219 180
0 221 180
0 220 180
0 218 179
0 220 180
0 221 181
0 221 180
0 220 180
0 221 181
0 220 180
0 219 179
0 219 179
0 221 181
0 219 180
0 221 181
0 221 180
0 221 180
0 220 180
0 221 181
0 220 180
0 219 180
0 220 181
0 220 179
0 220 180
0 222 181
0 221 179
0 221 180
0 222 181
0 222 181
0 220 180
0 221 180
0 221 181
0 222 181
0 220 180
0 222 181
0 221 181
0 220 180
0 222 180
0 222 181
0 220 179
0 221 181
0 220 180
0 222 181
0 219 179
0 221 181
0 220 180
0 221 181
0 221 180
0 221 181
0 221 181
0 221 180
0 220 179
0 221 181
0 219 179
0 221 181
0 221 181
0 220 179
0 221 180
0 219 179
0 221 180
0 221 181
0 220 179
0 221 181
0 218 179
0 218 179
0 221 180
0 220 180
0 219 180
0 221 181
0 222 181
0 221 181
0 221 180
0 220 180
0 220 181
0 220 181
0 221 181
0 220 181
0 221 181
0 221 181
0 220 179
0 220 180
0 221 181
0 220 181
0 221 181
0 222 181
0 220 180
0 220 179
0 221 181
0 221 180
0 221 180
0 220 180
0 219 179
0 221 181
0 221 181
0 221 181
0 221 180
0 220 181
0 221 181
0 221 181
0 222 181
0 221 181
0 220 180
0 219 179
0 221 181
0 220 180
0 221 181
0 221 181
0 221 181
0 220 181
0 221 181
0 220 180
0 221 181
0 220 180
0 221 181
0 222 181
0 220 180
0 221 181
0 221 181
0 221 181
0 221 181
0 220 181
0 221 181
0 221 181
0 222 181
0 222 181
0 220 180
0 220 179
0 222 181
0 221 181
0 221 181
0 221 181
0 221 181
0 221 181
0 221 181
0 220 181
0 220 180
0 221 181
0 220 181
0 222 181
0 220 180
0 221 181
0 222 181
0 220 180
0 221 180
0 222 181
0 219 179
0 222 181
0 221 180
0 220 180
0 220 181
0 220 180
0 220 180
0 221 181
0 221 181
0 221 181
0 220 181
0 221 181
0 221 181
0 221 181
0 221 181
0 220 181
0 221 181
0 222 181
0 221 181
0 220 180
0 221 181
0 219 180
0 221 181
0 222 181
0 222 181
0 221 181
0 221 181
0 222 181
0 221 181
0 221 181
0 221 181
0 220 180
0 221 181
0 222 181
0 221 180
0 221 181
0 221 181
0 222 181
0 222 181
0 221 181
0 222 181
0 221 180
0 221 181
0 221 181
0 221 181
0 222 181
0 222 181
0 221 181
0 221 181
0 221 180
0 221 181
0 222 181
0 221 181
0 221 181
0 220 181
0 222 181
0 221 181
0 221 180
0 221 180
0 221 180
0 221 181
0 221 181
0 221 181
0 222 181
0 222 181
0 222 181
0 220 181
0 221 181
0 221 181
0 221 181
0 221 180
0 221 181
0 221 181
0 221 181
0 221 181
0 221 181
0 221 181
0 221 181
0 221 181
0 221 180
0 221 181
0 221 180
0 221 181
0 221 181
0 221 180
0 222 180
0 221 180
0 221 181
0 221 181
0 219 179
0 220 180
0 221 180
0 220 180
0 221 181
0 221 181
0 221 181
0 220 180
0 221 181
0 221 181
0 221 181
0 222 180
0 221 181
0 222 181
0 222 181
0 220 180
0 221 181
0 221 181
0 220 180
0 221 181
0 220 180
0 220 180
0 221 181
0 222 181
0 220 179
0 221 181
0 221 181
0 221 180
0 221 181
0 221 181
0 221 181
0 222 181
0 220 180
0 219 180
0 222 181
0 221 181
0 221 181
0 220 180
0 222 181
0 221 181
0 220 180
0 220 180
0 222 181
0 220 179
0 220 180
0 219 179
0 221 180
0 220 180
0 220 180
0 221 181
0 220 179
0 220 181
0 222 181
0 220 180
0 221 181
0 221 181
0 221 181
0 220 180
0 221 181
0 222 181
0 222 181
0 220 178
0 222 181
0 219 179
0 221 181
0 221 181
0 221 181
0 220 179
0 222 181
0 218 179
0 219 179
0 221 181
0 221 181
0 219 180
0 220 179
0 220 180
0 221 181
0 220 180
0 220 180
0 220 179
0 219 179
0 220 180
0 220 179
0 221 181
0 221 180
0 222 180
0 220 180
0 218 179
0 222 181
0 221 181
0 221 181
0 220 179
0 220 180
0 220 179
0 221 181
0 221 180
0 221 180
0 222 181
0 220 181
0 221 181
0 219 180
0 222 181
0 220 180
0 220 180
0 220 180
0 217 178
0 221 181
0 221 180
0 219 179
0 221 180
0 216 177
0 221 181
0 221 180
0 221 181
0 219 179
0 219 179
0 221 179
0 222 181
0 220 179
0 220 180
0 219 178
0 222 181
0 221 180
0 220 180
0 220 180
0 221 180
0 220 180
0 221 180
0 221 181
0 221 180
0 220 180
0 218 179
0 220 181
0 219 180
0 222 181
0 221 181
0 223 181
0 221 181
0 220 178
0 220 181
0 221 181
0 220 179
0 220 179
0 220 181
0 220 181
0 220 180
0 221 181
0 221 181
0 220 179
0 222 181
0 220 179
0 220 180
0 221 181
0 220 181
0 221 181
0 221 180
0 220 180
0 219 179
0 220 180
0 222 181
0 219 179
0 221 181
0 219 180
0 220 180
0 222 181
0 220 179
0 221 181
0 220 180
0 220 179
0 219 179
0 221 181
0 220 180
0 222 180
0 221 180
0 219 179
0 221 180
0 221 181
0 219 178
0 221 181
0 220 180
0 221 181
0 220 180
0 222 181
0 219 179
0 220 180
0 220 180
0 220 180
0 220 181
0 220 180
0 219 177
0 220 181
0 222 181
0 222 181
0 220 180
0 220 180
0 222 181
0 221 180
0 219 180
0 221 180
0 221 181
0 221 180
0 220 180
0 220 179
0 220 179
0 219 180
0 222 181
0 221 181
0 219 179
0 220 179
0 221 181
0 219 179
0 219 179
0 221 181
0 220 179
0 222 181
0 221 180
0 222 181
0 221 180
0 221 180
0 221 181
0 220 180
0 220 180
0 220 179
0 219 179
0 221 180
0 220 180
0 220 179
0 220 180
0 221 181
0 221 180
0 220 181
0 220 180
0 220 180
0 221 180
0 222 181
0 221 181
0 220 181
0 222 181
0 220 180
0 221 181
0 219 179
0 221 180
0 220 181
0 220 180
0 220 181
0 221 181
0 220 180
0 221 181
0 221 181
0 221 181
0 221 181
0 220 179
0 219 180
0 221 180
0 222 181
0 219 179
0 220 180
0 221 181
0 221 180
0 221 181
0 222 181
0 222 181
0 220 180
0 219 178
0 221 181
0 221 181
0 222 181
0 220 181
0 221 181
0 221 180
0 222 181
0 221 181
0 222 181
0 220 180
0 220 180
0 222 181
0 221 181
0 221 181
0 221 181
0 221 180
0 222 180
0 221 181
0 220 180
0 222 180
0 221 181
0 221 181
0 222 181
0 221 181
0 221 181
0 221 181
0 221 181
0 220 181
0 219 179
0 221 181
0 222 180
0 221 181
0 221 181
0 221 181
0 221 180
0 221 180
0 221 181
0 220 180
0 220 179
0 221 180
0 220 180
0 220 181
0 221 181
0 221 181
0 221 181
0 221 181
0 220 180
0 221 181
0 221 181
0 221 181
0 222 181
0 221 181
0 221 181
0 221 181
0 222 181
0 221 181
0 221 181
0 222 181
0 221 181
0 221 181
0 221 181
0 221 181
0 221 181
0 221 181
0 221 181
0 221 181
0 221 181
0 221 181
0 220 181
0 222 181
0 221 181
0 221 181
0 221 181
0 220 180
0 222 181
0 221 181
0 221 181
0 220 180
0 221 181
0 222 181
0 221 181
0 222 181
0 220 181
0 221 181
0 221 181
0 221 180
0 221 181
0 222 181
0 221 181
0 221 181
0 220 180
0 222 181
0 221 180
0 222 181
0 222 181
0 222 181
0 221 181
0 222 181
0 222 181
0 221 181
0 221 180
0 221 181
0 221 181
0 221 181
0 221 181
0 222 181
0 221 181
0 220 181
0 221 180
0 221 181
0 221 181
0 221 181
0 222 181
0 221 181
0 222 180
0 221 180
0 221 181
0 221 181
0 221 181
0 221 181
0 221 180
0 221 181
0 222 181
0 221 181
0 221 181
0 221 181
0 222 181
0 222 181
0 221 181
0 222 181
0 221 181
0 221 181
0 221 180
0 220 181
0 221 181
0 222 181
0 222 181
0 222 181
0 221 181
0 218 178
0 221 181
0 221 181
0 219 179
0 221 181
0 221 181
0 219 179
0 222 181
0 221 181
0 221 181
0 222 181
0 221 180
0 220 180
0 220 180
0 221 181
0 222 181
0 222 181
0 220 179
0 221 181
0 220 180
0 219 179
0 221 181
0 220 181
0 221 181
0 221 180
0 220 180
0 220 181
0 221 181
0 221 181
0 221 181
0 221 181
0 219 180
0 221 181
0 222 181
0 220 180
0 219 180
0 222 181
0 220 179
0 221 181
0 221 181
0 221 180
0 221 180
0 222 181
0 220 180
0 220 180
0 220 181
0 220 180
0 222 181
0 220 180
0 223 181
0 220 180
0 220 180
0 221 181
0 221 181
0 221 181
0 221 180
0 221 180
0 220 180
0 221 181
0 222 181
0 219 179
0 221 181
0 221 181
0 220 181
0 220 179
0 220 180
0 220 180
0 218 179
0 220 181
0 220 179
0 221 181
0 221 181
0 220 180
0 221 181
0 219 179
0 220 180
0 221 181
0 220 179
0 220 180
0 219 180
0 222 181
0 221 181
0 221 181
0 220 180
0 220 180
0 221 181
0 220 181
0 221 181
0 223 180
0 221 180
0 221 181
0 221 180
0 220 180
0 221 181
0 220 181
0 219 178
0 218 179
0 220 181
0 218 178
0 220 179
0 221 181
0 221 181
0 219 179
0 219 179
0 219 180
0 221 180
0 220 180
0 221 180
0 220 180
0 220 180
0 221 180
0 219 179
0 221 181
0 221 181
0 222 181
0 222 181
0 221 180
0 221 180
0 221 181
0 221 180
0 219 179
0 221 181
0 220 180
0 217 179
0 219 178
0 220 180
0 221 181
0 219 179
0 219 179
0 221 180
0 220 180
0 220 180
0 218 179
0 221 181
0 220 181
0 219 179
0 219 179
0 220 180
0 221 181
0 220 179
0 221 180
0 219 179
0 221 181
0 220 181
0 220 180
0 221 180
0 219 178
0 219 179
0 220 180
0 221 181
0 220 178
0 221 181
0 220 180
0 221 181
0 221 181
0 219 179
0 219 179
0 218 178
0 220 180
0 221 181
0 221 181
0 222 181
0 220 180
0 221 181
0 219 180
0 220 180
0 221 181
0 221 181
0 220 179
0 221 180
0 220 181
0 221 180
0 221 181
0 220 180
0 221 180
0 221 180
0 222 181
0 219 179
0 220 180
0 221 180
0 221 180
0 219 178
0 218 177
0 221 181
0 219 179
0 222 181
0 222 181
0 220 180
0 220 180
0 221 181
0 221 180
0 220 180
0 221 181
0 222 181
0 221 181
0 220 179
0 220 180
0 221 180
0 219 180
0 219 180
0 221 181
0 221 181
0 221 181
0 220 180
0 221 181
0 221 181
0 222 181
0 221 181
0 220 180
0 220 180
0 220 180
0 219 179
0 222 181
0 221 179
0 221 180
0 222 181
0 221 179
0 220 180
0 218 178
0 221 181
0 220 180
0 221 181
0 222 180
0 221 181
0 220 179
0 221 181
0 220 180
0 220 180
0 221 181
0 221 181
0 221 181
0 221 181
0 220 180
0 222 180
0 221 180
0 221 181
0 222 181
0 219 179
0 221 181
0 220 180
0 221 181
0 222 181
0 221 181
0 221 181
0 221 181
0 220 180
0 220 180
0 221 180
0 220 180
0 220 181
0 221 180
0 221 180
0 219 180
0 221 181
0 219 179
0 220 181
0 221 180
0 222 181
0 222 181
0 222 181
0 221 181
0 221 181
0 221 179
0 221 181
0 222 181
0 221 181
0 220 181
0 222 181
0 219 180
0 221 181
0 220 180
0 221 179
0 221 181
0 222 181
0 220 181
0 220 181
0 221 181
0 222 181
0 221 181
0 221 181
0 221 181
0 221 181
0 220 180
0 221 180
0 221 181
0 220 181
0 222 181
0 221 181
0 221 181
0 222 181
0 220 180
0 221 181
0 221 181
0 222 181
0 221 181
0 221 181
0 221 181
0 221 180
0 222 181
0 220 180
0 221 181
0 223 181
0 221 181
0 221 181
0 221 181
0 221 181
0 220 180
0 220 180
0 221 181
0 222 181
0 218 179
0 221 181
0 222 181
0 220 180
0 221 181
0 221 181
0 220 181
0 221 181
0 221 181
0 221 181
0 222 181
0 221 181
0 221 181
0 222 181
0 221 181
0 221 181
0 221 181
0 221 181
0 222 181
0 220 180
0 221 181
0 222 181
0 221 181
0 221 181
0 222 181
0 222 181
0 221 180
0 221 181
0 222 181
0 221 180
0 221 181
0 221 181
0 219 180
0 221 181
0 222 181
0 221 181
0 221 180
0 221 181
0 222 181
0 222 181
0 221 181
0 221 181
0 222 181
0 222 181
0 221 181
0 221 181
0 221 181
0 222 181
0 221 181
0 220 180
0 222 181
0 222 181
0 221 181
0 221 181
0 221 181
0 220 180
0 222 181
0 221 180
0 221 181
0 222 181
0 220 181
0 221 181
0 221 181
0 221 181
0 221 181
0 220 181
0 221 181
0 220 181
0 221 180
0 220 181
0 220 181
0 221 181
0 221 180
0 222 181
0 220 181
0 221 180
0 220 181
0 222 181
0 222 181
0 221 180
0 221 181
0 220 180
0 222 181
0 221 181
0 221 181
0 221 180
0 220 180
0 221 181
0 220 180
0 222 181
0 221 181
0 221 181
0 222 181
0 221 181
0 221 181
0 220 180
0 221 181
0 221 180
0 221 180
0 221 181
0 221 181
0 220 180
0 220 179
0 220 180
0 220 181
0 221 181
0 221 181
0 222 181
0 222 181
0 221 181
0 221 180
0 219 180
0 222 181
0 220 181
0 220 180
0 221 181
0 220 180
0 222 181
0 222 181
0 221 181
0 221 180
0 222 181
0 222 181
0 220 180
0 221 180
0 221 181
0 220 180
0 222 181
0 220 178
0 221 181
0 222 181
0 219 179
0 219 179
0 221 180
0 220 180
0 222 181
0 220 180
0 220 180
0 220 181
0 220 180
0 220 180
0 220 180
0 221 180
0 222 181
0 220 181
0 220 180
0 221 180
0 220 180
0 221 181
0 221 181
0 221 180
0 219 179
0 221 181
0 221 181
0 222 181
0 220 180
0 220 180
0 220 180
0 220 180
0 221 181
0 221 180
0 221 181
0 221 181
0 220 179
0 220 180
0 219 180
0 221 181
0 221 180
0 221 181
0 220 179
0 222 181
0 220 179
0 221 181
0 218 178
0 219 178
0 222 181
0 222 181
0 218 179
0 221 181
0 220 180
0 220 179
0 219 178
0 218 177
0 221 181
0 220 179
0 220 180
0 222 181
0 220 180
0 220 180
0 222 181
0 220 181
0 221 180
0 220 180
0 218 178
0 221 181
0 220 180
0 219 180
0 218 179
0 220 180
0 219 178
0 220 180
0 221 181
0 221 181
0 220 180
0 221 181
0 220 180
0 219 179
0 221 181
0 220 180
0 219 178
0 220 179
0 221 180
0 221 181
0 219 178
0 221 181
0 220 180
0 220 180
0 216 177
0 218 179
0 218 178
0 220 179
0 221 180
0 221 180
0 219 179
0 222 181
0 221 181
0 222 181
0 220 180
0 220 181
0 219 179
0 219 179
0 220 179
0 220 181
0 221 181
0 220 180
0 218 178
0 220 181
0 221 181
0 219 179
0 220 180
0 221 180
0 220 180
0 220 179
0 220 179
0 220 181
0 219 179
0 221 181
0 219 179
0 219 178
0 219 179
0 220 179
0 220 181
0 221 181
0 219 179
0 220 179
0 220 180
0 221 181
0 219 178
0 220 181
0 218 178
0 222 180
0 220 180
0 220 181
0 220 179
0 219 179
0 220 179
0 220 179
0 222 181
0 221 181
0 221 181
0 220 180
0 220 181
0 221 181
0 219 179
0 220 181
0 221 181
0 221 181
0 219 179
0 221 181
0 221 181
0 220 180
0 221 180
0 221 179
0 221 180
0 222 181
0 219 179
0 222 181
0 219 178
0 220 181
0 221 180
0 221 181
0 221 180
0 221 180
0 220 180
0 219 180
0 219 179
0 220 181
0 221 181
0 221 181
0 220 179
0 219 178
0 221 181
0 219 179
0 220 180
0 221 180
0 221 180
0 221 180
0 220 179
0 217 178
0 221 181
0 221 180
0 222 181
0 219 180
0 221 181
0 220 179
0 221 181
0 220 181
0 221 180
0 221 181
0 220 180
0 219 179
0 222 181
0 221 180
0 221 181
0 219 179
0 221 181
0 220 180
0 219 180
0 221 181
0 222 181
0 220 180
0 221 181
0 222 181
0 222 181
0 221 181
0 220 180
0 221 180
0 222 181
0 221 181
0 220 181
0 221 181
0 221 181
0 221 181
0 219 180
0 221 181
0 221 181
0 221 181
0 221 181
0 221 180
0 220 181
0 222 181
0 221 181
0 219 179
0 219 180
0 222 180
0 221 181
0 221 181
0 221 180
0 220 180
0 221 180
0 221 181
0 221 180
0 221 181
0 221 180
0 221 180
0 221 181
0 221 179
0 221 181
0 220 180
0 220 180
0 221 181
0 220 179
0 222 181
0 221 181
0 220 180
0 221 181
0 220 180
0 221 180
0 221 181
0 220 180
0 221 181
0 220 181
0 221 180
0 220 181
0 221 180
0 221 181
0 220 180
0 219 180
0 221 181
0 221 181
0 221 181
0 222 181
0 220 180
0 220 180
0 221 181
0 221 181
0 222 181
0 221 180
0 221 181
0 221 180
0 221 181
0 221 181
0 221 181
0 222 181
0 220 181
0 222 181
0 221 181
0 221 180
0 222 181
0 220 180
0 222 181
0 222 181
0 222 181
0 222 181
0 221 181
0 220 181
0 222 181
0 220 180
0 221 181
0 220 180
0 221 181
0 221 181
0 221 181
0 222 181
0 221 181
0 222 181
0 221 181
0 221 181
0 220 181
0 221 180
0 221 181
0 221 181
0 221 181
0 222 180
0 221 181
0 221 181
0 220 181
0 221 180
0 222 181
0 220 180
0 221 181
0 220 181
0 221 181
0 221 181
0 221 181
0 221 181
0 221 180
0 221 181
0 221 180
0 220 180
0 221 181
0 222 181
0 221 181
0 220 181
0 222 181
0 220 181
0 221 181
0 221 181
0 222 181
0 221 180
0 220 181
0 221 181
0 221 181
0 221 181
0 221 181
0 221 181
0 221 181
0 221 181
0 221 181
0 222 181
0 221 181
0 221 181
0 222 180
0 221 181
0 221 180
0 221 181
0 220 180
0 222 181
0 221 181
0 221 181
0 221 181
0 222 181
0 221 181
0 221 181
0 220 180
0 221 181
0 221 181
0 221 181
0 221 181
0 221 180
0 219 180
0 220 180
0 221 181
0 222 181
0 221 181
0 221 181
0 221 181
0 221 181
0 218 179
0 221 181
0 221 181
0 221 180
0 222 181
0 221 181
0 221 181
0 221 181
0 221 181
0 221 181
0 221 180
0 220 180
0 221 181
0 220 180
0 221 181
0 220 180
0 222 181
0 221 181
0 221 181
0 220 180
0 221 181
0 221 181
0 221 181
0 221 181
0 221 180
0 221 180
0 222 181
0 221 181
0 222 181
0 221 181
0 221 180
0 220 180
0 222 181
0 220 180
0 220 179
0 221 180
0 221 180
0 221 181
0 220 180
0 220 180
0 222 181
0 220 180
0 220 179
0 221 180
0 221 181
0 220 180
0 219 180
0 221 181
0 221 181
0 222 180
0 221 181
0 220 181
0 220 181
0 219 180
0 219 180
0 220 180
0 220 179
0 220 181
0 221 181
0 221 181
0 220 179
0 219 180
0 220 179
0 220 179
0 222 181
0 221 181
0 220 180
0 222 181
0 221 181
0 220 179
0 221 181
0 221 180
0 220 181
0 220 180
0 220 181
0 221 180
0 221 180
0 221 180
0 220 180
0 220 180
0 221 181
0 221 180
0 221 180
0 222 181
0 219 179
0 220 180
0 221 180
0 222 181
0 221 180
0 219 179
0 220 180
0 219 180
0 220 180
0 221 180
0 219 180
0 220 180
0 220 180
0 219 179
0 220 179
0 220 180
0 220 179
0 220 179
0 219 180
0 221 181
0 220 179
0 221 181
0 219 178
0 221 181
0 219 179
0 221 181
0 221 180
0 220 179
0 219 179
0 220 180
0 221 181
0 219 179
0 218 179
0 218 179
0 220 180
0 222 181
0 221 180
0 219 180
0 221 181
0 221 181
0 221 181
0 218 177
0 219 180
0 220 180
0 220 180
0 220 179
0 221 180
0 219 180
0 222 181
0 219 179
0 221 181
0 218 179
0 220 180
0 220 180
0 220 181
0 220 180
0 220 180
0 220 180
0 218 178
0 220 180
0 220 181
0 219 179
0 221 180
0 221 180
0 221 181
0 221 181
0 221 180
0 221 181
0 220 179
0 220 180
0 221 181
0 221 181
0 221 181
0 220 179
0 220 180
0 221 180
0 220 180
0 221 181
0 220 180
0 220 180
0 220 179
0 220 179
0 220 180
0 220 179
0 221 181
0 220 180
0 221 181
0 221 180
0 220 179
0 219 179
0 220 180
0 220 179
0 219 179
0 220 180
0 220 181
0 221 180
0 220 179
0 220 181
0 221 180
0 219 179
0 220 180
0 221 181
0 219 179
0 219 180
0 220 180
0 221 180
0 221 180
0 221 181
0 220 179
0 220 181
0 221 181
0 221 180
0 220 180
0 219 180
0 220 179
0 219 179
0 219 179
0 223 181
0 221 181
0 220 181
0 221 181
0 220 180
0 220 180
0 221 180
0 219 179
0 221 181
0 220 180
0 221 181
0 220 178
0 219 179
0 220 180
0 220 180
0 221 181
0 221 181
0 218 179
0 218 178
0 221 181
0 220 180
0 220 180
0 220 180
0 220 181
0 222 181
0 221 181
0 221 181
0 220 181
0 221 180
0 221 181
0 222 181
0 221 181
0 221 181
0 221 181
0 221 181
0 220 179
0 221 179
0 221 181
0 222 181
0 222 181
0 221 181
0 221 181
0 221 181
0 220 180
0 221 181
0 221 181
0 222 181
0 221 180
0 221 181
0 220 181
0 221 180
0 221 181
0 221 181
0 221 181
0 221 181
0 221 181
0 220 180
0 221 180
0 221 181
0 221 181
0 220 180
0 221 181
0 222 181
0 221 181
0 221 181
0 221 181
0 220 180
0 221 181
0 221 181
0 222 181
0 221 181
0 219 180
0 222 181
0 222 181
0 221 181
0 220 179
0 218 180
0 220 180
0 219 179
0 222 181
0 222 181
0 221 181
0 222 181
0 221 181
0 221 181
0 221 181
0 221 180
0 221 181
0 221 181
0 222 181
0 221 181
0 221 181
0 220 180
0 220 180
0 220 181
0 220 181
0 221 181
0 221 181
0 222 181
0 221 181
0 222 181
0 221 181
0 221 181
0 219 180
0 222 181
0 220 180
0 221 181
0 222 181
0 221 181
0 220 181
0 221 180
0 221 181
0 221 181
0 222 181
0 221 181
0 221 181
0 221 180
0 221 181
0 221 181
0 221 180
0 222 181
0 220 181
0 221 181
0 221 181
0 222 181
0 220 180
0 221 181
0 222 181
0 222 181
0 222 181
0 220 180
0 221 181
0 220 180
0 221 181
0 220 180
0 221 181
0 221 181
0 221 181
0 221 181
0 221 181
0 221 180
0 221 181
0 221 181
0 222 181
0 222 181
0 221 181
0 220 180
0 221 181
0 222 181
0 221 181
0 222 181
0 220 180
0 221 181
0 221 181
0 220 181
0 221 181
0 221 181
0 221 181
0 222 181
0 222 181
0 222 181
0 220 179
0 221 181
0 222 181
0 222 181
0 220 180
0 221 181
0 221 181
0 220 181
0 220 180
0 222 181
0 221 181
0 221 181
0 221 181
0 222 181
0 221 181
0 221 181
0 221 180
0 221 181
0 221 181
0 222 181
0 220 180
0 220 180
0 223 181
0 221 181
0 221 181
0 221 181
0 221 181
0 222 181
0 221 181
0 221 181
0 220 180
0 221 181
0 220 181
0 220 180
0 221 181
0 221 181
0 221 181
0 221 180
0 222 181
0 220 180
0 221 181
0 221 181
0 221 181
0 220 180
0 221 181
0 220 179
0 222 181
0 222 181
0 220 180
0 220 180
0 223 181
0 220 181
0 222 181
0 221 181
0 222 181
0 221 181
0 221 180
0 220 180
0 222 181
0 221 181
0 220 180
0 221 181
0 221 180
0 220 180
0 221 180
0 220 180
0 219 180
0 220 180
0 221 181
0 221 180
0 221 181
0 221 181
0 221 181
0 221 181
0 221 180
0 221 181
0 221 181
0 222 181
0 220 179
0 221 180
0 221 181
0 220 180
0 221 180
0 221 181
0 220 180
0 220 180
0 221 181
0 221 180
0 221 181
0 220 181
0 220 181
0 219 179
0 221 181
0 220 179
0 219 180
0 221 180
0 221 180
0 220 180
0 220 181
0 218 179
0 220 181
0 220 181
0 221 180
0 220 180
0 220 180
0 220 180
0 222 181
0 221 181
0 220 180
0 221 180
0 220 180
0 221 181
0 220 181
0 220 179
0 221 181
0 220 179
0 219 179
0 221 181
0 222 180
0 221 181
0 221 181
0 220 180
0 221 180
0 217 178
0 218 178
0 221 180
0 220 180
0 220 180
0 221 181
0 219 179
0 219 179
0 220 180
0 220 180
0 219 179
0 221 180
0 218 178
0 220 180
0 220 180
0 220 180
0 220 180
0 220 180
0 221 180
0 218 179
0 219 179
0 219 179
0 219 179
0 222 181
0 219 178
0 219 179
0 220 180
0 222 181
0 220 179
0 221 180
0 220 180
0 220 180
0 221 181
0 221 180
0 221 181
0 219 179
0 218 179
0 219 179
0 219 179
0 218 178
0 222 181
0 220 179
0 221 181
0 220 180
0 219 179
0 221 179
0 222 181
0 221 181
0 222 181
0 220 179
0 220 180
0 221 180
0 220 180
0 218 180
0 221 181
0 222 181
0 221 181
0 220 180
0 218 179
0 220 180
0 220 180
0 220 179
0 221 181
0 220 180
0 220 180
0 219 179
0 220 180
0 220 180
0 222 181
0 220 180
0 220 180
0 219 179
0 220 180
0 221 180
0 221 181
0 220 180
0 219 179
0 220 181
0 221 180
0 221 181
0 220 181
0 220 181
0 220 181
0 220 180
0 221 181
0 221 181
0 221 181
0 219 179
0 218 179
0 222 181
0 221 180
0 221 181
0 220 180
0 221 180
0 222 180
0 221 181
0 219 179
0 220 179
0 220 179
0 222 180
0 220 180
0 221 181
0 220 180
0 221 181
0 219 179
0 221 179
0 221 180
0 220 179
0 222 181
0 221 181
0 222 181
0 219 180
0 220 180
0 220 180
0 220 181
0 220 181
0 218 179
0 220 180
0 222 181
0 221 181
0 219 178
0 220 180
0 220 180
0 222 181
0 221 181
0 221 181
0 221 181
0 220 180
0 221 180
0 221 181
0 220 181
0 220 180
0 222 181
0 221 181
0 221 181
0 221 181
0 221 180
0 221 180
0 220 180
0 220 180
0 221 181
0 222 181
0 221 180
0 221 181
0 219 179
0 220 180
0 221 180
0 221 181
0 221 181
0 221 180
0 221 181
0 221 181
0 220 180
0 221 179
0 221 181
0 221 181
0 222 181
0 220 180
0 220 180
0 221 181
0 221 181
0 221 181
0 221 181
0 222 180
0 220 179
0 221 181
0 220 180
0 219 178
0 220 180
0 222 181
0 221 181
0 221 180
0 221 181
0 221 181
0 221 181
0 221 181
0 220 179
0 221 181
0 221 180
0 220 181
0 221 180
0 221 181
0 220 180
0 221 181
0 221 180
0 221 181
0 221 181
0 221 180
0 220 180
0 220 181
0 221 181
0 221 181
0 220 181
0 220 181
0 221 181
0 222 181
0 222 181
0 221 181
0 221 181
0 221 180
0 221 181
0 221 181
0 221 181
0 222 181
0 221 181
0 221 181
0 221 181
0 222 181
0 222 181
0 221 181
0 220 181
0 222 181
0 221 181
0 221 181
0 222 181
0 221 181
0 222 181
0 221 181
0 222 180
0 221 181
0 222 181
0 221 181
0 222 180
0 220 180
0 221 180
0 221 181
0 222 181
0 221 181
0 222 181
0 222 181
0 222 181
0 221 181
0 220 180
0 220 180
0 221 181
0 220 181
0 221 181
0 221 180
0 220 180
0 222 181
0 222 181
0 220 181
0 220 180
0 222 181
0 221 181
0 221 181
0 222 181
0 221 181
0 221 181
0 221 180
0 221 181
0 222 181
0 221 181
0 221 181
0 220 181
0 221 180
0 222 181
0 221 181
0 220 180
0 222 181
0 221 181
0 220 181
0 222 181
0 222 181
0 221 181
0 222 181
0 221 181
0 221 181
0 221 181
0 222 181
0 221 181
0 222 181
0 221 181
0 220 180
0 221 181
0 222 181
0 220 180
0 220 181
0 221 181
0 221 181
0 222 181
0 220 181
0 221 181
0 221 181
0 220 180
0 221 181
0 222 181
0 222 181
0 222 181
0 221 181
0 221 181
0 219 179
0 221 181
0 220 179
0 220 180
0 222 181
0 221 181
0 222 181
0 221 181
0 221 181
0 221 180
0 220 180
0 221 181
0 221 181
0 221 181
0 221 181
0 221 181
0 221 180
0 221 181
0 221 181
0 221 181
0 221 181
0 220 180
0 221 181
0 220 180
0 220 180
0 222 181
0 220 180
0 220 180
0 221 181
0 222 181
0 221 180
0 221 181
0 221 181
0 220 180
0 220 180
0 222 180
0 222 181
0 220 180
0 220 179
0 221 180
0 221 181
0 221 181
0 221 181
0 221 180
0 222 181
0 221 181
0 221 181
0 221 181
0 221 180
0 222 181
0 219 179
0 220 181
0 221 181
0 221 180
0 221 180
0 221 181
0 220 181
0 221 181
0 222 180
0 221 181
0 219 179
0 221 181
0 220 179
0 221 181
0 221 181
0 221 181
0 220 179
0 221 181
0 219 180
0 221 181
0 219 179
0 221 181
0 219 180
0 218 179
0 218 179
0 219 179
0 221 181
0 221 181
0 221 180
0 222 181
0 220 180
0 221 180
0 220 180
0 220 179
0 220 179
0 220 180
0 221 181
0 220 181
0 221 181
0 222 181
0 220 180
0 221 181
0 221 180
0 219 179
0 219 179
0 221 181
0 220 181
0 221 181
0 220 179
0 220 180
0 221 181
0 221 181
0 220 179
0 221 180
0 221 181
0 221 180
0 220 179
0 217 178
0 220 180
0 220 179
0 220 180
0 220 180
0 219 179
0 219 180
0 219 179
0 222 181
0 221 181
0 221 181
0 220 180
0 221 181
0 218 179
0 221 181
0 219 179
0 220 179
0 221 181
0 220 181
0 221 181
0 219 179
0 222 181
0 220 181
0 220 180
0 219 178
0 220 179
0 221 181
0 219 180
0 221 179
0 220 180
0 221 181
0 221 181
0 220 180
0 220 180
0 221 181
0 220 181
0 220 179
0 220 180
0 219 179
0 219 179
0 222 181
0 218 178
0 218 178
0 221 180
0 222 179
0 221 179
0 221 181
0 220 180
0 221 180
0 220 180
0 221 181
0 220 179
0 221 180
0 220 179
0 220 180
0 222 181
0 220 180
0 219 180
0 221 181
0 220 181
0 220 179
0 221 181
0 221 180
0 222 181
0 218 179
0 221 181
0 220 179
0 222 181
0 221 180
0 222 181
0 219 177
0 218 179
0 219 179
0 220 181
0 218 178
0 219 180
0 221 181
0 221 180
0 221 180
0 220 180
0 220 180
0 218 178
0 222 181
0 221 180
0 219 178
0 220 180
0 220 179
0 219 180
0 221 180
0 220 180
0 219 179
0 221 181
0 221 181
0 221 181
0 221 179
0 220 180
0 221 180
0 220 181
0 221 181
0 220 179
0 221 180
0 220 181
0 220 180
0 219 179
0 220 180
0 221 180
0 220 180
0 220 179
0 220 180
0 220 181
0 222 181
0 219 179
0 218 178
0 222 181
0 219 180
0 218 179
0 221 181
0 222 181
0 219 179
0 222 181
0 219 179
0 221 181
0 220 180
0 221 180
0 221 181
0 221 181
0 219 178
0 220 179
0 222 181
0 219 180
0 221 181
0 218 178
0 221 181
0 222 181
0 221 181
0 219 177
0 222 181
0 220 180
0 220 180
0 221 181
0 220 181
0 221 181
0 220 180
0 221 181
0 220 180
0 221 180
0 221 181
0 222 181
0 220 181
0 221 181
0 221 181
0 222 181
0 221 181
0 221 181
0 221 181
0 220 181
0 221 181
0 221 181
0 220 180
0 221 181
0 220 180
0 221 181
0 221 181
0 222 180
0 221 181
0 221 181
0 221 181
0 222 181
0 220 179
0 221 180
0 220 180
0 220 180
0 220 180
0 221 181
0 221 181
0 221 181
0 220 179
0 221 180
0 221 181
0 221 181
0 221 181
0 221 180
0 221 181
0 222 180
0 221 181
0 221 181
0 221 181
0 220 180
0 221 181
0 219 180
0 220 181
0 221 181
0 221 181
0 221 181
0 219 179
0 221 181
0 221 181
0 221 181
0 220 180
0 221 180
0 222 181
0 220 181
0 222 181
0 221 181
0 221 181
0 222 181
0 222 181
0 221 181
0 221 180
0 220 180
0 220 180
0 220 181
0 221 180
0 221 181
0 220 179
0 222 181
0 220 181
0 220 181
0 221 181
0 221 181
0 222 181
0 221 180
0 221 181
0 221 181
0 220 181
0 221 181
0 221 181
0 221 181
0 221 181
0 220 181
0 221 181
0 221 180
0 221 181
0 221 181
0 221 181
0 221 181
0 220 181
0 220 180
0 221 181
0 221 181
0 221 181
0 221 181
0 222 181
0 221 181
0 221 181
0 221 181
0 222 181
0 220 180
0 221 181
0 221 181
0 221 181
0 220 180
0 222 181
0 222 181
0 221 181
0 222 181
0 220 180
0 222 181
0 220 180
0 221 181
0 220 181
0 222 181
0 221 181
0 220 181
0 220 181
0 221 181
0 221 181
0 221 181
0 222 181
0 221 181
0 222 181
0 221 180
0 221 181
0 221 181
0 222 181
0 222 181
0 221 181
0 221 181
0 220 181
0 221 181
0 219 180
0 221 181
0 220 180
0 221 181
0 222 181
0 222 181
0 222 181
0 221 181
0 222 181
0 221 180
0 220 180
0 221 181
0 222 181
0 221 181
0 221 181
0 222 181
0 221 181
0 221 181
0 221 181
0 221 180
0 221 181
0 221 180
0 220 181
0 222 181
0 220 181
0 221 181
0 221 180
0 219 180
0 221 181
0 221 181
0 220 180
0 221 181
0 221 181
0 221 181
0 221 181
0 222 181
0 222 181
0 221 181
0 221 180
0 220 181
0 221 181
0 221 180
0 222 181
0 221 180
0 221 180
0 221 181
0 220 181
0 221 181
0 220 180
0 219 179
0 220 180
0 221 181
0 220 181
0 221 181
0 220 180
0 220 180
0 221 181
0 220 180
0 221 181
0 221 181
0 220 180
0 221 181
0 222 181
0 220 179
0 220 180
0 221 181
0 221 181
0 221 181
0 220 180
0 220 179
0 219 180
0 221 179
0 221 181
0 221 181
0 220 180
0 219 180
0 220 180
0 220 180
0 221 181
0 220 180
0 220 180
0 220 181
0 219 180
0 221 181
0 220 180
0 219 179
0 220 180
0 221 181
0 220 179
0 221 180
0 221 181
0 221 181
0 221 181
0 220 180
0 220 180
0 222 180
0 221 180
0 221 180
0 221 181
0 220 179
0 220 180
0 220 180
0 218 179
0 222 181
0 222 181
0 222 181
0 220 180
0 220 180
0 220 180
0 221 180
0 221 180
0 220 181
0 221 181
0 220 180
0 221 181
0 220 180
0 220 180
0 220 180
0 219 178
0 222 181
0 221 180
0 219 178
0 222 181
0 220 180
0 221 181
0 219 179
0 221 181
0 219 179
0 220 180
0 221 181
0 221 181
0 219 179
0 218 179
0 221 181
0 220 178
0 220 180
0 221 181
0 220 181
0 221 181
0 221 181
0 220 179
0 220 179
0 220 180
0 221 180
0 220 180
0 220 180
0 220 179
0 219 180
0 220 180
0 221 181
0 221 181
0 219 179
0 221 181
0 221 180
0 220 180
0 221 181
0 219 180
0 221 181
0 221 181
0 221 181
0 219 178
0 221 181
0 220 179
0 221 180
0 218 179
0 221 181
0 221 180
0 218 179
0 221 181
0 220 179
0 221 181
0 221 181
0 220 181
0 219 179
0 220 180
0 222 181
0 219 179
0 222 180
0 220 180
0 220 179
0 220 180
0 219 179
0 219 179
0 220 179
0 221 181
0 220 179
0 220 179
0 220 180
0 220 180
0 221 181
0 221 181
0 217 177
0 221 181
0 222 180
0 221 180
0 219 179
0 220 180
0 219 180
0 221 181
0 220 180
0 221 181
0 220 180
0 220 179
0 221 181
0 219 179
0 221 181
0 221 181
0 220 181
0 223 181
0 219 179
0 220 180
0 221 180
0 221 180
0 221 181
0 219 179
0 220 181
0 221 180
0 221 180
0 222 181
0 220 180
0 220 180
0 220 180
0 220 180
0 220 180
0 221 181
0 219 179
0 219 179
0 219 180
0 221 181
0 222 181
0 221 181
0 219 179
0 221 180
0 221 181
0 221 181
0 221 180
0 220 179
0 220 180
0 221 181
0 220 179
0 218 178
0 222 181
0 219 179
0 220 180
0 220 179
0 220 179
0 221 180
0 220 180
0 221 181
0 220 181
0 221 180
0 221 180
0 221 181
0 220 181
0 222 181
0 222 181
0 222 181
0 221 181
0 221 181
0 221 181
0 221 181
0 221 180
0 221 181
0 221 181
0 220 180
0 220 179
0 220 180
0 221 180
0 220 181
0 221 181
0 221 180
0 220 180
0 221 181
0 221 181
0 221 181
0 222 181
0 220 181
0 221 180
0 221 180
0 221 180
0 221 181
0 219 180
0 221 181
0 221 181
0 222 181
0 221 180
0 221 181
0 221 181
0 221 181
0 221 180
0 220 179
0 220 180
0 220 180
0 221 181
0 221 181
0 220 180
0 220 180
0 219 179
0 221 181
0 221 181
0 220 180
0 221 181
0 221 181
0 221 180
0 220 181
0 220 180
0 220 180
0 221 181
0 221 180
0 221 180
0 220 181
0 222 181
0 221 180
0 221 180
0 221 181
0 221 181
0 221 181
0 219 178
0 221 181
0 222 181
0 221 181
0 220 181
0 222 180
0 221 180
0 220 179
0 221 181
0 220 180
0 221 181
0 220 180
0 220 180
0 222 181
0 221 181
0 221 181
0 220 180
0 222 181
0 220 181
0 221 181
0 222 181
0 221 181
0 221 181
0 220 180
0 221 179
0 222 181
0 221 181
0 219 179
0 220 181
0 221 181
0 220 181
0 221 181
0 222 181
0 222 181
0 221 180
0 221 180
0 221 181
0 221 181
0 222 181
0 221 181
0 221 181
0 222 181
0 220 180
0 221 181
0 219 179
0 222 181
0 221 181
0 221 181
0 220 181
0 221 181
0 221 181
0 221 181
0 219 180
0 220 181
0 221 181
0 221 181
0 221 181
0 221 181
0 221 181
0 222 181
0 221 181
0 221 181
0 220 180
0 221 181
0 221 181
0 223 181
0 220 181
0 220 181
0 221 181
0 220 180
0 220 181
0 221 181
0 221 181
0 221 181
0 221 180
0 220 181
0 221 181
0 221 181
0 221 181
0 222 181
0 220 180
0 222 181
0 222 181
0 221 181
0 222 181
0 221 181
0 221 181
0 221 181
0 220 181
0 220 181
0 221 181
0 220 180
0 221 181
0 221 181
0 221 181
0 221 181
0 221 181
0 221 181
0 221 181
0 222 181
0 221 181
0 221 181
0 221 181
0 222 181
0 221 180
0 221 181
0 221 181
0 221 181
0 221 181
0 221 181
0 221 181
0 222 181
0 221 180
0 221 181
0 222 181
0 222 181
0 221 181
0 221 181
0 220 180
0 221 181
0 221 181
0 220 181
0 220 180
0 222 181
0 222 181
0 221 181
0 221 181
0 221 181
0 221 181
0 221 180
0 221 181
0 222 181
0 221 181
0 220 181
0 222 181
0 221 181
0 222 181
0 221 180
0 221 181
0 221 181
0 220 179
0 221 181
0 220 180
0 220 181
0 221 181
0 220 180
0 222 181
0 221 181
0 220 180
0 219 179
0 222 181
0 220 180
0 221 181
0 221 181
0 222 181
0 221 181
0 221 181
0 220 180
0 221 180
0 221 181
0 220 181
0 221 180
0 221 180
0 221 180
0 220 179
0 220 180
0 220 181
0 220 180
0 221 180
0 221 181
0 220 180
0 221 181
0 220 180
0 220 180
0 221 180
0 222 181
0 220 180
0 220 181
0 219 180
0 220 180
0 219 179
0 219 179
0 221 181
0 219 179
0 220 180
0 219 179
0 220 180
0 221 181
0 221 180
0 221 181
0 222 181
0 219 179
0 221 181
0 222 181
0 221 181
0 221 180
0 220 179
0 221 180
0 220 179
0 220 180
0 221 181
0 221 180
0 219 180
0 219 180
0 220 179
0 219 178
0 220 179
0 220 179
0 218 179
0 220 180
0 220 180
0 221 181
0 220 180
0 220 180
0 221 181
0 220 178
0 219 179
0 219 179
0 219 179
0 219 180
0 220 180
0 221 180
0 221 180
0 221 181
0 219 179
0 220 180
0 220 180
0 218 178
0 221 180
0 222 179
0 218 178
0 219 178
0 219 179
0 221 181
0 219 179
0 220 180
0 220 179
0 220 180
0 219 178
0 220 180
0 219 179
0 220 180
0 220 179
0 219 179
0 221 180
0 221 181
0 222 181
0 221 181
0 221 180
0 222 181
0 220 181
0 221 180
0 220 180
0 220 181
0 220 179
0 221 180
0 220 180
0 217 178
0 220 179
0 220 179
0 219 180
0 218 179
0 220 180
0 220 179
0 218 178
0 220 181
0 220 179
0 218 179
0 218 178
0 219 179
0 218 179
0 221 180
0 221 181
0 219 180
0 221 181
0 220 179
0 220 180
0 220 180
0 220 180
0 219 179
0 218 177
0 220 180
0 220 181
0 220 181
0 221 180
0 221 180
0 221 181
0 218 179
0 221 180
0 221 181
0 219 179
0 221 180
0 220 179
0 220 180
0 220 179
0 220 179
0 220 180
0 219 178
0 221 181
0 220 179
0 220 180
0 221 180
0 222 181
0 220 180
0 220 180
0 221 181
0 219 179
0 221 180
0 219 179
0 221 180
0 220 180
0 217 178
0 221 180
0 221 181
0 221 181
0 221 180
0 220 180
0 221 181
0 221 180
0 221 180
0 219 180
0 220 179
0 221 181
0 221 181
0 221 181
0 221 181
0 221 180
0 219 180
0 220 180
0 220 180
0 219 179
0 221 180
0 220 179
0 221 181
0 221 181
0 220 180
0 221 181
0 220 181
0 221 181
0 220 180
0 221 181
0 221 179
0 221 181
0 220 180
0 220 180
0 220 180
0 221 181
0 219 179
0 221 181
0 220 180
0 220 180
0 220 180
0 221 181
0 221 181
0 220 180
0 221 181
0 221 181
0 219 179
0 220 181
0 221 181
0 220 180
0 220 181
0 221 180
0 221 180
0 222 181
0 220 181
0 220 180
0 221 181
0 220 180
0 221 181
0 220 179
0 220 180
0 221 181
0 221 181
0 220 179
0 222 180
0 220 180
0 221 181
0 221 181
0 221 181
0 221 181
0 220 180
0 221 181
0 221 181
0 219 180
0 221 181
0 221 181
0 221 181
0 221 181
0 222 181
0 221 181
0 222 181
0 221 181
0 221 180
0 218 177
0 222 181
0 221 181
0 221 180
0 220 180
0 220 180
0 221 181
0 220 181
0 220 180
0 222 181
0 220 179
0 221 181
0 221 181
0 221 181
0 221 181
0 220 181
0 221 181
0 220 181
0 221 181
0 222 181
0 222 181
0 222 181
0 220 180
0 222 181
0 221 181
0 221 181
0 221 181
0 220 181
0 221 180
0 221 181
0 222 181
0 220 181
0 221 181
0 220 180
0 221 180
0 221 181
0 221 181
0 221 181
0 221 181
0 221 181
0 222 181
0 220 181
0 222 180
0 221 181
0 220 180
0 221 181
0 221 181
0 222 181
0 222 181
0 220 181
0 221 181
0 220 180
0 221 181
0 221 181
0 221 181
0 221 181
0 221 181
0 221 181
0 221 181
0 220 180
0 221 181
0 221 181
0 220 181
0 222 181
0 221 181
0 222 181
0 222 181
0 221 181
0 221 181
0 222 181
0 222 181
0 221 181
0 220 180
0 220 180
0 222 181
0 220 180
0 220 180
0 220 180
0 221 181
0 221 181
0 221 181
0 220 180
0 221 181
0 222 181
0 221 181
0 219 180
0 221 181
0 221 181
0 220 180
0 221 181
0 221 181
0 221 181
0 221 181
0 221 181
0 222 180
0 221 181
0 220 180
0 220 181
0 221 181
0 222 181
0 221 181
0 222 181
0 221 181
0 222 180
0 220 180
0 221 180
0 221 181
0 221 181
0 220 180
0 221 181
0 221 181
0 221 181
0 221 181
0 220 181
0 221 181
0 221 181
0 221 181
0 221 180
0 221 181
0 221 180
0 221 180
0 220 180
0 220 180
0 221 181
0 220 180
0 222 181
0 221 180
0 220 181
0 221 180
0 221 181
0 221 180
0 221 181
0 221 181
0 222 181
0 221 181
0 221 181
0 222 181
0 221 180
0 221 180
0 220 180
0 220 180
0 222 181
0 221 181
0 221 181
0 220 180
0 220 181
0 221 181
0 220 180
0 221 181
0 220 181
0 221 181
0 221 181
0 221 180
0 222 181
0 222 181
0 220 181
0 222 181
0 220 180
0 222 181
0 221 181
0 220 180
0 222 181
0 221 181
0 220 180
0 221 180
0 220 181
0 220 180
0 218 178
0 221 180
0 222 180
0 220 181
0 221 181
0 222 180
0 220 179
0 220 180
0 218 179
0 221 181
0 221 181
0 221 180
0 220 180
0 221 180
0 221 181
0 220 180
0 221 181
0 222 181
0 221 180
0 221 181
0 222 181
0 220 181
0 221 181
0 221 181
0 219 180
0 219 180
0 220 181
0 221 181
0 220 180
0 218 178
0 221 180
0 221 181
0 222 181
0 220 181
0 222 180
0 220 181
0 219 178
0 220 180
0 219 179
0 218 180
0 221 181
0 221 180
0 217 178
0 221 180
0 220 179
0 220 179
0 220 180
0 221 181
0 222 181
0 220 180
0 218 179
0 222 181
0 221 181
0 219 180
0 220 180
0 220 181
0 221 179
0 220 180
0 222 181
0 222 181
0 219 179
0 220 179
0 220 180
0 221 181
0 220 180
0 220 180
0 220 180
0 221 181
0 221 181
0 220 180
0 219 178
0 220 179
0 220 180
0 218 178
0 221 181
0 220 179
0 220 180
0 220 180
0 220 180
0 220 180
0 221 181
0 222 181
0 219 179
0 219 180
0 220 179
0 220 180
0 220 180
0 218 178
0 220 180
0 219 178
0 221 180
0 221 181
0 220 180
0 220 180
0 218 179
0 218 179
0 222 181
0 221 181
0 220 180
0 219 179
0 220 179
0 221 179
0 221 180
0 221 181
0 220 180
0 221 181
0 221 181
0 219 180
0 218 179
0 219 180
0 218 178
0 222 181
0 221 181
0 220 181
0 219 180
0 217 177
0 220 180
0 221 181
0 220 180
0 221 181
0 220 180
0 221 181
0 220 179
0 221 181
0 220 180
0 221 180
0 220 180
0 221 181
0 221 180
0 219 179
0 221 180
0 220 179
0 222 181
0 219 179
0 222 181
0 221 181
0 221 181
0 222 181
0 220 179
0 221 181
0 221 181
0 221 181
0 220 180
0 221 181
0 221 181
0 221 180
0 221 180
0 220 179
0 222 181
0 220 180
0 221 181
0 221 180
0 220 181
0 221 181
0 221 181
0 220 181
0 221 180
0 221 181
0 221 181
0 219 180
0 219 179
0 219 180
0 219 178
0 221 181
0 220 179
0 221 181
0 221 181
0 220 179
0 221 181
0 218 178
0 221 181
0 220 180
0 222 181
0 222 181
0 221 180
0 221 181
0 221 181
0 219 179
0 221 180
0 220 180
0 219 179
0 221 180
0 222 181
0 220 180
0 221 181
0 219 179
0 221 181
0 221 181
0 220 179
0 220 179
0 221 181
0 220 180
0 219 180
0 220 180
0 223 181
0 221 181
0 220 181
0 222 181
0 221 181
0 220 180
0 222 181
0 221 178
0 222 181
0 222 181
0 220 180
0 220 180
0 221 181
0 221 181
0 220 181
0 220 181
0 220 180
0 220 179
0 220 180
0 221 179
0 221 181
0 221 181
0 219 179
0 220 180
0 220 181
0 222 181
0 221 181
0 220 180
0 221 181
0 221 180
0 220 180
0 221 179
0 220 181
0 221 181
0 222 181
0 221 181
0 221 181
0 218 179
0 221 181
0 221 181
0 221 181
0 221 180
0 221 181
0 220 180
0 222 181
0 221 181
0 222 181
0 221 181
0 220 180
0 221 181
0 222 181
0 221 181
0 221 180
0 220 181
0 222 181
0 222 181
0 221 180
0 221 181
0 220 181
0 220 181
0 220 180
0 221 181
0 220 180
0 221 181
0 222 181
0 221 181
0 220 179
0 221 181
0 220 180
0 221 180
0 221 181
0 221 181
0 221 181
0 220 180
0 222 181
0 222 181
0 221 181
0 223 181
0 221 181
0 220 181
0 221 180
0 221 181
0 221 181
0 222 181
0 221 180
0 221 181
0 221 181
0 221 181
0 220 181
0 222 181
0 222 181
0 221 181
0 221 181
0 221 181
0 220 181
0 220 180
0 221 181
0 221 181
0 220 181
0 220 180
0 221 181
0 221 181
0 223 181
0 221 181
0 222 181
0 221 181
0 220 181
0 222 181
0 221 181
0 221 181
0 220 181
0 221 181
0 221 181
0 222 181
0 222 181
0 221 181
0 222 180
0 221 181
0 220 180
0 221 181
0 221 181
0 221 181
0 221 181
0 221 181
0 221 180
0 221 181
0 221 181
0 222 181
0 221 181
0 221 181
0 221 181
0 221 180
0 220 180
0 221 181
0 221 181
0 220 179
0 221 181
0 222 181
0 220 181
0 221 181
0 221 181
0 221 181
0 221 180
0 221 181
0 220 181
0 221 181
0 221 181
0 221 181
0 221 181
0 221 181
0 221 181
0 221 180
0 221 181
0 222 181
0 222 181
0 221 180
0 221 181
0 221 181
0 221 181
0 221 181
0 222 181
0 222 181
0 221 181
0 221 181
0 222 180
0 221 181
0 221 181
0 221 181
0 221 181
0 222 181
0 220 181
0 220 180
0 222 181
0 220 180
0 220 181
0 220 180
0 222 181
0 220 179
0 221 180
0 221 181
0 221 181
0 222 181
0 221 181
0 222 181
0 220 180
0 221 180
0 223 181
0 220 180
0 221 181
0 222 181
0 221 181
0 221 181
0 222 181
0 222 181
0 221 181
0 221 181
0 219 179
0 221 180
0 220 179
0 221 181
0 221 181
0 220 180
0 221 179
0 221 181
0 221 180
0 221 181
0 219 179
0 220 180
0 220 180
0 221 181
0 222 180
0 220 180
0 221 179
0 220 180
0 220 180
0 222 181
0 220 180
0 221 181
0 221 181
0 219 178
0 221 181
0 221 180
0 221 181
0 219 179
0 222 181
0 220 180
0 220 180
0 221 181
0 221 180
0 221 180
0 219 178
0 221 181
0 219 179
0 220 180
0 221 180
0 220 180
0 220 180
0 221 180
0 219 179
0 222 180
0 218 179
0 221 181
0 221 179
0 222 181
0 220 179
0 219 180
0 220 180
0 220 180
0 220 180
0 221 180
0 222 181
0 220 181
0 218 180
0 221 181
0 220 180
0 220 179
0 221 181
0 220 179
0 221 180
0 221 181
0 221 181
0 220 179
0 221 180
0 221 181
0 220 179
0 222 181
0 220 180
0 220 179
0 220 178
0 220 180
0 220 180
0 220 180
0 220 179
0 218 179
0 221 181
0 222 181
0 219 179
0 219 179
0 221 181
0 219 179
0 221 181
0 221 181
0 221 181
0 219 179
0 217 178
0 220 180
0 221 181
0 220 180
0 219 180
0 220 179
0 221 181
0 221 181
0 220 180
0 219 179
0 219 180
0 219 178
0 218 179
0 220 180
0 219 180
0 220 180
0 220 181
0 221 181
0 220 179
0 220 179
0 220 181
0 219 179
0 221 180
0 219 179
0 220 180
0 220 179
0 220 180
0 220 180
0 220 180
0 221 179
0 221 180
0 221 181
0 220 180
0 221 181
0 221 181
0 221 179
0 219 179
0 221 180
0 221 180
0 222 181
0 221 181
0 222 181
0 220 178
0 221 181
0 220 180
0 219 179
0 220 181
0 219 180
0 222 181
0 221 181
0 218 179
0 221 181
0 221 179
0 221 181
0 222 181
0 221 181
0 221 180
0 221 181
0 222 180
0 222 180
0 218 179
0 220 181
0 221 181
0 220 179
0 222 181
0 220 180
0 221 181
0 221 181
0 220 180
0 220 180
0 220 180
0 220 180
0 219 179
0 221 181
0 221 181
0 219 178
0 221 181
0 220 180
0 220 180
0 221 180
0 221 181
0 218 178
0 221 181
0 220 181
0 221 180
0 221 181
0 221 181
0 221 181
0 220 181
0 221 181
0 221 181
0 220 180
0 219 180
0 219 180
0 220 179
0 222 181
0 220 180
0 220 180
0 221 181
0 222 181
0 221 181
0 220 181
0 219 180
0 221 181
0 222 181
0 220 179
0 218 179
0 218 179
0 220 180
0 220 180
0 219 179
0 222 181
0 221 181
0 220 181
0 221 181
0 221 180
0 221 180
0 221 181
0 220 180
0 220 179
0 220 179
0 220 179
0 221 181
0 221 181
0 221 181
0 221 180
0 220 180
0 222 181
0 222 181
0 221 181
0 219 180
0 221 181
0 220 180
0 220 181
0 220 180
0 219 179
0 221 181
0 220 179
0 219 179
0 219 179
0 221 181
0 221 181
0 221 180
0 221 181
0 222 181
0 221 181
0 222 181
0 220 180
0 221 181
0 221 180
0 220 181
0 222 181
0 220 180
0 222 181
0 221 181
0 221 179
0 221 181
0 221 180
0 222 181
0 219 180
0 222 181
0 221 181
0 222 181
0 220 181
0 219 179
0 220 181
0 221 181
0 221 181
0 221 181
0 221 181
0 220 179
0 221 181
0 222 181
0 221 180
0 221 181
0 222 181
0 222 181
0 222 181
0 222 181
0 221 181
0 221 181
0 222 181
0 221 181
0 222 181
0 221 181
0 221 181
0 221 181
0 221 181
0 222 181
0 221 181
0 221 181
0 222 181
0 220 181
0 222 181
0 221 181
0 221 181
0 222 181
0 220 180
0 222 181
0 220 181
0 221 181
0 221 181
0 222 181
0 221 181
0 220 180
0 221 181
0 221 181
0 221 181
0 221 181
0 221 181
0 221 181
0 220 181
0 221 181
0 221 181
0 221 180
0 222 181
0 221 181
0 221 181
0 221 181
0 220 181
0 221 181
0 220 180
0 222 181
0 221 181
0 221 181
0 221 181
0 221 181
0 222 181
0 221 181
0 220 181
0 221 181
0 221 181
0 221 181
0 219 179
0 222 180
0 222 181
0 222 181
0 222 181
0 222 181
0 221 181
0 221 180
0 221 181
0 221 181
0 221 181
0 221 181
0 221 181
0 221 181
0 222 181
0 221 181
0 222 181
0 221 181
0 220 181
0 221 181
0 221 181
0 220 181
0 221 180
0 220 180
0 221 181
0 219 180
0 222 181
0 222 181
0 220 180
0 221 181
0 221 180
0 220 180
0 222 181
0 220 181
0 221 181
0 220 180
0 222 181
0 222 181
0 221 181
0 221 181
0 222 181
0 222 181
0 221 181
0 219 180
0 221 181
0 221 181
0 222 181
0 220 181
0 221 181
0 220 181
0 221 181
0 221 181
0 221 181
0 221 181
0 221 180
0 221 180
0 221 181
0 222 181
0 220 181
0 222 181
0 221 181
0 221 181
0 220 180
0 222 181
0 219 180
0 222 181
0 221 181
0 221 180
0 221 181
0 222 181
0 223 180
0 220 180
0 221 180
0 221 181
0 221 180
0 220 178
0 221 181
0 220 180
0 221 181
0 221 181
0 221 180
0 220 181
0 222 181
0 219 180
0 220 180
0 221 181
0 221 179
0 221 181
0 220 180
0 220 181
0 221 181
0 220 180
0 222 181
0 220 179
0 220 179
0 220 179
0 221 180
0 219 178
0 221 180
0 222 181
0 222 181
0 221 181
0 221 181
0 222 181
0 221 181
0 221 180
0 221 181
0 220 180
0 222 181
0 221 181
0 220 180
0 222 181
0 220 180
0 221 181
0 221 181
0 221 181
0 221 181
0 220 179
0 219 179
0 221 181
0 221 181
0 220 180
0 221 180
0 221 180
0 221 180
0 218 179
0 220 180
0 221 181
0 220 180
0 221 181
0 218 178
0 220 180
0 221 181
0 220 180
0 221 181
0 221 181
0 220 179
0 220 180
0 220 180
0 219 179
0 221 179
0 219 178
0 220 179
0 220 180
0 220 179
0 220 180
0 220 178
0 218 179
0 220 180
0 220 180
0 219 180
0 221 181
0 221 180
0 219 179
0 221 180
0 217 178
0 219 178
0 219 179
0 219 179
0 221 180
0 220 180
0 220 179
0 217 178
0 221 181
0 221 180
0 221 181
0 221 180
0 220 180
0 221 180
0 220 181
0 219 179
0 220 179
0 219 180
0 218 178
0 219 178
0 219 179
0 221 181
0 219 179
0 222 181
0 217 178
0 221 180
0 218 179
0 219 179
0 220 179
0 220 180
0 219 179
0 220 180
0 220 180
0 218 179
0 221 181
0 221 181
0 221 181
0 221 181
0 219 180
0 219 180
0 220 179
0 219 179
0 220 180
0 220 180
0 220 179
0 219 179
0 219 178
0 221 181
0 221 180
0 219 179
0 220 181
0 220 180
0 219 178
0 221 181
0 222 181
0 222 181
0 220 180
0 219 178
0 220 180
0 221 180
0 220 180
0 219 179
0 221 181
0 221 181
0 221 181
0 220 180
0 221 179
0 218 178
0 220 179
0 219 179
0 221 180
0 220 180
0 221 181
0 221 181
0 220 180
0 221 181
0 221 181
0 220 180
0 220 180
0 221 180
0 217 178
0 220 179
0 220 181
0 221 181
0 221 181
0 220 180
0 220 179
0 219 179
0 220 180
0 221 181
0 221 179
0 221 180
0 220 180
0 219 179
0 220 180
0 220 180
0 221 181
0 218 177
0 221 181
0 220 179
0 220 179
0 221 180
0 220 180
0 223 181
0 221 181
0 222 181
0 221 179
0 220 180
0 221 181
0 221 180
0 220 180
0 220 181
0 221 181
0 221 180
0 221 180
0 221 181
0 221 181
0 221 181
0 219 178
0 221 181
0 220 181
0 220 180
0 221 180
0 222 181
0 221 180
0 221 181
0 221 180
0 220 180
0 221 181
0 221 181
0 220 180
0 221 181
0 221 181
0 221 181
0 221 181
0 220 181
0 220 180
0 222 181
0 220 181
0 221 180
0 221 181
0 221 180
0 222 181
0 221 181
0 221 181
0 221 181
0 221 181
0 222 181
0 222 181
0 220 180
0 221 181
0 220 180
0 220 180
0 220 181
0 220 180
0 221 181
0 221 181
0 220 180
0 219 179
0 220 180
0 220 180
0 221 181
0 221 181
0 221 180
0 221 181
0 222 181
0 220 179
0 218 179
0 220 181
0 221 181
0 221 181
0 221 181
0 221 180
0 222 181
0 220 180
0 221 181
0 222 181
0 219 180
0 221 181
0 219 180
0 222 181
0 221 181
0 221 181
0 221 180
0 221 181
0 220 180
0 222 181
0 220 180
0 221 180
0 221 181
0 221 181
0 221 181
0 221 181
0 222 181
0 222 181
0 222 181
0 221 181
0 222 181
0 221 181
0 220 180
0 221 181
0 221 181
0 220 180
0 221 181
0 221 181
0 221 181
0 222 181
0 220 180
0 222 181
0 221 181
0 221 181
0 222 181
0 221 181
0 221 180
0 221 181
0 221 181
0 221 181
0 221 181
0 221 181
0 222 181
0 221 181
0 221 181
0 221 181
0 219 180
0 221 181
0 221 181
0 220 180
0 221 181
0 220 181
0 221 181
0 222 181
0 221 180
0 220 181
0 220 180
0 222 181
0 221 181
0 221 181
0 222 181
0 221 181
0 221 181
0 221 181
0 221 181
0 221 181
0 222 181
0 220 181
0 220 181
0 221 180
0 222 181
0 221 181
0 220 180
0 221 181
0 221 181
0 221 181
0 222 181
0 221 181
0 221 181
0 221 181
0 222 181
0 221 181
0 221 181
0 220 180
0 222 181
0 222 181
0 221 181
0 221 181
0 221 181
0 221 181
0 221 181
0 221 181
0 221 181
0 221 181
0 222 181
0 220 180
0 220 181
0 220 181
0 222 181
0 221 181
0 221 181
0 221 181
0 221 181
0 221 180
0 219 179
0 221 180
0 220 181
0 221 181
0 221 181
0 222 181
0 222 181
0 221 181
0 221 181
0 219 179
0 221 181
0 221 180
0 221 181
0 221 180
0 220 180
0 221 181
0 221 181
0 221 181
0 221 181
0 221 181
0 222 181
0 222 181
0 220 180
0 221 181
0 221 181
0 221 181
0 222 180
0 221 180
0 221 181
0 220 181
0 221 181
0 221 181
0 220 180
0 220 180
0 220 180
0 221 181
0 221 181
0 220 181
0 221 181
0 221 180
0 221 181
0 222 180
0 221 180
0 221 181
0 222 181
0 220 180
0 221 180
0 220 180
0 221 181
0 221 181
0 221 181
0 220 180
0 222 181
0 220 180
0 221 181
0 222 181
0 221 181
0 221 180
0 220 180
0 221 181
0 222 180
0 222 181
0 221 181
0 221 180
0 219 179
0 220 180
0 221 181
0 222 181
0 222 181
0 220 181
0 221 181
0 221 181
0 222 181
0 221 180
0 221 181
0 221 179
0 219 180
0 219 180
0 218 179
0 220 180
0 221 181
0 220 179
0 221 181
0 221 180
0 221 181
0 221 180
0 222 180
0 220 180
0 219 179
0 220 179
0 220 180
0 220 179
0 220 179
0 220 179
0 220 180
0 220 181
0 221 181
0 220 181
0 219 179
0 218 178
0 222 181
0 221 181
0 220 180
0 220 180
0 218 179
0 220 179
0 218 179
0 220 180
0 220 180
0 221 180
0 218 178
0 220 180
0 219 179
0 220 179
0 221 181
0 219 178
0 222 180
0 218 178
0 220 180
0 220 179
0 221 181
0 221 181
0 221 180
0 220 179
0 220 180
0 218 178
0 220 179
0 220 180
0 220 180
0 222 180
0 219 179
0 220 179
0 221 180
0 220 180
0 219 180
0 218 180
0 222 180
0 220 180
0 220 180
0 219 179
0 220 180
0 220 180
0 222 181
0 221 181
0 217 179
0 219 179
0 222 181
0 221 181
0 221 180
0 220 181
0 219 179
0 221 181
0 217 177
0 221 181
0 220 180
0 220 180
0 221 180
0 220 179
0 217 178
0 222 181
0 221 180
0 219 178
0 220 180
0 218 179
0 218 179
0 220 181
0 220 181
0 220 180
0 220 180
0 221 181
0 219 180
0 221 180
0 219 179
0 221 180
0 220 179
0 218 178
0 220 179
0 221 181
0 221 180
0 220 180
0 222 181
0 220 179
0 220 180
0 222 181
0 221 181
0 218 179
0 220 180
0 220 180
0 218 178
0 217 177
0 221 180
0 222 181
0 220 180
0 220 180
0 220 180
0 219 179
0 221 179
0 221 181
0 221 180
0 220 180
0 221 180
0 221 181
0 221 181
0 219 179
0 219 179
0 220 180
0 222 181
0 219 180
0 220 180
0 219 179
0 221 181
0 222 181
0 220 181
0 221 181
0 219 180
0 221 181
0 221 181
0 220 180
0 220 180
0 221 181
0 220 180
0 221 180
0 221 181
0 221 180
0 220 180
0 220 180
0 221 181
0 219 179
0 220 180
0 221 181
0 221 181
0 221 180
0 221 180
0 222 181
0 221 181
0 220 180
0 219 179
0 220 180
0 221 181
0 220 180
0 221 181
0 220 179
0 221 180
0 220 180
0 221 181
0 221 181
0 220 179
0 222 181
0 221 181
0 221 181
0 222 181
0 221 181
0 222 181
0 221 181
0 222 181
0 221 180
0 219 179
0 220 181
0 220 181
0 220 181
0 221 180
0 221 181
0 221 180
0 221 181
0 220 180
0 221 181
0 221 181
0 222 181
0 221 180
0 222 180
0 221 181
0 219 180
0 221 180
0 222 181
0 221 181
0 220 181
0 221 181
0 220 180
0 221 181
0 221 181
0 221 179
0 220 180
0 219 179
0 220 180
0 221 180
0 220 180
0 221 180
0 222 181
0 222 181
0 220 180
0 222 181
0 220 180
0 221 181
0 221 181
0 220 180
0 222 181
0 222 181
0 221 181
0 221 181
0 222 181
0 221 181
0 221 181
0 220 180
0 222 181
0 222 181
0 222 181
0 221 181
0 221 180
0 222 181
0 221 181
0 221 181
0 222 181
0 222 181
0 221 181
0 221 181
0 220 180
0 221 181
0 222 181
0 221 180
0 221 181
0 220 181
0 221 181
0 221 181
0 222 181
0 221 181
0 221 181
0 221 181
0 221 181
0 221 181
0 220 180
0 221 181
0 220 181
0 221 181
0 221 181
0 221 181
0 221 180
0 221 181
0 221 181
0 220 181
0 221 181
0 221 181
0 221 181
0 221 181
0 222 181
0 221 181
0 221 180
0 222 181
0 221 181
0 222 181
0 221 181
0 221 181
0 222 181
0 222 181
0 220 179
0 221 181
0 221 181
0 221 181
0 221 180
0 221 181
0 221 181
0 221 181
0 221 181
0 221 181
0 221 181
0 221 181
0 221 181
0 222 181
0 221 181
0 220 180
0 222 181
0 221 181
0 221 181
0 221 180
0 220 180
0 221 181
0 221 181
0 221 181
0 221 181
0 220 181
0 222 180
0 223 181
0 221 181
0 220 181
0 221 181
0 221 181
0 221 180
0 221 181
0 221 181
0 220 181
0 221 180
0 221 181
0 221 181
0 222 181
0 221 181
0 222 181
0 221 181
0 221 181
0 221 181
0 222 180
0 221 181
0 220 181
0 221 181
0 220 181
0 222 181
0 222 181
0 221 181
0 221 181
0 221 181
0 221 181
0 221 180
0 221 181
0 220 180
0 221 181
0 221 181
0 221 181
0 222 181
0 221 181
0 221 181
0 221 180
0 222 181
0 220 181
0 221 179
0 220 180
0 221 181
0 222 181
0 220 180
0 219 180
0 221 181
0 222 181
0 220 179
0 220 180
0 221 181
0 221 181
0 221 180
0 221 180
0 219 180
0 221 180
0 219 178
0 221 181
0 219 179
0 220 180
0 221 179
0 221 180
0 220 180
0 219 179
0 221 181
0 221 180
0 221 181
0 221 181
0 221 180
0 221 181
0 222 181
0 221 181
0 222 181
0 221 181
0 221 180
0 218 179
0 220 180
0 220 180
0 220 180
0 219 179
0 221 181
0 220 180
0 221 181
0 221 180
0 219 179
0 220 179
0 221 181
0 221 181
0 221 180
0 222 181
0 222 181
0 221 180
0 221 181
0 220 179
0 220 181
0 221 180
0 219 178
0 222 181
0 220 179
0 220 179
0 221 181
0 220 180
0 221 181
0 220 180
0 220 180
0 221 181
0 220 180
0 220 181
0 220 180
0 219 180
0 220 180
0 221 181
0 220 180
0 220 180
0 220 179
0 221 181
0 220 180
0 221 180
0 219 179
0 219 180
0 221 180
0 220 180
0 219 178
0 221 181
0 221 180
0 221 180
0 220 181
0 220 180
0 220 178
0 220 179
0 220 180
0 219 180
0 220 180
0 217 178
0 221 180
0 221 180
0 220 179
0 221 181
0 220 179
0 219 179
0 219 179
0 220 180
0 222 181
0 220 180
0 221 180
0 221 180
0 220 181
0 220 179
0 220 180
0 221 180
0 221 181
0 218 178
0 220 179
0 221 181
0 220 180
0 220 180
0 219 179
0 220 181
0 219 179
0 220 180
0 221 181
0 221 181
0 222 181
0 219 180
0 220 179
0 222 181
0 219 178
0 218 179
0 220 179
0 217 178
0 219 179
0 219 179
0 219 179
0 220 180
0 221 181
0 219 180
0 221 180
0 221 181
0 219 179
0 219 180
0 220 180
0 221 180
0 222 181
0 220 180
0 221 181
0 220 180
0 220 180
0 221 181
0 221 181
0 220 180
0 220 180
0 220 180
0 221 181
0 220 179
0 218 178
0 221 180
0 222 181
0 220 180
0 221 181
0 220 179
0 221 180
0 220 180
0 220 180
0 220 181
0 219 180
0 221 181
0 220 180
0 220 180
0 221 180
0 221 181
0 221 180
0 218 178
0 222 181
0 219 180
0 220 179
0 217 178
0 221 181
0 221 180
0 221 180
0 222 181
0 219 179
0 220 181
0 221 181
0 220 180
0 220 180
0 220 180
0 220 180
0 221 181
0 219 179
0 221 181
0 220 180
0 220 180
0 220 179
0 219 179
0 221 181
0 220 179
0 221 181
0 221 181
0 221 181
0 220 179
0 221 180
0 221 181
0 221 181
0 221 180
0 221 180
0 221 178
0 220 180
0 222 181
0 221 180
0 221 181
0 220 180
0 221 181
0 221 180
0 222 180
0 220 180
0 219 178
0 220 180
0 221 180
0 221 181
0 221 180
0 220 180
0 220 181
0 220 180
0 222 180
0 219 180
0 222 181
0 222 180
0 220 180
0 221 181
0 219 179
0 220 179
0 220 181
0 221 180
0 221 181
0 220 180
0 221 181
0 221 181
0 219 180
0 221 181
0 222 181
0 221 181
0 218 178
0 221 181
0 219 180
0 222 181
0 222 181
0 220 179
0 221 181
0 222 181
0 222 181
0 221 181
0 220 180
0 221 180
0 220 180
0 221 179
0 222 181
0 221 179
0 219 179
0 219 179
0 222 181
0 221 181
0 221 181
0 220 180
0 221 181
0 220 181
0 221 181
0 220 181
0 221 181
0 220 180
0 222 181
0 220 180
0 221 180
0 222 180
0 221 181
0 221 181
0 221 181
0 221 181
0 221 181
0 221 179
0 221 180
0 221 181
0 221 181
0 221 181
0 220 181
0 222 181
0 221 181
0 221 180
0 222 181
0 219 179
0 222 181
0 221 180
0 221 180
0 220 180
0 221 181
0 220 180
0 222 181
0 222 181
0 221 180
0 221 181
0 221 181
0 222 181
0 221 181
0 221 181
0 221 181
0 221 181
0 221 180
0 221 180
0 220 181
0 221 181
0 221 181
0 220 181
0 222 181
0 221 180
0 221 181
0 222 181
0 220 180
0 221 181
0 221 181
0 221 181
0 221 181
0 220 180
0 221 180
0 221 181
0 221 181
0 220 181
0 221 181
0 221 181
0 221 181
0 221 181
0 221 181
0 221 181
0 220 180
0 222 181
0 219 180
0 221 181
0 221 180
0 221 181
0 222 181
0 220 180
0 221 181
0 221 181
0 221 181
0 222 181
0 221 181
0 221 179
0 220 181
0 220 180
0 220 180
0 219 179
0 221 181
0 221 181
0 221 181
0 222 181
0 221 181
0 221 181
0 221 181
0 220 181
0 222 181
0 221 181
0 221 181
0 221 181
0 221 181
0 222 181
0 222 181
0 220 180
0 221 181
0 221 181
0 220 180
0 221 181
0 220 181
0 222 181
0 221 181
0 222 181
0 221 181
0 220 181
0 221 181
0 221 181
0 221 181
0 222 181
0 221 180
0 220 181
0 221 181
0 222 181
0 220 180
0 220 181
0 221 181
0 221 181
0 222 181
0 221 181
0 222 180
0 221 181
0 221 181
0 222 181
0 221 181
0 221 181
0 221 180
0 221 181
0 222 181
0 221 181
0 220 180
0 221 181
0 222 181
0 220 180
0 221 181
0 222 181
0 220 180
0 222 181
0 221 181
0 222 180
0 220 181
0 222 181
0 218 178
0 221 181
0 221 181
0 221 181
0 221 181
0 219 180
0 222 180
0 220 181
0 220 181
0 220 181
0 222 180
0 222 181
0 221 180
0 221 181
0 221 181
0 221 181
0 221 181
0 222 180
0 221 180
0 221 181
0 219 180
0 221 181
0 219 179
0 220 180
0 220 181
0 221 180
0 222 181
0 222 181
0 221 179
0 221 181
0 221 181
0 220 180
0 219 178
0 219 180
0 219 179
0 221 180
0 220 181
0 222 180
0 221 181
0 221 180
0 220 179
0 220 180
0 221 180
0 221 180
0 220 180
0 220 180
0 221 181
0 220 180
0 222 179
0 221 181
0 220 180
0 222 181
0 221 181
0 219 179
0 221 180
0 220 180
0 220 179
0 220 180
0 221 181
0 220 180
0 221 181
0 222 180
0 219 179
0 220 179
0 221 181
0 221 181
0 220 180
0 220 180
0 219 177
0 219 178
0 221 180
0 219 179
0 219 179
0 222 181
0 218 179
0 222 181
0 221 180
0 219 180
0 221 180
0 221 180
0 220 179
0 221 180
0 221 179
0 220 179
0 220 180
0 219 179
0 219 179
0 221 180
0 220 179
0 219 178
0 221 181
0 222 181
0 221 181
0 221 181
0 217 178
0 218 179
0 220 179
0 221 181
0 220 179
0 222 181
0 220 180
0 220 180
0 219 179
0 220 180
0 220 180
0 220 180
0 218 178
0 219 179
0 221 181
0 219 179
0 219 179
0 219 179
0 219 179
0 220 181
0 220 180
0 221 180
0 221 181
0 220 179
0 220 179
0 221 179
0 220 179
0 221 181
0 219 180
0 220 180
0 221 180
0 220 180
0 220 179
0 221 180
0 220 179
0 221 181
0 221 180
0 220 180
0 221 181
0 220 180
0 220 180
0 220 180
0 221 180
0 219 180
0 216 178
0 220 180
0 221 181
0 221 181
0 221 180
0 220 179
0 219 180
0 219 180
0 220 180
0 219 179
0 218 178
0 218 177
0 221 181
0 220 179
0 222 181
0 220 180
0 220 180
0 219 180
0 221 181
0 220 180
0 220 180
0 220 180
0 219 180
0 218 178
0 221 181
0 219 179
0 221 180
0 219 179
0 220 181
0 221 181
0 220 181
0 220 180
0 220 179
0 220 180
0 221 181
0 220 180
0 219 179
0 221 180
0 221 180
0 221 180
0 222 181
0 222 181
0 221 181
0 220 180
0 221 181
0 220 180
0 220 180
0 221 181
0 221 180
0 220 179
0 220 180
0 221 181
0 221 180
0 219 180
0 220 181
0 221 181
0 222 181
0 221 180
0 219 179
0 219 179
0 221 181
0 221 181
0 220 180
0 221 180
0 221 181
0 221 181
0 221 181
0 221 181
0 221 181
0 219 180
0 221 181
0 220 180
0 219 178
0 222 181
0 219 178
0 222 181
0 221 181
0 222 181
0 220 180
0 221 181
0 219 179
0 222 181
0 222 181
0 222 181
0 220 180
0 221 181
0 221 180
0 221 181
0 220 180
0 219 180
0 221 181
0 221 181
0 221 181
0 222 181
0 221 181
0 219 179
0 219 180
0 221 180
0 221 181
0 221 181
0 221 181
0 221 181
0 220 181
0 220 179
0 221 181
0 219 180
0 220 180
0 221 180
0 220 180
0 222 181
0 222 181
0 221 181
0 221 181
0 222 181
0 221 181
0 221 181
0 221 181
0 222 181
0 221 181
0 221 181
0 221 181
0 221 181
0 221 181
0 221 181
0 220 180
0 221 181
0 221 181
0 221 181
0 220 180
0 222 181
0 221 181
0 220 180
0 220 181
0 222 181
0 221 180
0 222 181
0 221 181
0 220 180
0 221 181
0 220 180
0 221 181
0 220 180
0 221 180
0 221 181
0 221 181
0 221 181
0 220 180
0 220 181
0 221 180
0 221 181
0 221 181
0 221 181
0 220 180
0 220 180
0 222 181
0 221 181
0 221 181
0 222 181
0 220 181
0 221 181
0 221 181
0 221 181
0 222 181
0 221 181
0 222 181
0 221 181
0 220 180
0 221 181
0 221 180
0 221 181
0 222 181
0 222 181
0 221 181
0 221 181
0 221 181
0 221 181
0 221 181
0 220 181
0 221 180
0 220 181
0 221 181
0 222 181
0 222 181
0 221 180
0 222 181
0 221 180
0 221 181
0 222 181
0 221 180
0 221 181
0 221 181
0 221 181
0 221 181
0 220 180
0 221 181
0 221 181
0 221 181
0 221 181
0 221 181
0 222 181
0 220 181
0 220 180
0 222 181
0 222 181
0 221 181
0 221 181
0 221 181
0 221 181
0 221 181
0 221 181
0 222 181
0 221 181
0 220 180
0 221 181
0 222 181
0 221 180
0 221 181
0 221 180
0 221 181
0 222 181
0 221 180
0 220 181
0 221 181
0 222 181
0 222 181
0 221 181
0 221 181
0 222 181
0 221 181
0 222 181
0 222 181
0 221 181
0 221 181
0 221 180
0 220 181
0 222 181
0 222 181
0 221 181
0 220 180
0 222 181
0 221 181
0 221 181
0 220 180
0 223 181
0 221 180
0 221 180
0 219 180
0 220 180
0 222 181
0 220 181
0 222 181
0 221 180
0 222 181
0 222 181
0 221 181
0 222 181
0 220 180
0 221 181
0 221 181
0 221 181
0 222 180
0 222 180
0 221 179
0 220 180
0 222 180
0 221 181
0 220 181
0 220 181
0 220 181
0 220 179
0 220 180
0 220 180
0 221 181
0 221 181
0 220 180
0 222 181
0 222 181
0 221 181
0 220 181
0 221 181
0 220 181
0 219 180
0 221 181
0 221 181
0 222 181
0 220 180
0 219 179
0 222 180
0 221 180
0 221 181
0 221 181
0 222 180
0 220 180
0 222 181
0 219 180
0 221 180
0 222 181
0 219 179
0 220 180
0 221 181
0 221 179
0 222 181
0 221 181
0 221 180
0 221 181
0 220 181
0 220 181
0 221 180
0 220 179
0 221 180
0 220 180
0 219 179
0 221 180
0 219 179
0 221 181
0 221 180
0 221 181
0 220 180
0 220 180
0 221 181
0 221 179
0 220 180
0 221 181
0 219 180
0 221 181
0 221 180
0 220 180
0 219 179
0 220 181
0 221 181
0 220 180
0 221 181
0 220 180
0 220 181
0 221 181
0 220 179
0 221 180
0 220 180
0 221 179
0 221 181
0 221 181
0 220 179
0 221 180
0 219 180
0 219 179
0 221 180
0 220 180
0 218 178
0 219 179
0 221 180
0 218 178
0 219 179
0 221 181
0 220 178
0 220 180
0 220 180
0 221 181
0 220 179
0 219 180
0 220 180
0 220 180
0 220 181
0 220 178
0 220 180
0 220 179
0 220 179
0 218 178
0 218 179
0 221 181
0 221 181
0 221 179
0 219 179
0 220 179
0 221 180
0 221 181
0 221 181
0 220 179
0 220 180
0 220 179
0 221 181
0 221 180
0 221 179
0 221 181
0 221 181
0 217 179
0 219 179
0 217 177
0 220 180
0 220 180
0 221 180
0 220 181
0 218 180
0 221 180
0 218 179
0 219 179
0 219 180
0 219 179
0 218 179
0 220 180
0 221 180
0 219 179
0 219 178
0 222 180
0 221 180
0 220 179
0 219 179
0 222 181
0 221 181
0 221 179
0 221 181
0 222 181
0 220 180
0 220 180
0 221 180
0 220 181
0 220 180
0 219 178
0 221 180
0 218 179
0 219 179
0 218 178
0 222 181
0 220 181
0 221 180
0 220 180
0 220 180
0 219 178
0 221 181
0 222 181
0 220 180
0 220 179
0 221 180
0 220 179
0 220 179
0 221 180
0 222 181
0 220 181
0 220 180
0 220 179
0 220 181
0 221 181
0 221 181
0 221 181
0 221 180
0 220 180
0 221 180
0 220 181
0 219 179
0 219 181
0 220 180
0 219 179
0 220 179
0 220 180
0 221 181
0 221 181
0 220 181
0 221 181
0 219 180
0 221 180
0 220 180
0 221 180
0 221 181
0 221 181
0 219 180
0 220 181
0 221 180
0 220 180
0 221 181
0 220 179
0 221 181
0 221 179
0 219 179
0 221 181
0 221 180
0 221 181
0 221 181
0 221 181
0 220 180
0 222 180
0 221 179
0 221 180
0 222 181
0 221 180
0 221 181
0 220 181
0 221 181
0 220 179
0 221 181
0 221 181
0 221 181
0 220 181
0 220 181
0 219 179
0 220 180
0 221 180
0 222 181
0 221 181
0 222 181
0 220 180
0 221 181
0 220 181
0 221 180
0 221 181
0 220 181
0 221 181
0 221 181
0 220 180
0 220 179
0 222 181
0 221 181
0 219 179
0 221 179
0 221 181
0 220 180
0 221 181
0 220 180
0 221 181
0 221 181
0 221 180
0 221 181
0 222 181
0 221 181
0 221 180
0 220 180
0 222 181
0 221 181
0 221 180
0 221 181
0 222 180
0 221 180
0 222 181
0 221 180
0 221 181
0 221 181
0 222 181
0 221 181
0 221 181
0 222 181
0 222 181
0 222 181
0 221 181
0 222 181
0 221 181
0 221 181
0 220 180
0 220 180
0 221 181
0 221 181
0 222 181
0 220 181
0 220 180
0 222 180
0 220 181
0 220 180
0 220 180
0 221 181
0 222 181
0 221 181
0 221 181
0 221 181
0 221 181
0 222 181
0 221 181
0 220 180
0 221 181
0 221 181
0 223 181
0 222 181
0 221 181
0 221 180
0 221 181
0 221 181
0 220 180
0 221 181
0 221 181
0 221 181
0 220 180
0 222 181
0 222 180
0 221 181
0 221 181
0 221 180
0 221 181
0 221 181
0 221 181
0 222 181
0 221 180
0 221 181
0 220 181
0 220 181
0 222 181
0 221 181
0 222 181
0 221 180
0 222 181
0 221 181
0 220 180
0 222 181
0 220 180
0 221 181
0 221 181
0 221 181
0 221 181
0 221 181
0 220 181
0 221 181
0 221 181
0 222 181
0 221 181
0 221 181
0 221 181
0 221 181
0 222 180
0 221 181
0 221 181
0 221 181
0 221 181
0 220 181
0 220 181
0 220 180
0 221 180
0 222 181
0 220 181
0 221 181
0 220 181
0 219 179
0 220 181
0 221 180
0 221 181
0 221 180
0 221 180
0 221 181
0 221 181
0 221 181
0 220 181
0 221 181
0 221 181
0 222 181
0 220 181
0 220 181
0 222 181
0 221 181
0 220 181
0 220 181
0 222 181
0 222 181
0 220 181
0 221 181
0 221 181
0 222 181
0 222 181
0 220 180
0 220 181
0 219 180
0 221 181
0 221 181
0 220 181
0 220 180
0 222 180
0 220 181
0 220 181
0 221 181
0 220 180
0 222 181
0 220 181
0 221 181
0 221 180
0 220 180
0 221 181
0 220 180
0 222 180
0 220 179
0 222 181
0 221 181
0 220 180
0 221 181
0 222 181
0 221 181
0 219 180
0 221 180
0 222 181
0 220 180
0 220 180
0 221 180
0 220 179
0 222 181
0 220 180
0 221 181
0 221 181
0 221 181
0 221 181
0 221 181
0 221 180
0 222 181
0 220 180
0 221 181
0 219 179
0 221 181
0 221 180
0 220 179
0 221 181
0 219 179
0 221 180
0 221 181
0 220 181
0 221 180
0 219 180
0 221 181
0 220 180
0 219 179
0 220 181
0 221 181
0 221 181
0 221 181
0 222 181
0 221 180
0 220 179
0 219 179
0 220 179
0 221 180
0 221 181
0 221 181
0 222 181
0 221 179
0 221 181
0 220 179
0 220 179
0 221 180
0 220 179
0 220 179
0 221 180
0 221 181
0 221 181
0 221 181
0 216 178
0 220 180
0 219 179
0 220 179
0 219 178
0 220 180
0 220 180
0 220 180
0 220 180
0 217 178
0 222 181
0 218 179
0 221 179
0 220 179
0 221 181
0 220 180
0 219 179
0 220 180
0 220 180
0 220 180
0 220 179
0 221 180
0 219 179
0 220 180
0 219 179
0 218 179
0 221 181
0 217 178
0 222 181
0 221 180
0 222 180
0 220 179
0 220 179
0 221 181
0 219 179
0 220 178
0 220 180
0 220 179
0 219 180
0 220 181
0 221 181
0 218 179
0 220 181
0 218 178
0 221 180
0 220 180
0 219 179
0 220 179
0 221 180
0 220 180
0 221 181
0 217 179
0 220 180
0 221 181
0 218 179
0 221 181
0 220 179
0 221 181
0 220 180
0 220 179
0 219 180
0 221 180
0 222 181
0 220 180
0 218 178
0 222 181
0 221 181
0 219 179
0 220 180
0 219 179
0 219 180
0 221 180
0 220 180
0 220 180
0 220 180
0 218 178
0 218 178
0 219 179
0 220 179
0 218 178
0 220 180
0 220 180
0 222 181
0 220 180
0 220 180
0 221 179
0 219 179
0 221 181
0 221 180
0 221 181
0 219 179
0 221 181
0 221 181
0 221 181
0 221 180
0 222 181
0 221 180
0 220 180
0 222 181
0 221 180
0 221 181
0 219 178
0 220 180
0 220 179
0 220 180
0 220 181
0 221 181
0 221 180
0 221 181
0 220 180
0 221 181
0 221 181
0 221 181
0 220 180
0 221 181
0 220 179
0 221 181
0 220 181
0 221 181
0 221 181
0 221 181
0 221 181
0 220 180
0 221 181
0 222 179
0 220 180
0 220 180
0 221 181
0 221 181
0 221 181
0 221 181
0 222 181
0 221 181
0 221 181
0 221 181
0 221 181
0 221 180
0 221 181
0 221 181
0 222 181
0 220 180
0 220 180
0 221 181
0 220 180
0 220 181
0 220 180
0 220 180
0 220 181
0 221 181
0 220 180
0 221 181
0 221 181
0 222 180
0 220 180
0 219 179
0 221 181
0 222 181
0 221 181
0 221 181
0 220 180
0 220 180
0 221 180
0 220 181
0 220 179
0 220 181
0 222 181
0 221 181
0 220 181
0 221 181
0 221 181
0 221 181
0 222 181
0 220 180
0 221 181
0 221 181
0 221 180
0 221 181
0 220 180
0 221 181
0 221 181
0 222 181
0 220 180
0 221 181
0 222 181
0 220 180
0 221 181
0 221 181
0 220 181
0 221 181
0 222 181
0 222 181
0 221 181
0 220 180
0 222 181
0 221 181
0 221 181
0 222 181
0 220 180
0 220 180
0 221 181
0 221 181
0 222 181
0 222 181
0 222 181
0 220 180
0 221 181
0 222 181
0 222 181
0 220 180
0 222 181
0 221 181
0 221 181
0 220 181
0 221 181
0 221 181
0 221 180
0 220 180
0 221 181
0 222 181
0 221 181
0 220 181
0 221 181
0 221 181
0 220 180
0 221 181
0 221 181
0 221 181
0 221 181
0 221 181
0 222 180
0 221 181
0 221 181
0 220 181
0 222 181
0 221 181
0 222 181
0 221 181
0 222 181
0 221 181
0 220 181
0 221 181
0 221 181
0 221 181
0 222 181
0 220 180
0 222 181
0 221 181
0 222 181
0 221 181
0 221 181
0 221 181
0 222 181
0 222 181
0 221 181
0 221 181
0 221 181
0 222 181
0 221 181
0 221 181
0 219 179
0 220 180
0 221 181
0 221 181
0 221 181
0 221 181
0 221 181
0 221 181
0 221 181
0 222 181
0 221 181
0 221 181
0 220 181
0 221 181
0 222 181
0 222 181
0 219 180
0 220 179
0 219 180
0 221 181
0 221 180
0 222 180
0 220 180
0 222 181
0 221 181
0 220 180
0 221 181
0 221 181
0 221 181
0 221 181
0 220 180
0 221 181
0 221 181
0 221 181
0 221 181
0 222 181
0 221 181
0 220 180
0 222 181
0 221 181
0 221 180
0 221 181
0 219 180
0 221 181
0 220 180
0 220 180
0 220 180
0 220 180
0 220 181
0 221 181
0 220 181
0 220 180
0 221 181
0 221 181
0 222 181
0 221 179
0 220 180
0 220 180
0 221 181
0 221 181
0 220 180
0 222 181
0 221 181
0 220 179
0 221 180
0 221 180
0 221 181
0 222 181
0 221 181
0 221 181
0 220 179
0 221 181
0 222 181
0 221 181
0 220 181
0 221 181
0 221 180
0 219 180
0 220 180
0 222 181
0 221 181
0 221 181
0 221 181
0 222 181
0 221 180
0 221 181
0 221 181
0 220 180
0 221 181
0 220 180
0 221 181
0 221 181
0 221 181
0 221 181
0 221 181
0 222 181
0 222 180
0 220 180
0 220 181
0 221 181
0 221 179
0 220 181
0 221 180
0 220 181
0 221 181
0 219 179
0 221 181
0 221 180
0 220 180
0 221 180
0 221 180
0 221 180
0 219 180
0 220 179
0 220 180
0 222 181
0 221 181
0 219 179
0 220 180
0 220 180
0 221 181
0 220 180
0 219 179
0 219 179
0 222 181
0 221 181
0 221 181
0 220 179
0 220 181
0 222 180
0 219 180
0 221 181
0 219 179
0 219 179
0 220 180
0 220 180
0 223 181
0 220 179
0 219 179
0 221 180
0 220 180
0 220 180
0 220 180
0 219 179
0 220 179
0 219 179
0 221 180
0 221 181
0 221 181
0 221 181
0 221 180
0 218 178
0 218 178
0 221 181
0 220 180
0 220 180
0 222 181
0 220 180
0 217 177
0 220 180
0 218 177
0 222 181
0 219 179
0 219 179
0 219 179
0 220 179
0 218 178
0 220 180
0 219 179
0 219 180
0 220 180
0 219 179
0 219 178
0 219 180
0 219 178
0 218 179
0 221 180
0 220 180
0 219 179
0 219 180
0 218 178
0 219 179
0 220 180
0 219 180
0 218 178
0 221 181
0 217 176
0 220 178
0 219 179
0 219 179
0 219 179
0 221 180
0 221 180
0 219 179
0 218 178
0 221 178
0 221 179
0 218 178
0 219 179
0 220 180
0 219 179
0 221 180
0 219 179
0 221 180
0 222 181
0 219 180
0 219 180
0 220 180
0 220 180
0 221 180
0 221 180
0 221 180
0 220 180
0 220 180
0 220 180
0 219 178
0 221 180
0 220 180
0 221 180
0 220 179
0 220 179
0 221 181
0 219 179
0 221 180
0 219 179
0 221 180
0 220 179
0 221 180
0 221 181
0 222 181
0 221 180
0 221 180
0 220 180
0 220 179
0 220 180
0 221 180
0 220 181
0 222 181
0 221 180
0 222 181
0 221 181
0 220 179
0 220 181
0 221 180
0 221 180
0 219 179
0 222 181
0 219 179
0 219 179
0 220 181
0 221 180
0 221 180
0 222 181
0 220 180
0 218 179
0 220 180
0 222 181
0 221 180
0 220 180
0 219 179
0 219 179
0 222 181
0 221 181
0 221 181
0 220 180
0 221 181
0 221 181
0 221 181
0 220 181
0 221 181
0 221 181
0 221 181
0 221 181
0 221 181
0 220 180
0 221 181
0 221 181
0 220 181
0 221 180
0 221 180
0 221 181
0 221 181
0 221 181
0 220 181
0 221 180
0 220 180
0 221 181
0 220 180
0 221 180
0 221 181
0 221 181
0 222 181
0 221 181
0 221 181
0 221 181
0 221 181
0 221 181
0 221 181
0 220 180
0 221 181
0 222 181
0 222 180
0 221 181
0 221 181
0 222 181
0 220 180
0 221 181
0 221 181
0 221 181
0 220 180
0 219 179
0 222 181
0 221 181
0 221 181
0 221 181
0 221 180
0 221 181
0 221 180
0 221 181
0 220 181
0 222 181
0 221 180
0 221 181
0 221 181
0 221 181
0 220 180
0 221 181
0 221 181
0 222 181
0 221 181
0 221 181
0 221 181
0 221 181
0 222 181
0 221 181
0 221 181
0 220 180
0 221 181
0 221 181
0 221 181
0 218 179
0 220 181
0 221 180
0 221 181
0 221 181
0 221 181
0 221 181
0 220 180
0 221 181
0 221 181
0 221 181
0 221 181
0 222 181
0 221 180
0 221 181
0 221 180
0 221 181
0 221 181
0 221 181
0 221 181
0 221 181
0 221 180
0 222 181
0 222 181
0 222 181
0 221 181
0 221 181
0 220 181
0 222 181
0 221 181
0 221 181
0 220 180
0 222 181
0 221 181
0 221 181
0 221 181
0 220 179
0 221 180
0 220 181
0 222 181
0 222 181
0 221 181
0 221 181
0 221 181
0 222 181
0 222 181
0 223 181
0 221 181
0 222 181
0 220 180
0 221 181
0 222 181
0 221 181
0 222 181
0 221 181
0 221 181
0 221 181
0 222 181
0 221 181
0 222 181
0 220 181
0 220 180
0 221 181
0 221 181
0 222 181
0 222 181
0 220 181
0 221 181
0 221 181
0 221 181
0 223 181
0 220 180
0 220 181
0 221 181
0 221 181
0 221 181
0 222 181
0 220 181
0 220 180
0 222 181
0 221 181
0 221 180
0 220 180
0 221 181
0 221 181
0 221 181
0 221 180
0 221 181
0 221 181
0 221 180
0 220 180
0 222 181
0 222 181
0 221 181
0 221 181
0 220 180
0 221 181
0 222 181
0 220 181
0 222 181
0 221 181
0 221 181
0 221 181
0 222 181
0 222 181
0 221 181
0 222 181
0 221 180
0 221 181
0 222 181
0 222 181
0 222 181
0 222 180
0 221 181
0 220 181
0 221 181
0 221 181
0 221 181
0 221 181
0 220 179
0 221 181
0 222 181
0 220 180
0 220 181
0 221 181
0 221 181
0 220 180
0 221 181
0 221 180
0 222 181
0 221 181
0 221 181
0 221 181
0 220 180
0 222 181
0 222 181
0 222 181
0 221 181
0 220 181
0 220 180
0 220 180
0 220 180
0 220 181
0 219 179
0 221 181
0 221 180
0 222 180
0 221 181
0 221 180
0 221 181
0 221 181
0 221 181
0 221 180
0 221 181
0 222 181
0 220 179
0 221 181
0 221 181
0 221 180
0 220 180
0 221 181
0 221 181
0 220 180
0 222 181
0 220 180
0 220 180
0 220 180
0 219 179
0 220 180
0 221 180
0 221 180
0 219 179
0 220 180
0 218 179
0 220 180
0 221 181
0 220 180
0 221 180
0 221 180
0 222 180
0 221 181
0 220 180
0 220 180
0 220 181
0 220 180
0 216 177
0 220 179
0 218 178
0 220 180
0 219 179
0 221 181
0 220 180
0 219 179
0 220 181
0 221 179
0 219 178
0 220 181
0 220 180
0 220 180
0 221 180
0 222 181
0 219 180
0 216 177
0 220 180
0 221 181
0 217 178
0 219 180
0 220 179
0 222 181
0 220 180
0 220 180
0 220 180
0 219 180
0 218 179
0 219 179
0 219 179
0 219 179
0 221 179
0 218 178
0 220 180
0 219 179
0 219 179
0 221 181
0 220 180
0 221 179
0 221 181
0 219 180
0 220 178
0 220 180
0 220 179
0 220 180
0 219 179
0 218 179
0 219 179
0 219 178
0 219 179
0 219 179
0 220 180
0 222 181
0 219 179
0 221 180
0 219 179
0 220 180
0 219 180
0 220 181
0 219 180
0 217 178
0 218 179
0 221 181
0 219 179
0 221 181
0 220 180
0 218 179
0 220 180
0 220 179
0 219 180
0 221 180
0 221 181
0 219 180
0 220 180
0 221 181
0 220 181
0 219 180
0 220 179
0 221 180
0 221 181
0 219 178
0 220 179
0 221 181
0 221 181
0 220 179
0 221 181
0 218 178
0 220 180
0 220 180
0 221 181
0 221 181
0 219 179
0 222 181
0 221 181
0 221 181
0 221 181
0 221 181
0 220 179
0 220 179
0 221 180
0 220 180
0 221 180
0 221 180
0 221 180
0 219 179
0 221 181
0 220 180
0 220 181
0 221 180
0 222 181
0 219 179
0 221 180
0 221 180
0 221 180
0 219 178
0 221 180
0 221 181
0 221 181
0 221 181
0 221 180
0 222 180
0 221 181
0 221 181
0 222 181
0 221 180
0 217 179
0 221 181
0 222 181
0 219 179
0 220 180
0 220 179
0 221 181
0 221 181
0 221 180
0 220 181
0 219 179
0 221 181
0 221 180
0 220 181
0 221 181
0 219 180
0 220 180
0 221 181
0 221 181
0 222 181
0 219 178
0 221 180
0 221 180
0 221 181
0 222 180
0 220 180
0 222 181
0 220 180
0 221 180
0 222 181
0 218 178
0 221 181
0 221 181
0 221 180
0 221 181
0 220 180
0 220 180
0 221 180
0 220 180
0 222 181
0 220 180
0 221 180
0 221 180
0 220 180
0 220 179
0 221 181
0 222 181
0 221 180
0 221 181
0 221 181
0 221 180
0 220 178
0 222 181
0 221 181
0 221 179
0 219 179
0 220 181
0 221 180
0 221 180
0 221 181
0 221 181
0 222 181
0 221 181
0 222 181
0 220 181
0 221 181
0 220 180
0 221 181
0 222 181
0 220 181
0 221 181
0 220 180
0 221 181
0 221 181
0 221 181
0 220 180
0 219 180
0 222 181
0 221 181
0 219 179
0 221 180
0 221 181
0 220 180
0 221 181
0 221 181
0 220 179
0 220 181
0 221 181
0 219 180
0 222 181
0 221 180
0 221 181
0 222 181
0 221 181
0 221 181
0 221 181
0 221 180
0 220 180
0 222 181
0 221 180
0 221 181
0 221 181
0 221 181
0 222 181
0 221 181
0 221 181
0 221 181
0 221 181
0 220 181
0 222 181
0 220 180
0 221 181
0 222 181
0 222 181
0 221 181
0 221 181
0 221 181
0 221 181
0 221 181
0 220 181
0 221 181
0 221 181
0 221 181
0 221 181
0 221 180
0 222 181
0 221 181
0 221 181
0 221 181
0 221 181
0 221 181
0 220 181
0 221 180
0 221 181
0 221 181
0 221 181
0 221 181
0 221 181
0 220 180
0 222 181
0 222 181
0 221 181
0 221 181
0 221 181
0 222 181
0 220 181
0 221 181
0 222 181
0 220 181
0 220 180
0 222 181
0 222 181
0 221 181
0 222 181
0 221 181
0 221 181
0 221 181
0 221 181
0 222 181
0 221 181
0 221 181
0 221 181
0 221 181
0 221 181
0 221 181
0 220 181
0 221 181
0 220 181
0 221 181
0 221 181
0 220 181
0 221 181
0 221 181
0 221 181
0 221 181
0 221 181
0 221 181
0 221 181
0 221 181
0 222 181
0 221 181
0 221 181
0 221 181
0 221 181
0 222 181
0 222 181
0 222 181
0 221 181
0 221 181
0 221 181
0 222 181
0 221 181
0 221 181
0 221 181
0 221 180
0 220 180
0 221 181
0 221 181
0 222 181
0 222 181
0 221 181
0 221 181
0 221 181
0 221 181
0 221 180
0 221 181
0 221 181
0 221 181
0 220 179
0 221 180
0 220 180
0 221 181
0 222 181
0 221 180
0 219 180
0 221 181
0 221 181
0 221 181
0 221 181
0 221 181
0 222 179
0 221 180
0 221 181
0 220 181
0 221 180
0 221 181
0 221 181
0 221 181
0 218 180
0 221 181
0 220 180
0 221 181
0 221 181
0 221 181
0 221 180
0 222 181
0 222 179
0 220 180
0 222 181
0 219 178
0 220 180
0 222 181
0 221 181
0 220 181
0 219 180
0 221 181
0 220 180
0 220 180
0 221 181
0 220 180
0 220 179
0 220 181
0 221 181
0 221 181
0 221 181
0 220 180
0 219 179
0 221 180
0 221 181
0 221 180
0 222 181
0 220 181
0 221 181
0 219 179
0 220 181
0 222 181
0 220 180
0 221 181
0 220 180
0 219 180
0 222 181
0 221 181
0 219 180
0 221 180
0 220 180
0 220 180
0 220 180
0 220 180
0 218 179
0 221 181
0 222 181
0 220 180
0 220 180
0 221 181
0 219 179
0 222 181
0 220 180
0 221 181
0 219 179
0 220 181
0 220 180
0 220 180
0 218 179
0 220 179
0 219 179
0 219 180
0 221 180
0 220 180
0 219 179
0 220 180
0 220 180
0 221 181
0 221 180
0 220 180
0 221 181
0 219 180
0 220 180
0 220 179
0 221 180
0 218 179
0 221 180
0 220 180
0 219 179
0 221 181
0 218 179
0 219 180
0 220 179
0 218 179
0 219 179
0 220 179
0 218 178
0 219 179
0 220 180
0 220 180
0 221 181
0 219 179
0 219 179
0 220 180
0 221 180
0 220 180
0 220 179
0 219 179
0 221 181
0 218 178
0 219 179
0 219 180
0 221 181
0 219 179
0 218 179
0 221 181
0 219 179
0 221 179
0 219 179
0 219 178
0 219 179
0 219 179
0 219 179
0 221 181
0 221 180
0 219 179
0 222 181
0 221 179
0 219 179
0 219 179
0 218 180
0 221 180
0 220 181
0 221 181
0 221 181
0 220 179
0 220 180
0 217 177
0 219 179
0 221 181
0 220 180
0 219 178
0 222 181
0 220 180
0 220 180
0 221 180
0 221 181
0 219 180
0 221 181
0 219 179
0 219 179
0 220 180
0 220 179
0 221 180
0 221 180
0 220 180
0 220 181
0 221 181
0 220 180
0 220 180
0 221 181
0 221 181
0 220 181
0 219 180
0 221 181
0 218 179
0 219 179
0 220 180
0 221 181
0 219 179
0 221 180
0 221 180
0 221 181
0 219 179
0 222 181
0 221 181
0 219 180
0 220 181
0 220 180
0 221 181
0 219 180
0 222 181
0 219 180
0 220 180
0 219 179
0 221 181
0 221 181
0 220 180
0 220 179
0 221 180
0 221 181
0 220 181
0 220 180
0 220 180
0 220 180
0 221 180
0 220 180
0 221 181
0 221 181
0 221 181
0 221 181
0 221 181
0 221 181
0 219 180
0 219 181
0 222 181
0 221 181
0 220 180
0 221 180
0 221 181
0 219 179
0 220 178
0 221 180
0 220 180
0 221 181
0 221 181
0 221 180
0 220 180
0 220 181
0 220 180
0 221 181
0 221 181
0 221 179
0 219 180
0 218 179
0 222 181
0 221 180
0 220 180
0 221 179
0 220 180
0 222 181
0 221 180
0 221 181
0 220 180
0 221 181
0 221 181
0 222 180
0 221 181
0 221 181
0 220 180
0 221 181
0 220 179
0 221 181
0 220 180
0 221 181
0 221 180
0 221 181
0 220 181
0 220 180
0 222 181
0 222 181
0 220 180
0 220 180
0 221 181
0 220 180
0 222 181
0 221 180
0 221 181
0 221 180
0 221 181
0 221 181
0 220 180
0 221 181
0 220 180
0 220 180
0 221 180
0 220 180
0 221 181
0 221 181
0 220 181
0 222 181
0 221 181
0 220 181
0 220 180
0 221 181
0 221 181
0 221 181
0 220 180
0 221 181
0 220 181
0 220 181
0 221 181
0 222 180
0 222 181
0 222 181
0 220 180
0 220 180
0 221 181
0 221 181
0 220 181
0 222 181
0 222 181
0 222 181
0 221 181
0 221 181
0 220 181
0 221 181
0 221 181
0 220 180
0 220 181
0 220 181
0 221 181
0 221 181
0 222 181
0 221 181
0 222 181
0 221 181
0 221 181
0 221 180
0 221 181
0 221 181
0 222 181
0 220 180
0 221 181
0 220 181
0 222 181
0 222 181
0 222 181
0 220 180
0 221 181
0 221 181
0 220 180
0 221 181
0 221 181
0 220 181
0 221 181
0 222 181
0 222 181
0 221 181
0 221 181
0 221 181
0 221 181
0 222 181
0 221 181
0 222 181
0 221 181
0 220 180
0 221 180
0 221 181
0 221 181
0 220 180
0 221 180
0 222 181
0 221 181
0 221 181
0 220 179
0 221 181
0 221 181
0 221 180
0 222 181
0 220 181
0 221 181
0 221 181
0 221 180
0 221 181
0 221 180
0 221 180
0 221 181
0 221 181
0 222 181
0 220 179
0 220 180
0 221 181
0 221 180
0 222 181
0 221 181
0 221 181
0 221 180
0 220 180
0 222 180
0 220 180
0 221 181
0 219 180
0 221 181
0 221 181
0 221 181
0 222 180
0 220 180
0 222 181
0 221 181
0 220 181
0 221 181
0 221 180
0 221 181
0 221 181
0 222 181
0 221 181
0 221 181
0 220 181
0 221 180
0 222 180
0 221 181
0 220 181
0 220 180
0 219 179
0 221 180
0 220 179
0 219 179
0 221 181
0 220 180
0 221 180
0 220 181
0 220 180
0 221 181
0 221 181
0 221 180
0 221 180
0 220 180
0 220 181
0 221 181
0 219 180
0 223 181
0 221 180
0 220 180
0 220 179
0 222 181
0 221 180
0 220 180
0 221 181
0 221 180
0 221 181
0 220 179
0 221 180
0 220 181
0 222 181
0 221 181
0 220 180
0 221 180
0 221 181
0 220 180
0 219 180
0 219 179
0 219 179
0 221 180
0 220 180
0 220 180
0 220 179
0 220 181
0 220 180
0 219 178
0 218 178
0 221 181
0 218 179
0 222 180
0 221 181
0 218 178
0 220 180
0 221 180
0 221 180
0 219 179
0 220 180
0 221 181
0 220 180
0 219 179
0 221 180
0 220 180
0 221 180
0 222 180
0 221 180
0 219 179
0 221 180
0 220 179
0 219 180
0 221 181
0 219 179
0 221 181
0 220 178
0 220 180
0 219 179
0 220 180
0 220 181
0 220 180
0 220 180
0 221 179
0 218 178
0 221 179
0 221 180
0 221 181
0 220 180
0 219 178
0 221 180
0 220 180
0 221 180
0 221 181
0 218 179
0 221 181
0 220 178
0 220 179
0 220 179
0 220 180
0 222 180
0 220 179
0 221 181
0 218 179
0 219 179
0 219 179
0 219 179
0 220 180
0 219 179
0 220 180
0 221 181
0 221 181
0 220 180
0 216 178
0 222 181
0 221 181
0 219 179
0 219 180
0 220 180
0 220 180
0 221 181
0 221 181
0 217 176
0 220 180
0 219 180
0 221 180
0 220 179
0 221 180
0 222 181
0 220 178
0 219 178
0 219 179
0 221 180
0 221 181
0 219 179
0 221 181
0 220 180
0 219 179
0 221 181
0 220 179
0 218 179
0 219 180
0 221 180
0 220 181
0 220 180
0 219 178
0 221 179
0 220 180
0 222 181
0 219 181
0 221 180
0 221 180
0 221 180
0 218 178
0 220 180
0 221 181
0 221 181
0 220 180
0 221 180
0 221 180
0 220 179
0 219 178
0 217 178
0 220 180
0 218 178
0 221 181
0 219 180
0 222 181
0 219 179
0 221 181
0 221 180
0 221 180
0 220 180
0 222 181
0 219 179
0 218 178
0 219 179
0 220 180
0 220 180
0 222 181
0 221 180
0 221 181
0 218 179
0 221 180
0 221 180
0 219 179
0 220 179
0 221 181
0 221 181
0 220 180
0 219 179
0 221 179
0 222 181
0 221 180
0 222 181
0 221 181
0 221 181
0 221 181
0 220 179
0 221 181
0 219 179
0 222 181
0 221 180
0 220 179
0 221 181
0 220 181
0 219 178
0 220 180
0 220 180
0 221 180
0 220 181
0 221 181
0 220 180
0 219 179
0 221 181
0 222 181
0 221 181
0 222 181
0 222 181
0 221 181
0 221 181
0 220 179
0 220 180
0 221 181
0 222 181
0 222 181
0 220 181
0 222 181
0 221 181
0 222 181
0 221 181
0 221 181
0 221 181
0 221 180
0 220 180
0 221 180
0 221 181
0 221 181
0 220 180
0 221 181
0 220 180
0 221 181
0 221 181
0 220 180
0 220 181
0 220 180
0 221 181
0 221 181
0 220 180
0 220 180
0 221 180
0 221 180
0 220 180
0 222 180
0 220 181
0 221 181
0 222 181
0 222 181
0 221 181
0 221 181
0 220 180
0 221 181
0 221 181
0 221 181
0 221 180
0 222 181
0 221 181
0 221 181
0 221 181
0 219 180
0 222 181
0 221 181
0 220 181
0 221 181
0 222 181
0 222 181
0 221 181
0 221 181
0 222 181
0 220 180
0 220 179
0 221 181
0 221 181
0 221 180
0 220 180
0 220 181
0 221 181
0 219 180
0 221 181
0 221 181
0 221 181
0 221 181
0 222 181
0 222 181
0 222 181
0 221 181
0 221 181
0 222 181
0 221 181
0 221 180
0 221 181
0 221 181
0 220 181
0 222 181
0 221 181
0 219 179
0 222 181
0 221 181
0 220 181
0 222 181
0 220 181
0 221 181
0 220 180
0 221 181
0 221 180
0 222 181
0 222 181
0 221 181
0 220 181
0 220 181
0 221 181
0 222 181
0 221 181
0 221 180
0 221 181
0 222 181
0 221 181
0 221 181
0 221 181
0 221 181
0 221 181
0 222 181
0 221 181
0 221 181
0 222 181
0 222 181
0 222 181
0 221 181
0 222 181
0 221 181
0 220 180
0 221 181
0 221 181
0 222 181
0 221 181
0 219 179
0 222 181
0 220 180
0 221 181
0 221 181
0 221 181
0 221 180
0 222 181
0 221 181
0 223 181
0 221 181
0 222 181
0 221 181
0 220 181
0 220 181
0 221 181
0 220 180
0 221 180
0 220 180
0 221 181
0 222 181
0 220 181
0 220 180
0 221 181
0 221 181
0 220 180
0 221 181
0 220 180
0 221 181
0 221 180
0 220 180
0 222 181
0 219 180
0 221 181
0 220 180
0 221 181
0 221 181
0 221 181
0 221 181
0 221 181
0 221 181
0 219 180
0 221 181
0 221 180
0 221 181
0 221 181
0 222 180
0 219 180
0 221 181
0 221 181
0 221 180
0 221 181
0 221 181
0 220 180
0 221 181
0 220 180
0 219 180
0 222 181
0 222 181
0 221 181
0 220 179
0 222 181
0 221 181
0 220 179
0 221 181
0 220 181
0 221 181
0 220 180
0 221 180
0 221 180
0 220 180
0 221 181
0 222 181
0 221 181
0 221 181
0 222 181
0 219 179
0 221 181
0 221 181
0 221 180
0 219 180
0 221 181
0 220 180
0 221 181
0 220 180
0 222 181
0 221 180
0 220 180
0 221 181
0 219 179
0 221 180
0 221 181
0 221 181
0 221 180
0 221 181
0 220 180
0 221 180
0 222 181
0 219 179
0 219 180
0 222 181
0 220 179
0 220 179
0 217 178
0 221 181
0 220 181
0 221 180
0 220 180
0 220 180
0 221 180
0 217 178
0 219 180
0 219 179
0 219 180
0 222 181
0 221 180
0 219 178
0 221 180
0 221 181
0 219 180
0 221 181
0 220 179
0 219 179
0 221 181
0 221 181
0 221 181
0 220 179
0 220 181
0 219 180
0 221 181
0 217 178
0 218 179
0 220 179
0 220 180
0 220 181
0 220 180
0 221 180
0 219 179
0 219 179
0 220 180
0 219 179
0 220 180
0 221 181
0 219 179
0 221 180
0 221 181
0 217 178
0 220 179
0 220 180
0 221 181
0 221 179
0 221 181
0 221 181
0 220 180
0 218 178
0 219 179
0 220 180
0 221 181
0 220 180
0 218 178
0 219 178
0 221 181
0 219 178
0 220 180
0 220 180
0 221 181
0 220 179
0 219 180
0 219 178
0 221 181
0 220 181
0 220 180
0 219 179
0 219 180
0 221 181
0 220 180
0 221 180
0 220 180
0 218 179
0 220 179
0 218 179
0 221 181
0 219 179
0 220 179
0 220 181
0 220 180
0 220 180
0 219 178
0 218 179
0 220 179
0 220 180
0 220 180
0 221 181
0 220 180
0 220 179
0 220 178
0 219 180
0 221 181
0 221 181
0 220 180
0 220 179
0 220 180
0 221 181
0 219 179
0 219 180
0 219 179
0 220 179
0 220 180
0 220 179
0 222 181
0 217 176
0 222 181
0 220 180
0 220 180
0 220 180
0 219 179
0 220 180
0 221 180
0 220 179
0 221 181
0 220 181
0 221 181
0 220 180
0 221 181
0 220 179
0 220 181
0 219 179
0 220 179
0 221 181
0 220 180
0 219 178
0 219 179
0 220 180
0 220 180
0 219 179
0 220 179
0 220 179
0 219 179
0 221 181
0 221 180
0 221 181
0 220 181
0 221 181
0 221 181
0 220 179
0 219 179
0 218 179
0 221 181
0 221 181
0 222 181
0 221 180
0 221 180
0 221 181
0 220 180
0 220 180
0 221 181
0 220 179
0 222 180
0 221 181
0 220 180
0 221 181
0 220 180
0 220 180
0 221 181
0 221 181
0 219 179
0 220 180
0 222 181
0 222 181
0 220 180
0 221 181
0 221 181
0 220 181
0 222 181
0 222 181
0 220 180
0 221 181
0 220 180
0 221 181
0 220 181
0 222 180
0 222 181
0 221 180
0 220 180
0 221 181
0 220 180
0 221 181
0 221 181
0 222 181
0 220 179
0 220 180
0 220 179
0 221 181
0 222 181
0 221 181
0 220 180
0 221 180
0 221 181
0 220 180
0 222 181
0 221 181
0 221 180
0 220 180
0 219 179
0 222 181
0 221 180
0 220 180
0 222 180
0 220 178
0 220 180
0 221 181
0 220 180
0 220 180
0 219 179
0 221 181
0 221 181
0 221 181
0 221 181
0 219 179
0 222 181
0 221 181
0 221 180
0 222 181
0 222 181
0 221 181
0 221 181
0 222 181
0 221 181
0 220 179
0 221 181
0 222 181
0 221 181
0 222 181
0 222 181
0 221 181
0 221 181
0 221 181
0 222 181
0 220 180
0 220 180
0 221 181
0 221 181
0 222 180
0 220 179
0 221 181
0 221 181
0 221 181
0 222 181
0 220 181
0 221 181
0 221 180
0 222 181
0 222 181
0 221 181
0 221 181
0 222 181
0 222 181
0 221 181
0 221 181
0 221 181
0 221 181
0 221 181
0 220 180
0 220 180
0 222 181
0 221 180
0 222 181
0 221 181
0 220 181
0 221 181
0 221 181
0 221 181
0 222 180
0 220 180
0 222 181
0 220 180
0 222 181
0 220 180
0 221 181
0 222 181
0 221 181
0 222 181
0 222 181
0 222 181
0 220 180
0 222 181
0 221 181
0 222 181
0 221 181
0 221 181
0 220 181
0 221 181
0 221 180
0 220 180
0 221 181
0 222 181
0 221 181
0 220 180
0 221 181
0 220 180
0 220 181
0 221 181
0 221 181
0 222 181
0 221 181
0 221 181
0 221 181
0 222 181
0 221 181
0 221 181
0 221 181
0 221 181
0 221 181
0 220 180
0 219 179
0 221 181
0 221 181
0 221 181
0 221 181
0 221 181
0 220 180
0 221 181
0 221 181
0 221 181
0 221 181
0 221 180
0 221 180
0 221 179
0 221 181
0 221 181
0 220 180
0 222 181
0 221 181
0 220 180
0 221 181
0 222 181
0 221 181
0 221 181
0 219 180
0 222 181
0 222 181
0 222 181
0 220 180
0 221 181
0 221 181
0 221 181
0 221 181
0 221 181
0 221 181
0 221 181
0 220 180
0 220 179
0 221 180
0 220 180
0 219 179
0 220 181
0 222 181
0 221 180
0 221 181
0 221 181
0 221 181
0 221 181
0 222 181
0 220 180
0 222 181
0 221 181
0 221 181
0 220 180
0 221 180
0 220 179
0 221 180
0 219 179
0 220 180
0 221 181
0 221 181
0 221 181
0 222 181
0 221 181
0 221 180
0 220 180
0 220 180
0 219 179
0 220 181
0 221 181
0 220 180
0 221 181
0 221 181
0 222 181
0 218 178
0 221 180
0 221 181
0 221 181
0 218 178
0 222 181
0 221 181
0 222 181
0 220 179
0 221 181
0 221 181
0 220 180
0 221 181
0 221 180
0 219 179
0 219 179
0 221 181
0 221 181
0 221 181
0 220 180
0 219 179
0 221 181
0 218 179
0 219 179
0 220 180
0 222 180
0 221 180
0 219 180
0 219 179
0 220 180
0 221 181
0 220 179
0 220 178
0 220 179
0 218 179
0 220 180
0 217 178
0 220 181
0 219 179
0 220 180
0 220 180
0 221 181
0 221 181
0 220 181
0 219 180
0 220 179
0 220 179
0 221 180
0 220 179
0 220 180
0 219 179
0 220 180
0 220 179
0 221 181
0 219 179
0 220 180
0 222 181
0 220 180
0 221 180
0 219 179
0 218 179
0 222 180
0 220 179
0 220 180
0 221 180
0 221 181
0 220 179
0 220 179
0 221 179
0 218 178
0 219 179
0 219 178
0 219 181
0 220 180
0 221 180
0 221 180
0 219 179
0 221 180
0 215 177
0 221 181
0 220 180
0 220 180
0 220 179
0 220 179
0 217 176
0 220 179
0 218 178
0 220 179
0 220 180
0 219 179
0 222 180
0 220 180
0 219 179
0 222 181
0 220 180
0 219 178
0 218 178
0 219 179
0 220 179
0 221 180
0 220 180
0 220 178
0 220 181
0 220 179
0 221 181
0 219 179
0 219 179
0 221 181
0 221 181
0 221 180
0 220 179
0 221 180
0 220 180
0 221 181
0 220 179
0 221 181
0 219 178
0 219 180
0 219 180
0 218 177
0 220 179
0 221 181
0 220 180
0 220 180
0 219 179
0 219 179
0 221 181
0 220 180
0 219 178
0 220 181
0 218 178
0 221 180
0 221 181
0 222 181
0 219 178
0 220 179
0 221 180
0 218 178
0 221 180
0 220 180
0 220 180
0 221 181
0 220 181
0 221 181
0 219 180
0 221 180
0 219 178
0 221 181
0 220 180
0 219 179
0 221 180
0 221 181
0 221 180
0 219 180
0 222 181
0 221 180
0 220 180
0 221 181
0 221 181
0 221 181
0 221 180
0 221 181
0 221 181
0 222 181
0 221 180
0 221 181
0 221 181
0 222 181
0 221 180
0 221 181
0 221 181
0 222 180
0 220 181
0 221 181
0 222 181
0 220 180
0 221 181
0 220 179
0 219 180
0 221 180
0 220 179
0 223 181
0 221 181
0 221 180
0 220 181
0 220 180
0 221 181
0 218 179
0 219 179
0 221 180
0 220 181
0 221 181
0 221 181
0 221 181
0 221 180
0 221 180
0 221 181
0 220 180
0 221 180
0 221 180
0 221 181
0 223 181
0 222 181
0 220 181
0 220 179
0 219 178
0 221 181
0 220 179
0 221 180
0 221 180
0 220 180
0 221 181
0 221 181
0 221 181
0 220 181
0 221 181
0 221 181
0 221 180
0 221 181
0 221 181
0 220 179
0 220 181
0 221 181
0 221 181
0 221 181
0 221 181
0 220 180
0 220 181
0 221 180
0 222 181
0 220 180
0 222 181
0 222 181
0 221 180
0 220 180
0 220 180
0 221 181
0 221 181
0 221 181
0 221 181
0 222 181
0 220 180
0 221 181
0 221 181
0 221 181
0 221 180
0 219 180
0 221 181
0 220 180
0 221 180
0 221 181
0 221 181
0 221 181
0 221 181
0 221 181
0 222 180
0 221 181
0 221 181
0 221 181
0 221 181
0 221 181
0 221 181
0 221 181
0 221 181
0 221 180
0 221 181
0 222 181
0 222 181
0 221 181
0 222 181
0 221 181
0 222 181
0 221 181
0 222 181
0 222 181
0 222 181
0 222 181
0 221 181
0 221 180
0 222 181
0 222 181
0 221 181
0 221 181
0 221 180
0 221 181
0 220 181
0 221 181
0 222 181
0 221 181
0 221 181
0 221 181
0 221 181
0 220 180
0 221 181
0 222 181
0 221 181
0 221 181
0 221 181
0 221 181
0 220 180
0 220 181
0 222 181
0 221 181
0 221 181
0 222 181
0 222 180
0 221 181
0 221 181
0 221 181
0 219 181
0 221 181
0 221 181
0 220 181
0 221 181
0 220 180
0 220 181
0 221 181
0 221 181
0 221 181
0 222 181
0 221 181
0 221 181
0 221 181
0 221 180
0 221 181
0 221 181
0 222 181
0 221 181
0 221 181
0 221 181
0 220 180
0 222 181
0 221 181
0 221 181
0 221 181
0 220 180
0 221 180
0 222 181
0 221 181
0 221 181
0 221 180
0 221 181
0 222 181
0 218 179
0 220 180
0 220 181
0 222 181
0 221 181
0 220 180
0 220 180
0 221 180
0 220 181
0 222 181
0 221 180
0 220 180
0 221 180
0 221 181
0 222 181
0 219 180
0 221 180
0 220 180
0 220 180
0 222 181
0 219 180
0 221 181
0 221 181
0 221 181
0 220 180
0 222 181
0 221 181
0 221 181
0 221 181
0 222 180
0 221 181
0 222 181
0 221 181
0 220 181
0 222 181
0 221 180
0 220 180
0 221 181
0 220 180
0 220 180
0 222 181
0 220 179
0 218 179
0 219 179
0 220 179
0 221 181
0 219 179
0 220 180
0 222 181
0 221 181
0 220 180
0 221 181
0 221 180
0 222 180
0 220 180
0 220 180
0 221 181
0 222 181
0 220 180
0 221 180
0 220 180
0 221 181
0 220 181
0 221 180
0 221 181
0 220 180
0 219 180
0 219 178
0 220 179
0 220 179
0 220 180
0 221 180
0 221 181
0 220 179
0 220 180
0 219 179
0 221 180
0 220 180
0 221 181
0 220 181
0 219 180
0 218 179
0 221 180
0 219 178
0 220 180
0 220 179
0 220 179
0 221 180
0 221 180
0 218 179
0 220 179
0 221 180
0 220 180
0 219 180
0 218 179
0 220 180
0 221 181
0 219 179
0 220 179
0 219 179
0 221 180
0 220 180
0 218 178
0 217 177
0 220 180
0 221 181
0 218 179
0 219 179
0 218 179
0 218 178
0 220 180
0 219 179
0 219 178
0 219 179
0 217 178
0 216 177
0 221 181
0 219 180
0 218 178
0 220 179
0 222 181
0 220 180
0 221 180
0 218 179
0 219 179
0 219 179
0 220 179
0 220 180
0 218 178
0 218 178
0 221 181
0 220 180
0 220 181
0 221 180
0 219 179
0 220 180
0 220 180
0 220 181
0 221 180
0 220 180
0 221 181
0 217 177
0 218 179
0 219 178
0 220 181
0 220 179
0 219 179
0 217 177
0 220 180
0 219 179
0 219 179
0 221 181
0 218 178
0 220 180
0 219 179
0 219 179
0 221 181
0 221 181
0 221 180
0 220 179
0 219 178
0 220 179
0 221 181
0 218 179
0 221 180
0 221 180
0 219 178
0 220 180
0 220 180
0 220 181
0 219 179
0 221 181
0 222 181
0 220 180
0 221 180
0 219 180
0 221 181
0 221 181
0 221 181
0 220 179
0 219 180
0 220 179
0 220 180
0 219 180
0 220 181
0 220 179
0 221 181
0 220 180
0 221 181
0 221 180
0 220 181
0 220 180
0 222 181
0 221 181
0 219 179
0 219 178
0 220 179
0 221 181
0 222 181
0 221 181
0 221 181
0 221 181
0 221 180
0 220 180
0 219 179
0 220 180
0 220 180
0 220 180
0 220 180
0 220 180
0 221 181
0 221 181
0 221 181
0 220 181
0 222 181
0 220 180
0 220 181
0 220 179
0 221 181
0 220 180
0 221 181
0 220 179
0 221 179
0 220 180
0 221 181
0 219 179
0 221 181
0 221 180
0 222 181
0 219 180
0 220 181
0 222 181
0 220 180
0 221 181
0 220 179
0 220 179
0 220 180
0 220 181
0 222 181
0 220 181
0 220 180
0 220 179
0 220 180
0 221 181
0 220 181
0 221 181
0 220 181
0 222 181
0 221 180
0 222 181
0 219 179
0 218 178
0 221 179
0 221 181
0 221 181
0 221 181
0 220 179
0 221 181
0 221 181
0 220 180
0 220 180
0 220 179
0 221 180
0 221 181
0 221 181
0 220 181
0 221 181
0 220 180
0 221 180
0 222 181
0 221 180
0 221 180
0 221 181
0 220 180
0 221 180
0 221 181
0 222 181
0 220 180
0 221 181
0 221 181
0 220 180
0 220 181
0 222 181
0 221 181
0 222 181
0 220 181
0 222 181
0 222 181
0 221 181
0 222 181
0 221 181
0 221 181
0 221 181
0 221 181
0 221 181
0 221 181
0 221 181
0 222 181
0 221 181
0 222 181
0 221 180
0 221 181
0 220 180
0 222 181
0 220 181
0 221 181
0 220 180
0 221 181
0 221 181
0 221 181
0 221 181
0 222 181
0 221 181
0 221 181
0 221 181
0 222 181
0 221 181
0 221 181
0 221 181
0 220 181
0 221 181
0 221 181
0 222 181
0 222 181
0 221 181
0 221 181
0 221 181
0 221 181
0 221 181
0 221 181
0 220 181
0 220 180
0 221 181
0 220 180
0 221 181
0 221 181
0 221 181
0 222 181
0 221 181
0 221 181
0 222 181
0 221 181
0 220 181
0 221 181
0 220 181
0 221 181
0 220 181
0 221 181
0 222 181
0 222 181
0 221 181
0 220 180
0 221 181
0 221 181
0 221 181
0 221 181
0 221 181
0 222 181
0 221 180
0 222 181
0 221 181
0 221 181
0 222 181
0 221 181
0 221 181
0 221 181
0 221 181
0 220 180
0 222 181
0 221 181
0 222 181
0 220 180
0 222 181
0 222 181
0 222 181
0 221 181
0 220 180
0 221 181
0 221 181
0 222 181
0 221 181
0 221 181
0 221 181
0 221 181
0 222 181
0 221 181
0 221 181
0 221 181
0 221 181
0 220 180
0 222 181
0 221 181
0 222 181
0 221 180
0 221 181
0 221 181
0 220 180
0 221 180
0 221 181
0 221 181
0 221 181
0 221 181
0 222 181
0 220 180
0 221 181
0 222 181
0 221 181
0 222 181
0 221 181
0 221 180
0 221 181
0 221 181
0 219 179
0 220 181
0 220 180
0 220 180
0 221 181
0 221 181
0 220 181
0 221 181
0 221 180
0 221 180
0 221 180
0 221 181
0 221 181
0 221 181
0 221 181
0 221 181
0 221 181
0 221 180
0 219 180
0 220 180
0 221 181
0 221 181
0 221 181
0 221 179
0 220 180
0 221 181
0 220 180
0 221 181
0 220 180
0 221 181
0 221 181
0 222 181
0 220 181
0 221 180
0 222 181
0 221 181
0 220 180
0 221 181
0 221 181
0 220 180
0 221 180
0 221 180
0 220 180
0 221 180
0 220 180
0 222 180
0 222 180
0 218 178
0 221 181
0 221 180
0 221 181
0 221 180
0 222 181
0 221 180
0 221 180
0 219 180
0 220 180
0 221 180
0 220 180
0 221 181
0 221 180
0 220 180
0 220 181
0 221 181
0 221 181
0 220 180
0 220 180
0 221 181
0 219 179
0 220 180
0 222 181
0 221 180
0 222 181
0 221 181
0 218 179
0 220 180
0 220 179
0 220 180
0 220 180
0 221 180
0 220 180
0 221 181
0 220 181
0 219 178
0 220 181
0 217 177
0 219 179
0 221 180
0 221 181
0 220 179
0 221 180
0 219 180
0 219 179
0 220 180
0 218 179
0 218 178
0 221 181
0 222 179
0 219 179
0 219 180
0 220 181
0 220 180
0 219 179
0 221 181
0 220 179
0 220 180
0 219 179
0 220 180
0 221 181
0 220 178
0 220 180
0 220 180
0 221 180
0 219 179
0 218 179
0 220 180
0 218 179
0 221 181
0 218 180
0 220 180
0 218 177
0 221 180
0 220 179
0 218 178
0 219 178
0 219 180
0 221 181
0 221 180
0 218 178
0 218 179
0 221 180
0 220 179
0 221 181
0 221 180
0 221 180
0 221 180
0 220 180
0 221 181
0 222 181
0 220 181
0 219 179
0 222 181
0 220 180
0 219 179
0 220 180
0 222 180
0 219 179
0 221 180
0 221 180
0 220 180
0 222 181
0 220 180
0 219 179
0 221 180
0 218 179
0 219 179
0 220 181
0 221 181
0 220 179
0 222 181
0 221 181
0 221 181
0 221 181
0 216 177
0 217 177
0 220 180
0 221 181
0 220 180
0 222 181
0 218 178
0 221 181
0 220 180
0 220 180
0 219 179
0 220 180
0 220 180
0 222 181
0 219 180
0 220 179
0 221 180
0 221 181
0 221 181
0 220 180
0 221 180
0 221 180
0 221 181
0 220 180
0 219 180
0 220 181
0 219 180
0 219 178
0 221 181
0 220 181
0 220 180
0 220 180
0 220 180
0 220 180
0 220 180
0 222 181
0 221 181
0 221 181
0 220 181
0 221 181
0 220 181
0 220 180
0 219 179
0 221 181
0 220 181
0 222 181
0 220 180
0 221 180
0 222 180
0 221 181
0 220 180
0 221 180
0 221 181
0 221 181
0 219 179
0 220 181
0 221 181
0 222 181
0 220 180
0 222 181
0 222 181
0 220 180
0 221 181
0 220 179
0 220 180
0 221 181
0 222 181
0 221 181
0 221 180
0 221 181
0 221 181
0 221 181
0 220 179
0 221 180
0 221 181
0 219 178
0 221 181
0 221 181
0 221 181
0 221 181
0 222 181
0 222 181
0 222 180
0 220 181
0 221 180
0 221 181
0 221 181
0 220 181
0 221 181
0 221 180
0 221 181
0 220 180
0 221 181
0 220 180
0 221 181
0 222 181
0 220 179
0 221 180
0 220 180
0 220 180
0 220 181
0 221 181
0 220 180
0 221 181
0 221 181
0 220 181
0 222 181
0 221 181
0 221 180
0 221 181
0 221 181
0 222 181
0 221 181
0 222 181
0 221 181
0 220 180
0 222 181
0 222 181
0 221 181
0 221 180
0 222 181
0 220 180
0 221 181
0 221 181
0 221 180
0 221 181
0 221 181
0 221 181
0 221 181
0 221 180
0 221 181
0 221 181
0 220 180
0 222 181
0 221 181
0 222 181
0 221 180
0 221 181
0 221 181
0 220 180
0 222 181
0 221 181
0 222 181
0 221 181
0 222 181
0 220 180
0 221 181
0 222 181
0 221 181
0 221 181
0 222 181
0 222 181
0 220 181
0 221 181
0 222 181
0 221 181
0 221 181
0 222 181
0 221 181
0 221 181
0 221 181
0 220 181
0 220 181
0 221 181
0 222 181
0 222 181
0 220 180
0 221 181
0 221 181
0 222 181
0 222 181
0 222 181
0 221 181
0 220 180
0 221 181
0 221 181
0 220 181
0 221 181
0 221 181
0 221 181
0 221 181
0 221 181
0 222 181
0 222 181
0 220 180
0 220 181
0 221 181
0 221 181
0 219 180
0 221 181
0 221 181
0 222 181
0 221 181
0 220 181
0 221 181
0 221 181
0 221 181
0 221 181
0 221 181
0 222 181
0 221 181
0 221 181
0 221 181
0 221 181
0 222 181
0 221 181
0 221 181
0 221 180
0 221 181
0 222 181
0 221 181
0 221 180
0 221 181
0 222 181
0 220 180
0 221 181
0 222 181
0 220 180
0 221 181
0 222 181
0 219 179
0 221 181
0 218 178
0 222 181
0 219 180
0 221 179
0 221 181
0 220 180
0 221 180
0 221 181
0 221 181
0 221 181
0 223 181
0 220 180
0 221 181
0 221 181
0 220 181
0 221 180
0 220 179
0 222 181
0 221 180
0 222 181
0 222 181
0 220 180
0 222 181
0 222 181
0 220 181
0 218 179
0 221 181
0 220 179
0 221 180
0 220 180
0 219 180
0 221 180
0 221 181
0 220 179
0 220 180
0 222 181
0 221 180
0 221 181
0 221 180
0 220 180
0 221 181
0 219 179
0 220 180
0 221 181
0 219 180
0 220 181
0 219 179
0 221 181
0 220 180
0 221 181
0 220 179
0 220 181
0 221 181
0 220 180
0 220 180
0 221 181
0 220 181
0 222 180
0 220 179
0 221 181
0 220 180
0 221 181
0 219 179
0 221 181
0 221 181
0 221 181
0 221 180
0 220 180
0 222 181
0 220 180
0 219 180
0 219 180
0 222 180
0 221 180
0 221 181
0 220 181
0 219 180
0 221 181
0 220 180
0 221 179
0 220 180
0 220 180
0 221 180
0 222 180
0 219 179
0 221 181
0 220 180
0 220 180
0 221 180
0 217 178
0 218 179
0 220 180
0 220 179
0 220 180
0 221 180
0 219 179
0 222 180
0 220 180
0 221 180
0 219 179
0 220 178
0 219 179
0 220 180
0 220 179
0 221 181
0 218 179
0 218 178
0 219 180
0 218 177
0 217 178
0 217 178
0 219 179
0 221 181
0 220 179
0 219 179
0 219 179
0 220 180
0 221 181
0 221 181
0 218 179
0 220 180
0 218 179
0 219 179
0 221 181
0 220 180
0 221 181
0 218 179
0 215 176
0 222 181
0 221 180
0 220 180
0 221 180
0 217 178
0 218 178
0 217 178
0 221 181
0 220 179
0 219 179
0 219 178
0 221 178
0 221 180
0 218 178
0 221 180
0 217 178
0 219 179
0 219 179
0 221 178
0 220 180
0 220 181
0 217 177
0 221 181
0 217 177
0 220 180
0 218 179
0 215 177
0 220 181
0 221 181
0 218 178
0 222 181
0 217 178
0 219 179
0 219 180
0 221 181
0 217 178
0 219 179
0 221 181
0 219 179
0 221 181
0 219 179
0 219 179
0 220 180
0 219 178
0 219 179
0 222 181
0 218 178
0 218 179
0 219 179
0 218 178
0 220 179
0 222 181
0 219 179
0 221 181
0 219 180
0 220 180
0 222 181
0 222 181
0 218 178
0 220 179
0 221 181
0 220 180
0 219 178
0 221 180
0 219 179
0 222 180
0 221 181
0 217 177
0 222 181
0 219 179
0 219 179
0 220 180
0 221 181
0 221 181
0 221 180
0 220 181
0 220 180
0 219 180
0 220 180
0 221 180
0 222 181
0 218 178
0 221 180
0 219 179
0 219 179
0 221 181
0 221 181
0 221 180
0 220 179
0 222 181
0 221 181
0 221 180
0 221 181
0 219 179
0 221 181
0 220 180
0 221 181
0 221 179
0 219 178
0 220 180
0 222 180
0 221 181
0 221 180
0 219 180
0 221 181
0 222 181
0 220 180
0 222 180
0 218 179
0 221 181
0 220 180
0 220 181
0 222 181
0 218 179
0 219 179
0 220 179
0 220 181
0 221 181
0 221 181
0 219 179
0 221 181
0 220 181
0 220 180
0 221 181
0 221 181
0 221 180
0 221 181
0 221 181
0 221 181
0 220 181
0 220 179
0 222 181
0 221 181
0 221 180
0 221 181
0 221 180
0 220 180
0 222 181
0 221 180
0 222 181
0 220 180
0 219 179
0 222 181
0 221 180
0 219 180
0 221 181
0 221 181
0 220 180
0 221 180
0 222 181
0 219 180
0 220 181
0 220 180
0 220 179
0 222 181
0 219 179
0 221 180
0 222 181
0 221 181
0 221 181
0 221 181
0 220 180
0 222 181
0 221 181
0 222 181
0 221 181
0 221 180
0 222 181
0 221 181
0 222 181
0 222 181
0 221 181
0 221 180
0 222 181
0 222 181
0 220 179
0 221 181
0 221 181
0 220 180
0 221 180
0 221 181
0 222 181
0 220 180
0 222 181
0 221 181
0 221 180
0 221 181
0 221 181
0 221 181
0 221 181
0 221 181
0 221 181
0 221 181
0 222 181
0 221 181
0 221 181
0 220 181
0 221 181
0 221 181
0 221 181
0 221 180
0 222 181
0 221 181
0 222 181
0 220 180
0 222 181
0 221 181
0 221 181
0 221 181
0 221 181
0 221 181
0 221 181
0 220 180
0 222 181
0 221 180
0 221 181
0 222 181
0 221 181
0 221 181
0 220 181
0 220 181
0 221 180
0 221 181
0 221 181
0 222 181
0 221 181
0 221 181
0 220 180
0 221 181
0 221 181
0 221 181
0 222 181
0 221 181
0 221 181
0 220 181
0 220 181
0 220 180
0 221 180
0 221 181
0 220 180
0 221 181
0 220 180
0 220 180
0 221 181
0 221 181
0 221 181
0 222 181
0 221 181
0 220 181
0 222 181
0 220 180
0 220 181
0 222 181
0 220 180
0 221 181
0 221 180
0 221 181
0 221 181
0 219 180
0 222 181
0 220 180
0 221 180
0 220 180
0 221 181
0 221 181
0 221 180
0 221 180
0 220 180
0 221 181
0 219 179
0 222 181
0 220 180
0 221 181
0 219 180
0 220 180
0 220 180
0 221 181
0 221 181
0 221 181
0 220 180
0 221 181
0 221 181
0 221 181
0 221 181
0 220 181
0 222 181
0 221 181
0 221 181
0 221 181
0 221 181
0 220 180
0 222 181
0 222 180
0 221 180
0 220 180
0 222 181
0 222 180
0 221 180
0 221 181
0 221 181
0 221 181
0 221 181
0 220 180
0 221 181
0 222 181
0 221 180
0 221 181
0 222 181
0 220 181
0 221 180
0 221 181
0 221 181
0 222 181
0 221 181
0 221 181
0 220 180
0 222 180
0 220 180
0 222 181
0 222 181
0 221 181
0 221 181
0 220 180
0 219 180
0 220 180
0 220 180
0 221 181
0 220 180
0 222 181
0 218 178
0 221 181
0 220 179
0 222 181
0 222 181
0 218 179
0 221 181
0 221 180
0 218 178
0 221 181
0 220 180
0 220 180
0 220 180
0 221 181
0 220 179
0 219 179
0 220 180
0 222 181
0 221 180
0 219 179
0 221 180
0 219 179
0 220 181
0 221 179
0 221 181
0 220 180
0 220 179
0 220 180
0 219 180
0 220 180
0 219 178
0 219 180
0 220 181
0 221 181
0 220 180
0 219 179
0 220 180
0 221 181
0 221 180
0 221 180
0 220 179
0 221 181
0 220 179
0 221 181
0 218 178
0 220 180
0 220 179
0 219 179
0 219 179
0 219 178
0 219 179
0 220 179
0 220 180
0 219 180
0 220 179
0 218 179
0 219 180
0 219 179
0 220 180
0 220 180
0 220 180
0 219 179
0 221 180
0 220 180
0 220 180
0 220 180
0 219 180
0 221 181
0 218 179
0 220 180
0 218 179
0 220 180
0 221 181
0 221 180
0 219 179
0 220 179
0 220 180
0 221 181
0 220 180
0 221 181
0 221 180
0 218 179
0 219 179
0 220 179
0 220 180
0 217 177
0 220 180
0 222 181
0 218 179
0 220 179
0 219 179
0 219 178
0 219 179
0 220 180
0 220 180
0 222 180
0 221 181
0 220 180
0 219 179
0 219 179
0 218 179
0 219 179
0 219 178
0 219 178
0 221 179
0 219 179
0 220 180
0 221 181
0 220 179
0 220 180
0 221 181
0 220 180
0 220 181
0 220 180
0 220 180
0 219 180
0 219 179
0 219 179
0 218 178
0 221 180
0 220 179
0 221 180
0 219 178
0 217 177
0 219 181
0 220 180
0 220 181
0 220 180
0 220 178
0 222 181
0 221 181
0 220 180
0 217 179
0 219 179
0 220 180
0 221 180
0 220 180
0 220 179
0 219 180
0 219 180
0 220 181
0 219 180
0 220 179
0 221 181
0 220 180
0 219 178
0 220 179
0 220 180
0 221 181
0 221 181
0 220 179
0 219 180
0 222 180
0 221 181
0 218 178
0 220 180
0 220 180
0 221 180
0 221 181
0 221 181
0 221 180
0 221 181
0 221 181
0 222 181
0 220 179
0 219 180
0 221 180
0 221 181
0 221 181
0 222 181
0 221 180
0 220 180
0 221 181
0 221 181
0 221 181
0 221 180
0 222 181
0 221 179
0 220 180
0 221 181
0 218 177
0 220 179
0 220 180
0 220 180
0 221 181
0 220 180
0 221 179
0 220 180
0 220 180
0 220 180
0 218 179
0 222 180
0 222 181
0 220 180
0 221 181
0 221 180
0 222 181
0 220 179
0 222 181
0 222 181
0 220 181
0 220 180
0 223 181
0 221 181
0 221 181
0 221 180
0 220 180
0 222 181
0 219 179
0 221 180
0 222 181
0 222 181
0 220 181
0 219 180
0 220 179
0 221 180
0 222 181
0 220 180
0 222 181
0 221 181
0 221 180
0 221 180
0 220 180
0 221 181
0 222 181
0 221 181
0 220 180
0 221 181
0 221 181
0 221 181
0 221 181
0 221 180
0 221 181
0 221 180
0 220 180
0 221 181
0 220 181
0 221 181
0 221 181
0 221 181
0 220 180
0 221 181
0 221 181
0 222 181
0 222 181
0 220 180
0 221 180
0 221 181
0 221 181
0 221 181
0 221 181
0 220 181
0 220 181
0 222 181
0 221 180
0 221 181
0 222 181
0 220 181
0 221 181
0 221 181
0 222 181
0 220 179
0 220 180
0 221 181
0 220 181
0 221 181
0 222 181
0 221 181
0 221 181
0 221 181
0 220 181
0 221 181
0 221 181
0 221 181
0 221 181
0 221 181
0 221 181
0 221 181
0 221 181
0 221 181
0 221 181
0 221 181
0 220 179
0 220 180
0 221 181
0 220 181
0 221 181
0 221 181
0 220 181
0 222 181
0 219 180
0 222 181
0 221 180
0 222 181
0 221 181
0 221 181
0 220 181
0 221 181
0 221 181
0 221 181
0 221 180
0 222 181
0 221 181
0 220 180
0 220 180
0 222 181
0 222 181
0 222 181
0 220 181
0 222 181
0 222 181
0 221 181
0 222 181
0 222 181
0 221 181
0 220 180
0 220 180
0 222 181
0 220 180
0 221 181
0 221 181
0 222 181
0 221 181
0 221 180
0 222 181
0 221 181
0 221 180
0 222 181
0 221 180
0 221 181
0 222 181
0 221 181
0 221 181
0 221 181
0 221 180
0 221 180
0 221 181
0 220 181
0 219 179
0 221 181
0 221 180
0 221 181
0 221 180
0 221 181
0 220 180
0 222 181
0 221 181
0 221 181
0 221 180
0 221 181
0 221 181
0 221 181
0 221 181
0 221 181
0 220 180
0 221 181
0 220 180
0 221 181
0 222 181
0 221 181
0 219 179
0 221 180
0 221 181
0 221 180
0 221 181
0 221 181
0 221 181
0 220 180
0 221 181
0 221 181
0 221 181
0 221 181
0 222 181
0 221 181
0 221 180
0 219 180
0 220 180
0 221 180
0 220 179
0 222 181
0 220 180
0 220 181
0 219 180
0 220 180
0 221 180
0 219 179
0 220 180
0 220 180
0 220 180
0 221 181
0 221 181
0 220 179
0 220 181
0 220 179
0 220 179
0 221 181
0 221 181
0 221 180
0 219 179
0 222 181
0 221 180
0 221 180
0 220 179
0 219 179
0 221 180
0 220 180
0 220 179
0 220 181
0 221 180
0 221 181
0 220 180
0 220 180
0 220 180
0 219 179
0 221 179
0 220 181
0 221 180
0 221 181
0 219 178
0 220 181
0 220 180
0 219 179
0 220 180
0 219 179
0 220 180
0 221 180
0 221 180
0 219 180
0 219 180
0 219 179
0 221 180
0 221 181
0 219 179
0 220 180
0 219 179
0 220 179
0 219 179
0 219 179
0 220 180
0 219 179
0 220 180
0 219 179
0 219 179
0 220 179
0 220 179
0 218 179
0 218 178
0 217 178
0 221 181
0 220 180
0 220 181
0 219 179
0 219 179
0 220 180
0 219 179
0 219 179
0 218 179
0 218 177
0 217 177
0 219 178
0 221 181
0 220 179
0 217 178
0 219 179
0 220 179
0 221 181
0 221 181
0 219 179
0 222 181
0 221 180
0 220 179
0 217 177
0 219 179
0 221 181
0 220 181
0 221 178
0 220 179
0 222 180
0 220 179
0 219 179
0 219 179
0 218 180
0 221 181
0 220 180
0 219 179
0 221 181
0 220 181
0 220 180
0 219 179
0 221 181
0 222 181
0 220 180
0 220 179
0 219 179
0 220 180
0 222 180
0 220 180
0 217 178
0 220 180
0 220 180
0 220 179
0 219 179
0 221 179
0 217 178
0 218 179
0 218 178
0 218 179
0 219 180
0 219 179
0 219 179
0 219 178
0 221 181
0 219 178
0 220 179
0 220 180
0 218 178
0 221 181
0 221 180
0 218 179
0 221 179
0 221 181
0 220 180
0 220 180
0 218 178
0 220 180
0 219 180
0 219 179
0 222 181
0 220 180
0 219 180
0 218 180
0 220 179
0 221 179
0 219 180
0 221 180
0 219 179
0 221 181
0 221 179
0 221 181
0 220 181
0 219 180
0 221 180
0 220 179
0 220 180
0 220 180
0 220 179
0 220 181
0 221 181
0 222 181
0 220 180
0 221 181
0 220 179
0 219 179
0 221 181
0 221 180
0 221 181
0 220 180
0 221 181
0 219 180
0 221 180
0 221 180
0 218 178
0 221 180
0 220 180
0 221 181
0 220 180
0 222 181
0 222 180
0 222 181
0 222 181
0 221 181
0 220 179
0 219 179
0 219 179
0 221 181
0 220 180
0 222 181
0 222 181
0 222 181
0 220 180
0 221 180
0 220 180
0 220 181
0 221 181
0 219 180
0 220 180
0 220 180
0 222 180
0 221 181
0 221 181
0 221 180
0 219 179
0 220 179
0 219 180
0 222 181
0 221 181
0 221 181
0 221 181
0 221 181
0 221 181
0 221 180
0 220 180
0 221 181
0 221 180
0 220 181
0 220 180
0 219 179
0 221 181
0 220 181
0 221 181
0 221 181
0 222 181
0 221 181
0 221 180
0 221 180
0 221 181
0 221 181
0 221 181
0 220 180
0 221 181
0 221 180
0 221 181
0 221 180
0 220 180
0 219 179
0 221 181
0 221 181
0 221 181
0 220 180
0 221 181
0 222 181
0 220 179
0 221 181
0 221 181
0 221 181
0 222 181
0 221 180
0 221 181
0 222 181
0 221 181
0 222 181
0 219 180
0 220 181
0 222 181
0 222 181
0 222 181
0 221 181
0 221 181
0 222 180
0 221 181
0 221 181
0 221 180
0 221 181
0 221 181
0 220 181
0 221 181
0 221 181
0 222 181
0 221 181
0 221 181
0 221 181
0 221 181
0 220 180
0 222 181
0 221 181
0 221 181
0 221 181
0 220 180
0 220 181
0 221 181
0 222 181
0 221 181
0 222 181
0 222 181
0 221 181
0 221 181
0 220 181
0 221 181
0 221 181
0 221 181
0 222 181
0 221 181
0 222 181
0 221 181
0 221 181
0 222 181
0 222 181
0 220 180
0 221 181
0 221 180
0 221 181
0 221 181
0 221 181
0 221 181
0 221 181
0 221 181
0 220 181
0 220 181
0 221 181
0 222 181
0 222 181
0 222 181
0 220 181
0 222 181
0 220 181
0 221 181
0 221 181
0 221 181
0 222 181
0 222 181
0 221 181
0 221 181
0 220 180
0 221 181
0 221 181
0 221 181
0 220 181
0 220 180
0 219 180
0 221 180
0 222 181
0 220 180
0 221 180
0 221 181
0 220 181
0 222 181
0 221 180
0 222 181
0 220 181
0 222 181
0 220 180
0 221 181
0 222 181
0 220 181
0 220 179
0 221 181
0 221 181
0 220 180
0 221 181
0 220 180
0 221 181
0 221 181
0 221 181
0 221 181
0 222 179
0 221 181
0 222 181
0 220 179
0 221 181
0 222 181
0 222 181
0 220 181
0 221 181
0 222 181
0 221 181
0 220 180
0 220 180
0 221 180
0 222 180
0 221 181
0 222 181
0 221 181
0 222 181
0 221 181
0 221 181
0 221 180
0 221 181
0 221 180
0 222 181
0 219 178
0 221 181
0 220 181
0 221 181
0 220 181
0 221 181
0 220 181
0 220 180
0 221 181
0 221 181
0 222 181
0 220 180
0 219 180
0 221 180
0 222 181
0 221 181
0 221 181
0 219 180
0 221 180
0 219 180
0 220 180
0 218 179
0 220 180
0 220 180
0 220 180
0 221 181
0 221 180
0 221 180
0 219 179
0 220 180
0 220 180
0 221 181
0 221 180
0 218 178
0 219 180
0 220 179
0 221 179
0 220 180
0 221 181
0 222 180
0 220 180
0 221 180
0 220 179
0 221 181
0 221 181
0 221 180
0 222 181
0 220 181
0 219 179
0 220 179
0 221 179
0 220 180
0 217 177
0 220 180
0 220 179
0 221 181
0 221 181
0 220 181
0 219 180
0 221 181
0 220 179
0 220 180
0 220 180
0 220 179
0 218 179
0 222 181
0 221 181
0 220 180
0 217 178
0 219 179
0 220 179
0 220 180
0 221 180
0 219 178
0 220 179
0 221 180
0 220 179
0 218 179
0 220 179
0 221 180
0 219 178
0 220 180
0 217 178
0 221 181
0 221 181
0 218 178
0 220 181
0 219 179
0 219 179
0 221 181
0 220 179
0 221 180
0 218 178
0 220 180
0 219 179
0 219 179
0 219 179
0 220 180
0 220 180
0 219 179
0 220 180
0 219 179
0 216 176
0 219 179
0 220 179
0 219 179
0 219 178
0 220 181
0 220 180
0 219 180
0 220 179
0 221 180
0 220 181
0 221 181
0 221 181
0 220 180
0 221 180
0 220 180
0 220 179
0 220 180
0 221 181
0 217 177
0 220 180
0 220 179
0 222 181
0 220 179
0 220 179
0 221 181
0 219 180
0 219 180
0 219 179
0 219 179
0 221 180
0 220 181
0 220 180
0 220 180
0 220 179
0 217 178
0 219 179
0 221 179
0 221 179
0 221 181
0 220 179
0 221 181
0 219 178
0 220 180
0 222 180
0 220 180
0 219 179
0 221 181
0 219 178
0 220 179
0 218 178
0 220 179
0 221 181
0 219 179
0 221 180
0 222 181
0 221 181
0 219 178
0 218 178
0 219 179
0 220 180
0 221 181
0 220 180
0 220 180
0 220 180
0 219 179
0 219 179
0 220 179
0 221 181
0 222 181
0 221 181
0 220 179
0 220 179
0 221 180
0 219 179
0 219 179
0 221 181
0 222 181
0 220 181
0 220 180
0 218 178
0 221 181
0 221 180
0 220 180
0 220 179
0 222 181
0 221 181
0 221 180
0 220 181
0 220 180
0 221 180
0 221 181
0 221 180
0 221 181
0 221 180
0 221 179
0 220 179
0 220 181
0 220 179
0 219 178
0 221 180
0 220 180
0 221 180
0 221 180
0 220 180
0 221 181
0 220 181
0 221 181
0 221 181
0 220 181
0 221 181
0 221 181
0 220 180
0 220 179
0 219 179
0 220 181
0 221 180
0 220 181
0 221 180
0 220 180
0 220 180
0 221 180
0 221 180
0 221 181
0 220 181
0 220 181
0 221 180
0 221 181
0 221 180
0 222 181
0 221 180
0 221 181
0 221 181
0 222 181
0 222 181
0 222 181
0 221 181
0 220 179
0 220 180
0 221 180
0 221 181
0 219 179
0 220 179
0 219 179
0 220 181
0 220 181
0 220 180
0 222 180
0 221 181
0 221 181
0 221 180
0 221 181
0 222 181
0 221 181
0 221 181
0 222 181
0 221 181
0 220 180
0 222 181
0 220 180
0 221 181
0 221 181
0 221 181
0 221 181
0 220 180
0 221 180
0 221 181
0 221 181
0 221 180
0 220 180
0 221 181
0 221 181
0 220 179
0 221 181
0 221 181
0 220 180
0 221 181
0 221 181
0 221 181
0 220 181
0 222 181
0 221 181
0 221 181
0 222 181
0 221 181
0 222 181
0 221 181
0 220 181
0 221 181
0 221 181
0 221 180
0 221 181
0 221 181
0 220 181
0 221 181
0 221 181
0 221 181
0 220 180
0 220 181
0 220 181
0 221 181
0 220 181
0 219 180
0 220 180
0 221 181
0 223 181
0 221 181
0 221 181
0 222 181
0 221 181
0 221 181
0 221 181
0 222 181
0 221 181
0 220 181
0 221 181
0 220 181
0 220 179
0 222 181
0 219 180
0 220 180
0 220 180
0 222 181
0 221 180
0 221 181
0 221 181
0 221 181
0 220 181
0 222 181
0 221 181
0 222 181
0 221 180
0 220 179
0 222 181
0 222 181
0 222 181
0 220 180
0 221 181
0 221 181
0 221 181
0 221 181
0 221 181
0 221 181
0 221 181
0 221 181
0 221 181
0 221 181
0 221 181
0 221 181
0 221 181
0 220 180
0 220 180
0 221 181
0 222 181
0 221 181
0 220 181
0 221 181
0 221 181
0 221 180
0 221 181
0 221 181
0 219 180
0 221 181
0 220 180
0 221 181
0 220 180
0 221 181
0 220 180
0 222 181
0 223 181
0 221 180
0 221 181
0 221 180
0 220 181
0 220 180
0 221 180
0 220 181
0 222 181
0 221 181
0 220 180
0 221 181
0 220 181
0 221 181
0 219 180
0 221 181
0 221 180
0 221 180
0 220 181
0 222 181
0 222 181
0 220 180
0 221 181
0 221 181
0 220 180
0 220 180
0 221 181
0 220 180
0 221 180
0 222 181
0 220 181
0 220 180
0 221 181
0 221 181
0 220 180
0 221 181
0 221 181
0 221 180
0 221 181
0 221 181
0 221 180
0 220 181
0 222 181
0 222 181
0 221 181
0 222 181
0 221 180
0 220 180
0 220 181
0 221 181
0 219 180
0 220 181
0 219 179
0 219 179
0 221 181
0 221 181
0 221 180
0 220 180
0 221 180
0 220 180
0 219 179
0 220 180
0 220 179
0 221 181
0 221 181
0 219 179
0 220 180
0 218 178
0 222 181
0 219 180
0 220 179
0 220 180
0 221 181
0 221 181
0 219 178
0 220 178
0 219 179
0 221 180
0 221 180
0 219 179
0 220 180
0 222 181
0 220 180
0 222 180
0 219 179
0 222 181
0 221 181
0 219 179
0 221 180
0 219 180
0 220 180
0 220 180
0 220 180
0 220 180
0 220 179
0 221 181
0 220 179
0 216 178
0 220 179
0 219 178
0 220 180
0 218 180
0 217 178
0 222 180
0 219 179
0 220 181
0 219 179
0 220 181
0 216 178
0 218 178
0 219 179
0 219 180
0 220 180
0 220 179
0 219 179
0 219 179
0 220 180
0 222 181
0 220 179
0 219 179
0 218 179
0 221 181
0 220 180
0 221 181
0 216 177
0 220 180
0 218 179
0 220 180
0 220 180
0 221 180
0 219 179
0 220 180
0 220 180
0 218 178
0 219 178
0 217 178
0 218 179
0 219 179
0 219 179
0 219 179
0 221 179
0 221 180
0 220 179
0 217 177
0 218 179
0 220 180
0 219 178
0 219 178
0 219 178
0 221 181
0 221 180
0 221 181
0 222 181
0 220 180
0 221 181
0 220 180
0 221 180
0 221 181
0 218 179
0 219 179
0 219 179
0 220 180
0 218 179
0 219 179
0 221 181
0 220 180
0 219 180
0 218 179
0 221 180
0 221 181
0 222 181
0 221 181
0 219 178
0 221 180
0 218 178
0 221 180
0 219 179
0 221 180
0 220 181
0 220 179
0 219 179
0 221 180
0 221 181
0 219 179
0 218 180
0 217 179
0 221 181
0 216 177
0 220 181
0 221 180
0 219 180
0 220 180
0 220 180
0 219 179
0 220 180
0 220 181
0 220 180
0 222 181
0 220 179
0 221 181
0 221 181
0 222 181
0 221 181
0 220 180
0 221 180
0 220 179
0 221 180
0 221 179
0 220 180
0 219 179
0 219 178
0 220 180
0 221 181
0 221 181
0 219 180
0 220 180
0 221 181
0 220 180
0 221 180
0 218 179
0 221 181
0 221 181
0 221 181
0 222 181
0 220 180
0 221 180
0 220 180
0 220 180
0 222 181
0 219 178
0 222 181
0 219 179
0 220 179
0 221 181
0 219 179
0 220 181
0 221 181
0 220 180
0 221 181
0 222 181
0 220 180
0 218 179
0 219 179
0 220 180
0 222 181
0 220 180
0 220 179
0 220 180
0 221 181
0 222 181
0 221 179
0 221 181
0 222 180
0 220 180
0 221 181
0 221 181
0 222 181
0 221 181
0 221 181
0 222 180
0 221 180
0 221 181
0 222 181
0 222 181
0 219 179
0 220 179
0 222 181
0 221 180
0 220 181
0 221 181
0 221 179
0 222 181
0 220 180
0 221 179
0 221 180
0 223 181
0 220 181
0 221 181
0 222 181
0 221 181
0 221 181
0 221 179
0 221 181
0 221 181
0 221 181
0 222 181
0 221 180
0 221 180
0 221 181
0 222 181
0 219 180
0 221 181
0 221 181
0 220 181
0 221 181
0 220 181
0 220 180
0 221 181
0 221 181
0 221 181
0 220 181
0 220 180
0 221 180
0 221 181
0 220 181
0 221 181
0 221 180
0 221 181
0 222 181
0 222 181
0 222 181
0 221 181
0 221 181
0 221 181
0 221 181
0 220 181
0 220 181
0 221 181
0 222 181
0 221 181
0 221 180
0 221 180
0 221 180
0 221 181
0 220 181
0 221 180
0 221 181
0 220 181
0 220 181
0 221 181
0 221 181
0 221 181
0 220 180
0 222 181
0 221 181
0 222 181
0 221 181
0 221 180
0 221 181
0 221 181
0 221 181
0 220 181
0 221 181
0 221 181
0 222 181
0 221 181
0 222 181
0 220 180
0 221 181
0 222 181
0 221 181
0 221 180
0 220 181
0 221 180
0 222 181
0 221 181
0 220 180
0 218 179
0 221 181
0 221 181
0 220 181
0 221 181
0 221 181
0 221 181
0 221 181
0 221 181
0 220 180
0 221 181
0 221 181
0 221 181
0 221 181
0 220 181
0 221 181
0 222 181
0 221 181
0 220 180
0 221 181
0 222 181
0 221 181
0 222 181
0 221 181
0 222 181
0 222 181
0 221 181
0 220 180
0 220 179
0 221 181
0 221 181
0 221 180
0 221 180
0 221 180
0 220 180
0 222 181
0 221 181
0 220 180
0 222 181
0 221 180
0 221 181
0 222 181
0 220 181
0 221 181
0 221 181
0 220 180
0 221 181
0 221 181
0 221 180
0 220 180
0 220 180
0 221 181
0 220 181
0 220 181
0 221 181
0 221 181
0 222 181
0 218 179
0 220 180
0 221 181
0 221 181
0 220 180
0 221 180
0 221 181
0 221 181
0 220 181
0 221 181
0 221 181
0 220 180
0 221 181
0 222 181
0 221 180
0 220 180
0 219 179
0 221 181
0 221 180
0 220 180
0 221 181
0 221 180
0 221 181
0 222 181
0 221 180
0 219 179
0 220 181
0 221 179
0 222 181
0 220 180
0 222 181
0 220 179
0 222 181
0 220 180
0 221 181
0 221 181
0 220 180
0 220 180
0 221 181
0 221 181
0 222 180
0 221 180
0 220 179
0 219 180
0 221 181
0 220 180
0 220 180
0 220 179
0 221 180
0 221 180
0 221 180
0 220 181
0 221 181
0 221 181
0 220 178
0 218 179
0 220 180
0 219 179
0 222 181
0 220 179
0 220 179
0 219 179
0 221 181
0 221 181
0 222 181
0 220 179
0 219 179
0 220 178
0 221 181
0 219 179
0 220 179
0 219 178
0 220 180
0 220 180
0 221 180
0 219 179
0 220 180
0 222 181
0 220 180
0 221 178
0 220 179
0 219 179
0 220 180
0 220 180
0 221 180
0 221 180
0 220 181
0 220 179
0 220 180
0 221 181
0 221 181
0 219 179
0 221 180
0 217 178
0 221 180
0 218 178
0 220 179
0 221 181
0 219 179
0 220 180
0 219 179
0 222 181
0 221 181
0 220 179
0 220 180
0 221 180
0 219 179
0 221 180
0 219 179
0 216 177
0 219 178
0 220 180
0 220 180
0 218 180
0 219 178
0 218 178
0 218 179
0 220 179
0 222 181
0 218 179
0 220 181
0 220 180
0 219 179
0 219 179
0 220 179
0 221 181
0 220 179
0 221 180
0 217 178
0 220 180
0 217 178
0 220 180
0 219 180
0 218 178
0 215 178
0 219 178
0 220 180
0 217 177
0 219 179
0 219 178
0 218 178
0 220 178
0 219 178
0 219 179
0 221 181
0 221 181
0 221 181
0 220 180
0 220 179
0 220 179
0 220 180
0 218 178
0 219 179
0 220 180
0 218 177
0 221 179
0 220 180
0 219 180
0 220 179
0 218 178
0 221 180
0 220 180
0 220 179
0 220 179
0 220 181
0 218 179
0 221 181
0 220 180
0 219 179
0 217 178
0 221 180
0 221 181
0 221 181
0 219 180
0 218 178
0 221 181
0 220 180
0 220 181
0 219 179
0 220 181
0 221 181
0 218 178
0 221 181
0 220 180
0 219 180
0 221 180
0 218 178
0 219 179
0 221 178
0 221 181
0 222 180
0 216 177
0 222 181
0 219 180
0 222 181
0 220 180
0 220 179
0 221 180
0 221 181
0 220 181
0 220 180
0 220 180
0 221 181
0 220 179
0 220 179
0 221 181
0 221 181
0 221 180
0 220 180
0 220 179
0 220 179
0 219 179
0 220 180
0 219 179
0 219 180
0 221 181
0 222 181
0 221 180
0 222 181
0 218 178
0 219 179
0 221 181
0 219 179
0 221 181
0 220 180
0 220 180
0 221 180
0 220 180
0 222 181
0 222 181
0 221 181
0 221 181
0 220 180
0 222 181
0 221 181
0 221 181
0 221 181
0 221 181
0 219 179
0 221 181
0 221 180
0 221 180
0 220 181
0 220 180
0 221 181
0 220 181
0 221 181
0 222 181
0 222 180
0 220 179
0 222 181
0 221 181
0 219 180
0 221 181
0 220 177
0 221 181
0 220 180
0 221 181
0 221 181
0 220 180
0 221 181
0 221 181
0 222 181
0 220 180
0 221 180
0 220 180
0 221 181
0 222 181
0 222 181
0 219 179
0 222 181
0 221 181
0 221 181
0 222 181
0 220 181
0 220 180
0 222 180
0 222 181
0 220 180
0 221 181
0 222 181
0 221 180
0 218 178
0 220 179
0 221 180
0 221 181
0 222 181
0 221 181
0 221 181
0 219 179
0 222 181
0 221 181
0 221 181
0 220 179
0 221 180
0 221 181
0 222 181
0 221 181
0 222 181
0 222 181
0 222 181
0 220 181
0 220 181
0 220 179
0 221 180
0 220 180
0 220 179
0 221 181
0 221 180
0 220 180
0 221 181
0 219 180
0 221 181
0 222 181
0 220 181
0 221 181
0 221 181
0 221 181
0 221 181
0 218 180
0 220 180
0 222 181
0 222 181
0 221 180
0 221 181
0 222 180
0 221 181
0 221 181
0 220 181
0 220 181
0 221 181
0 221 181
0 221 181
0 220 181
0 220 180
0 220 181
0 221 181
0 221 181
0 222 181
0 222 181
0 221 180
0 220 180
0 222 181
0 222 181
0 221 181
0 220 180
0 220 181
0 222 181
0 221 181
0 221 181
0 221 181
0 222 181
0 221 181
0 221 181
0 221 180
0 223 181
0 221 181
0 221 181
0 221 181
0 221 180
0 222 181
0 221 181
0 222 181
0 221 181
0 222 181
0 221 181
0 220 180
0 221 181
0 221 181
0 222 181
0 220 180
0 221 181
0 221 180
0 220 180
0 221 181
0 221 181
0 222 181
0 221 181
0 220 180
0 221 181
0 221 181
0 220 181
0 221 181
0 221 181
0 221 181
0 221 181
0 221 180
0 221 181
0 221 181
0 221 181
0 220 180
0 222 181
0 221 181
0 220 181
0 222 181
0 221 181
0 221 181
0 221 181
0 222 181
0 222 181
0 221 181
0 221 181
0 221 181
0 221 181
0 222 181
0 219 180
0 222 181
0 219 179
0 221 181
0 219 180
0 222 181
0 220 180
0 220 180
0 222 181
0 221 180
0 220 180
0 222 181
0 221 180
0 219 180
0 220 179
0 221 180
0 221 181
0 221 181
0 221 180
0 221 181
0 222 181
0 221 181
0 220 180
0 222 181
0 220 180
0 220 179
0 219 180
0 221 181
0 220 180
0 221 180
0 221 180
0 220 180
0 219 180
0 220 179
0 221 180
0 220 181
0 222 181
0 221 180
0 222 181
0 218 178
0 221 181
0 221 181
0 220 180
0 221 180
0 219 179
0 221 180
0 219 180
0 220 180
0 220 180
0 220 180
0 220 180
0 221 181
0 217 178
0 220 179
0 222 180
0 220 180
0 221 181
0 220 179
0 220 180
0 221 180
0 220 181
0 221 181
0 220 179
0 221 181
0 221 181
0 220 179
0 221 181
0 219 180
0 221 180
0 220 181
0 220 179
0 221 180
0 221 180
0 220 180
0 220 180
0 220 180
0 220 180
0 220 181
0 221 180
0 220 179
0 220 180
0 220 181
0 217 179
0 221 180
0 218 180
0 220 179
0 219 179
0 221 180
0 221 181
0 221 181
0 218 179
0 219 179
0 218 178
0 220 181
0 220 179
0 216 177
0 219 178
0 219 179
0 219 179
0 219 180
0 219 179
0 219 179
0 217 178
0 221 181
0 220 179
0 220 180
0 219 179
0 219 179
0 218 179
0 215 177
0 220 180
0 220 180
0 219 179
0 220 180
0 220 180
0 219 179
0 218 178
0 221 180
0 220 180
0 218 178
0 218 178
0 220 180
0 219 180
0 221 180
0 219 178
0 221 181
0 221 181
0 218 178
0 218 179
0 219 179
0 220 180
0 218 178
0 221 181
0 220 179
0 220 179
0 220 178
0 220 179
0 215 177
0 220 179
0 220 180
0 220 179
0 221 180
0 219 178
0 219 180
0 220 179
0 217 178
0 220 180
0 219 179
0 220 179
0 220 179
0 221 180
0 219 179
0 219 179
0 219 179
0 219 179
0 220 180
0 220 180
0 221 181
0 218 179
0 219 178
0 220 178
0 220 180
0 220 180
0 219 179
0 220 179
0 219 179
0 219 179
0 220 180
0 220 180
0 219 180
0 219 179
0 221 181
0 218 179
0 220 180
0 220 179
0 221 181
0 220 179
0 221 180
0 216 177
0 219 180
0 221 180
0 219 180
0 220 180
0 219 180
0 220 180
0 219 180
0 219 180
0 221 180
0 220 179
0 221 181
0 221 181
0 221 181
0 217 178
0 220 180
0 221 181
0 221 181
0 216 177
0 219 179
0 220 181
0 220 181
0 220 179
0 220 179
0 221 181
0 221 181
0 221 180
0 221 180
0 218 178
0 219 178
0 221 181
0 220 180
0 221 180
0 221 181
0 221 181
0 221 180
0 222 181
0 219 179
0 220 180
0 221 180
0 220 179
0 222 181
0 221 180
0 219 179
0 220 180
0 221 181
0 221 181
0 220 181
0 221 181
0 220 180
0 221 181
0 219 178
0 222 181
0 219 180
0 220 179
0 221 181
0 220 180
0 222 181
0 221 181
0 221 181
0 221 181
0 221 181
0 220 179
0 220 179
0 221 181
0 221 181
0 219 179
0 220 180
0 221 181
0 220 181
0 221 181
0 222 181
0 221 180
0 220 181
0 221 181
0 222 181
0 219 179
0 221 181
0 219 180
0 220 180
0 222 181
0 219 180
0 219 179
0 221 181
0 221 181
0 219 180
0 221 180
0 221 180
0 220 180
0 222 181
0 221 181
0 222 181
0 220 180
0 221 181
0 220 179
0 222 181
0 222 181
0 221 181
0 221 181
0 220 180
0 222 181
0 220 179
0 221 181
0 222 181
0 221 181
0 222 181
0 222 181
0 220 181
0 220 180
0 222 181
0 221 181
0 222 181
0 220 181
0 222 181
0 220 180
0 221 181
0 222 181
0 221 181
0 220 179
0 221 181
0 221 181
0 220 180
0 221 181
0 219 179
0 221 181
0 221 181
0 220 180
0 221 181
0 221 181
0 221 181
0 222 181
0 221 181
0 220 180
0 221 181
0 221 181
0 223 181
0 221 181
0 222 181
0 219 180
0 222 181
0 221 181
0 221 181
0 221 181
0 222 181
0 221 181
0 221 181
0 221 181
0 221 181
0 221 180
0 221 181
0 222 181
0 220 180
0 221 181
0 221 181
0 221 181
0 221 181
0 221 181
0 220 181
0 221 181
0 222 181
0 222 180
0 221 181
0 221 181
0 221 181
0 222 181
0 221 181
0 221 181
0 221 181
0 222 181
0 221 181
0 220 180
0 221 181
0 221 181
0 222 181
0 221 181
0 221 181
0 221 181
0 221 181
0 222 181
0 221 180
0 221 181
0 221 181
0 221 179
0 221 180
0 221 181
0 221 181
0 222 181
0 221 180
0 219 180
0 221 181
0 221 181
0 222 181
0 221 181
0 221 181
0 221 181
0 221 181
0 220 181
0 220 180
0 221 181
0 220 180
0 221 181
0 221 180
0 221 181
0 220 181
0 220 180
0 222 181
0 222 181
0 222 181
0 221 181
0 219 180
0 221 181
0 221 180
0 222 181
0 221 181
0 221 181
0 221 181
0 221 181
0 221 181
0 220 181
0 220 180
0 221 181
0 221 180
0 221 181
0 221 181
0 222 181
0 220 180
0 222 180
0 220 180
0 220 180
0 222 181
0 222 181
0 221 181
0 221 181
0 221 181
0 221 181
0 220 180
0 220 180
0 221 180
0 221 181
0 220 180
0 221 181
0 221 181
0 222 181
0 221 181
0 221 180
0 220 181
0 218 179
0 218 178
0 222 181
0 220 181
0 219 179
0 221 181
0 221 181
0 221 180
0 220 181
0 219 179
0 221 181
0 221 181
0 220 179
0 220 179
0 221 180
0 221 180
0 221 181
0 220 180
0 222 181
0 220 180
0 220 180
0 219 179
0 221 181
0 221 180
0 220 179
0 222 180
0 220 181
0 220 180
0 219 180
0 222 181
0 220 180
0 220 180
0 220 180
0 221 180
0 221 180
0 219 179
0 220 180
0 219 179
0 217 178
0 218 179
0 221 180
0 220 179
0 221 180
0 220 180
0 220 180
0 218 179
0 220 181
0 219 179
0 220 180
0 219 179
0 220 181
0 220 180
0 220 179
0 218 178
0 219 179
0 221 181
0 221 180
0 218 178
0 220 179
0 221 180
0 220 180
0 219 179
0 220 180
0 221 180
0 220 179
0 221 181
0 220 179
0 221 180
0 221 181
0 221 181
0 220 180
0 219 179
0 218 176
0 217 178
0 220 180
0 220 179
0 216 177
0 221 180
0 216 177
0 221 181
0 219 180
0 218 177
0 218 178
0 218 179
0 217 178
0 218 180
0 220 179
0 215 177
0 218 178
0 217 178
0 216 178
0 219 180
0 221 181
0 221 181
0 217 178
0 221 179
0 219 179
0 219 178
0 221 181
0 219 178
0 219 179
0 220 179
0 221 181
0 220 180
0 217 178
0 219 179
0 217 178
0 220 179
0 217 178
0 222 181
0 220 179
0 217 178
0 218 178
0 221 180
0 220 180
0 219 180
0 221 180
0 220 180
0 217 177
0 220 180
0 219 179
0 220 179
0 220 180
0 220 179
0 221 181
0 220 180
0 220 179
0 218 178
0 220 179
0 220 180
0 221 180
0 220 179
0 220 179
0 221 180
0 220 180
0 221 181
0 221 181
0 220 180
0 221 180
0 219 180
0 221 181
0 220 180
0 220 179
0 220 179
0 221 179
0 221 180
0 217 179
0 219 179
0 218 178
0 221 180
0 221 181
0 220 179
0 220 179
0 219 179
0 222 181
0 221 180
0 220 181
0 220 180
0 221 180
0 219 178
0 220 180
0 220 180
0 220 180
0 220 180
0 220 180
0 220 179
0 221 180
0 221 181
0 221 181
0 221 180
0 221 180
0 219 180
0 220 180
0 219 179
0 222 181
0 218 179
0 221 181
0 221 181
0 222 181
0 221 181
0 221 181
0 221 181
0 221 181
0 220 180
0 221 181
0 222 181
0 222 181
0 220 180
0 222 181
0 221 181
0 221 181
0 219 179
0 219 179
0 221 181
0 219 178
0 220 178
0 221 181
0 222 181
0 221 181
0 221 181
0 221 179
0 219 179
0 219 178
0 221 181
0 221 181
0 220 180
0 220 180
0 220 179
0 219 179
0 222 181
0 220 181
0 220 180
0 222 181
0 220 180
0 221 180
0 221 181
0 220 180
0 221 181
0 220 179
0 221 181
0 222 181
0 219 179
0 221 181
0 222 181
0 221 181
0 221 181
0 221 181
0 222 181
0 222 181
0 220 179
0 220 181
0 221 181
0 221 181
0 221 181
0 221 181
0 221 181
0 221 181
0 222 181
0 221 181
0 220 181
0 221 181
0 220 180
0 221 181
0 221 181
0 220 181
0 221 181
0 222 181
0 222 181
0 220 180
0 220 180
0 221 181
0 221 181
0 221 180
0 222 181
0 221 181
0 221 181
0 222 181
0 220 180
0 221 180
0 222 181
0 221 181
0 222 181
0 221 180
0 220 181
0 221 181
0 222 181
0 221 181
0 220 181
0 221 181
0 221 181
0 221 181
0 221 181
0 221 181
0 220 181
0 222 181
0 223 181
0 222 181
0 222 181
0 221 181
0 221 181
0 221 181
0 221 181
0 222 181
0 220 181
0 221 181
0 222 181
0 221 180
0 221 181
0 221 181
0 220 181
0 222 181
0 221 181
0 222 181
0 221 181
0 221 181
0 221 181
0 221 181
0 221 181
0 220 180
0 221 181
0 220 180
0 221 181
0 221 181
0 221 181
0 221 181
0 219 179
0 222 181
0 221 181
0 221 181
0 221 181
0 221 181
0 221 181
0 222 181
0 221 180
0 221 181
0 221 181
0 221 181
0 222 181
0 222 181
0 221 181
0 221 181
0 221 181
0 222 181
0 220 180
0 221 181
0 221 181
0 221 181
0 221 181
0 222 181
0 221 181
0 222 181
0 221 181
0 221 181
0 221 181
0 221 181
0 221 181
0 221 180
0 221 181
0 221 181
0 221 181
0 220 180
0 222 181
0 221 180
0 221 180
0 219 179
0 220 180
0 223 181
0 222 181
0 221 181
0 222 181
0 221 181
0 221 181
0 221 181
0 220 180
0 221 181
0 221 181
0 221 181
0 220 181
0 222 181
0 220 181
0 222 181
0 221 180
0 221 181
0 219 179
0 221 181
0 221 181
0 222 181
0 221 181
0 222 181
0 220 180
0 221 181
0 221 181
0 222 181
0 222 181
0 220 180
0 222 181
0 221 181
0 221 180
0 221 181
0 222 180
0 221 181
0 221 181
0 221 181
0 221 181
0 222 181
0 222 180
0 222 181
0 221 181
0 221 180
0 221 180
0 221 179
0 221 181
0 221 181
0 220 179
0 221 181
0 220 180
0 220 180
0 221 180
0 220 180
0 220 180
0 219 179
0 220 180
0 220 180
0 222 181
0 219 179
0 221 180
0 221 181
0 220 180
0 220 180
0 221 180
0 221 181
0 221 181
0 221 181
0 220 179
0 221 180
0 219 180
0 220 180
0 220 181
0 219 179
0 221 180
0 220 181
0 221 180
0 221 181
0 220 179
0 221 181
0 221 181
0 221 180
0 220 180
0 221 181
0 221 181
0 218 179
0 220 180
0 219 179
0 220 180
0 220 180
0 219 179
0 221 181
0 219 179
0 220 180
0 220 181
0 220 179
0 218 178
0 219 180
0 220 181
0 219 179
0 220 180
0 220 181
0 220 181
0 220 181
0 221 180
0 219 179
0 221 181
0 218 179
0 221 180
0 219 180
0 221 181
0 220 179
0 220 180
0 219 179
0 219 179
0 218 179
0 218 179
0 221 181
0 221 179
0 219 179
0 217 178
0 219 179
0 219 179
0 221 181
0 220 180
0 219 179
0 218 179
0 219 179
0 219 179
0 219 179
0 217 178
0 220 180
0 219 179
0 219 179
0 219 178
0 218 178
0 221 180
0 218 177
0 220 179
0 220 180
0 220 178
0 219 179
0 219 179
0 218 178
0 219 179
0 218 177
0 219 179
0 220 179
0 218 179
0 217 177
0 219 179
0 221 181
0 219 179
0 220 180
0 219 179
0 219 179
0 220 180
0 217 177
0 220 180
0 219 179
0 221 181
0 219 179
0 220 179
0 219 179
0 220 179
0 219 180
0 217 178
0 219 179
0 220 179
0 219 179
0 220 180
0 220 178
0 220 180
0 221 181
0 219 179
0 220 181
0 221 179
0 219 179
0 218 178
0 220 180
0 222 181
0 219 179
0 220 180
0 221 180
0 220 180
0 220 179
0 219 180
0 220 180
0 221 181
0 218 179
0 219 179
0 221 181
0 219 179
0 220 179
0 219 179
0 220 180
0 221 181
0 221 180
0 219 180
0 220 180
0 221 181
0 220 179
0 221 180
0 218 178
0 220 179
0 222 181
0 219 178
0 220 180
0 220 180
0 220 180
0 220 180
0 220 179
0 218 178
0 220 180
0 220 180
0 220 181
0 221 181
0 222 181
0 220 180
0 218 178
0 219 179
0 219 180
0 220 180
0 218 179
0 221 181
0 220 180
0 220 180
0 221 179
0 221 180
0 220 179
0 221 181
0 219 179
0 220 180
0 221 181
0 220 180
0 221 179
0 222 181
0 221 181
0 222 181
0 221 181
0 221 181
0 221 181
0 222 181
0 220 181
0 222 180
0 221 181
0 220 180
0 220 180
0 221 181
0 220 178
0 221 180
0 220 180
0 221 180
0 221 181
0 220 180
0 219 179
0 220 181
0 221 181
0 221 181
0 219 179
0 219 180
0 218 178
0 222 181
0 221 180
0 221 181
0 221 181
0 220 180
0 222 181
0 220 180
0 221 181
0 222 181
0 221 181
0 221 181
0 221 181
0 221 181
0 220 181
0 221 181
0 221 181
0 221 180
0 221 181
0 222 181
0 220 180
0 220 179
0 221 181
0 220 180
0 221 181
0 221 181
0 222 181
0 220 181
0 220 179
0 219 179
0 221 181
0 222 181
0 222 181
0 221 181
0 220 180
0 220 180
0 221 181
0 219 179
0 220 180
0 221 181
0 220 180
0 220 180
0 221 181
0 220 180
0 221 181
0 221 181
0 221 181
0 221 180
0 221 181
0 222 181
0 221 181
0 221 181
0 221 181
0 220 180
0 221 181
0 221 181
0 221 180
0 221 181
0 221 181
0 221 180
0 222 181
0 220 180
0 221 181
0 221 181
0 222 181
0 221 180
0 221 181
0 219 180
0 221 181
0 222 181
0 221 181
0 222 181
0 221 181
0 222 181
0 221 181
0 221 181
0 220 181
0 221 181
0 221 181
0 221 180
0 222 181
0 221 181
0 222 181
0 221 181
0 221 181
0 222 181
0 221 181
0 221 181
0 220 180
0 221 181
0 221 180
0 221 181
0 221 181
0 223 181
0 221 181
0 220 181
0 219 180
0 222 181
0 223 181
0 221 181
0 221 181
0 220 180
0 221 181
0 220 180
0 221 181
0 221 181
0 222 181
0 219 180
0 221 181
0 220 180
0 221 181
0 220 181
0 222 181
0 221 181
0 221 181
0 220 180
0 221 180
0 221 181
0 222 181
0 222 181
0 221 181
0 221 180
0 222 180
0 221 181
0 221 181
0 221 180
0 219 180
0 221 181
0 221 180
0 222 181
0 222 181
0 220 181
0 221 181
0 221 181
0 220 181
0 220 180
0 221 181
0 222 181
0 222 181
0 223 181
0 222 181
0 222 181
0 221 181
0 221 181
0 221 180
0 220 180
0 220 181
0 221 181
0 221 181
0 219 180
0 222 181
0 220 179
0 220 180
0 221 181
0 221 180
0 221 181
0 221 181
0 220 181
0 221 181
0 221 180
0 220 180
0 221 181
0 221 181
0 221 181
0 219 180
0 220 181
0 221 181
0 221 181
0 222 181
0 219 180
0 220 180
0 220 181
0 221 180
0 221 181
0 220 181
0 222 181
0 221 181
0 222 180
0 220 179
0 219 179
0 222 181
0 221 181
0 220 180
0 222 181
0 220 181
0 221 180
0 219 180
0 222 181
0 222 181
0 221 181
0 220 180
0 219 179
0 222 181
0 220 178
0 220 181
0 219 179
0 220 181
0 221 180
0 221 181
0 221 180
0 221 180
0 222 181
0 220 180
0 221 180
0 221 180
0 221 181
0 220 180
0 221 181
0 221 181
0 222 180
0 222 181
0 220 180
0 220 181
0 220 180
0 220 180
0 221 181
0 218 178
0 221 181
0 221 181
0 220 180
0 220 180
0 220 179
0 221 181
0 221 180
0 220 181
0 221 180
0 222 181
0 221 180
0 219 179
0 221 181
0 221 180
0 220 180
0 221 181
0 220 179
0 219 179
0 220 180
0 219 180
0 220 180
0 220 179
0 220 180
0 221 181
0 221 181
0 220 181
0 221 181
0 221 181
0 219 179
0 220 180
0 220 180
0 219 179
0 218 179
0 221 180
0 219 178
0 220 180
0 216 177
0 218 179
0 220 181
0 219 180
0 219 179
0 219 179
0 221 180
0 220 180
0 219 178
0 219 178
0 220 180
0 218 178
0 219 180
0 218 178
0 219 179
0 220 179
0 219 178
0 219 179
0 219 179
0 215 177
0 219 179
0 220 180
0 221 180
0 220 180
0 220 179
0 220 180
0 220 180
0 220 180
0 217 178
0 220 179
0 218 178
0 219 178
0 218 178
0 220 180
0 220 180
0 218 179
0 220 180
0 221 181
0 218 178
0 217 179
0 221 181
0 218 178
0 221 181
0 219 179
0 220 180
0 220 180
0 221 180
0 220 178
0 220 178
0 219 179
0 220 181
0 220 178
0 217 178
0 219 179
0 219 178
0 220 179
0 218 179
0 220 179
0 220 180
0 220 180
0 220 180
0 220 179
0 219 179
0 221 180
0 219 180
0 219 178
0 221 179
0 220 179
0 220 180
0 220 180
0 220 181
0 219 178
0 219 178
0 218 178
0 221 181
0 220 180
0 221 180
0 221 181
0 221 181
0 220 179
0 222 181
0 218 178
0 221 181
0 219 179
0 217 179
0 221 181
0 219 179
0 221 181
0 220 179
0 220 180
0 222 181
0 221 181
0 221 179
0 221 180
0 219 179
0 220 180
0 218 179
0 221 180
0 220 179
0 221 181
0 222 181
0 220 180
0 221 180
0 220 180
0 221 180
0 220 180
0 221 181
0 219 180
0 220 179
0 220 180
0 221 180
0 221 180
0 222 181
0 220 179
0 221 181
0 220 181
0 220 180
0 220 180
0 220 180
0 221 181
0 220 179
0 221 181
0 220 180
0 220 180
0 220 180
0 221 181
0 219 179
0 221 180
0 221 181
0 220 180
0 218 178
0 221 181
0 220 180
0 220 181
0 221 181
0 219 179
0 220 179
0 221 181
0 221 181
0 220 179
0 221 181
0 219 179
0 220 180
0 221 181
0 221 181
0 220 181
0 222 180
0 220 179
0 221 181
0 221 181
0 219 179
0 221 180
0 221 181
0 221 181
0 222 181
0 219 178
0 220 179
0 219 180
0 220 180
0 219 179
0 221 181
0 222 181
0 222 181
0 221 181
0 220 179
0 220 180
0 221 181
0 221 181
0 220 179
0 222 181
0 221 180
0 220 180
0 219 178
0 221 181
0 221 181
0 221 180
0 219 179
0 221 181
0 221 181
0 218 180
0 220 180
0 221 181
0 221 181
0 221 180
0 222 181
0 221 180
0 220 180
0 220 181
0 222 181
0 220 181
0 221 181
0 221 181
0 222 181
0 221 181
0 221 181
0 221 181
0 221 181
0 221 180
0 221 181
0 220 181
0 220 180
0 220 179
0 221 181
0 221 181
0 221 181
0 221 181
0 221 181
0 222 181
0 221 181
0 222 181
0 221 181
0 221 181
0 220 180
0 221 181
0 221 181
0 221 181
0 221 181
0 220 180
0 222 181
0 221 181
0 222 181
0 221 181
0 221 181
0 222 181
0 221 181
0 222 181
0 221 181
0 220 180
0 221 181
0 221 181
0 222 181
0 221 181
0 222 181
0 221 181
0 221 181
0 221 181
0 221 181
0 220 180
0 221 181
0 222 181
0 221 181
0 222 181
0 220 181
0 221 181
0 220 181
0 221 181
0 221 181
0 221 181
0 221 181
0 221 181
0 221 181
0 221 181
0 221 181
0 221 181
0 221 181
0 221 181
0 222 181
0 220 180
0 222 181
0 222 181
0 220 180
0 221 181
0 221 181
0 221 181
0 221 181
0 220 180
0 222 180
0 219 179
0 222 181
0 220 181
0 221 181
0 221 181
0 220 180
0 222 181
0 221 181
0 220 180
0 221 181
0 220 180
0 221 180
0 221 180
0 222 181
0 222 181
0 221 181
0 221 181
0 221 181
0 221 181
0 220 180
0 221 180
0 221 181
0 221 181
0 221 181
0 221 181
0 221 181
0 220 181
0 220 180
0 220 180
0 221 181
0 222 181
0 221 180
0 222 181
0 221 181
0 220 180
0 221 181
0 221 181
0 220 180
0 220 181
0 221 180
0 220 180
0 222 181
0 220 180
0 220 180
0 220 180
0 221 181
0 220 180
0 221 181
0 221 181
0 220 181
0 221 181
0 221 181
0 221 180
0 221 181
0 221 181
0 220 180
0 221 180
0 221 181
0 222 181
0 220 180
0 221 181
0 221 181
0 221 181
0 222 180
0 219 180
0 221 181
0 221 181
0 222 181
0 220 180
0 222 181
0 221 181
0 221 181
0 220 181
0 221 180
0 221 181
0 221 181
0 221 180
0 220 181
0 222 181
0 221 181
0 220 181
0 221 181
0 220 180
0 219 179
0 218 178
0 221 180
0 219 180
0 220 180
0 221 181
0 222 181
0 219 179
0 219 179
0 221 180
0 220 180
0 220 180
0 219 180
0 221 181
0 221 181
0 220 179
0 223 180
0 220 179
0 220 179
0 222 181
0 221 181
0 221 180
0 221 180
0 218 178
0 221 180
0 221 181
0 220 180
0 220 179
0 220 179
0 221 181
0 221 180
0 219 178
0 220 179
0 221 181
0 221 180
0 220 180
0 219 179
0 220 180
0 220 180
0 222 181
0 220 179
0 221 181
0 218 178
0 219 179
0 218 178
0 220 180
0 220 180
0 220 179
0 216 177
0 220 180
0 217 178
0 221 180
0 219 180
0 219 179
0 219 179
0 221 181
0 216 178
0 219 179
0 219 180
0 221 181
0 219 179
0 219 179
0 222 180
0 221 179
0 220 178
0 217 178
0 217 178
0 220 179
0 219 179
0 220 179
0 219 179
0 222 181
0 221 181
0 218 178
0 220 180
0 217 178
0 221 180
0 219 179
0 219 179
0 221 181
0 220 179
0 222 180
0 219 179
0 220 179
0 219 179
0 220 180
0 220 180
0 220 180
0 220 179
0 218 179
0 220 180
0 220 179
0 219 179
0 216 177
0 220 179
0 218 177
0 221 180
0 220 180
0 220 180
0 218 178
0 221 181
0 220 179
0 219 180
0 219 180
0 219 179
0 220 178
0 220 180
0 220 180
0 219 179
0 220 180
0 221 179
0 220 179
0 219 180
0 220 178
0 218 179
0 220 181
0 220 179
0 219 179
0 221 181
0 220 181
0 218 178
0 220 181
0 221 180
0 219 178
0 219 179
0 221 181
0 220 180
0 220 180
0 221 181
0 220 180
0 220 180
0 220 180
0 219 178
0 220 180
0 220 180
0 218 178
0 219 179
0 217 177
0 220 179
0 221 179
0 220 179
0 217 179
0 221 180
0 221 180
0 221 181
0 222 180
0 221 181
0 219 179
0 220 180
0 221 181
0 220 180
0 220 179
0 221 181
0 221 181
0 220 181
0 220 180
0 219 179
0 219 179
0 220 179
0 220 181
0 221 180
0 221 181
0 219 178
0 220 180
0 220 179
0 219 180
0 220 180
0 219 179
0 219 179
0 221 181
0 221 181
0 220 180
0 221 181
0 220 179
0 220 180
0 220 181
0 221 181
0 220 181
0 221 181
0 221 181
0 221 181
0 220 180
0 221 179
0 221 181
0 219 178
0 220 180
0 220 180
0 220 180
0 221 180
0 220 179
0 221 180
0 221 181
0 221 180
0 220 180
0 221 181
0 221 181
0 221 181
0 221 179
0 221 181
0 220 181
0 221 181
0 220 180
0 221 181
0 221 181
0 221 181
0 221 181
0 221 181
0 221 179
0 221 181
0 219 179
0 221 181
0 221 181
0 220 180
0 221 181
0 221 180
0 221 180
0 221 181
0 222 181
0 221 181
0 220 180
0 220 181
0 221 181
0 221 181
0 221 180
0 222 181
0 221 181
0 221 181
0 222 181
0 219 180
0 219 179
0 218 178
0 220 179
0 221 181
0 219 179
0 220 180
0 222 181
0 221 181
0 221 180
0 221 181
0 219 179
0 220 180
0 220 180
0 221 180
0 221 181
0 221 181
0 220 179
0 221 181
0 222 181
0 221 181
0 221 180
0 221 181
0 222 181
0 221 181
0 221 180
0 220 181
0 222 181
0 220 181
0 221 181
0 221 181
0 221 181
0 220 179
0 220 180
0 221 181
0 221 181
0 220 180
0 221 181
0 219 179
0 221 181
0 221 181
0 221 181
0 221 181
0 221 181
0 222 181
0 221 181
0 220 181
0 222 181
0 221 181
0 222 181
0 221 181
0 221 181
0 221 181
0 220 180
0 221 181
0 221 181
0 221 181
0 221 181
0 222 181
0 221 180
0 222 181
0 221 181
0 221 181
0 222 181
0 222 181
0 221 181
0 221 180
0 221 181
0 221 181
0 221 181
0 221 181
0 221 181
0 220 179
0 221 181
0 220 181
0 221 181
0 221 181
0 222 181
0 221 181
0 222 181
0 221 181
0 222 181
0 221 181
0 221 181
0 221 181
0 221 181
0 221 181
0 221 181
0 222 181
0 221 181
0 221 181
0 221 180
0 221 181
0 221 181
0 221 181
0 222 181
0 222 181
0 220 180
0 221 181
0 221 181
0 219 179
0 221 181
0 220 180
0 221 181
0 221 180
0 221 181
0 221 181
0 220 180
0 222 181
0 220 181
0 221 180
0 220 180
0 220 180
0 221 181
0 221 180
0 222 181
0 221 181
0 221 180
0 221 181
0 220 180
0 220 179
0 220 181
0 220 181
0 221 181
0 221 181
0 221 181
0 220 181
0 219 180
0 221 181
0 221 181
0 222 181
0 220 179
0 218 178
0 222 180
0 220 180
0 221 181
0 221 180
0 219 180
0 218 179
0 221 181
0 220 180
0 220 179
0 221 181
0 222 180
0 221 181
0 221 181
0 222 181
0 221 181
0 221 180
0 221 181
0 220 180
0 221 181
0 220 180
0 220 180
0 221 181
0 221 181
0 221 181
0 218 180
0 221 181
0 219 180
0 222 181
0 222 180
0 221 181
0 220 180
0 222 180
0 221 180
0 220 179
0 221 181
0 220 180
0 221 180
0 221 181
0 219 180
0 219 179
0 221 180
0 220 180
0 220 180
0 220 180
0 221 181
0 220 180
0 220 180
0 221 180
0 220 180
0 220 180
0 220 179
0 221 181
0 222 181
0 221 180
0 220 179
0 220 181
0 222 181
0 219 178
0 220 179
0 218 179
0 221 181
0 221 181
0 220 180
0 218 179
0 219 179
0 220 180
0 220 180
0 221 181
0 220 181
0 217 178
0 219 178
0 222 180
0 221 181
0 221 181
0 220 180
0 219 180
0 220 179
0 221 181
0 220 181
0 220 179
0 219 179
0 218 179
0 217 178
0 219 178
0 217 179
0 218 178
0 219 179
0 221 181
0 220 180
0 221 180
0 218 179
0 219 178
0 220 181
0 219 179
0 217 178
0 219 179
0 221 180
0 221 181
0 220 180
0 218 178
0 221 180
0 219 180
0 219 180
0 217 177
0 220 179
0 220 180
0 216 178
0 218 179
0 219 180
0 220 180
0 219 179
0 219 179
0 220 180
0 218 179
0 219 179
0 220 181
0 220 180
0 220 180
0 219 179
0 219 179
0 220 180
0 221 181
0 219 178
0 217 178
0 219 180
0 218 179
0 221 181
0 218 178
0 218 179
0 219 179
0 217 178
0 219 179
0 219 179
0 216 177
0 220 180
0 220 179
0 220 180
0 218 179
0 219 179
0 219 179
0 220 181
0 220 180
0 220 179
0 219 179
0 219 179
0 221 180
0 220 180
0 221 180
0 220 180
0 220 180
0 218 179
0 219 178
0 221 180
0 218 179
0 219 178
0 222 181
0 217 177
0 216 177
0 219 180
0 221 180
0 219 178
0 220 179
0 220 180
0 219 179
0 221 180
0 221 180
0 219 179
0 221 180
0 220 180
0 219 179
0 220 179
0 222 181
0 220 180
0 221 181
0 220 180
0 219 180
0 219 179
0 220 180
0 220 180
0 219 179
0 219 180
0 220 179
0 220 180
0 219 179
0 220 180
0 219 180
0 219 179
0 221 180
0 221 181
0 220 179
0 221 181
0 221 181
0 220 179
0 221 181
0 220 179
0 221 181
0 221 181
0 221 181
0 221 181
0 217 178
0 218 179
0 220 180
0 221 181
0 221 180
0 221 181
0 221 181
0 221 181
0 220 179
0 219 180
0 220 180
0 220 179
0 220 180
0 220 179
0 221 180
0 220 179
0 221 181
0 219 179
0 222 181
0 221 179
0 221 181
0 221 181
0 221 180
0 222 181
0 221 180
0 220 180
0 222 181
0 220 180
0 221 181
0 221 181
0 221 181
0 220 180
0 221 181
0 222 181
0 221 180
0 220 180
0 222 181
0 222 180
0 222 181
0 220 179
0 221 181
0 221 181
0 220 180
0 221 180
0 221 181
0 222 181
0 221 181
0 221 180
0 217 178
0 221 181
0 220 181
0 221 181
0 221 180
0 222 181
0 219 179
0 220 179
0 221 181
0 221 181
0 220 180
0 220 179
0 221 180
0 220 181
0 222 181
0 220 180
0 221 181
0 221 181
0 222 181
0 219 179
0 221 180
0 221 181
0 221 181
0 221 181
0 221 181
0 222 180
0 221 181
0 219 180
0 222 181
0 221 181
0 222 181
0 222 181
0 222 181
0 221 181
0 221 181
0 221 181
0 220 181
0 221 181
0 221 180
0 221 181
0 221 180
0 221 181
0 221 181
0 221 181
0 221 180
0 221 181
0 221 181
0 222 180
0 221 181
0 222 181
0 221 181
0 222 181
0 221 180
0 221 181
0 221 181
0 222 181
0 221 181
0 221 180
0 222 181
0 222 181
0 222 181
0 221 180
0 221 181
0 221 181
0 221 181
0 221 181
0 220 181
0 221 181
0 220 181
0 220 181
0 221 181
0 222 181
0 221 181
0 220 180
0 221 181
0 220 181
0 221 181
0 221 181
0 221 181
0 221 181
0 222 181
0 221 181
0 222 181
0 221 181
0 221 181
0 221 181
0 221 180
0 221 181
0 222 181
0 221 181
0 221 181
0 220 181
0 221 181
0 221 181
0 221 181
0 222 181
0 220 181
0 219 180
0 221 180
0 222 181
0 222 181
0 221 181
0 221 181
0 221 181
0 222 181
0 221 181
0 221 181
0 222 181
0 221 181
0 221 181
0 221 181
0 220 180
0 220 180
0 221 181
0 221 180
0 222 181
0 220 181
0 221 181
0 220 180
0 221 181
0 221 181
0 221 181
0 221 181
0 220 180
0 221 181
0 220 181
0 220 180
0 220 181
0 221 181
0 222 181
0 222 180
0 221 181
0 221 181
0 220 180
0 222 181
0 221 181
0 221 181
0 222 181
0 222 181
0 220 181
0 221 181
0 221 181
0 221 181
0 221 181
0 221 181
0 221 181
0 221 181
0 222 181
0 220 180
0 220 181
0 221 180
0 221 181
0 221 181
0 221 181
0 222 181
0 221 181
0 221 181
0 219 179
0 221 180
0 222 181
0 221 181
0 220 180
0 221 180
0 221 181
0 221 180
0 219 180
0 221 181
0 222 181
0 221 179
0 219 180
0 221 181
0 219 179
0 221 180
0 221 181
0 219 179
0 220 181
0 221 180
0 221 181
0 222 181
0 221 180
0 220 179
0 221 181
0 219 179
0 221 181
0 220 180
0 219 179
0 221 180
0 222 180
0 221 180
0 221 181
0 221 181
0 221 181
0 220 181
0 222 180
0 221 181
0 221 181
0 220 180
0 222 180
0 220 180
0 221 180
0 220 180
0 219 180
0 219 179
0 220 180
0 219 179
0 218 177
0 220 180
0 221 180
0 221 180
0 221 181
0 221 181
0 220 180
0 219 180
0 220 181
0 220 181
0 221 181
0 220 180
0 220 180
0 219 178
0 221 180
0 220 179
0 219 180
0 221 180
0 221 181
0 219 178
0 218 178
0 221 181
0 220 179
0 220 180
0 218 179
0 221 181
0 221 180
0 220 179
0 221 180
0 217 178
0 219 180
0 218 179
0 221 180
0 219 179
0 220 179
0 221 180
0 221 180
0 218 179
0 220 179
0 220 179
0 219 179
0 220 181
0 220 180
0 220 179
0 221 181
0 218 179
0 219 179
0 218 177
0 220 179
0 218 179
0 219 178
0 220 180
0 220 179
0 220 180
0 221 180
0 221 180
0 219 179
0 219 180
0 221 181
0 221 180
0 218 178
0 220 180
0 222 181
0 218 178
0 222 180
0 220 180
0 218 179
0 218 178
0 219 179
0 220 180
0 221 181
0 222 181
0 221 181
0 218 179
0 220 180
0 219 179
0 220 179
0 219 180
0 219 180
0 219 178
0 218 179
0 220 179
0 220 178
0 219 178
0 220 180
0 219 178
0 219 179
0 220 180
0 217 177
0 219 179
0 220 180
0 220 179
0 220 180
0 219 180
0 221 181
0 217 177
0 218 178
0 220 180
0 220 180
0 221 180
0 219 179
0 220 179
0 217 178
0 220 180
0 220 179
0 220 178
0 220 180
0 221 179
0 220 180
0 220 180
0 219 180
0 220 181
0 220 180
0 217 178
0 219 179
0 220 180
0 219 179
0 220 180
0 220 179
0 221 180
0 219 179
0 221 181
0 220 179
0 220 180
0 221 181
0 221 181
0 220 180
0 219 179
0 219 179
0 221 181
0 221 180
0 220 179
0 220 179
0 222 181
0 220 180
0 221 181
0 222 181
0 220 179
0 219 179
0 221 180
0 220 179
0 220 179
0 220 180
0 220 179
0 220 180
0 219 180
0 220 180
0 221 180
0 220 180
0 221 181
0 220 180
0 222 181
0 219 179
0 221 180
0 220 179
0 221 180
0 221 180
0 219 180
0 221 180
0 221 181
0 221 181
0 221 181
0 221 181
0 220 180
0 221 181
0 221 181
0 219 180
0 221 179
0 222 181
0 221 181
0 221 181
0 221 181
0 220 180
0 221 181
0 221 181
0 221 179
0 221 180
0 221 181
0 221 181
0 219 178
0 222 181
0 222 181
0 220 180
0 221 180
0 221 180
0 222 181
0 221 181
0 221 180
0 222 181
0 222 181
0 220 180
0 219 180
0 222 181
0 221 181
0 221 180
0 220 181
0 221 180
0 220 180
0 222 181
0 220 180
0 220 180
0 221 180
0 220 180
0 222 181
0 221 181
0 221 181
0 221 181
0 221 181
0 219 180
0 222 181
0 221 180
0 221 181
0 222 181
0 222 181
0 221 181
0 222 181
0 221 181
0 219 179
0 221 181
0 221 181
0 221 181
0 221 181
0 220 180
0 219 179
0 220 181
0 220 181
0 221 181
0 221 180
0 219 179
0 221 180
0 221 180
0 220 180
0 220 181
0 220 181
0 220 181
0 220 180
0 221 181
0 220 181
0 221 180
0 221 181
0 220 181
0 222 181
0 221 181
0 221 181
0 221 181
0 222 181
0 220 179
0 222 181
0 221 181
0 220 180
0 221 181
0 222 181
0 221 181
0 220 181
0 221 181
0 221 181
0 220 181
0 220 181
0 222 181
0 221 181
0 221 181
0 220 181
0 221 181
0 220 180
0 221 181
0 221 181
0 221 181
0 220 179
0 222 181
0 221 181
0 220 181
0 220 181
0 221 181
0 220 181
0 221 180
0 220 181
0 221 181
0 221 181
0 221 181
0 220 181
0 221 181
0 221 181
0 221 181
0 221 180
0 221 181
0 221 181
0 221 181
0 221 180
0 221 181
0 220 181
0 222 181
0 221 181
0 222 181
0 221 181
0 220 181
0 221 181
0 222 181
0 221 181
0 221 181
0 221 181
0 222 181
0 222 181
0 221 181
0 220 181
0 220 181
0 221 181
0 221 181
0 221 181
0 222 181
0 221 181
0 221 180
0 222 181
0 220 180
0 221 181
0 222 181
0 221 181
0 221 181
0 220 180
0 221 181
0 221 181
0 221 180
0 221 181
0 222 181
0 221 180
0 220 180
0 222 181
0 221 181
0 221 181
0 219 180
0 220 180
0 222 181
0 221 181
0 221 180
0 221 181
0 221 181
0 220 180
0 221 181
0 221 181
0 222 181
0 221 181
0 221 180
0 222 180
0 220 180
0 221 181
0 220 180
0 220 181
0 220 180
0 221 181
0 221 181
0 220 179
0 220 180
0 220 180
0 221 179
0 220 180
0 220 179
0 219 180
0 219 180
0 220 180
0 221 181
0 220 180
0 221 181
0 219 180
0 219 179
0 221 181
0 221 181
0 220 180
0 221 181
0 221 181
0 221 181
0 220 181
0 220 180
0 221 181
0 220 180
0 221 181
0 220 179
0 221 181
0 221 181
0 219 180
0 220 181
0 221 180
0 222 181
0 221 181
0 222 181
0 220 180
0 221 181
0 219 179
0 220 180
0 220 178
0 221 181
0 220 179
0 219 180
0 221 181
0 220 180
0 220 180
0 220 180
0 220 181
0 219 179
0 222 181
0 220 180
0 221 180
0 220 180
0 221 181
0 219 180
0 220 179
0 219 180
0 220 181
0 220 180
0 221 181
0 220 180
0 220 180
0 220 180
0 219 180
0 221 180
0 220 179
0 221 181
0 219 179
0 220 180
0 220 179
0 221 181
0 220 180
0 219 180
0 220 180
0 217 178
0 221 180
0 219 179
0 220 180
0 218 179
0 219 179
0 221 181
0 217 178
0 217 178
0 219 179
0 219 179
0 220 180
0 218 179
0 219 180
0 220 180
0 221 180
0 216 177
0 220 179
0 220 180
0 219 179
0 218 176
0 220 179
0 220 179
0 218 178
0 218 177
0 219 179
0 219 180
0 216 178
0 220 180
0 221 181
0 220 180
0 220 180
0 219 179
0 217 178
0 217 178
0 219 180
0 217 178
0 219 179
0 221 181
0 216 177
0 219 179
0 220 180
0 219 179
0 218 179
0 219 179
0 218 179
0 218 179
0 217 178
0 221 181
0 220 180
0 221 180
0 220 179
0 218 179
0 217 178
0 219 179
0 220 179
0 217 178
0 219 179
0 219 179
0 219 179
0 220 180
0 218 177
0 218 178
0 218 179
0 220 179
0 220 179
0 220 180
0 219 179
0 219 179
0 220 179
0 217 177
0 219 179
0 221 181
0 221 181
0 219 179
0 220 179
0 221 181
0 219 178
0 220 180
0 218 179
0 218 177
0 218 179
0 217 178
0 218 178
0 221 180
0 218 178
0 219 179
0 220 178
0 221 181
0 219 179
0 222 180
0 218 178
0 222 180
0 220 180
0 220 180
0 219 180
0 219 180
0 221 180
0 221 180
0 221 181
0 218 178
0 221 180
0 221 181
0 221 181
0 220 179
0 219 179
0 221 181
0 218 178
0 221 181
0 221 180
0 219 179
0 220 180
0 219 179
0 220 180
0 221 180
0 220 180
0 222 181
0 220 180
0 221 180
0 219 179
0 221 181
0 220 179
0 221 180
0 221 181
0 220 180
0 220 180
0 221 179
0 220 179
0 220 179
0 219 179
0 220 179
0 221 181
0 219 179
0 221 180
0 221 181
0 218 179
0 221 181
0 220 179
0 220 179
0 219 179
0 220 179
0 220 180
0 221 180
0 222 181
0 220 180
0 221 180
0 221 181
0 221 180
0 220 180
0 221 181
0 223 181
0 221 181
0 221 181
0 218 178
0 221 181
0 221 181
0 219 178
0 221 181
0 220 179
0 220 180
0 221 181
0 221 181
0 222 181
0 221 181
0 219 179
0 221 181
0 221 180
0 220 180
0 221 180
0 221 180
0 222 181
0 220 181
0 219 179
0 221 181
0 220 180
0 220 181
0 221 180
0 222 181
0 221 181
0 220 181
0 221 181
0 222 181
0 221 181
0 221 179
0 221 181
0 221 180
0 221 181
0 221 179
0 221 181
0 220 180
0 221 181
0 221 181
0 221 181
0 221 181
0 220 180
0 222 181
0 220 181
0 221 181
0 221 181
0 219 179
0 221 180
0 222 181
0 220 180
0 221 181
0 221 181
0 221 181
0 218 179
0 222 181
0 222 181
0 221 181
0 223 181
0 222 181
0 220 180
0 221 181
0 221 181
0 221 181
0 221 181
0 221 181
0 220 181
0 221 181
0 222 181
0 221 181
0 220 179
0 220 181
0 220 180
0 222 181
0 222 181
0 221 180
0 221 181
0 222 181
0 220 181
0 222 181
0 222 181
0 221 181
0 222 181
0 221 181
0 221 181
0 221 181
0 221 181
0 221 181
0 220 180
0 222 181
0 222 181
0 221 181
0 220 180
0 221 181
0 220 180
0 222 181
0 221 181
0 221 181
0 221 181
0 222 181
0 219 179
0 221 181
0 221 181
0 221 180
0 221 181
0 222 181
0 221 181
0 221 181
0 222 181
0 221 181
0 221 181
0 221 181
0 222 181
0 220 180
0 221 181
0 220 181
0 222 181
0 221 181
0 222 181
0 221 180
0 221 181
0 221 181
0 222 181
0 221 181
0 222 181
0 221 181
0 222 181
0 220 180
0 220 180
0 221 181
0 221 181
0 221 181
0 222 181
0 222 181
0 221 181
0 221 181
0 221 181
0 221 181
0 221 181
0 221 181
0 222 181
0 221 180
0 221 181
0 221 181
0 222 181
0 222 181
0 221 181
0 222 181
0 221 181
0 221 181
0 221 181
0 220 180
0 221 181
0 221 181
0 222 181
0 221 181
0 221 181
0 222 181
0 220 180
0 220 180
0 219 180
0 221 181
0 220 180
0 220 181
0 222 181
0 221 181
0 221 181
0 220 180
0 220 180
0 221 180
0 221 181
0 221 181
0 221 180
0 219 179
0 221 181
0 221 180
0 222 181
0 222 181
0 221 181
0 220 180
0 221 181
0 221 180
0 221 181
0 221 181
0 220 181
0 221 181
0 220 181
0 219 180
0 221 181
0 221 180
0 220 180
0 220 181
0 220 180
0 221 181
0 220 180
0 222 181
0 221 180
0 222 181
0 221 181
0 219 179
0 221 181
0 222 180
0 220 180
0 221 181
0 221 180
0 221 181
0 221 180
0 220 180
0 220 179
0 222 181
0 221 181
0 222 181
0 219 179
0 220 181
0 221 180
0 221 181
0 221 181
0 221 181
0 220 180
0 220 181
0 221 180
0 219 179
0 221 180
0 219 180
0 218 179
0 221 180
0 220 180
0 221 180
0 221 180
0 219 180
0 219 180
0 221 180
0 221 180
0 220 179
0 218 179
0 221 181
0 220 180
0 218 179
0 222 181
0 221 181
0 219 178
0 221 180
0 222 181
0 220 179
0 220 181
0 218 177
0 220 180
0 222 181
0 220 179
0 221 181
0 221 180
0 220 180
0 219 179
0 221 181
0 218 179
0 220 181
0 220 180
0 219 178
0 222 181
0 220 180
0 220 180
0 217 178
0 218 178
0 220 179
0 219 179
0 218 178
0 216 176
0 218 178
0 220 179
0 219 180
0 219 178
0 220 180
0 220 179
0 219 180
0 219 179
0 216 177
0 218 179
0 218 179
0 220 180
0 219 179
0 219 179
0 220 179
0 220 180
0 218 178
0 220 179
0 217 177
0 220 180
0 220 180
0 219 179
0 218 179
0 221 181
0 218 179
0 218 179
0 220 179
0 216 178
0 219 179
0 219 178
0 220 180
0 216 177
0 220 178
0 219 179
0 217 178
0 219 180
0 217 177
0 215 175
0 220 180
0 221 179
0 220 180
0 221 179
0 219 180
0 219 178
0 219 179
0 219 179
0 219 178
0 218 179
0 219 179
0 218 179
0 222 181
0 219 179
0 220 180
0 220 179
0 216 178
0 220 180
0 219 179
0 219 179
0 220 180
0 217 177
0 217 177
0 219 179
0 220 179
0 220 179
0 219 178
0 221 180
0 218 178
0 221 181
0 219 180
0 221 180
0 219 178
0 219 179
0 220 178
0 220 179
0 219 179
0 218 178
0 220 179
0 221 180
0 220 180
0 219 180
0 219 179
0 220 181
0 221 180
0 221 180
0 218 178
0 220 179
0 221 181
0 222 180
0 221 181
0 221 179
0 220 179
0 218 178
0 221 180
0 219 180
0 220 181
0 220 180
0 220 180
0 220 180
0 221 180
0 220 179
0 221 180
0 220 179
0 220 180
0 222 181
0 221 179
0 221 180
0 218 178
0 220 179
0 222 181
0 221 181
0 219 179
0 221 181
0 221 180
0 220 180
0 221 181
0 221 181
0 221 181
0 221 181
0 218 178
0 219 180
0 221 180
0 221 179
0 221 180
0 221 180
0 220 180
0 220 181
0 220 179
0 221 181
0 220 181
0 221 181
0 221 181
0 220 180
0 222 181
0 221 180
0 221 179
0 220 180
0 219 179
0 221 180
0 220 181
0 220 180
0 222 181
0 221 181
0 222 181
0 222 181
0 220 180
0 222 181
0 222 181
0 222 181
0 221 180
0 221 181
0 220 181
0 220 180
0 220 180
0 221 181
0 219 177
0 220 181
0 222 181
0 221 181
0 221 181
0 221 181
0 221 181
0 221 181
0 220 180
0 221 181
0 220 180
0 222 181
0 222 181
0 221 181
0 221 181
0 221 181
0 222 181
0 221 181
0 221 180
0 221 181
0 221 181
0 221 181
0 221 180
0 220 180
0 219 180
0 221 181
0 221 180
0 221 181
0 221 181
0 221 180
0 221 181
0 221 181
0 221 181
0 222 181
0 222 180
0 221 181
0 221 180
0 221 181
0 221 181
0 221 181
0 222 181
0 221 181
0 220 181
0 220 181
0 222 181
0 222 181
0 220 180
0 221 181
0 221 181
0 222 181
0 222 181
0 221 181
0 222 181
0 221 180
0 220 181
0 221 181
0 222 181
0 221 180
0 220 181
0 220 180
0 222 181
0 221 181
0 222 181
0 222 181
0 221 181
0 221 181
0 219 179
0 221 180
0 221 181
0 222 181
0 221 181
0 222 181
0 221 181
0 220 180
0 222 181
0 221 181
0 220 181
0 221 181
0 221 181
0 220 181
0 221 181
0 221 181
0 221 181
0 221 180
0 222 181
0 221 181
0 220 181
0 222 181
0 222 181
0 221 181
0 221 181
0 221 181
0 222 181
0 221 181
0 222 181
0 220 181
0 222 181
0 223 181
0 221 181
0 221 180
0 221 181
0 221 181
0 221 181
0 220 181
0 222 181
0 221 181
0 222 181
0 220 181
0 221 181
0 221 181
0 222 181
0 221 181
0 222 181
0 220 180
0 221 181
0 220 180
0 221 181
0 220 181
0 221 180
0 221 181
0 221 181
0 221 181
0 222 181
0 220 179
0 221 181
0 222 181
0 220 180
0 221 181
0 220 181
0 221 181
0 221 181
0 221 181
0 222 181
0 220 180
0 221 181
0 222 181
0 221 181
0 221 181
0 220 180
0 221 181
0 221 181
0 221 181
0 221 181
0 221 181
0 221 181
0 221 181
0 221 181
0 221 181
0 220 180
0 221 181
0 220 181
0 221 181
0 222 181
0 221 181
0 221 181
0 221 181
0 219 180
0 221 181
0 219 181
0 221 181
0 221 181
0 221 181
0 220 180
0 222 181
0 220 180
0 221 180
0 221 181
0 221 181
0 222 181
0 219 179
0 221 180
0 221 181
0 221 181
0 222 181
0 222 181
0 221 181
0 221 181
0 220 180
0 222 181
0 221 180
0 221 180
0 221 180
0 222 180
0 221 180
0 221 181
0 222 181
0 221 181
0 221 180
0 221 181
0 221 180
0 220 180
0 221 181
0 221 181
0 220 179
0 221 181
0 221 180
0 220 180
0 222 180
0 221 181
0 222 181
0 221 180
0 219 179
0 219 180
0 220 179
0 221 180
0 222 180
0 219 179
0 220 180
0 222 181
0 220 180
0 221 181
0 220 180
0 219 179
0 219 179
0 221 181
0 221 179
0 220 180
0 221 180
0 221 180
0 220 181
0 221 181
0 219 179
0 221 181
0 221 180
0 219 179
0 221 179
0 220 179
0 220 179
0 220 179
0 221 181
0 220 180
0 220 180
0 220 180
0 222 180
0 221 181
0 220 180
0 220 180
0 221 181
0 219 179
0 219 180
0 220 180
0 220 180
0 218 179
0 216 177
0 218 179
0 217 177
0 219 179
0 220 180
0 221 179
0 221 181
0 219 179
0 221 181
0 220 178
0 221 181
0 220 179
0 218 178
0 220 179
0 221 181
0 218 178
0 218 178
0 219 178
0 218 179
0 221 179
0 218 178
0 219 179
0 220 180
0 220 180
0 219 180
0 219 179
0 219 178
0 219 179
0 220 179
0 221 179
0 219 179
0 219 179
0 217 178
0 217 178
0 220 180
0 216 177
0 221 181
0 220 180
0 221 181
0 218 179
0 219 180
0 220 180
0 220 180
0 217 178
0 220 180
0 220 179
0 218 178
0 221 181
0 221 180
0 219 179
0 218 178
0 218 178
0 220 179
0 219 179
0 218 179
0 218 178
0 217 178
0 220 179
0 218 178
0 219 179
0 220 180
0 220 181
0 221 180
0 218 179
0 219 178
0 220 180
0 216 177
0 221 181
0 219 179
0 221 180
0 220 179
0 218 177
0 220 180
0 219 179
0 218 178
0 219 180
0 222 181
0 216 176
0 218 178
0 219 179
0 220 180
0 221 179
0 222 180
0 220 180
0 218 179
0 218 179
0 220 179
0 220 181
0 219 179
0 221 181
0 221 181
0 222 181
0 220 180
0 220 179
0 222 181
0 221 181
0 220 180
0 219 179
0 221 180
0 221 181
0 217 178
0 221 181
0 222 181
0 221 179
0 221 181
0 221 180
0 220 180
0 219 180
0 221 181
0 221 181
0 222 181
0 221 181
0 218 178
0 221 181
0 219 179
0 218 178
0 220 179
0 219 179
0 219 179
0 221 181
0 218 179
0 221 181
0 221 181
0 222 181
0 220 180
0 221 180
0 220 180
0 221 181
0 220 181
0 219 180
0 221 179
0 220 179
0 221 181
0 221 181
0 220 180
0 220 180
0 220 179
0 220 180
0 220 179
0 221 180
0 222 181
0 222 181
0 220 181
0 221 181
0 221 180
0 220 181
0 220 181
0 221 180
0 219 179
0 221 180
0 221 181
0 220 179
0 221 181
0 221 181
0 220 180
0 221 181
0 219 179
0 221 181
0 221 179
0 220 180
0 221 181
0 222 180
0 222 181
0 220 179
0 221 181
0 220 181
0 220 179
0 221 180
0 220 180
0 220 180
0 221 181
0 221 180
0 221 181
0 221 181
0 222 180
0 221 181
0 222 181
0 222 180
0 221 181
0 221 181
0 221 181
0 222 181
0 222 181
0 220 181
0 223 180
0 222 181
0 219 179
0 221 181
0 220 180
0 221 181
0 222 181
0 221 181
0 222 181
0 221 181
0 221 181
0 220 181
0 222 181
0 221 181
0 221 181
0 221 181
0 220 181
0 221 181
0 221 181
0 221 181
0 222 181
0 221 180
0 221 181
0 221 181
0 220 179
0 222 181
0 222 181
0 221 181
0 221 181
0 220 180
0 221 181
0 220 180
0 220 181
0 219 180
0 221 181
0 222 181
0 221 181
0 221 181
0 222 181
0 222 181
0 221 181
0 221 181
0 221 181
0 222 181
0 221 181
0 221 180
0 221 181
0 221 181
0 221 181
0 222 181
0 220 181
0 222 181
0 221 181
0 223 181
0 221 181
0 222 181
0 221 181
0 221 181
0 221 180
0 221 181
0 221 181
0 221 181
0 221 180
0 221 181
0 222 181
0 221 181
0 221 181
0 221 181
0 221 181
0 222 181
0 220 180
0 219 179
0 222 181
0 221 181
0 221 181
0 221 181
0 221 181
0 220 180
0 222 181
0 220 181
0 221 181
0 221 181
0 221 181
0 220 181
0 221 181
0 221 181
0 221 180
0 221 180
0 221 181
0 223 181
0 220 180
0 220 181
0 221 181
0 220 180
0 223 181
0 222 181
0 220 180
0 221 181
0 221 181
0 221 181
0 221 181
0 221 181
0 221 181
0 221 181
0 220 181
0 221 181
0 222 181
0 221 181
0 221 180
0 220 180
0 222 181
0 221 181
0 222 181
0 221 180
0 222 181
0 220 180
0 221 181
0 220 181
0 221 181
0 221 181
0 220 181
0 221 181
0 222 181
0 223 181
0 221 181
0 220 180
0 222 181
0 220 180
0 221 181
0 221 181
0 222 181
0 221 181
0 221 180
0 221 181
0 220 181
0 221 180
0 222 181
0 220 180
0 221 181
0 222 181
0 220 180
0 220 180
0 219 180
0 221 181
0 221 181
0 221 179
0 221 181
0 221 180
0 221 180
0 222 181
0 221 181
0 222 181
0 221 181
0 221 181
0 220 180
0 220 180
0 222 180
0 221 180
0 220 180
0 222 181
0 221 181
0 220 181
0 219 180
0 222 181
0 220 179
0 220 180
0 220 178
0 221 181
0 220 180
0 220 181
0 220 181
0 220 179
0 220 179
0 221 181
0 221 181
0 219 180
0 222 181
0 220 180
0 220 179
0 219 180
0 218 179
0 221 181
0 220 180
0 221 180
0 220 181
0 222 181
0 220 179
0 220 179
0 220 181
0 221 181
0 222 181
0 219 179
0 220 180
0 217 178
0 221 180
0 220 180
0 221 180
0 221 179
0 218 179
0 221 181
0 220 178
0 218 178
0 220 180
0 220 179
0 220 178
0 222 180
0 221 181
0 219 179
0 220 180
0 221 181
0 218 178
0 221 181
0 220 180
0 220 180
0 218 178
0 218 179
0 219 179
0 220 180
0 219 179
0 217 178
0 221 181
0 219 179
0 220 179
0 218 177
0 217 178
0 221 179
0 221 181
0 220 180
0 218 179
0 218 178
0 220 180
0 218 178
0 217 177
0 218 178
0 218 179
0 218 179
0 219 179
0 220 179
0 220 179
0 220 180
0 220 180
0 217 177
0 220 179
0 220 180
0 219 180
0 221 180
0 219 178
0 218 178
0 218 179
0 219 179
0 220 180
0 221 181
0 218 179
0 220 180
0 214 176
0 219 180
0 218 178
0 219 180
0 219 179
0 218 178
0 217 178
0 219 179
0 219 180
0 219 179
0 220 179
0 220 179
0 221 181
0 217 175
0 220 181
0 220 180
0 220 179
0 219 179
0 220 180
0 221 180
0 220 179
0 219 178
0 217 178
0 221 181
0 219 179
0 219 179
0 220 180
0 219 178
0 221 181
0 220 180
0 217 178
0 219 179
0 220 180
0 220 179
0 219 179
0 221 181
0 220 180
0 218 179
0 221 179
0 220 180
0 220 180
0 219 180
0 220 180
0 219 179
0 218 179
0 221 180
0 220 180
0 219 178
0 219 179
0 219 178
0 220 179
0 220 179
0 220 179
0 220 180
0 221 181
0 219 178
0 221 181
0 221 180
0 220 180
0 220 180
0 220 180
0 221 181
0 222 181
0 220 180
0 221 180
0 218 180
0 220 180
0 220 180
0 220 179
0 220 180
0 221 181
0 220 179
0 219 179
0 220 179
0 219 178
0 221 180
0 219 179
0 221 181
0 221 180
0 220 180
0 220 180
0 219 180
0 220 180
0 220 181
0 220 180
0 221 181
0 220 180
0 221 181
0 220 179
0 222 181
0 220 180
0 220 180
0 222 181
0 219 179
0 221 181
0 219 178
0 222 181
0 219 179
0 220 180
0 221 181
0 221 180
0 222 181
0 220 180
0 222 181
0 220 181
0 221 181
0 222 181
0 221 181
0 221 181
0 221 181
0 220 178
0 220 180
0 221 181
0 221 181
0 221 181
0 222 181
0 221 180
0 222 181
0 222 181
0 221 181
0 221 181
0 221 181
0 222 181
0 221 181
0 220 180
0 222 181
0 221 181
0 221 181
0 222 181
0 222 181
0 221 181
0 220 181
0 220 180
0 222 181
0 221 181
0 221 180
0 220 179
0 220 181
0 221 180
0 221 180
0 220 179
0 222 181
0 221 181
0 221 181
0 220 181
0 221 181
0 221 181
0 221 181
0 221 181
0 222 180
0 221 181
0 221 181
0 221 181
0 221 181
0 221 180
0 222 181
0 221 181
0 221 181
0 221 181
0 221 181
0 221 180
0 221 180
0 221 181
0 221 181
0 220 181
0 221 180
0 223 181
0 221 181
0 220 181
0 222 181
0 221 181
0 222 181
0 222 181
0 223 181
0 221 180
0 219 180
0 222 181
0 221 180
0 221 181
0 222 181
0 220 181
0 221 181
0 221 181
0 220 181
0 221 181
0 221 181
0 221 181
0 221 181
0 222 181
0 221 181
0 222 181
0 222 181
0 219 180
0 222 181
0 220 180
0 220 181
0 221 181
0 220 181
0 221 181
0 220 180
0 221 181
0 222 181
0 220 181
0 220 181
0 222 181
0 220 180
0 221 180
0 222 181
0 221 180
0 222 181
0 221 181
0 221 181
0 221 181
0 222 181
0 219 180
0 220 181
0 221 181
0 220 181
0 222 181
0 221 181
0 221 181
0 221 181
0 221 181
0 222 181
0 221 181
0 220 181
0 221 180
0 222 181
0 222 181
0 221 181
0 222 181
0 221 181
0 221 181
0 221 181
0 221 181
0 220 181
0 221 181
0 221 181
0 222 181
0 221 180
0 221 180
0 220 181
0 220 181
0 221 181
0 220 180
0 221 181
0 221 181
0 220 180
0 222 181
0 221 181
0 220 180
0 221 181
0 221 180
0 221 181
0 222 181
0 221 181
0 221 181
0 220 180
0 221 180
0 220 180
0 221 181
0 221 181
0 222 181
0 221 181
0 222 181
0 221 181
0 221 180
0 221 181
0 220 180
0 220 181
0 221 181
0 222 181
0 222 181
0 221 181
0 220 181
0 222 181
0 221 181
0 221 181
0 219 178
0 220 180
0 221 180
0 222 181
0 222 181
0 221 181
0 222 181
0 220 180
0 219 179
0 221 181
0 221 181
0 222 181
0 220 180
0 220 180
0 220 179
0 220 179
0 220 180
0 222 181
0 219 178
0 222 181
0 221 181
0 221 181
0 220 180
0 220 180
0 222 181
0 221 181
0 221 180
0 221 180
0 220 180
0 221 181
0 220 180
0 222 181
0 221 181
0 221 181
0 221 181
0 219 179
0 218 179
0 220 180
0 222 181
0 220 181
0 221 181
0 220 180
0 220 180
0 221 180
0 219 180
0 222 180
0 220 180
0 221 181
0 220 180
0 219 179
0 221 181
0 219 180
0 220 181
0 220 180
0 221 180
0 220 179
0 221 180
0 221 180
0 221 181
0 221 180
0 218 179
0 219 179
0 219 179
0 220 180
0 219 178
0 221 179
0 218 178
0 221 180
0 218 178
0 218 179
0 221 180
0 220 180
0 220 180
0 220 179
0 220 180
0 216 178
0 220 180
0 218 178
0 219 179
0 221 179
0 217 178
0 220 180
0 218 178
0 218 179
0 219 179
0 217 177
0 219 179
0 219 178
0 218 179
0 220 179
0 218 177
0 219 179
0 218 178
0 220 180
0 221 180
0 221 181
0 218 179
0 219 179
0 215 177
0 217 178
0 218 179
0 219 179
0 215 177
0 218 179
0 218 178
0 219 179
0 217 179
0 219 179
0 217 177
0 219 179
0 219 179
0 221 180
0 219 178
0 219 179
0 219 179
0 219 179
0 220 179
0 221 180
0 220 179
0 217 178
0 218 179
0 215 176
0 218 177
0 217 177
0 220 179
0 220 180
0 220 180
0 218 177
0 220 179
0 217 177
0 216 176
0 220 179
0 217 177
0 221 180
0 215 176
0 221 180
0 218 178
0 218 178
0 220 179
0 218 178
0 220 181
0 220 180
0 221 181
0 220 179
0 219 178
0 219 180
0 219 179
0 221 181
0 218 179
0 221 181
0 219 179
0 219 179
0 217 178
0 221 181
0 221 180
0 221 181
0 220 180
0 221 181
0 219 179
0 219 180
0 219 179
0 219 180
0 219 179
0 219 179
0 218 178
0 220 179
0 219 180
0 219 179
0 218 178
0 221 180
0 219 180
0 219 179
0 219 179
0 221 181
0 218 178
0 221 180
0 221 180
0 220 180
0 219 179
0 221 180
0 220 178
0 220 179
0 219 180
0 221 180
0 218 178
0 222 181
0 220 181
0 219 180
0 217 178
0 220 180
0 220 180
0 221 181
0 219 179
0 221 180
0 220 179
0 218 178
0 221 180
0 221 181
0 220 180
0 219 179
0 220 180
0 221 181
0 221 180
0 220 180
0 221 180
0 220 180
0 221 181
0 220 180
0 221 181
0 222 181
0 222 181
0 219 179
0 221 180
0 221 181
0 220 179
0 219 179
0 221 181
0 222 181
0 220 180
0 219 179
0 221 181
0 221 181
0 220 181
0 222 181
0 221 181
0 220 181
0 221 180
0 220 181
0 221 181
0 221 181
0 221 181
0 222 181
0 220 181
0 221 181
0 220 180
0 221 181
0 221 180
0 221 180
0 221 181
0 220 180
0 221 181
0 221 181
0 221 180
0 220 179
0 222 181
0 220 179
0 221 181
0 221 181
0 221 181
0 220 181
0 221 181
0 222 181
0 221 181
0 221 181
0 222 181
0 221 181
0 220 180
0 221 181
0 221 180
0 220 180
0 221 181
0 221 181
0 221 181
0 222 181
0 220 181
0 222 180
0 220 180
0 221 181
0 221 180
0 222 181
0 221 181
0 220 180
0 220 181
0 221 181
0 221 181
0 220 180
0 221 180
0 220 181
0 222 181
0 221 181
0 220 179
0 221 181
0 221 181
0 221 181
0 221 181
0 221 180
0 221 181
0 222 181
0 222 181
0 221 181
0 222 181
0 222 181
0 221 180
0 220 180
0 222 181
0 221 181
0 220 180
0 221 181
0 221 181
0 221 180
0 221 181
0 221 181
0 220 180
0 221 181
0 221 181
0 221 181
0 221 181
0 221 180
0 221 181
0 221 181
0 222 181
0 221 181
0 221 181
0 221 181
0 220 180
0 220 181
0 221 181
0 220 181
0 220 180
0 221 181
0 221 181
0 221 181
0 222 181
0 222 181
0 221 181
0 220 181
0 221 181
0 221 181
0 222 181
0 221 181
0 220 180
0 221 180
0 221 181
0 222 181
0 221 181
0 221 181
0 221 181
0 221 180
0 222 181
0 222 181
0 221 181
0 221 181
0 221 181
0 221 181
0 222 181
0 220 179
0 222 181
0 221 181
0 222 181
0 221 181
0 221 181
0 221 181
0 219 180
0 221 181
0 221 181
0 221 181
0 221 181
0 221 181
0 220 180
0 221 181
0 221 181
0 221 181
0 221 181
0 222 181
0 221 181
0 221 181
0 221 181
0 220 180
0 221 181
0 222 181
0 221 181
0 220 181
0 221 181
0 221 181
0 221 181
0 221 181
0 222 181
0 220 180
0 222 181
0 221 181
0 221 180
0 222 181
0 221 181
0 221 181
0 221 181
0 221 181
0 221 181
0 220 180
0 222 181
0 220 180
0 221 180
0 221 181
0 220 180
0 221 180
0 221 181
0 221 181
0 220 180
0 221 181
0 222 181
0 221 181
0 220 181
0 221 181
0 219 180
0 220 180
0 221 181
0 222 181
0 220 180
0 221 181
0 220 180
0 219 180
0 222 181
0 218 179
0 221 181
0 221 181
0 221 181
0 220 181
0 221 181
0 221 181
0 221 181
0 221 181
0 221 180
0 221 181
0 220 179
0 221 181
0 221 181
0 221 180
0 221 181
0 220 181
0 220 180
0 221 180
0 221 180
0 221 181
0 220 180
0 219 179
0 219 179
0 220 180
0 221 181
0 220 180
0 221 181
0 221 181
0 219 179
0 221 179
0 220 181
0 221 180
0 220 180
0 220 180
0 220 180
0 221 181
0 220 180
0 220 181
0 221 181
0 221 180
0 221 181
0 219 179
0 221 181
0 218 179
0 221 181
0 220 180
0 220 180
0 220 180
0 218 177
0 220 180
0 218 179
0 220 181
0 221 180
0 221 181
0 220 179
0 219 179
0 221 180
0 217 177
0 221 180
0 219 180
0 219 179
0 221 179
0 216 178
0 219 180
0 221 180
0 218 178
0 222 181
0 219 179
0 220 180
0 221 180
0 219 179
0 221 179
0 222 180
0 218 179
0 217 178
0 219 179
0 219 179
0 220 180
0 221 179
0 216 177
0 219 179
0 221 180
0 221 180
0 217 177
0 221 181
0 221 180
0 214 175
0 220 180
0 217 177
0 218 178
0 218 178
0 219 179
0 218 178
0 220 180
0 219 179
0 217 178
0 220 181
0 219 179
0 219 180
0 218 178
0 219 179
0 219 178
0 219 179
0 217 177
0 216 177
0 220 180
0 220 180
0 221 181
0 222 181
0 220 179
0 216 177
0 217 176
0 220 180
0 218 179
0 218 179
0 220 181
0 219 179
0 219 178
0 217 178
0 221 181
0 218 178
0 219 179
0 219 178
0 220 179
0 222 180
0 220 180
0 219 178
0 217 177
0 219 178
0 222 180
0 219 179
0 221 180
0 217 177
0 218 179
0 220 180
0 220 180
0 221 180
0 218 179
0 220 179
0 219 179
0 219 179
0 218 178
0 220 179
0 220 180
0 220 179
0 218 178
0 221 181
0 221 181
0 219 179
0 221 180
0 220 179
0 220 179
0 219 179
0 221 181
0 221 180
0 221 179
0 219 179
0 220 179
0 217 176
0 219 178
0 220 180
0 221 180
0 221 181
0 220 180
0 221 180
0 221 179
0 220 180
0 218 178
0 220 180
0 220 180
0 221 181
0 219 178
0 222 181
0 220 180
0 222 180
0 221 181
0 220 181
0 220 179
0 221 180
0 220 180
0 219 180
0 221 180
0 221 181
0 219 179
0 221 181
0 221 181
0 219 179
0 219 179
0 219 178
0 220 180
0 219 179
0 220 179
0 218 178
0 221 181
0 219 179
0 220 179
0 220 179
0 222 181
0 219 179
0 220 181
0 221 179
0 220 179
0 218 179
0 222 180
0 221 180
0 220 180
0 221 181
0 220 180
0 222 181
0 219 177
0 220 180
0 220 181
0 221 180
0 221 181
0 220 180
0 221 181
0 220 180
0 220 179
0 220 181
0 220 180
0 221 181
0 222 181
0 219 179
0 219 179
0 221 181
0 220 180
0 219 180
0 221 180
0 220 180
0 221 181
0 221 181
0 221 181
0 221 180
0 221 181
0 221 181
0 222 181
0 220 180
0 221 181
0 222 181
0 221 181
0 220 181
0 222 181
0 220 179
0 221 181
0 221 181
0 220 179
0 221 181
0 221 180
0 221 181
0 221 181
0 221 181
0 220 180
0 221 181
0 220 181
0 221 181
0 221 181
0 221 181
0 221 181
0 222 181
0 219 179
0 220 179
0 221 181
0 222 181
0 222 181
0 221 181
0 222 181
0 222 180
0 221 181
0 222 181
0 221 181
0 221 181
0 222 180
0 221 181
0 222 181
0 221 181
0 220 181
0 220 180
0 221 181
0 220 180
0 221 181
0 222 181
0 220 181
0 221 180
0 221 181
0 221 180
0 223 181
0 221 181
0 222 180
0 221 181
0 221 181
0 221 181
0 221 180
0 220 180
0 222 181
0 221 181
0 221 181
0 221 181
0 221 181
0 221 181
0 222 180
0 221 181
0 222 181
0 222 181
0 221 181
0 221 181
0 221 181
0 220 181
0 222 181
0 221 180
0 221 180
0 222 181
0 221 181
0 222 181
0 221 181
0 221 181
0 221 181
0 222 181
0 220 180
0 221 181
0 221 181
0 222 181
0 221 181
0 221 181
0 220 181
0 221 181
0 221 181
0 222 181
0 222 181
0 221 180
0 221 181
0 221 181
0 221 181
0 221 180
0 221 181
0 220 181
0 221 180
0 221 181
0 221 181
0 220 180
0 221 181
0 219 179
0 221 181
0 220 181
0 221 181
0 220 180
0 221 181
0 221 181
0 222 181
0 222 181
0 221 181
0 221 180
0 222 181
0 220 180
0 221 181
0 221 181
0 220 180
0 221 181
0 220 181
0 221 181
0 220 181
0 221 181
0 221 181
0 221 181
0 221 180
0 219 180
0 221 181
0 220 180
0 221 181
0 221 181
0 221 180
0 221 181
0 221 181
0 220 181
0 222 181
0 221 181
0 221 181
0 221 180
0 220 181
0 221 181
0 221 181
0 221 181
0 222 181
0 222 181
0 221 181
0 220 180
0 221 181
0 220 180
0 221 180
0 221 181
0 221 181
0 220 181
0 221 181
0 220 180
0 220 180
0 222 181
0 220 180
0 220 181
0 219 179
0 222 180
0 220 181
0 221 180
0 220 180
0 220 180
0 220 180
0 221 181
0 221 181
0 222 181
0 221 181
0 220 180
0 221 180
0 221 181
0 219 180
0 218 179
0 219 180
0 220 180
0 222 181
0 221 180
0 221 180
0 221 181
0 221 181
0 221 181
0 220 179
0 221 181
0 221 181
0 221 180
0 221 181
0 221 181
0 220 181
0 220 180
0 220 179
0 221 181
0 219 179
0 220 180
0 219 179
0 221 181
0 221 181
0 219 179
0 219 179
0 220 180
0 222 180
0 219 180
0 219 179
0 220 180
0 219 179
0 222 181
0 222 180
0 220 180
0 222 180
0 221 181
0 219 180
0 222 181
0 217 178
0 219 179
0 221 181
0 219 180
0 219 179
0 219 179
0 219 179
0 220 181
0 218 179
0 217 178
0 220 180
0 221 180
0 220 180
0 220 179
0 222 181
0 219 179
0 218 178
0 221 180
0 219 178
0 219 180
0 219 178
0 219 180
0 219 179
0 221 180
0 217 177
0 219 179
0 220 180
0 220 180
0 219 179
0 218 177
0 217 176
0 219 180
0 220 180
0 220 179
0 216 176
0 221 180
0 218 179
0 218 179
0 219 179
0 219 179
0 218 179
0 219 180
0 219 178
0 220 179
0 220 179
0 219 178
0 221 181
0 220 179
0 221 180
0 219 179
0 217 179
0 218 178
0 221 180
0 216 176
0 216 178
0 218 179
0 219 179
0 220 181
0 218 179
0 219 179
0 218 178
0 217 178
0 220 181
0 221 180
0 219 179
0 220 181
0 219 179
0 220 180
0 217 178
0 219 178
0 219 178
0 220 180
0 221 180
0 218 178
0 221 180
0 221 181
0 221 181
0 221 180
0 219 179
0 218 178
0 219 179
0 220 179
0 219 179
0 218 179
0 221 180
0 221 181
0 219 179
0 220 180
0 220 180
0 219 179
0 218 179
0 220 179
0 221 180
0 217 179
0 220 181
0 219 179
0 221 180
0 220 180
0 220 180
0 219 180
0 221 180
0 219 178
0 221 181
0 221 180
0 220 180
0 218 178
0 219 178
0 222 181
0 221 180
0 220 180
0 221 181
0 220 179
0 221 180
0 221 181
0 221 181
0 221 181
0 221 180
0 221 180
0 221 180
0 221 179
0 220 180
0 218 178
0 221 181
0 218 180
0 221 181
0 221 181
0 221 181
0 222 181
0 219 178
0 221 181
0 220 180
0 220 180
0 221 181
0 221 181
0 220 180
0 221 181
0 221 180
0 221 180
0 221 180
0 219 179
0 218 177
0 221 180
0 219 180
0 220 180
0 221 181
0 221 181
0 218 179
0 220 180
0 221 181
0 219 180
0 219 180
0 220 180
0 219 178
0 220 180
0 221 181
0 221 180
0 220 179
0 221 181
0 220 180
0 220 180
0 221 179
0 221 181
0 220 180
0 220 179
0 220 180
0 221 180
0 220 180
0 222 181
0 220 180
0 222 181
0 220 180
0 220 181
0 222 181
0 221 181
0 221 180
0 221 181
0 221 181
0 220 180
0 221 181
0 221 181
0 220 179
0 221 180
0 221 181
0 222 181
0 221 181
0 221 180
0 220 180
0 221 181
0 221 181
0 220 179
0 221 180
0 221 180
0 222 181
0 221 181
0 221 181
0 221 181
0 221 180
0 220 179
0 220 181
0 221 181
0 221 181
0 220 180
0 221 181
0 221 181
0 221 181
0 222 181
0 221 181
0 221 181
0 221 180
0 220 179
0 222 181
0 222 181
0 222 181
0 220 181
0 221 181
0 219 179
0 220 180
0 221 181
0 220 180
0 221 181
0 222 181
0 221 181
0 220 181
0 222 181
0 222 181
0 221 181
0 221 181
0 219 179
0 222 181
0 222 181
0 220 181
0 222 181
0 223 181
0 222 181
0 220 180
0 221 181
0 222 181
0 220 181
0 221 181
0 222 181
0 221 181
0 221 181
0 221 181
0 222 181
0 221 181
0 221 181
0 221 181
0 220 181
0 220 180
0 221 181
0 221 181
0 222 181
0 220 181
0 222 181
0 221 181
0 221 181
0 222 181
0 221 180
0 222 181
0 222 181
0 221 181
0 221 181
0 221 181
0 221 181
0 221 181
0 222 181
0 220 180
0 221 181
0 221 180
0 222 181
0 221 181
0 221 181
0 221 181
0 221 181
0 221 181
0 221 181
0 220 180
0 221 180
0 221 181
0 221 181
0 220 181
0 221 181
0 221 181
0 220 181
0 221 181
0 222 181
0 221 181
0 222 181
0 220 181
0 221 181
0 222 181
0 221 180
0 221 181
0 222 181
0 221 181
0 222 181
0 221 181
0 221 181
0 221 181
0 221 181
0 221 181
0 221 180
0 222 181
0 222 181
0 220 181
0 221 181
0 222 181
0 219 181
0 221 181
0 221 180
0 221 181
0 222 181
0 219 180
0 221 181
0 222 181
0 221 181
0 222 181
0 220 180
0 219 179
0 220 180
0 222 181
0 221 181
0 221 181
0 221 181
0 221 180
0 221 180
0 220 180
0 222 181
0 221 181
0 220 180
0 221 180
0 221 181
0 220 180
0 222 181
0 220 181
0 221 180
0 220 179
0 220 181
0 222 180
0 221 181
0 221 181
0 221 181
0 221 180
0 222 181
0 220 180
0 223 181
0 222 181
0 221 181
0 220 179
0 221 180
0 221 180
0 221 181
0 221 181
0 221 181
0 221 181
0 222 181
0 222 181
0 219 180
0 220 180
0 220 180
0 220 181
0 221 180
0 221 181
0 221 181
0 219 179
0 221 180
0 220 180
0 220 180
0 221 181
0 220 179
0 220 180
0 220 180
0 219 179
0 219 179
0 221 181
0 220 180
0 221 181
0 220 180
0 221 181
0 220 180
0 221 181
0 221 181
0 220 179
0 221 181
0 221 179
0 221 181
0 220 179
0 222 180
0 220 180
0 221 180
0 220 180
0 220 180
0 220 180
0 222 180
0 219 179
0 221 181
0 220 179
0 221 181
0 220 179
0 219 179
0 221 180
0 221 179
0 219 179
0 220 180
0 219 180
0 221 181
0 221 181
0 219 179
0 220 179
0 219 178
0 219 180
0 220 179
0 220 180
0 217 179
0 221 180
0 219 180
0 217 178
0 218 179
0 217 178
0 217 178
0 218 179
0 218 179
0 219 179
0 222 180
0 218 179
0 220 179
0 218 179
0 220 180
0 215 177
0 219 178
0 219 179
0 219 177
0 218 178
0 217 178
0 218 178
0 219 179
0 219 179
0 220 181
0 220 180
0 217 177
0 217 178
0 220 180
0 220 180
0 220 180
0 217 178
0 216 176
0 219 179
0 221 180
0 218 179
0 218 178
0 218 179
0 217 177
0 218 178
0 219 179
0 218 179
0 220 180
0 218 177
0 219 179
0 218 178
0 217 177
0 218 179
0 220 180
0 217 177
0 218 179
0 220 180
0 218 179
0 218 178
0 220 180
0 220 179
0 219 179
0 221 180
0 220 178
0 220 179
0 221 180
0 220 179
0 221 180
0 219 178
0 214 175
0 221 181
0 219 179
0 220 179
0 219 179
0 219 179
0 216 176
0 218 178
0 219 180
0 221 181
0 220 179
0 220 180
0 219 180
0 221 180
0 220 180
0 220 179
0 220 179
0 219 179
0 220 179
0 219 179
0 221 180
0 218 178
0 221 181
0 221 181
0 220 179
0 221 181
0 219 178
0 220 180
0 218 177
0 220 178
0 220 179
0 220 180
0 218 178
0 221 180
0 220 180
0 219 179
0 220 180
0 219 179
0 218 179
0 217 177
0 218 179
0 220 180
0 219 180
0 221 179
0 221 181
0 219 178
0 220 180
0 221 179
0 221 180
0 220 178
0 221 180
0 221 180
0 220 180
0 222 181
0 221 181
0 219 180
0 219 178
0 221 180
0 221 180
0 220 180
0 219 180
0 219 180
0 222 181
0 219 180
0 220 180
0 221 181
0 221 181
0 220 180
0 220 179
0 220 181
0 220 179
0 219 180
0 220 180
0 221 181
0 221 181
0 219 179
0 221 181
0 221 181
0 220 180
0 219 180
0 220 180
0 221 180
0 222 181
0 220 180
0 221 180
0 220 181
0 222 181
0 219 180
0 220 179
0 222 181
0 220 180
0 222 181
0 221 181
0 222 181
0 221 181
0 220 180
0 221 181
0 221 180
0 221 181
0 221 181
0 221 181
0 221 181
0 221 181
0 222 181
0 221 181
0 221 180
0 222 181
0 220 181
0 221 181
0 220 180
0 221 181
0 221 180
0 221 181
0 221 180
0 221 180
0 221 180
0 220 180
0 221 181
0 221 181
0 218 179
0 220 181
0 221 181
0 222 181
0 221 181
0 221 181
0 221 181
0 220 180
0 221 181
0 221 181
0 221 181
0 222 181
0 220 180
0 222 181
0 221 181
0 221 181
0 222 181
0 222 181
0 221 181
0 221 181
0 221 181
0 221 181
0 222 181
0 221 181
0 221 181
0 221 180
0 220 180
0 220 179
0 221 180
0 222 180
0 221 180
0 221 181
0 221 181
0 220 181
0 221 181
0 219 179
0 221 181
0 221 181
0 220 181
0 221 181
0 222 181
0 221 181
0 221 181
0 221 181
0 221 181
0 220 181
0 222 181
0 222 181
0 220 180
0 221 181
0 221 181
0 222 181
0 221 181
0 221 181
0 221 181
0 222 181
0 222 181
0 221 181
0 221 181
0 222 181
0 221 181
0 221 181
0 221 181
0 220 180
0 221 180
0 221 181
0 220 180
0 222 181
0 222 181
0 220 180
0 221 181
0 221 181
0 221 181
0 221 181
0 221 181
0 222 181
0 221 181
0 221 180
0 220 180
0 221 181
0 221 181
0 221 181
0 221 181
0 221 180
0 222 181
0 222 181
0 221 181
0 220 180
0 221 181
0 222 181
0 222 181
0 221 181
0 221 181
0 222 181
0 222 181
0 221 181
0 221 181
0 222 181
0 221 181
0 222 181
0 221 181
0 220 181
0 222 181
0 221 181
0 222 181
0 220 180
0 221 181
0 220 180
0 222 181
0 222 181
0 219 179
0 221 181
0 222 181
0 220 181
0 221 181
0 221 181
0 221 181
0 220 180
0 220 181
0 221 181
0 221 181
0 221 181
0 220 181
0 223 181
0 219 180
0 221 181
0 222 181
0 220 181
0 220 181
0 221 180
0 220 180
0 219 180
0 221 181
0 222 180
0 221 181
0 221 181
0 221 181
0 221 181
0 222 181
0 220 181
0 220 181
0 221 181
0 220 180
0 221 181
0 220 180
0 220 181
0 221 180
0 220 181
0 222 181
0 219 179
0 220 180
0 220 180
0 221 181
0 221 181
0 222 181
0 220 180
0 220 180
0 221 181
0 219 178
0 219 179
0 221 181
0 221 181
0 220 180
0 221 181
0 221 180
0 221 181
0 220 180
0 220 180
0 220 180
0 222 180
0 222 181
0 220 180
0 221 180
0 221 180
0 221 180
0 220 178
0 220 179
0 221 180
0 220 181
0 221 181
0 221 181
0 221 180
0 220 180
0 220 180
0 219 179
0 221 180
0 218 179
0 220 180
0 219 180
0 221 181
0 222 180
0 220 179
0 220 180
0 220 180
0 221 180
0 220 180
0 220 180
0 221 180
0 217 177
0 221 180
0 219 179
0 220 180
0 221 181
0 221 180
0 220 179
0 218 178
0 220 179
0 220 180
0 220 180
0 219 180
0 220 180
0 220 180
0 219 179
0 218 178
0 221 180
0 219 179
0 220 179
0 220 180
0 219 179
0 219 179
0 218 178
0 218 179
0 221 179
0 220 180
0 220 180
0 218 179
0 220 179
0 218 178
0 219 180
0 222 181
0 218 178
0 219 179
0 219 178
0 218 179
0 217 178
0 221 181
0 217 177
0 219 179
0 221 181
0 217 178
0 219 179
0 219 180
0 221 180
0 215 176
0 219 179
0 220 180
0 217 178
0 220 180
0 218 178
0 220 179
0 216 178
0 215 175
0 217 177
0 219 179
0 220 180
0 218 179
0 215 176
0 214 175
0 220 180
0 220 180
0 219 178
0 219 179
0 219 179
0 219 177
0 219 180
0 220 180
0 221 179
0 219 179
0 217 176
0 218 178
0 219 179
0 218 178
0 220 179
0 218 179
0 218 178
0 218 178
0 219 178
0 219 178
0 220 180
0 220 180
0 220 179
0 217 178
0 218 178
0 218 178
0 217 175
0 219 179
0 218 178
0 218 177
0 219 178
0 218 179
0 218 179
0 221 181
0 219 179
0 221 178
0 220 178
0 220 179
0 219 178
0 217 177
0 218 178
0 218 179
0 220 180
0 221 180
0 220 180
0 218 178
0 220 178
0 219 179
0 221 181
0 221 181
0 221 181
0 219 178
0 220 179
0 221 181
0 219 179
0 219 179
0 218 179
0 218 178
0 220 180
0 220 180
0 219 179
0 220 180
0 219 180
0 220 181
0 221 181
0 221 181
0 221 181
0 221 181
0 220 179
0 221 180
0 221 180
0 220 180
0 221 181
0 221 180
0 222 181
0 221 180
0 221 181
0 220 180
0 221 180
0 220 180
0 220 180
0 219 179
0 221 181
0 221 181
0 220 181
0 219 179
0 219 179
0 219 179
0 221 181
0 221 180
0 221 180
0 220 180
0 220 179
0 221 181
0 221 180
0 221 181
0 221 181
0 221 180
0 222 181
0 220 180
0 220 180
0 221 181
0 220 179
0 218 179
0 221 180
0 221 181
0 221 181
0 220 181
0 221 181
0 221 181
0 220 179
0 220 179
0 221 181
0 220 180
0 221 181
0 221 181
0 220 181
0 220 179
0 220 180
0 222 181
0 220 179
0 218 179
0 221 181
0 220 180
0 219 180
0 220 181
0 220 180
0 221 180
0 223 181
0 221 180
0 221 181
0 220 180
0 222 181
0 222 181
0 220 181
0 222 181
0 219 179
0 221 181
0 221 181
0 220 180
0 222 181
0 222 181
0 221 181
0 221 181
0 222 181
0 220 181
0 221 180
0 222 181
0 221 181
0 221 181
0 222 181
0 221 181
0 222 181
0 221 181
0 220 180
0 221 180
0 221 181
0 222 181
0 220 181
0 221 181
0 222 181
0 221 180
0 220 181
0 221 181
0 221 181
0 222 181
0 221 181
0 221 181
0 221 180
0 221 181
0 219 180
0 222 181
0 222 181
0 221 180
0 222 181
0 221 181
0 222 181
0 220 181
0 221 181
0 221 181
0 220 181
0 221 181
0 221 181
0 221 181
0 221 181
0 221 181
0 221 181
0 222 181
0 221 181
0 222 181
0 222 181
0 221 181
0 221 181
0 221 180
0 221 181
0 221 181
0 222 181
0 221 181
0 220 181
0 221 181
0 222 181
0 222 181
0 222 181
0 222 181
0 221 181
0 221 181
0 222 181
0 221 180
0 219 180
0 221 181
0 221 181
0 222 179
0 221 181
0 220 180
0 222 181
0 222 181
0 221 181
0 221 181
0 221 181
0 220 180
0 219 180
0 222 181
0 221 181
0 222 181
0 220 180
0 221 181
0 221 181
0 221 180
0 221 180
0 221 181
0 222 181
0 221 181
0 221 181
0 221 181
0 221 181
0 221 180
0 221 181
0 221 181
0 222 181
0 221 181
0 221 181
0 220 181
0 221 181
0 221 181
0 221 180
0 220 181
0 221 181
0 220 179
0 221 181
0 221 181
0 221 181
0 221 181
0 220 180
0 222 181
0 223 181
0 221 181
0 221 181
0 222 181
0 221 181
0 221 181
0 220 180
0 221 181
0 221 180
0 220 180
0 222 180
0 220 180
0 220 180
0 221 181
0 222 181
0 220 180
0 220 181
0 221 181
0 221 181
0 221 181
0 222 181
0 220 180
0 221 181
0 220 181
0 222 180
0 220 180
0 220 181
0 221 181
0 220 180
0 219 179
0 222 181
0 220 180
0 221 181
0 221 181
0 220 180
0 221 181
0 220 181
0 221 181
0 220 180
0 222 181
0 220 179
0 221 181
0 221 181
0 221 181
0 220 180
0 220 181
0 221 181
0 222 180
0 220 180
0 221 180
0 220 180
0 221 181
0 219 180
0 221 181
0 221 181
0 220 181
0 221 179
0 220 180
0 221 180
0 221 181
0 220 180
0 221 181
0 221 180
0 220 180
0 221 179
0 221 180
0 220 180
0 221 181
0 220 180
0 221 180
0 219 179
0 221 180
0 218 179
0 221 181
0 220 180
0 221 180
0 221 179
0 222 181
0 219 179
0 221 180
0 220 180
0 220 180
0 219 178
0 220 180
0 220 180
0 221 180
0 217 178
0 219 179
0 221 180
0 221 180
0 218 179
0 220 179
0 220 180
0 223 181
0 218 178
0 219 179
0 218 178
0 222 181
0 220 180
0 217 178
0 221 180
0 221 181
0 221 180
0 219 180
0 220 179
0 219 179
0 220 179
0 220 180
0 221 181
0 219 179
0 219 179
0 217 178
0 220 179
0 219 180
0 219 179
0 220 180
0 218 178
0 219 179
0 218 178
0 221 180
0 213 175
0 215 177
0 220 181
0 218 177
0 219 179
0 219 180
0 218 179
0 217 178
0 219 178
0 218 178
0 220 180
0 218 179
0 219 178
0 219 179
0 217 177
0 218 178
0 216 177
0 215 176
0 218 178
0 221 180
0 217 179
0 219 180
0 220 180
0 217 177
0 218 177
0 218 178
0 218 179
0 218 178
0 218 178
0 216 175
0 218 179
0 218 179
0 221 180
0 220 179
0 217 178
0 217 178
0 220 180
0 218 179
0 219 179
0 216 179
0 219 179
0 221 180
0 219 179
0 219 179
0 216 177
0 219 178
0 220 179
0 218 178
0 219 179
0 220 179
0 220 180
0 220 180
0 222 180
0 220 178
0 220 180
0 220 180
0 217 177
0 221 181
0 220 180
0 219 179
0 219 178
0 220 181
0 218 179
0 218 178
0 219 179
0 218 178
0 218 177
0 220 179
0 220 179
0 219 179
0 220 178
0 219 179
0 221 181
0 218 178
0 220 179
0 219 179
0 221 180
0 219 179
0 220 179
0 220 179
0 221 181
0 221 181
0 220 181
0 220 180
0 220 179
0 218 177
0 222 181
0 221 180
0 219 180
0 220 179
0 220 179
0 220 180
0 221 181
0 220 180
0 219 179
0 219 178
0 221 181
0 221 181
0 221 181
0 219 180
0 220 179
0 217 178
0 221 180
0 220 180
0 220 180
0 219 179
0 221 181
0 221 181
0 220 180
0 221 181
0 220 179
0 220 180
0 218 178
0 220 180
0 219 180
0 220 180
0 219 179
0 221 181
0 219 178
0 220 181
0 221 180
0 220 181
0 221 181
0 220 180
0 221 179
0 221 181
0 221 180
0 222 180
0 221 181
0 221 181
0 218 177
0 221 180
0 219 180
0 220 180
0 220 180
0 220 181
0 222 181
0 219 179
0 221 181
0 220 181
0 221 180
0 221 180
0 220 179
0 221 181
0 221 181
0 219 179
0 220 180
0 221 180
0 221 180
0 220 180
0 221 181
0 221 181
0 221 181
0 219 179
0 221 181
0 221 181
0 222 181
0 221 181
0 222 181
0 220 179
0 221 180
0 221 180
0 221 180
0 221 181
0 220 181
0 220 181
0 221 181
0 221 181
0 220 181
0 221 181
0 220 180
0 218 178
0 222 181
0 221 181
0 221 180
0 221 180
0 221 181
0 220 180
0 221 181
0 222 181
0 220 181
0 221 181
0 221 181
0 221 181
0 220 181
0 220 180
0 222 181
0 221 181
0 221 181
0 221 181
0 221 181
0 221 181
0 222 181
0 221 181
0 220 179
0 221 180
0 222 181
0 222 181
0 221 181
0 220 181
0 221 181
0 221 181
0 222 181
0 220 180
0 221 180
0 221 181
0 222 181
0 220 181
0 222 181
0 221 181
0 223 181
0 221 180
0 220 181
0 221 181
0 221 181
0 221 181
0 222 181
0 221 181
0 221 181
0 221 181
0 221 181
0 221 181
0 220 181
0 222 181
0 220 180
0 222 181
0 222 181
0 221 181
0 220 180
0 221 181
0 219 180
0 220 180
0 221 181
0 221 181
0 221 181
0 220 181
0 222 181
0 222 181
0 222 181
0 221 181
0 218 178
0 222 181
0 221 181
0 221 181
0 220 181
0 220 181
0 221 181
0 222 181
0 221 181
0 221 180
0 221 181
0 220 180
0 221 181
0 221 181
0 221 181
0 222 181
0 222 181
0 220 181
0 222 181
0 221 180
0 221 181
0 221 181
0 221 181
0 220 180
0 221 181
0 221 181
0 221 181
0 220 180
0 221 181
0 221 181
0 221 181
0 221 180
0 221 181
0 222 181
0 222 181
0 221 180
0 221 181
0 220 180
0 221 181
0 221 181
0 221 181
0 221 181
0 220 180
0 220 181
0 221 181
0 221 181
0 222 181
0 221 181
0 221 181
0 220 181
0 221 181
0 221 181
0 220 180
0 222 180
0 221 181
0 220 181
0 219 180
0 221 181
0 221 181
0 222 181
0 221 181
0 221 180
0 221 180
0 220 180
0 220 180
0 222 181
0 220 180
0 220 179
0 220 180
0 221 181
0 221 180
0 221 181
0 221 181
0 221 181
0 221 181
0 221 181
0 221 181
0 220 180
0 220 180
0 219 180
0 220 180
0 220 181
0 220 180
0 220 181
0 220 180
0 222 181
0 222 181
0 221 181
0 220 180
0 220 180
0 222 181
0 222 181
0 221 181
0 220 179
0 221 181
0 219 180
0 219 179
0 221 180
0 221 181
0 220 180
0 220 179
0 222 181
0 220 180
0 221 180
0 220 180
0 221 181
0 222 181
0 221 181
0 221 181
0 220 180
0 220 181
0 221 180
0 217 178
0 220 181
0 221 181
0 221 180
0 220 181
0 219 180
0 219 179
0 221 180
0 222 181
0 219 179
0 221 180
0 220 179
0 219 179
0 221 181
0 219 178
0 221 181
0 220 180
0 219 179
0 221 180
0 221 180
0 218 179
0 222 181
0 217 178
0 220 181
0 218 179
0 220 181
0 219 180
0 220 179
0 220 180
0 221 180
0 220 180
0 217 178
0 218 177
0 218 178
0 220 180
0 220 179
0 219 178
0 219 180
0 218 179
0 218 178
0 218 179
0 220 179
0 220 179
0 219 179
0 220 180
0 218 179
0 216 177
0 218 178
0 220 179
0 219 179
0 219 179
0 219 179
0 219 178
0 220 180
0 220 180
0 217 177
0 220 180
0 216 178
0 216 177
0 219 178
0 217 178
0 218 178
0 218 178
0 218 178
0 218 178
0 218 179
0 220 178
0 218 177
0 217 177
0 220 180
0 219 178
0 218 178
0 219 179
0 219 179
0 218 177
0 216 178
0 219 179
0 220 179
0 218 179
0 216 176
0 219 180
0 219 178
0 219 179
0 214 176
0 220 180
0 218 178
0 219 178
0 218 178
0 216 177
0 219 179
0 220 180
0 221 179
0 219 179
0 219 179
0 218 179
0 219 179
0 218 178
0 217 178
0 218 179
0 214 177
0 220 180
0 219 179
0 218 178
0 219 180
0 217 177
0 218 179
0 218 178
0 219 179
0 218 178
0 220 179
0 220 180
0 220 179
0 222 181
0 219 178
0 219 179
0 219 180
0 220 179
0 221 181
0 217 177
0 220 179
0 218 178
0 219 180
0 222 180
0 221 181
0 218 178
0 219 178
0 220 180
0 222 181
0 219 178
0 220 180
0 221 180
0 221 181
0 221 181
0 219 180
0 218 177
0 218 178
0 221 180
0 219 180
0 221 181
0 220 180
0 219 179
0 217 178
0 219 179
0 221 181
0 221 180
0 217 178
0 221 179
0 222 181
0 221 181
0 220 179
0 221 179
0 221 181
0 220 180
0 220 181
0 220 179
0 220 179
0 220 180
0 218 177
0 221 180
0 221 181
0 219 178
0 221 180
0 220 180
0 221 180
0 219 179
0 221 180
0 219 179
0 221 181
0 220 180
0 220 180
0 221 179
0 221 181
0 220 181
0 221 180
0 221 180
0 221 181
0 220 180
0 221 180
0 221 180
0 221 181
0 217 178
0 220 180
0 221 181
0 219 179
0 221 181
0 221 181
0 220 180
0 219 179
0 220 180
0 220 181
0 220 181
0 221 181
0 218 180
0 221 180
0 221 180
0 221 181
0 222 181
0 222 181
0 221 180
0 220 180
0 220 180
0 221 180
0 220 180
0 220 180
0 222 181
0 221 180
0 220 180
0 219 179
0 221 181
0 220 180
0 222 181
0 222 181
0 220 181
0 221 181
0 219 179
0 222 181
0 222 181
0 221 181
0 219 180
0 221 181
0 221 181
0 221 181
0 221 181
0 220 181
0 221 181
0 221 180
0 221 181
0 222 181
0 221 180
0 221 181
0 221 180
0 222 181
0 220 180
0 222 181
0 221 181
0 221 180
0 221 181
0 220 180
0 221 181
0 219 180
0 220 180
0 222 181
0 221 180
0 222 181
0 220 181
0 221 181
0 221 181
0 221 181
0 220 180
0 221 180
0 221 181
0 221 181
0 221 181
0 220 181
0 221 181
0 221 181
0 221 181
0 221 181
0 221 181
0 221 181
0 221 181
0 221 181
0 221 181
0 222 181
0 222 181
0 220 180
0 221 180
0 221 181
0 221 181
0 222 181
0 220 181
0 222 181
0 220 181
0 221 181
0 220 180
0 220 181
0 222 181
0 221 181
0 222 181
0 221 181
0 221 181
0 222 181
0 221 181
0 222 181
0 220 180
0 222 181
0 221 181
0 221 181
0 222 181
0 222 181
0 221 181
0 220 181
0 221 181
0 222 181
0 220 180
0 221 181
0 221 181
0 222 181
0 221 181
0 222 181
0 221 181
0 220 180
0 221 181
0 221 181
0 221 181
0 221 181
0 222 181
0 221 181
0 222 181
0 220 180
0 221 180
0 220 181
0 220 181
0 220 181
0 222 181
0 221 181
0 220 181
0 221 181
0 222 181
0 222 181
0 221 181
0 221 181
0 222 181
0 221 181
0 221 181
0 221 180
0 221 181
0 221 180
0 221 181
0 222 181
0 220 180
0 221 181
0 223 181
0 222 181
0 220 180
0 221 181
0 221 180
0 221 181
0 222 181
0 221 181
0 220 179
0 220 180
0 221 181
0 221 181
0 220 180
0 220 180
0 221 181
0 221 181
0 221 181
0 221 181
0 221 181
0 222 181
0 221 180
0 222 181
0 221 181
0 221 181
0 221 181
0 222 181
0 220 179
0 220 180
0 220 180
0 220 180
0 221 180
0 219 179
0 221 181
0 221 179
0 221 181
0 221 181
0 222 180
0 220 181
0 220 180
0 220 181
0 222 181
0 220 180
0 221 181
0 220 180
0 222 180
0 222 181
0 220 180
0 221 181
0 221 180
0 220 180
0 221 180
0 218 179
0 221 181
0 221 181
0 220 180
0 219 179
0 219 179
0 219 179
0 220 180
0 221 181
0 219 180
0 221 180
0 221 181
0 220 179
0 220 179
0 221 181
0 220 180
0 220 180
0 220 180
0 222 181
0 221 180
0 220 180
0 219 179
0 220 181
0 221 180
0 221 181
0 219 180
0 220 179
0 220 179
0 221 180
0 218 180
0 220 180
0 220 180
0 219 179
0 221 180
0 220 179
0 220 180
0 220 178
0 220 180
0 220 179
0 219 179
0 221 180
0 221 181
0 218 179
0 219 179
0 219 180
0 221 180
0 221 179
0 220 179
0 221 181
0 220 180
0 217 177
0 217 178
0 220 180
0 218 179
0 217 178
0 220 181
0 219 178
0 220 179
0 222 181
0 217 177
0 220 180
0 221 180
0 219 179
0 218 179
0 219 178
0 219 179
0 220 179
0 218 178
0 218 178
0 220 180
0 219 179
0 220 178
0 219 179
0 220 179
0 220 179
0 220 179
0 216 177
0 217 178
0 216 178
0 217 177
0 217 178
0 217 177
0 218 178
0 220 178
0 219 180
0 219 180
0 220 179
0 219 179
0 219 180
0 218 179
0 216 176
0 218 179
0 220 178
0 215 177
0 216 177
0 221 180
0 219 179
0 217 178
0 219 179
0 217 178
0 219 179
0 217 177
0 219 179
0 219 179
0 219 179
0 220 179
0 220 180
0 220 180
0 218 178
0 216 177
0 219 178
0 218 177
0 218 178
0 218 179
0 216 177
0 220 180
0 219 180
0 219 179
0 218 178
0 220 181
0 219 178
0 219 178
0 218 179
0 219 179
0 220 181
0 216 177
0 217 177
0 219 179
0 218 179
0 218 179
0 219 179
0 218 178
0 221 180
0 220 179
0 219 180
0 217 178
0 221 180
0 220 180
0 220 180
0 220 179
0 220 178
0 220 180
0 218 179
0 222 181
0 215 176
0 219 179
0 221 181
0 220 179
0 219 178
0 221 181
0 220 180
0 220 181
0 220 180
0 219 178
0 219 179
0 221 181
0 220 179
0 220 180
0 219 180
0 219 178
0 221 181
0 221 180
0 221 180
0 219 179
0 221 181
0 220 180
0 221 181
0 220 179
0 220 180
0 218 179
0 218 180
0 220 179
0 221 180
0 220 180
0 220 180
0 221 180
0 220 180
0 222 181
0 220 180
0 219 180
0 220 179
0 220 179
0 218 179
0 222 181
0 219 179
0 220 180
0 220 180
0 219 179
0 221 181
0 221 180
0 220 180
0 221 181
0 222 181
0 221 181
0 220 179
0 220 180
0 221 181
0 219 179
0 220 180
0 221 180
0 221 180
0 221 180
0 221 180
0 220 181
0 220 180
0 221 180
0 220 180
0 221 181
0 221 181
0 221 181
0 221 180
0 221 181
0 221 181
0 221 181
0 221 181
0 221 181
0 220 180
0 222 181
0 220 179
0 219 180
0 222 181
0 221 180
0 220 181
0 221 180
0 221 180
0 221 181
0 222 181
0 221 180
0 221 181
0 222 181
0 220 181
0 221 181
0 221 181
0 220 180
0 222 181
0 221 181
0 222 181
0 221 181
0 221 180
0 221 180
0 222 181
0 222 181
0 220 181
0 222 181
0 220 180
0 221 181
0 221 181
0 222 180
0 222 181
0 221 181
0 220 180
0 221 181
0 221 181
0 220 180
0 221 181
0 219 180
0 222 181
0 221 181
0 221 181
0 221 180
0 220 181
0 221 181
0 221 181
0 221 181
0 221 180
0 222 181
0 221 181
0 220 181
0 221 181
0 221 181
0 221 181
0 222 181
0 220 180
0 221 180
0 222 181
0 221 181
0 221 181
0 221 181
0 222 181
0 221 181
0 220 181
0 222 181
0 221 181
0 221 180
0 221 181
0 222 181
0 221 181
0 222 181
0 222 181
0 222 181
0 222 181
0 219 180
0 220 180
0 221 181
0 221 181
0 221 180
0 221 181
0 221 181
0 222 181
0 222 181
0 222 181
0 221 181
0 221 181
0 221 181
0 221 181
0 222 181
0 221 181
0 222 181
0 221 181
0 222 181
0 220 180
0 220 180
0 222 181
0 221 181
0 222 181
0 221 181
0 220 181
0 220 180
0 220 181
0 221 181
0 222 181
0 220 181
0 221 181
0 221 181
0 220 181
0 220 180
0 221 181
0 221 181
0 221 181
0 222 181
0 220 180
0 222 181
0 221 181
0 220 180
0 221 181
0 221 181
0 221 181
0 221 181
0 220 180
0 221 181
0 221 181
0 220 181
0 222 181
0 221 181
0 221 181
0 221 181
0 221 181
0 221 181
0 221 180
0 222 181
0 221 181
0 222 181
0 222 181
0 220 180
0 222 181
0 221 180
0 220 181
0 221 181
0 221 181
0 220 180
0 221 181
0 221 181
0 219 180
0 220 180
0 221 181
0 220 180
0 221 181
0 221 181
0 220 181
0 221 181
0 221 181
0 221 181
0 221 180
0 222 181
0 221 180
0 220 180
0 220 180
0 220 180
0 221 181
0 221 181
0 222 181
0 222 181
0 221 181
0 221 181
0 220 180
0 221 181
0 221 181
0 221 181
0 220 180
0 222 181
0 221 180
0 221 180
0 221 181
0 220 180
0 219 179
0 221 181
0 220 180
0 221 181
0 221 181
0 221 181
0 221 181
0 221 180
0 220 180
0 220 181
0 219 179
0 220 180
0 219 179
0 222 181
0 220 181
0 222 181
0 219 179
0 221 181
0 221 181
0 222 181
0 221 181
0 221 181
0 221 180
0 220 179
0 219 180
0 220 179
0 221 181
0 220 181
0 222 181
0 220 180
0 219 179
0 220 180
0 221 181
0 220 180
0 220 179
0 222 180
0 220 179
0 219 179
0 219 180
0 220 180
0 221 180
0 221 180
0 220 180
0 219 178
0 221 181
0 220 180
0 221 180
0 220 180
0 221 179
0 222 181
0 221 181
0 220 180
0 222 181
0 221 181
0 219 178
0 219 180
0 220 179
0 219 179
0 219 178
0 219 179
0 220 180
0 221 180
0 220 179
0 215 176
0 219 179
0 214 176
0 220 179
0 220 180
0 218 179
0 218 179
0 218 179
0 217 178
0 219 180
0 218 179
0 218 178
0 219 178
0 218 178
0 219 179
0 219 179
0 218 179
0 219 179
0 217 178
0 217 177
0 216 178
0 217 177
0 219 179
0 216 178
0 220 178
0 220 179
0 218 178
0 219 180
0 219 178
0 218 179
0 217 177
0 218 179
0 220 179
0 219 180
0 218 178
0 216 177
0 216 177
0 216 176
0 216 178
0 215 177
0 218 178
0 217 178
0 216 177
0 218 179
0 220 180
0 220 180
0 218 178
0 218 178
0 218 178
0 220 179
0 217 178
0 218 178
0 220 181
0 218 178
0 215 177
0 220 180
0 217 177
0 220 179
0 220 179
0 219 179
0 220 180
0 218 178
0 218 179
0 220 179
0 219 180
0 220 180
0 219 179
0 219 179
0 219 179
0 219 179
0 219 179
0 220 179
0 216 177
0 218 179
0 219 179
0 220 180
0 219 180
0 219 179
0 219 179
0 220 179
0 220 180
0 217 176
0 220 179
0 218 179
0 219 179
0 220 180
0 220 181
0 220 180
0 221 180
0 219 179
0 221 181
0 222 181
0 218 179
0 221 181
0 219 179
0 219 179
0 220 180
0 222 181
0 220 180
0 221 181
0 221 180
0 221 180
0 221 181
0 220 180
0 217 178
0 217 177
0 220 179
0 219 178
0 219 178
0 220 180
0 219 179
0 220 179
0 221 180
0 218 179
0 220 180
0 221 180
0 220 179
0 220 181
0 219 178
0 220 181
0 221 180
0 221 181
0 220 180
0 220 180
0 219 179
0 221 181
0 220 180
0 220 179
0 221 181
0 220 180
0 221 180
0 220 181
0 220 180
0 221 181
0 221 181
0 220 180
0 221 181
0 220 180
0 219 180
0 219 179
0 221 181
0 221 181
0 219 180
0 221 181
0 221 181
0 221 180
0 221 179
0 221 181
0 221 181
0 221 181
0 220 181
0 221 181
0 221 181
0 221 180
0 221 179
0 222 181
0 221 180
0 220 180
0 221 180
0 221 180
0 220 180
0 221 181
0 221 181
0 221 181
0 219 178
0 220 180
0 221 181
0 221 181
0 219 179
0 221 181
0 221 180
0 221 181
0 223 181
0 221 181
0 220 180
0 221 180
0 220 180
0 221 181
0 220 181
0 222 181
0 221 180
0 221 181
0 220 181
0 222 181
0 222 181
0 221 181
0 223 181
0 219 180
0 220 181
0 221 181
0 220 181
0 221 181
0 221 181
0 221 181
0 222 180
0 221 181
0 221 181
0 222 181
0 222 181
0 221 181
0 222 181
0 221 181
0 221 180
0 221 181
0 221 181
0 221 181
0 221 181
0 222 181
0 221 181
0 221 181
0 223 181
0 222 181
0 221 181
0 220 180
0 221 181
0 221 181
0 222 181
0 219 180
0 221 181
0 221 181
0 221 181
0 222 181
0 221 181
0 221 181
0 221 181
0 221 181
0 221 181
0 221 181
0 221 181
0 221 181
0 220 180
0 222 181
0 222 181
0 221 180
0 221 181
0 221 181
0 221 181
0 222 181
0 222 181
0 221 181
0 221 181
0 221 181
0 223 181
0 221 181
0 219 179
0 221 181
0 222 181
0 220 180
0 222 181
0 222 181
0 222 181
0 222 181
0 221 180
0 222 181
0 221 181
0 222 181
0 221 180
0 222 181
0 221 181
0 220 180
0 220 181
0 220 180
0 220 180
0 221 181
0 220 180
0 221 181
0 221 181
0 219 180
0 221 180
0 222 181
0 222 181
0 222 181
0 223 181
0 221 181
0 220 181
0 221 181
0 221 181
0 220 181
0 221 181
0 221 181
0 221 181
0 221 181
0 221 181
0 220 180
0 222 180
0 220 181
0 221 181
0 220 181
0 222 181
0 222 181
0 222 181
0 222 181
0 221 181
0 221 181
0 221 181
0 221 180
0 220 180
0 222 181
0 221 181
0 221 181
0 221 181
0 220 181
0 220 180
0 221 181
0 221 181
0 220 181
0 221 180
0 221 181
0 221 181
0 221 181
0 221 181
0 222 181
0 221 181
0 220 181
0 221 181
0 222 181
0 221 181
0 220 181
0 221 181
0 221 181
0 221 180
0 219 179
0 220 180
0 221 181
0 221 181
0 220 180
0 221 181
0 221 181
0 220 180
0 220 180
0 220 180
0 222 181
0 222 181
0 221 180
0 221 181
0 220 180
0 220 179
0 220 180
0 222 181
0 220 180
0 220 180
0 220 180
0 221 180
0 222 181
0 220 181
0 220 180
0 220 180
0 222 181
0 221 180
0 219 179
0 220 180
0 220 180
0 221 181
0 221 181
0 219 180
0 220 181
0 218 179
0 220 180
0 218 179
0 220 180
0 219 179
0 219 180
0 220 180
0 220 180
0 221 180
0 221 181
0 221 181
0 218 178
0 221 181
0 221 180
0 219 178
0 219 180
0 222 181
0 219 179
0 220 180
0 221 180
0 219 179
0 220 179
0 222 180
0 221 181
0 220 179
0 219 179
0 220 180
0 220 179
0 221 181
0 217 177
0 220 181
0 218 178
0 218 179
0 218 178
0 219 179
0 217 176
0 220 180
0 219 178
0 221 180
0 216 177
0 219 178
0 219 180
0 221 180
0 218 179
0 219 178
0 220 180
0 221 179
0 218 179
0 218 180
0 215 176
0 220 179
0 218 178
0 215 176
0 216 177
0 219 179
0 218 178
0 218 178
0 219 180
0 217 177
0 212 175
0 220 179
0 219 179
0 216 176
0 219 179
0 218 177
0 216 177
0 215 177
0 218 178
0 219 179
0 219 179
0 218 177
0 219 179
0 219 179
0 219 179
0 213 175
0 221 181
0 218 177
0 219 179
0 219 180
0 218 178
0 218 178
0 217 177
0 219 179
0 220 180
0 220 180
0 219 179
0 218 178
0 215 177
0 220 180
0 219 180
0 216 177
0 217 178
0 217 177
0 220 180
0 220 179
0 218 177
0 219 179
0 220 179
0 215 176
0 219 180
0 220 180
0 218 178
0 218 177
0 217 178
0 222 181
0 220 180
0 221 180
0 220 180
0 220 179
0 220 180
0 220 179
0 216 176
0 220 180
0 218 178
0 221 179
0 219 179
0 218 178
0 217 177
0 220 179
0 219 178
0 222 181
0 219 179
0 219 178
0 220 179
0 220 180
0 221 181
0 221 181
0 220 181
0 220 180
0 218 179
0 219 179
0 218 178
0 221 181
0 221 180
0 219 178
0 219 180
0 221 180
0 219 178
0 221 179
0 219 179
0 217 178
0 221 181
0 219 179
0 219 178
0 220 179
0 220 180
0 221 181
0 220 181
0 219 179
0 218 179
0 219 178
0 219 179
0 221 180
0 220 179
0 221 181
0 221 181
0 221 181
0 221 180
0 219 179
0 221 180
0 221 180
0 220 179
0 219 179
0 219 180
0 220 179
0 219 179
0 219 178
0 220 180
0 221 181
0 222 181
0 221 180
0 220 180
0 221 181
0 221 180
0 221 181
0 220 179
0 220 180
0 221 180
0 221 181
0 221 180
0 221 181
0 221 181
0 220 181
0 222 181
0 219 180
0 221 180
0 220 180
0 221 181
0 218 179
0 220 179
0 221 181
0 220 181
0 220 180
0 221 181
0 220 179
0 221 181
0 221 181
0 221 180
0 221 181
0 222 180
0 221 180
0 220 181
0 222 181
0 219 180
0 220 180
0 221 179
0 221 181
0 221 181
0 220 180
0 221 181
0 220 179
0 221 181
0 222 181
0 221 181
0 221 181
0 222 180
0 221 181
0 221 181
0 220 180
0 221 181
0 221 181
0 222 181
0 221 181
0 221 181
0 222 181
0 221 181
0 221 181
0 220 180
0 220 180
0 221 181
0 221 181
0 220 181
0 221 181
0 222 181
0 220 180
0 222 181
0 221 181
0 221 181
0 221 181
0 220 180
0 221 181
0 221 181
0 222 181
0 220 181
0 221 181
0 220 180
0 221 181
0 222 181
0 221 181
0 220 181
0 221 181
0 221 181
0 221 181
0 221 181
0 220 180
0 222 181
0 221 181
0 222 181
0 221 181
0 222 181
0 221 181
0 221 181
0 222 181
0 221 181
0 221 181
0 222 181
0 220 180
0 221 181
0 221 181
0 221 181
0 221 181
0 221 181
0 222 181
0 221 181
0 221 181
0 221 181
0 222 181
0 222 181
0 221 181
0 221 181
0 222 181
0 221 181
0 221 181
0 221 181
0 221 180
0 222 181
0 221 181
0 221 181
0 221 180
0 221 181
0 222 181
0 221 181
0 222 181
0 221 181
0 222 181
0 222 181
0 222 181
0 221 181
0 221 181
0 222 181
0 221 181
0 221 181
0 221 181
0 221 181
0 221 181
0 221 181
0 220 180
0 221 181
0 221 181
0 222 181
0 222 181
0 220 180
0 221 181
0 221 180
0 219 180
0 222 181
0 221 181
0 220 181
0 220 180
0 221 181
0 221 181
0 219 179
0 221 181
0 220 181
0 221 180
0 221 181
0 221 181
0 221 181
0 221 181
0 221 181
0 221 181
0 220 180
0 220 180
0 220 180
0 221 181
0 221 181
0 223 181
0 221 181
0 221 181
0 221 181
0 220 181
0 221 180
0 221 181
0 222 180
0 218 179
0 220 180
0 221 180
0 221 181
0 220 180
0 221 181
0 220 180
0 219 180
0 221 181
0 222 181
0 221 181
0 221 180
0 220 180
0 220 180
0 220 180
0 219 179
0 222 181
0 221 181
0 220 180
0 221 181
0 221 180
0 220 181
0 221 181
0 223 180
0 221 181
0 221 180
0 220 180
0 221 181
0 222 181
0 219 180
0 220 180
0 222 181
0 221 180
0 220 181
0 221 180
0 221 180
0 222 180
0 221 181
0 220 180
0 220 180
0 221 180
0 221 181
0 218 179
0 220 180
0 220 181
0 220 181
0 221 181
0 220 179
0 220 179
0 220 181
0 222 181
0 221 181
0 220 180
0 221 181
0 220 180
0 221 181
0 221 180
0 221 180
0 218 179
0 221 180
0 220 180
0 220 180
0 221 181
0 217 179
0 219 180
0 219 180
0 221 181
0 221 181
0 222 181
0 221 180
0 221 181
0 218 178
0 219 179
0 221 181
0 219 179
0 219 179
0 220 180
0 221 180
0 218 179
0 219 179
0 219 180
0 219 179
0 221 180
0 221 180
0 220 179
0 218 178
0 220 180
0 218 178
0 219 178
0 220 180
0 219 179
0 219 178
0 218 178
0 220 179
0 220 180
0 220 179
0 218 178
0 219 179
0 216 177
0 220 179
0 220 179
0 218 178
0 215 177
0 220 179
0 219 179
0 219 180
0 217 177
0 218 178
0 221 181
0 221 179
0 217 178
0 217 178
0 220 179
0 216 177
0 217 178
0 219 178
0 220 180
0 214 176
0 216 178
0 216 177
0 218 178
0 220 181
0 218 179
0 218 179
0 215 175
0 218 178
0 218 178
0 219 177
0 219 179
0 217 178
0 219 178
0 221 179
0 218 179
0 219 179
0 216 177
0 221 180
0 222 181
0 218 177
0 218 179
0 218 177
0 217 178
0 218 178
0 220 179
0 218 178
0 218 177
0 214 175
0 214 175
0 217 178
0 220 181
0 218 178
0 221 180
0 221 180
0 216 178
0 221 181
0 220 180
0 220 181
0 221 181
0 219 179
0 218 178
0 221 181
0 216 175
0 220 180
0 220 180
0 216 177
0 218 178
0 221 180
0 219 178
0 219 179
0 219 178
0 221 181
0 219 179
0 219 179
0 218 177
0 220 180
0 217 178
0 219 178
0 219 178
0 220 181
0 219 179
0 221 180
0 220 179
0 220 180
0 219 180
0 219 180
0 219 179
0 219 179
0 220 181
0 220 180
0 218 179
0 220 179
0 219 179
0 219 179
0 217 178
0 219 179
0 216 176
0 220 179
0 221 180
0 218 178
0 221 180
0 222 181
0 221 181
0 220 178
0 220 179
0 221 179
0 220 179
0 221 180
0 220 181
0 220 180
0 221 179
0 221 181
0 218 179
0 220 180
0 219 178
0 219 179
0 220 180
0 221 179
0 221 180
0 219 180
0 221 180
0 221 180
0 219 178
0 219 179
0 220 180
0 221 180
0 222 181
0 220 179
0 222 180
0 220 180
0 221 180
0 220 179
0 220 180
0 221 180
0 221 181
0 220 180
0 222 181
0 221 181
0 220 180
0 221 181
0 222 181
0 221 181
0 221 180
0 221 181
0 220 181
0 221 181
0 221 181
0 219 179
0 222 181
0 220 179
0 221 180
0 220 181
0 219 180
0 220 180
0 221 181
0 222 181
0 220 181
0 221 181
0 221 181
0 221 181
0 221 181
0 221 181
0 222 181
0 222 181
0 221 181
0 221 180
0 221 179
0 221 180
0 222 181
0 221 181
0 220 180
0 222 181
0 220 181
0 221 181
0 221 181
0 222 181
0 222 181
0 222 181
0 218 179
0 222 181
0 222 181
0 221 181
0 221 181
0 219 179
0 221 181
0 221 181
0 222 181
0 220 179
0 220 179
0 221 180
0 221 181
0 221 181
0 221 180
0 222 181
0 221 181
0 221 181
0 222 181
0 222 181
0 222 181
0 221 181
0 221 181
0 221 181
0 221 181
0 220 181
0 221 181
0 221 181
0 221 181
0 220 181
0 221 181
0 221 181
0 221 180
0 222 181
0 222 181
0 222 181
0 220 179
0 220 180
0 221 181
0 220 180
0 221 181
0 220 179
0 220 180
0 220 180
0 222 181
0 221 181
0 221 181
0 221 181
0 221 181
0 220 181
0 221 181
0 221 180
0 221 181
0 221 181
0 221 181
0 221 181
0 220 181
0 222 181
0 221 181
0 221 181
0 222 181
0 222 181
0 220 180
0 221 181
0 221 181
0 220 180
0 221 181
0 221 181
0 221 181
0 222 181
0 221 181
0 222 181
0 220 181
0 221 181
0 221 181
0 221 181
0 222 181
0 221 181
0 221 181
0 221 181
0 221 181
0 221 181
0 221 181
0 222 181
0 221 181
0 221 181
0 222 181
0 221 181
0 221 181
0 221 181
0 222 181
0 221 181
0 220 180
0 221 181
0 220 180
0 222 181
0 220 181
0 222 181
0 222 181
0 221 180
0 221 181
0 220 181
0 221 181
0 220 181
0 221 181
0 221 181
0 221 181
0 220 180
0 222 181
0 221 180
0 221 181
0 221 181
0 221 181
0 221 181
0 221 181
0 221 181
0 221 181
0 219 179
0 220 181
0 221 181
0 222 181
0 221 181
0 221 181
0 220 181
0 221 181
0 221 181
0 221 181
0 221 181
0 221 181
0 222 181
0 220 181
0 222 180
0 221 181
0 221 181
0 221 181
0 221 181
0 221 180
0 221 181
0 220 180
0 218 178
0 220 180
0 221 180
0 220 180
0 222 181
0 220 181
0 220 180
0 221 181
0 220 180
0 221 181
0 220 181
0 221 181
0 219 180
0 221 181
0 221 180
0 221 180
0 220 180
0 221 180
0 222 180
0 221 181
0 220 180
0 222 180
0 220 180
0 222 181
0 219 180
0 221 180
0 220 180
0 220 181
0 220 180
0 218 178
0 220 180
0 221 181
0 220 179
0 219 180
0 220 180
0 221 181
0 218 179
0 220 180
0 220 180
0 220 180
0 219 179
0 221 180
0 221 181
0 222 181
0 220 180
0 218 178
0 219 179
0 219 180
0 220 180
0 219 179
0 221 181
0 220 180
0 220 180
0 219 179
0 220 181
0 222 180
0 219 178
0 220 180
0 218 178
0 219 179
0 220 180
0 219 179
0 221 180
0 220 180
0 219 179
0 219 179
0 217 177
0 218 179
0 219 179
0 220 179
0 221 180
0 218 178
0 217 178
0 217 178
0 217 178
0 221 180
0 220 180
0 222 181
0 221 180
0 214 176
0 222 181
0 217 178
0 219 180
0 219 179
0 220 179
0 217 178
0 218 179
0 219 179
0 219 179
0 218 178
0 220 179
0 221 181
0 219 179
0 218 178
0 218 179
0 216 178
0 217 178
0 220 179
0 218 178
0 219 178
0 216 178
0 218 179
0 220 180
0 217 177
0 219 179
0 219 179
0 217 177
0 219 179
0 219 178
0 217 178
0 216 176
0 218 177
0 217 179
0 221 180
0 216 178
0 219 179
0 218 178
0 218 179
0 217 179
0 216 178
0 218 178
0 216 177
0 220 181
0 219 180
0 219 179
0 217 178
0 218 178
0 218 178
0 218 178
0 217 177
0 220 179
0 218 179
0 217 177
0 218 178
0 217 178
0 220 180
0 220 179
0 219 177
0 218 179
0 218 178
0 219 179
0 219 179
0 221 180
0 218 178
0 221 179
0 220 180
0 218 177
0 217 177
0 220 180
0 220 180
0 217 178
0 218 178
0 218 179
0 217 178
0 221 180
0 221 181
0 220 180
0 218 177
0 219 179
0 219 180
0 218 179
0 220 180
0 218 177
0 219 179
0 220 179
0 221 181
0 219 180
0 219 179
0 220 180
0 220 179
0 221 181
0 221 181
0 220 179
0 217 176
0 220 180
0 221 180
0 219 179
0 219 178
0 221 181
0 221 180
0 219 180
0 218 179
0 219 179
0 222 180
0 221 180
0 219 179
0 221 180
0 220 180
0 221 180
0 222 181
0 221 181
0 220 179
0 222 181
0 220 179
0 219 179
0 220 180
0 221 179
0 220 179
0 221 181
0 220 180
0 220 180
0 221 181
0 217 178
0 221 180
0 221 181
0 221 181
0 220 180
0 221 180
0 219 178
0 221 181
0 220 178
0 219 179
0 222 181
0 221 180
0 221 181
0 221 180
0 218 178
0 221 181
0 220 179
0 221 181
0 220 180
0 221 181
0 221 181
0 221 181
0 221 180
0 220 180
0 220 180
0 219 180
0 220 181
0 221 181
0 221 181
0 220 180
0 221 181
0 220 180
0 220 178
0 221 181
0 220 180
0 222 181
0 221 181
0 221 180
0 220 180
0 221 180
0 220 180
0 221 180
0 221 181
0 221 181
0 221 181
0 220 180
0 220 181
0 220 181
0 222 181
0 221 181
0 221 181
0 219 180
0 222 181
0 221 180
0 221 180
0 221 181
0 221 181
0 222 181
0 221 181
0 221 181
0 221 180
0 220 180
0 222 181
0 221 180
0 221 181
0 221 181
0 219 179
0 220 180
0 221 181
0 220 181
0 220 181
0 221 180
0 220 181
0 221 180
0 220 180
0 221 180
0 221 181
0 221 181
0 222 181
0 221 181
0 221 181
0 221 181
0 221 181
0 220 180
0 220 180
0 221 180
0 220 180
0 221 181
0 221 180
0 221 181
0 222 181
0 221 181
0 221 180
0 222 181
0 220 179
0 221 181
0 221 181
0 221 181
0 221 181
0 222 181
0 221 181
0 222 181
0 222 181
0 221 181
0 221 181
0 221 181
0 220 181
0 223 181
0 221 181
0 221 181
0 221 181
0 220 181
0 220 181
0 221 181
0 222 181
0 222 181
0 222 181
0 222 181
0 222 181
0 221 181
0 222 181
0 221 181
0 221 181
0 221 181
0 221 181
0 221 181
0 221 181
0 221 180
0 221 181
0 221 181
0 222 181
0 220 181
0 221 181
0 221 181
0 222 181
0 222 181
0 221 181
0 221 181
0 221 181
0 220 181
0 222 181
0 221 181
0 220 180
0 221 181
0 221 181
0 222 181
0 221 181
0 222 181
0 220 181
0 220 180
0 219 179
0 222 181
0 221 181
0 222 181
0 220 181
0 222 181
0 220 181
0 223 181
0 221 180
0 221 181
0 221 181
0 223 181
0 221 181
0 222 181
0 221 181
0 221 181
0 221 181
0 219 180
0 220 181
0 221 181
0 221 181
0 219 180
0 221 181
0 221 180
0 221 181
0 222 181
0 221 181
0 221 181
0 222 181
0 222 181
0 221 181
0 221 180
0 221 181
0 221 180
0 222 181
0 221 181
0 221 181
0 219 179
0 221 181
0 220 180
0 221 181
0 220 180
0 222 181
0 220 180
0 219 179
0 220 181
0 221 181
0 220 180
0 221 180
0 221 180
0 221 181
0 221 180
0 220 180
0 221 181
0 220 180
0 220 180
0 221 181
0 221 180
0 221 181
0 222 181
0 218 178
0 220 180
0 222 181
0 222 181
0 219 179
0 222 181
0 219 180
0 221 181
0 220 181
0 221 181
0 220 180
0 221 181
0 220 180
0 222 181
0 221 181
0 221 181
0 221 181
0 221 181
0 221 180
0 221 180
0 219 179
0 220 181
0 221 181
0 217 178
0 221 180
0 221 181
0 220 180
0 220 180
0 219 179
0 222 180
0 221 180
0 218 178
0 221 181
0 220 180
0 221 180
0 221 179
0 221 181
0 221 180
0 220 181
0 216 177
0 221 180
0 222 181
0 221 181
0 220 181
0 217 178
0 220 179
0 218 178
0 220 180
0 219 178
0 221 181
0 221 180
0 222 181
0 219 179
0 221 181
0 219 179
0 220 180
0 220 180
0 217 178
0 221 179
0 218 178
0 219 179
0 220 178
0 220 180
0 221 179
0 221 180
0 218 178
0 219 178
0 219 178
0 216 177
0 219 179
0 218 177
0 217 178
0 219 179
0 216 177
0 218 178
0 217 177
0 218 178
0 218 178
0 220 180
0 221 181
0 218 178
0 218 178
0 218 178
0 219 179
0 219 177
0 217 177
0 216 176
0 215 177
0 215 176
0 216 177
0 217 177
0 219 179
0 219 179
0 215 176
0 217 178
0 218 178
0 216 176
0 218 178
0 218 179
0 218 179
0 219 178
0 218 178
0 212 175
0 217 178
0 219 180
0 218 178
0 220 180
0 218 178
0 217 177
0 216 178
0 216 176
0 219 179
0 221 180
0 215 176
0 217 178
0 216 178
0 219 179
0 221 180
0 219 178
0 218 177
0 214 176
0 218 178
0 221 180
0 221 179
0 215 176
0 216 177
0 219 177
0 219 178
0 219 179
0 219 179
0 219 179
0 220 179
0 219 179
0 218 179
0 219 178
0 219 179
0 219 178
0 219 179
0 218 177
0 220 180
0 216 176
0 218 178
0 217 178
0 219 179
0 220 180
0 219 179
0 220 180
0 216 178
0 219 179
0 219 179
0 220 178
0 219 179
0 219 179
0 220 180
0 219 180
0 219 178
0 220 180
0 219 178
0 219 180
0 220 178
0 220 179
0 216 177
0 219 179
0 217 178
0 221 181
0 221 181
0 220 180
0 220 180
0 219 179
0 221 180
0 220 180
0 219 178
0 220 180
0 221 179
0 220 179
0 218 179
0 221 180
0 219 179
0 220 180
0 219 180
0 218 176
0 220 179
0 218 178
0 220 180
0 218 179
0 219 178
0 220 181
0 221 181
0 220 180
0 220 180
0 220 181
0 219 179
0 219 179
0 220 180
0 220 180
0 221 181
0 221 180
0 221 181
0 219 180
0 221 181
0 221 180
0 220 179
0 218 179
0 220 179
0 221 181
0 220 180
0 219 179
0 221 181
0 222 180
0 221 181
0 222 181
0 220 180
0 221 181
0 221 180
0 221 180
0 221 180
0 221 181
0 221 181
0 221 181
0 220 180
0 221 181
0 218 177
0 221 181
0 221 181
0 220 180
0 220 179
0 221 180
0 221 181
0 219 180
0 220 179
0 219 180
0 220 179
0 222 180
0 222 181
0 219 179
0 220 180
0 221 181
0 221 181
0 221 180
0 220 180
0 220 179
0 220 180
0 221 181
0 221 181
0 222 181
0 221 181
0 221 181
0 222 181
0 221 181
0 221 181
0 221 181
0 221 181
0 220 180
0 220 179
0 219 179
0 221 181
0 221 180
0 221 180
0 221 181
0 221 181
0 221 181
0 222 181
0 221 181
0 221 181
0 221 181
0 222 181
0 221 181
0 222 181
0 221 180
0 222 181
0 220 181
0 221 181
0 222 181
0 221 181
0 222 181
0 220 179
0 221 181
0 221 181
0 222 181
0 220 180
0 221 181
0 221 181
0 221 181
0 220 181
0 222 181
0 221 181
0 221 181
0 222 181
0 222 181
0 221 181
0 221 180
0 221 181
0 221 181
0 222 181
0 222 181
0 220 180
0 221 181
0 221 181
0 221 181
0 222 181
0 222 181
0 222 181
0 221 181
0 221 181
0 221 181
0 221 181
0 219 180
0 220 181
0 221 181
0 222 181
0 222 181
0 221 181
0 220 181
0 222 181
0 220 180
0 221 181
0 221 181
0 221 181
0 222 181
0 221 181
0 221 181
0 220 180
0 221 181
0 221 181
0 221 181
0 222 181
0 222 181
0 221 181
0 221 181
0 222 181
0 221 181
0 221 181
0 222 181
0 220 181
0 222 181
0 221 181
0 220 181
0 220 180
0 221 181
0 223 181
0 221 181
0 221 181
0 221 181
0 222 181
0 221 181
0 221 181
0 222 181
0 221 181
0 221 181
0 221 181
0 221 181
0 221 180
0 220 181
0 221 180
0 221 181
0 221 181
0 221 181
0 221 181
0 221 181
0 221 181
0 221 181
0 221 180
0 221 181
0 221 181
0 220 180
0 221 180
0 221 180
0 221 180
0 220 180
0 221 180
0 222 181
0 222 181
0 219 180
0 221 181
0 220 180
0 219 180
0 220 180
0 221 181
0 220 179
0 221 181
0 222 181
0 220 180
0 221 181
0 221 181
0 220 180
0 221 181
0 221 181
0 221 181
0 219 179
0 220 180
0 220 180
0 221 181
0 220 180
0 221 180
0 221 181
0 220 180
0 220 181
0 221 180
0 220 179
0 221 180
0 222 180
0 221 180
0 221 180
0 221 181
0 222 181
0 221 181
0 220 180
0 218 179
0 221 180
0 221 181
0 220 181
0 219 180
0 222 180
0 221 181
0 221 181
0 220 180
0 220 179
0 219 179
0 220 180
0 221 181
0 220 180
0 219 179
0 221 181
0 222 181
0 219 181
0 220 179
0 218 179
0 221 180
0 220 180
0 221 181
0 220 181
0 221 181
0 220 180
0 218 179
0 220 179
0 220 179
0 219 179
0 219 179
0 220 180
0 218 179
0 220 179
0 219 178
0 218 179
0 222 179
0 219 179
0 221 181
0 220 179
0 221 179
0 221 180
0 219 179
0 221 181
0 219 179
0 219 179
0 221 180
0 220 180
0 220 180
0 220 179
0 221 180
0 219 178
0 221 180
0 219 179
0 219 179
0 218 178
0 220 180
0 220 179
0 216 177
0 215 176
0 220 180
0 221 179
0 216 177
0 220 179
0 216 177
0 221 180
0 218 178
0 220 180
0 219 179
0 216 176
0 220 180
0 217 177
0 221 180
0 219 180
0 219 179
0 216 176
0 216 178
0 217 178
0 217 178
0 219 180
0 215 177
0 218 179
0 216 178
0 216 177
0 219 179
0 217 177
0 219 179
0 215 174
0 217 176
0 215 174
0 217 177
0 219 178
0 214 175
0 218 178
0 218 178
0 218 177
0 217 178
0 217 177
0 218 178
0 217 178
0 218 178
0 218 178
0 218 179
0 217 178
0 217 177
0 215 177
0 218 178
0 216 178
0 219 179
0 217 178
0 218 178
0 218 178
0 217 176
0 218 178
0 220 179
0 217 177
0 218 178
0 222 181
0 219 180
0 218 179
0 218 179
0 220 180
0 218 179
0 218 178
0 219 180
0 219 179
0 219 179
0 218 178
0 219 179
0 218 178
0 220 179
0 220 179
0 219 179
0 220 180
0 220 179
0 216 176
0 219 179
0 218 177
0 218 178
0 220 179
0 219 179
0 219 178
0 221 181
0 221 180
0 220 179
0 219 179
0 217 177
0 218 178
0 221 179
0 222 179
0 221 181
0 221 180
0 220 179
0 219 179
0 220 179
0 220 179
0 219 178
0 218 179
0 219 178
0 218 177
0 219 179
0 221 181
0 220 180
0 220 179
0 220 180
0 217 176
0 220 180
0 220 178
0 220 180
0 220 179
0 220 179
0 220 178
0 221 180
0 219 180
0 221 180
0 219 178
0 220 180
0 219 179
0 221 181
0 221 180
0 219 180
0 221 180
0 220 180
0 221 181
0 221 181
0 221 181
0 221 181
0 221 181
0 220 180
0 220 180
0 221 180
0 222 181
0 221 180
0 221 181
0 221 181
0 220 180
0 219 179
0 221 180
0 222 181
0 220 180
0 222 181
0 221 180
0 221 180
0 220 181
0 221 180
0 221 181
0 222 181
0 220 180
0 222 181
0 220 181
0 221 180
0 221 180
0 221 180
0 221 180
0 222 181
0 221 180
0 221 181
0 219 179
0 220 181
0 221 181
0 222 181
0 221 181
0 222 181
0 221 181
0 221 181
0 221 180
0 220 181
0 221 181
0 221 180
0 221 180
0 221 180
0 221 181
0 220 180
0 221 181
0 221 181
0 220 181
0 221 181
0 221 181
0 221 181
0 220 180
0 220 180
0 221 180
0 221 181
0 222 181
0 222 179
0 221 181
0 221 181
0 221 181
0 221 180
0 221 181
0 221 180
0 221 181
0 221 181
0 221 181
0 221 181
0 221 181
0 220 180
0 222 181
0 220 181
0 220 179
0 221 181
0 221 181
0 222 181
0 221 181
0 221 181
0 221 181
0 222 181
0 221 181
0 221 181
0 220 181
0 221 181
0 221 181
0 221 181
0 222 181
0 221 181
0 222 181
0 221 181
0 221 181
0 221 181
0 221 181
0 221 181
0 222 181
0 220 180
0 222 181
0 222 181
0 221 181
0 221 181
0 221 181
0 222 181
0 220 181
0 221 181
0 221 181
0 221 181
0 222 181
0 220 181
0 222 181
0 221 181
0 221 181
0 221 180
0 220 181
0 220 181
0 222 181
0 222 181
0 221 181
0 223 181
0 222 181
0 222 181
0 222 181
0 221 181
0 221 181
0 221 181
0 221 181
0 221 181
0 221 181
0 221 181
0 221 181
0 221 181
0 221 181
0 220 180
0 221 181
0 222 181
0 221 181
0 221 181
0 222 181
0 221 181
0 221 181
0 222 180
0 220 181
0 221 181
0 222 181
0 221 181
0 221 181
0 221 181
0 221 180
0 220 180
0 219 180
0 221 181
0 221 181
0 222 181
0 221 181
0 222 181
0 221 181
0 220 180
0 222 181
0 222 181
0 220 180
0 221 181
0 219 180
0 219 180
0 220 181
0 220 180
0 220 180
0 221 181
0 222 181
0 220 180
0 221 181
0 222 181
0 222 181
0 221 181
0 220 180
0 222 181
0 221 181
0 221 181
0 221 181
0 220 180
0 220 180
0 220 181
0 221 181
0 221 181
0 221 181
0 221 181
0 221 180
0 221 181
0 220 181
0 221 181
0 221 180
0 222 181
0 221 181
0 222 181
0 221 181
0 220 180
0 221 181
0 219 180
0 221 180
0 221 181
0 220 180
0 220 180
0 220 180
0 220 181
0 221 180
0 219 179
0 222 181
0 221 181
0 220 180
0 221 180
0 220 180
0 221 180
0 221 180
0 221 181
0 221 180
0 220 180
0 220 180
0 222 180
0 221 181
0 221 181
0 220 181
0 221 180
0 220 179
0 221 181
0 220 180
0 222 181
0 220 180
0 220 180
0 221 181
0 221 181
0 222 180
0 221 181
0 220 179
0 220 180
0 218 179
0 221 181
0 221 181
0 220 180
0 217 179
0 219 178
0 222 181
0 218 180
0 220 180
0 220 180
0 222 181
0 219 179
0 221 181
0 220 180
0 221 181
0 218 178
0 221 181
0 219 179
0 221 181
0 221 181
0 220 179
0 218 178
0 221 181
0 218 179
0 221 180
0 219 179
0 221 181
0 217 175
0 220 179
0 219 178
0 220 178
0 220 179
0 219 179
0 221 180
0 219 179
0 219 179
0 216 175
0 219 179
0 218 179
0 216 177
0 220 179
0 220 179
0 219 179
0 218 178
0 217 177
0 217 177
0 219 178
0 219 179
0 220 179
0 219 180
0 218 178
0 219 179
0 220 179
0 219 179
0 216 176
0 220 180
0 220 179
0 216 177
0 218 179
0 216 176
0 220 179
0 216 176
0 219 178
0 217 177
0 218 178
0 217 178
0 216 177
0 216 177
0 216 177
0 220 180
0 218 177
0 219 179
0 213 174
0 220 180
0 216 178
0 216 177
0 219 179
0 220 179
0 217 178
0 218 178
0 213 174
0 217 179
0 217 178
0 220 179
0 215 176
0 215 176
0 218 178
0 219 179
0 217 178
0 216 176
0 220 179
0 217 177
0 218 178
0 218 178
0 217 176
0 220 180
0 218 179
0 218 178
0 216 177
0 218 179
0 218 178
0 219 179
0 218 178
0 219 179
0 219 178
0 221 180
0 219 178
0 218 177
0 217 177
0 218 178
0 218 179
0 217 178
0 219 179
0 219 178
0 220 179
0 221 179
0 220 180
0 220 180
0 221 180
0 221 181
0 217 178
0 219 178
0 216 177
0 219 178
0 221 180
0 219 178
0 219 180
0 218 178
0 220 179
0 221 181
0 220 179
0 221 181
0 218 178
0 220 179
0 220 180
0 218 178
0 220 180
0 219 180
0 215 176
0 219 179
0 220 180
0 218 179
0 220 179
0 219 179
0 220 180
0 220 181
0 221 181
0 217 178
0 218 177
0 218 179
0 219 180
0 220 180
0 220 179
0 220 179
0 220 180
0 220 180
0 221 181
0 220 180
0 219 179
0 220 180
0 220 179
0 219 179
0 219 180
0 222 181
0 221 181
0 218 178
0 220 180
0 220 180
0 222 181
0 219 180
0 219 180
0 220 180
0 220 180
0 222 181
0 221 181
0 222 181
0 221 180
0 220 179
0 221 181
0 220 180
0 220 180
0 221 181
0 220 180
0 221 180
0 220 180
0 221 180
0 221 181
0 221 181
0 222 181
0 220 180
0 221 181
0 221 181
0 221 181
0 220 179
0 221 181
0 220 180
0 220 179
0 221 180
0 221 181
0 220 181
0 220 181
0 221 181
0 221 180
0 220 180
0 221 180
0 222 181
0 221 181
0 220 180
0 220 181
0 221 181
0 221 181
0 221 181
0 221 181
0 221 181
0 220 181
0 221 181
0 221 181
0 221 181
0 219 179
0 221 181
0 221 181
0 221 181
0 220 180
0 221 181
0 222 181
0 222 181
0 221 181
0 220 180
0 222 181
0 221 180
0 220 179
0 220 181
0 221 181
0 220 180
0 221 180
0 222 181
0 222 181
0 221 181
0 221 181
0 222 181
0 221 181
0 220 181
0 222 181
0 221 181
0 221 181
0 221 181
0 220 180
0 223 181
0 221 181
0 222 181
0 221 181
0 221 181
0 221 181
0 220 180
0 221 181
0 221 180
0 221 181
0 220 181
0 221 180
0 222 181
0 222 181
0 221 180
0 221 181
0 221 181
0 221 181
0 220 181
0 222 181
0 222 181
0 221 181
0 221 181
0 221 181
0 221 181
0 222 181
0 220 180
0 221 181
0 221 180
0 221 181
0 220 180
0 221 181
0 221 181
0 221 181
0 220 181
0 223 181
0 223 181
0 222 181
0 221 181
0 221 181
0 221 181
0 221 181
0 220 180
0 221 181
0 222 181
0 221 181
0 221 181
0 221 181
0 222 180
0 221 181
0 221 181
0 221 181
0 220 180
0 222 181
0 221 180
0 222 181
0 222 181
0 220 180
0 221 181
0 221 181
0 221 181
0 221 181
0 221 181
0 221 181
0 221 181
0 221 181
0 221 181
0 221 181
0 221 181
0 220 180
0 221 181
0 220 181
0 222 181
0 221 180
0 221 181
0 221 181
0 221 181
0 221 180
0 221 181
0 221 181
0 222 181
0 222 181
0 222 181
0 221 181
0 221 181
0 221 181
0 219 180
0 221 181
0 221 181
0 222 181
0 222 181
0 221 181
0 222 181
0 221 180
0 219 180
0 220 180
0 221 181
0 221 181
0 221 180
0 222 181
0 220 180
0 221 181
0 221 181
0 220 180
0 221 181
0 222 181
0 222 181
0 222 181
0 220 180
0 221 181
0 220 180
0 221 181
0 222 181
0 219 179
0 220 180
0 222 181
0 220 180
0 222 181
0 221 181
0 221 181
0 220 180
0 220 181
0 221 180
0 221 181
0 219 180
0 220 180
0 222 180
0 222 181
0 221 180
0 221 181
0 221 181
0 220 180
0 221 181
0 221 180
0 220 180
0 221 181
0 221 181
0 220 180
0 221 180
0 221 181
0 220 180
0 220 180
0 220 179
0 221 181
0 221 180
0 221 181
0 220 179
0 219 180
0 221 180
0 220 180
0 220 180
0 221 181
0 221 181
0 220 181
0 221 180
0 220 180
0 221 181
0 219 179
0 218 178
0 219 179
0 219 179
0 221 179
0 220 180
0 221 180
0 220 179
0 220 178
0 221 181
0 219 179
0 220 179
0 218 178
0 218 178
0 220 180
0 220 180
0 219 178
0 221 180
0 220 179
0 221 180
0 219 179
0 219 178
0 218 179
0 217 178
0 219 179
0 220 178
0 222 181
0 220 180
0 220 178
0 220 179
0 221 179
0 219 179
0 220 178
0 218 178
0 219 177
0 217 177
0 220 180
0 216 177
0 218 179
0 219 179
0 220 179
0 220 180
0 219 180
0 220 179
0 215 176
0 219 179
0 218 177
0 220 179
0 217 177
0 217 178
0 215 177
0 217 178
0 215 177
0 216 177
0 217 177
0 216 176
0 217 177
0 216 178
0 217 178
0 217 178
0 214 177
0 213 174
0 215 177
0 218 178
0 216 176
0 219 178
0 216 176
0 218 178
0 218 178
0 218 178
0 216 177
0 220 180
0 218 178
0 216 176
0 217 177
0 219 179
0 215 176
0 219 180
0 215 176
0 218 178
0 217 177
0 217 176
0 216 176
0 213 174
0 217 178
0 216 179
0 218 178
0 213 176
0 218 179
0 217 177
0 220 179
0 218 178
0 223 181
0 219 178
0 217 178
0 216 176
0 217 179
0 219 179
0 220 180
0 217 178
0 221 181
0 220 179
0 219 179
0 218 177
0 218 178
0 218 179
0 218 178
0 220 179
0 217 178
0 218 178
0 218 179
0 219 180
0 218 177
0 221 180
0 220 179
0 217 177
0 217 177
0 215 176
0 219 178
0 217 178
0 216 176
0 217 178
0 215 176
0 220 179
0 220 179
0 219 179
0 220 180
0 220 180
0 220 181
0 220 179
0 219 179
0 222 181
0 219 179
0 220 180
0 220 179
0 219 179
0 220 180
0 220 180
0 218 178
0 218 178
0 219 179
0 220 178
0 220 178
0 221 181
0 218 177
0 219 179
0 222 181
0 221 180
0 219 179
0 219 177
0 221 181
0 220 180
0 220 180
0 221 181
0 220 179
0 221 180
0 220 180
0 218 178
0 220 180
0 221 180
0 220 180
0 221 179
0 220 180
0 220 180
0 220 181
0 219 179
0 222 181
0 220 180
0 220 179
0 222 181
0 221 181
0 222 181
0 221 181
0 221 180
0 221 181
0 220 180
0 220 180
0 221 181
0 221 180
0 221 181
0 220 180
0 219 178
0 221 181
0 222 180
0 220 179
0 221 180
0 220 179
0 222 180
0 220 181
0 220 180
0 219 179
0 221 181
0 220 181
0 221 181
0 220 180
0 219 180
0 222 181
0 221 181
0 220 181
0 220 180
0 221 181
0 222 181
0 222 181
0 222 181
0 221 181
0 221 181
0 221 181
0 221 181
0 220 181
0 221 181
0 222 180
0 220 180
0 220 180
0 222 181
0 222 181
0 221 181
0 221 181
0 221 181
0 221 181
0 220 181
0 221 180
0 220 180
0 221 181
0 221 181
0 220 181
0 220 180
0 221 181
0 223 181
0 221 181
0 222 181
0 220 181
0 221 181
0 221 181
0 222 181
0 221 181
0 221 181
0 220 181
0 221 181
0 221 181
0 221 181
0 221 180
0 220 180
0 221 181
0 222 181
0 221 181
0 221 181
0 221 181
0 221 181
0 220 180
0 221 181
0 221 181
0 221 181
0 221 181
0 221 181
0 221 181
0 221 181
0 222 181
0 221 181
0 222 181
0 222 181
0 221 181
0 220 181
0 221 181
0 220 181
0 222 181
0 221 181
0 221 181
0 221 181
0 221 181
0 220 181
0 222 181
0 221 181
0 222 181
0 221 181
0 222 181
0 221 181
0 221 181
0 221 181
0 221 181
0 222 181
0 220 181
0 221 181
0 221 181
0 220 180
0 222 181
0 220 181
0 221 181
0 220 180
0 221 181
0 222 181
0 221 180
0 222 181
0 220 180
0 221 181
0 221 181
0 220 179
0 221 181
0 222 181
0 222 181
0 221 181
0 221 180
0 221 181
0 222 181
0 221 181
0 221 181
0 222 181
0 221 181
0 221 181
0 222 181
0 221 181
0 222 181
0 221 181
0 222 181
0 220 180
0 221 181
0 221 180
0 221 181
0 222 181
0 221 181
0 221 181
0 221 181
0 221 181
0 221 181
0 221 181
0 221 181
0 220 180
0 221 181
0 221 181
0 222 181
0 220 180
0 221 181
0 222 181
0 222 181
0 220 181
0 221 180
0 222 181
0 221 181
0 221 180
0 219 179
0 221 181
0 221 180
0 220 181
0 221 181
0 221 181
0 221 181
0 221 181
0 221 181
0 221 181
0 222 181
0 220 179
0 221 181
0 220 180
0 220 179
0 222 181
0 221 180
0 221 181
0 220 180
0 221 181
0 221 180
0 219 180
0 219 179
0 221 181
0 220 180
0 221 181
0 221 181
0 221 180
0 219 179
0 222 181
0 219 179
0 221 181
0 220 180
0 220 180
0 221 180
0 221 181
0 221 180
0 220 181
0 221 181
0 221 181
0 219 179
0 219 179
0 220 180
0 220 180
0 221 181
0 220 180
0 220 180
0 221 181
0 221 180
0 222 181
0 220 180
0 219 179
0 221 181
0 220 181
0 220 180
0 220 178
0 218 178
0 220 179
0 221 181
0 220 181
0 221 181
0 220 179
0 220 179
0 222 181
0 221 181
0 222 181
0 220 180
0 220 180
0 220 179
0 222 180
0 221 180
0 220 181
0 220 180
0 218 178
0 222 180
0 218 179
0 217 178
0 222 180
0 219 180
0 220 180
0 219 179
0 220 180
0 217 177
0 221 180
0 221 180
0 219 178
0 220 180
0 218 177
0 219 179
0 219 178
0 214 176
0 221 181
0 218 178
0 220 179
0 220 178
0 220 179
0 221 178
0 219 178
0 219 178
0 217 178
0 219 179
0 221 180
0 216 178
0 218 178
0 220 179
0 215 175
0 217 178
0 217 177
0 218 178
0 218 178
0 219 180
0 219 179
0 218 176
0 219 178
0 218 178
0 219 179
0 218 178
0 218 178
0 215 177
0 219 180
0 218 178
0 216 178
0 216 177
0 218 179
0 213 176
0 216 176
0 216 177
0 213 176
0 220 180
0 217 178
0 216 177
0 217 176
0 217 178
0 219 179
0 219 179
0 217 178
0 219 179
0 217 179
0 220 179
0 216 176
0 216 178
0 216 177
0 220 180
0 217 178
0 219 179
0 215 177
0 216 177
0 215 177
0 217 177
0 220 180
0 216 175
0 216 178
0 214 176
0 217 177
0 217 177
0 215 176
0 216 177
0 216 178
0 216 177
0 218 178
0 220 179
0 217 178
0 218 178
0 220 179
0 217 178
0 217 177
0 221 181
0 219 178
0 217 176
0 221 179
0 221 180
0 220 179
0 218 178
0 220 179
0 219 179
0 218 177
0 220 179
0 217 176
0 220 179
0 218 177
0 220 180
0 221 180
0 219 179
0 219 179
0 221 181
0 219 179
0 221 181
0 218 178
0 219 179
0 222 181
0 221 179
0 218 178
0 219 179
0 221 180
0 220 180
0 220 181
0 222 181
0 221 181
0 219 178
0 217 177
0 216 177
0 219 180
0 221 181
0 220 180
0 220 178
0 220 180
0 220 180
0 219 179
0 221 181
0 220 180
0 220 180
0 220 179
0 221 180
0 221 180
0 220 179
0 220 180
0 219 179
0 221 180
0 221 181
0 221 181
0 220 181
0 217 178
0 220 180
0 221 181
0 221 181
0 220 179
0 221 180
0 221 180
0 220 180
0 220 180
0 221 181
0 222 181
0 221 180
0 220 181
0 221 181
0 221 181
0 221 180
0 222 181
0 221 180
0 221 181
0 219 180
0 221 181
0 221 181
0 221 180
0 221 180
0 220 180
0 218 179
0 221 180
0 221 181
0 220 179
0 220 180
0 221 181
0 220 180
0 221 180
0 222 181
0 222 181
0 221 181
0 221 180
0 221 180
0 221 181
0 220 181
0 221 181
0 221 179
0 221 179
0 219 179
0 221 181
0 221 181
0 222 181
0 219 180
0 221 181
0 220 179
0 221 181
0 221 181
0 222 181
0 222 181
0 221 181
0 220 179
0 222 181
0 221 180
0 221 181
0 221 181
0 221 181
0 220 180
0 221 181
0 221 181
0 222 181
0 222 181
0 222 181
0 221 181
0 221 181
0 221 181
0 221 181
0 221 181
0 221 181
0 221 181
0 222 180
0 221 181
0 222 181
0 221 181
0 221 181
0 221 181
0 221 181
0 221 180
0 221 181
0 221 181
0 221 181
0 222 181
0 221 181
0 221 181
0 221 181
0 222 180
0 221 180
0 221 180
0 220 181
0 222 181
0 221 181
0 221 180
0 221 181
0 221 180
0 222 181
0 221 181
0 221 181
0 222 181
0 221 181
0 220 181
0 222 181
0 220 180
0 222 181
0 222 181
0 221 181
0 222 181
0 221 181
0 221 181
0 220 181
0 221 181
0 222 181
0 221 181
0 221 181
0 221 181
0 222 181
0 221 181
0 220 180
0 221 181
0 221 181
0 222 181
0 222 181
0 221 181
0 221 181
0 221 181
0 221 181
0 221 181
0 221 181
0 219 179
0 221 181
0 221 180
0 220 180
0 221 181
0 221 181
0 221 181
0 222 181
0 221 181
0 222 181
0 221 181
0 222 181
0 221 181
0 221 181
0 221 181
0 220 181
0 221 181
0 220 180
0 220 181
0 220 180
0 221 181
0 220 180
0 221 181
0 220 180
0 221 181
0 222 181
0 220 180
0 221 181
0 221 181
0 221 181
0 220 180
0 221 181
0 222 181
0 222 181
0 220 180
0 221 181
0 221 181
0 221 181
0 220 181
0 222 181
0 221 181
0 221 181
0 221 181
0 220 180
0 220 180
0 221 181
0 220 181
0 222 181
0 221 180
0 222 181
0 221 181
0 221 181
0 222 181
0 221 181
0 220 180
0 219 180
0 220 180
0 222 181
0 221 181
0 220 180
0 221 181
0 220 180
0 220 181
0 222 181
0 220 180
0 221 180
0 220 181
0 220 180
0 221 181
0 221 181
0 222 181
0 220 180
0 221 180
0 220 181
0 222 181
0 221 180
0 220 180
0 220 180
0 220 181
0 220 180
0 222 181
0 221 181
0 220 180
0 222 181
0 219 179
0 222 181
0 221 180
0 221 181
0 220 181
0 221 180
0 218 179
0 222 180
0 222 180
0 221 181
0 222 181
0 220 180
0 221 181
0 221 179
0 219 179
0 221 181
0 220 179
0 220 179
0 221 181
0 220 180
0 221 180
0 219 180
0 219 180
0 220 180
0 221 181
0 219 180
0 221 181
0 220 180
0 219 178
0 221 181
0 221 181
0 220 180
0 220 180
0 217 179
0 221 181
0 220 179
0 220 180
0 221 179
0 220 180
0 220 179
0 219 179
0 220 179
0 220 180
0 222 180
0 219 177
0 218 179
0 220 178
0 219 179
0 220 178
0 221 179
0 220 181
0 222 181
0 220 179
0 218 177
0 220 180
0 219 177
0 219 177
0 218 178
0 220 180
0 219 178
0 220 179
0 219 178
0 221 179
0 218 178
0 218 178
0 219 179
0 218 178
0 217 177
0 219 179
0 216 177
0 217 177
0 220 179
0 220 179
0 219 178
0 219 178
0 212 174
0 216 176
0 217 178
0 214 176
0 216 178
0 215 177
0 219 177
0 220 179
0 217 178
0 218 178
0 218 178
0 218 177
0 219 178
0 216 178
0 219 179
0 217 176
0 218 178
0 214 173
0 214 176
0 211 172
0 217 178
0 215 176
0 214 176
0 215 176
0 216 178
0 219 179
0 218 178
0 217 177
0 215 175
0 215 176
0 213 176
0 219 178
0 219 179
0 217 177
0 214 176
0 214 176
0 219 180
0 218 178
0 216 176
0 215 176
0 216 177
0 213 176
0 212 174
0 217 178
0 216 174
0 216 177
0 220 180
0 215 176
0 218 179
0 218 178
0 219 180
0 217 178
0 219 178
0 218 179
0 218 177
0 215 175
0 217 177
0 220 179
0 219 178
0 221 181
0 218 179
0 220 180
0 221 179
0 221 180
0 220 181
0 217 178
0 221 181
0 221 180
0 220 179
0 220 180
0 218 179
0 221 181
0 219 180
0 218 178
0 220 180
0 218 178
0 221 180
0 220 181
0 218 178
0 220 180
0 221 180
0 221 181
0 216 176
0 219 179
0 219 178
0 219 179
0 220 181
0 218 178
0 220 181
0 221 180
0 221 180
0 217 177
0 219 178
0 219 180
0 219 177
0 219 178
0 221 180
0 221 180
0 220 179
0 221 180
0 221 180
0 218 179
0 221 180
0 220 180
0 221 180
0 221 180
0 219 181
0 222 181
0 220 179
0 220 180
0 221 181
0 221 180
0 220 181
0 221 180
0 221 181
0 221 179
0 222 181
0 221 180
0 220 180
0 221 180
0 220 180
0 222 181
0 220 180
0 219 179
0 221 181
0 219 179
0 221 181
0 220 179
0 221 181
0 219 179
0 221 181
0 219 178
0 221 180
0 222 180
0 220 179
0 221 180
0 219 178
0 221 181
0 222 181
0 220 180
0 220 181
0 221 181
0 220 180
0 221 180
0 222 181
0 221 180
0 222 181
0 220 179
0 221 181
0 219 180
0 220 180
0 221 180
0 221 180
0 220 181
0 221 181
0 220 180
0 221 181
0 220 180
0 222 181
0 221 180
0 222 181
0 221 181
0 221 180
0 220 181
0 221 181
0 222 181
0 222 181
0 221 181
0 220 181
0 220 180
0 221 180
0 221 180
0 221 181
0 220 181
0 221 180
0 222 181
0 220 180
0 221 181
0 222 181
0 222 181
0 222 181
0 221 181
0 220 180
0 221 181
0 221 181
0 222 181
0 220 180
0 219 179
0 221 181
0 220 181
0 221 181
0 221 181
0 222 181
0 220 181
0 221 181
0 221 181
0 220 181
0 221 180
0 221 181
0 222 181
0 221 181
0 221 180
0 220 181
0 222 181
0 220 180
0 221 181
0 219 180
0 221 181
0 222 181
0 221 181
0 221 181
0 221 181
0 221 181
0 221 181
0 222 181
0 220 181
0 221 181
0 221 181
0 221 181
0 221 181
0 221 181
0 221 181
0 221 181
0 221 181
0 221 181
0 221 181
0 221 181
0 221 181
0 222 181
0 221 181
0 221 181
0 221 181
0 221 181
0 222 181
0 222 181
0 221 181
0 221 181
0 221 181
0 222 181
0 220 181
0 222 181
0 221 180
0 222 181
0 221 181
0 222 181
0 221 181
0 221 180
0 221 181
0 222 181
0 221 181
0 220 181
0 220 181
0 221 181
0 221 181
0 221 181
0 220 180
0 222 181
0 220 181
0 221 181
0 222 181
0 221 181
0 221 181
0 220 181
0 221 181
0 222 181
0 221 181
0 222 181
0 222 181
0 222 180
0 222 181
0 222 181
0 221 181
0 221 180
0 221 180
0 220 180
0 221 181
0 222 181
0 221 181
0 222 181
0 220 181
0 222 181
0 221 181
0 222 181
0 219 180
0 220 181
0 221 181
0 222 181
0 220 180
0 221 181
0 221 181
0 222 180
0 222 181
0 222 181
0 221 181
0 223 180
0 222 180
0 218 180
0 220 180
0 220 180
0 220 180
0 221 181
0 221 181
0 222 181
0 221 181
0 222 181
0 221 181
0 221 181
0 220 179
0 222 181
0 221 181
0 222 181
0 221 181
0 221 181
0 221 181
0 222 181
0 221 180
0 221 181
0 221 181
0 221 181
0 221 180
0 221 181
0 218 179
0 221 180
0 220 180
0 221 181
0 222 181
0 220 180
0 221 181
0 220 180
0 221 180
0 220 181
0 219 179
0 220 180
0 220 180
0 220 180
0 221 181
0 219 179
0 221 181
0 221 181
0 221 181
0 222 181
0 220 180
0 222 181
0 218 179
0 217 178
0 220 180
0 219 179
0 220 180
0 220 180
0 219 180
0 219 179
0 221 180
0 220 180
0 220 178
0 221 181
0 219 180
0 221 180
0 220 180
0 220 180
0 222 181
0 221 180
0 218 179
0 219 179
0 217 177
0 221 180
0 220 179
0 220 178
0 221 180
0 220 179
0 220 178
0 220 180
0 221 181
0 219 180
0 217 178
0 219 179
0 219 179
0 220 178
0 219 178
0 219 179
0 217 176
0 219 179
0 220 179
0 218 178
0 220 178
0 218 179
0 217 175
0 218 177
0 218 178
0 219 179
0 219 179
0 219 177
0 219 179
0 216 175
0 218 177
0 217 177
0 221 180
0 219 178
0 216 177
0 215 175
0 216 177
0 215 176
0 219 178
0 219 179
0 216 176
0 216 177
0 219 179
0 218 177
0 216 177
0 221 180
0 215 176
0 218 179
0 215 176
0 218 177
0 214 174
0 216 177
0 220 179
0 218 177
0 217 178
0 219 177
0 218 178
0 213 174
0 217 178
0 219 178
0 219 179
0 220 178
0 214 177
0 219 179
0 218 179
0 214 174
0 218 177
0 216 176
0 218 177
0 215 177
0 217 178
0 217 178
0 218 177
0 219 178
0 214 175
0 218 179
0 218 177
0 221 180
0 217 177
0 217 176
0 220 179
0 218 178
0 217 177
0 214 175
0 218 178
0 217 177
0 218 177
0 220 180
0 219 179
0 219 177
0 220 179
0 219 178
0 217 177
0 218 178
0 216 177
0 217 178
0 220 179
0 218 177
0 221 178
0 219 179
0 218 177
0 220 179
0 219 179
0 221 180
0 221 181
0 218 179
0 216 177
0 218 178
0 218 178
0 220 180
0 218 177
0 218 178
0 216 177
0 220 179
0 221 180
0 218 178
0 221 179
0 220 179
0 220 179
0 221 181
0 221 180
0 220 180
0 219 180
0 221 180
0 221 180
0 217 177
0 218 176
0 219 178
0 219 180
0 220 180
0 218 179
0 221 180
0 221 180
0 220 179
0 220 180
0 219 179
0 218 178
0 221 180
0 219 179
0 220 180
0 222 181
0 221 180
0 220 180
0 217 178
0 219 179
0 219 179
0 220 179
0 220 180
0 221 180
0 220 180
0 220 180
0 219 179
0 220 179
0 221 180
0 218 178
0 221 181
0 219 179
0 219 179
0 220 181
0 220 179
0 220 179
0 221 179
0 221 180
0 221 181
0 222 181
0 221 180
0 221 180
0 220 180
0 220 181
0 220 180
0 222 181
0 222 181
0 221 181
0 222 181
0 220 181
0 221 181
0 221 181
0 221 180
0 221 181
0 220 181
0 223 181
0 219 180
0 221 180
0 222 181
0 221 181
0 221 179
0 220 180
0 222 181
0 221 181
0 220 180
0 220 180
0 221 181
0 221 181
0 222 181
0 221 181
0 221 181
0 221 181
0 220 180
0 221 180
0 221 181
0 221 181
0 222 181
0 220 179
0 221 181
0 220 180
0 221 179
0 221 181
0 221 180
0 220 180
0 222 181
0 221 181
0 221 181
0 222 181
0 221 181
0 221 181
0 222 181
0 221 180
0 220 181
0 221 181
0 220 181
0 221 181
0 221 181
0 221 180
0 222 181
0 222 181
0 220 181
0 221 181
0 221 181
0 221 181
0 221 181
0 221 181
0 222 181
0 222 181
0 221 181
0 221 181
0 221 181
0 221 181
0 222 181
0 220 180
0 222 181
0 221 181
0 220 181
0 221 181
0 219 180
0 220 181
0 221 181
0 221 181
0 221 181
0 221 181
0 220 181
0 222 181
0 222 181
0 221 181
0 221 181
0 221 181
0 221 181
0 221 181
0 221 181
0 221 181
0 222 181
0 221 181
0 222 181
0 220 181
0 221 181
0 221 181
0 221 181
0 220 181
0 221 181
0 221 180
0 221 181
0 222 180
0 220 179
0 222 181
0 222 181
0 221 181
0 221 181
0 220 181
0 221 181
0 222 181
0 221 181
0 220 181
0 221 181
0 221 181
0 220 180
0 221 181
0 221 181
0 222 181
0 219 180
0 221 181
0 221 181
0 221 181
0 221 180
0 221 181
0 222 181
0 221 181
0 220 180
0 222 180
0 222 181
0 220 181
0 220 181
0 221 181
0 218 179
0 221 181
0 220 180
0 221 181
0 222 181
0 221 181
0 222 180
0 222 181
0 221 181
0 222 181
0 222 181
0 221 180
0 221 180
0 221 181
0 221 181
0 221 181
0 220 180
0 220 181
0 220 180
0 221 181
0 221 180
0 221 181
0 221 181
0 220 180
0 220 180
0 222 181
0 221 181
0 222 181
0 221 181
0 222 181
0 221 180
0 221 180
0 221 181
0 221 181
0 220 180
0 220 181
0 221 181
0 222 181
0 221 181
0 222 181
0 219 179
0 221 181
0 221 181
0 222 181
0 221 181
0 222 181
0 221 181
0 220 180
0 220 180
0 219 179
0 222 181
0 219 180
0 221 181
0 222 181
0 221 181
0 221 181
0 221 181
0 220 180
0 221 181
0 220 180
0 221 181
0 221 180
0 220 179
0 220 180
0 221 181
0 220 179
0 221 180
0 222 181
0 220 180
0 219 179
0 221 180
0 219 180
0 221 180
0 221 181
0 221 181
0 219 180
0 219 180
0 221 181
0 221 181
0 221 181
0 218 178
0 221 180
0 221 181
0 221 181
0 221 181
0 221 181
0 221 180
0 220 179
0 221 181
0 219 178
0 219 180
0 219 179
0 221 181
0 221 181
0 221 180
0 219 179
0 220 180
0 219 180
0 219 179
0 220 179
0 217 178
0 221 179
0 221 179
0 221 179
0 222 181
0 222 180
0 220 180
0 218 178
0 218 179
0 220 179
0 215 176
0 219 178
0 216 175
0 219 179
0 221 180
0 219 179
0 219 178
0 218 178
0 219 178
0 220 179
0 217 176
0 220 179
0 218 178
0 218 178
0 219 179
0 215 176
0 216 175
0 218 177
0 220 178
0 221 179
0 220 178
0 216 177
0 220 178
0 219 178
0 219 178
0 219 178
0 216 176
0 218 177
0 211 173
0 220 180
0 219 180
0 216 176
0 217 177
0 212 174
0 216 177
0 218 178
0 210 173
0 217 177
0 216 177
0 214 176
0 216 176
0 214 175
0 220 179
0 219 179
0 217 177
0 216 177
0 218 178
0 217 177
0 215 176
0 218 178
0 221 179
0 213 174
0 219 179
0 216 176
0 218 178
0 215 176
0 218 177
0 217 177
0 217 177
0 219 178
0 212 174
0 219 179
0 220 180
0 215 177
0 219 179
0 217 179
0 218 178
0 220 179
0 219 179
0 218 179
0 219 179
0 217 177
0 217 178
0 217 178
0 216 177
0 218 178
0 215 177
0 216 176
0 219 177
0 221 179
0 214 177
0 219 179
0 219 179
0 221 181
0 216 176
0 217 179
0 218 178
0 221 180
0 220 179
0 219 179
0 220 180
0 220 178
0 219 179
0 218 179
0 220 180
0 220 179
0 219 179
0 218 178
0 221 181
0 219 178
0 221 180
0 221 181
0 219 178
0 218 179
0 218 178
0 219 179
0 219 179
0 216 177
0 220 181
0 222 181
0 218 177
0 218 178
0 222 181
0 219 179
0 219 178
0 217 176
0 222 181
0 220 180
0 221 180
0 220 179
0 221 180
0 221 180
0 220 179
0 219 179
0 219 179
0 220 178
0 221 180
0 221 180
0 221 181
0 221 181
0 217 177
0 221 180
0 219 179
0 219 178
0 219 179
0 220 180
0 221 179
0 221 180
0 221 180
0 221 181
0 220 180
0 222 181
0 219 180
0 221 180
0 220 179
0 219 179
0 221 181
0 221 181
0 223 181
0 221 181
0 221 181
0 221 180
0 220 180
0 220 181
0 221 181
0 220 180
0 219 180
0 221 181
0 221 180
0 221 181
0 220 181
0 219 179
0 221 181
0 221 180
0 221 180
0 221 181
0 219 179
0 220 180
0 221 181
0 220 180
0 221 180
0 222 181
0 218 179
0 221 181
0 221 181
0 221 181
0 221 181
0 220 179
0 221 181
0 222 181
0 222 181
0 220 181
0 221 181
0 220 180
0 221 181
0 221 179
0 222 181
0 220 181
0 221 180
0 221 181
0 220 180
0 220 180
0 222 181
0 221 181
0 221 180
0 221 180
0 221 181
0 220 180
0 221 181
0 220 180
0 221 181
0 220 179
0 220 180
0 221 180
0 222 181
0 221 181
0 220 180
0 221 181
0 222 181
0 221 181
0 220 181
0 221 181
0 222 181
0 221 180
0 221 180
0 222 181
0 221 181
0 220 181
0 222 181
0 221 181
0 222 181
0 221 181
0 221 181
0 220 180
0 221 181
0 221 181
0 221 181
0 221 181
0 221 181
0 221 181
0 221 181
0 220 181
0 221 181
0 221 181
0 221 181
0 221 181
0 221 180
0 221 181
0 220 180
0 221 181
0 221 181
0 221 181
0 221 181
0 221 181
0 221 181
0 221 181
0 221 181
0 221 181
0 222 181
0 221 181
0 222 181
0 221 181
0 222 181
0 221 181
0 221 181
0 220 181
0 222 181
0 221 181
0 221 181
0 220 180
0 220 181
0 222 181
0 222 181
0 220 181
0 221 181
0 220 180
0 222 181
0 220 181
0 221 181
0 221 181
0 221 181
0 222 181
0 221 181
0 222 181
0 222 181
0 221 181
0 222 181
0 221 181
0 222 181
0 221 181
0 221 181
0 221 181
0 220 181
0 221 181
0 221 181
0 222 181
0 221 181
0 220 179
0 221 181
0 221 181
0 221 181
0 222 181
0 221 181
0 220 180
0 222 181
0 222 181
0 222 181
0 221 181
0 221 181
0 221 181
0 220 180
0 221 180
0 221 181
0 220 180
0 222 181
0 221 181
0 221 181
0 220 180
0 220 180
0 219 179
0 219 181
0 221 180
0 221 181
0 221 181
0 220 181
0 221 181
0 221 181
0 221 180
0 219 180
0 221 181
0 221 180
0 222 181
0 222 181
0 220 181
0 221 181
0 220 181
0 219 180
0 221 181
0 221 181
0 221 180
0 218 178
0 222 181
0 219 180
0 221 180
0 221 181
0 221 181
0 219 179
0 220 181
0 219 179
0 221 181
0 221 181
0 221 181
0 222 181
0 220 180
0 220 180
0 220 180
0 221 181
0 221 181
0 220 180
0 221 181
0 220 180
0 222 180
0 219 179
0 220 180
0 221 180
0 220 179
0 221 181
0 221 180
0 220 180
0 220 180
0 221 181
0 220 180
0 220 180
0 218 179
0 220 181
0 219 179
0 219 179
0 222 181
0 221 181
0 220 180
0 222 180
0 222 181
0 220 180
0 221 181
0 220 180
0 221 180
0 221 180
0 220 180
0 218 179
0 221 181
0 221 180
0 220 180
0 218 178
0 220 180
0 220 180
0 220 180
0 219 179
0 219 179
0 220 180
0 220 180
0 220 180
0 220 179
0 219 179
0 218 178
0 217 178
0 220 179
0 220 180
0 221 179
0 222 179
0 219 179
0 217 178
0 219 177
0 219 179
0 218 178
0 221 180
0 219 179
0 218 177
0 221 180
0 220 179
0 221 178
0 219 178
0 215 177
0 222 179
0 220 179
0 216 176
0 218 177
0 216 175
0 219 178
0 214 176
0 217 177
0 220 177
0 220 179
0 219 178
0 215 176
0 215 176
0 220 180
0 217 177
0 215 175
0 217 176
0 218 177
0 217 177
0 218 179
0 216 177
0 220 180
0 212 173
0 217 178
0 216 178
0 216 177
0 216 177
0 213 175
0 215 176
0 212 175
0 214 175
0 215 176
0 217 177
0 217 177
0 215 176
0 217 178
0 213 174
0 217 177
0 216 176
0 216 178
0 214 175
0 215 176
0 216 177
0 219 179
0 218 178
0 213 175
0 217 178
0 218 177
0 217 178
0 216 178
0 217 178
0 216 177
0 219 179
0 218 179
0 217 178
0 217 178
0 218 177
0 216 177
0 217 177
0 220 179
0 219 178
0 216 176
0 216 177
0 215 177
0 219 179
0 219 180
0 219 178
0 219 178
0 219 179
0 215 178
0 219 178
0 219 178
0 220 179
0 218 178
0 217 177
0 218 179
0 220 179
0 219 178
0 220 180
0 218 180
0 218 178
0 218 178
0 218 177
0 218 178
0 219 178
0 217 178
0 217 178
0 219 181
0 220 180
0 220 180
0 220 180
0 220 179
0 220 180
0 221 180
0 221 180
0 222 181
0 220 180
0 222 180
0 221 181
0 220 179
0 220 180
0 219 179
0 219 179
0 220 179
0 221 180
0 219 179
0 220 181
0 220 180
0 219 178
0 220 180
0 219 179
0 221 180
0 217 177
0 221 181
0 219 179
0 219 179
0 219 178
0 221 181
0 220 180
0 219 179
0 221 180
0 221 181
0 221 181
0 219 179
0 221 181
0 222 181
0 219 180
0 219 178
0 222 181
0 220 179
0 218 179
0 221 180
0 221 180
0 220 179
0 220 181
0 221 181
0 218 179
0 220 180
0 221 181
0 221 180
0 222 181
0 222 181
0 221 181
0 221 181
0 220 180
0 221 181
0 220 180
0 219 180
0 221 180
0 220 178
0 221 181
0 222 181
0 220 179
0 220 180
0 218 178
0 221 181
0 222 181
0 221 181
0 221 180
0 221 181
0 221 180
0 221 181
0 221 181
0 221 181
0 220 181
0 221 181
0 222 181
0 221 181
0 221 181
0 222 180
0 221 180
0 222 181
0 222 181
0 221 181
0 222 181
0 220 180
0 221 180
0 220 181
0 219 180
0 222 181
0 222 181
0 222 181
0 221 181
0 221 181
0 222 181
0 221 181
0 221 181
0 221 180
0 221 180
0 220 181
0 222 181
0 221 181
0 222 181
0 222 181
0 220 180
0 221 181
0 221 181
0 221 181
0 222 181
0 222 181
0 219 180
0 222 181
0 221 180
0 220 180
0 220 181
0 222 181
0 220 181
0 221 181
0 221 181
0 222 181
0 221 181
0 221 181
0 221 180
0 221 181
0 221 181
0 221 180
0 220 181
0 221 181
0 221 181
0 222 181
0 222 181
0 221 181
0 221 181
0 220 180
0 221 181
0 221 181
0 221 181
0 221 181
0 221 181
0 221 181
0 221 181
0 221 181
0 221 181
0 221 181
0 222 181
0 221 181
0 220 181
0 220 180
0 221 181
0 222 181
0 221 181
0 221 181
0 221 181
0 221 181
0 222 181
0 222 181
0 221 181
0 221 181
0 220 181
0 221 181
0 221 181
0 222 181
0 222 181
0 221 181
0 221 181
0 221 181
0 221 181
0 221 180
0 221 181
0 221 181
0 221 181
0 221 180
0 222 181
0 222 180
0 221 181
0 221 181
0 221 180
0 221 181
0 222 181
0 222 181
0 221 181
0 221 181
0 221 181
0 221 181
0 221 180
0 221 181
0 221 181
0 221 181
0 221 181
0 222 181
0 221 181
0 220 181
0 222 181
0 220 181
0 221 181
0 221 180
0 221 181
0 222 181
0 220 180
0 219 180
0 222 181
0 220 179
0 221 181
0 221 180
0 221 181
0 220 181
0 220 181
0 222 181
0 220 180
0 221 181
0 219 179
0 221 181
0 221 181
0 221 181
0 221 181
0 220 180
0 222 181
0 222 181
0 220 181
0 221 180
0 222 181
0 222 181
0 221 181
0 220 180
0 222 181
0 221 181
0 221 181
0 221 180
0 221 181
0 221 180
0 220 180
0 221 181
0 221 181
0 221 181
0 221 180
0 222 181
0 221 181
0 221 181
0 220 181
0 220 180
0 220 180
0 221 181
0 221 180
0 220 180
0 221 180
0 218 179
0 219 179
0 221 181
0 221 181
0 221 181
0 220 180
0 220 181
0 221 181
0 222 181
0 222 181
0 220 181
0 221 181
0 221 180
0 221 180
0 220 180
0 221 181
0 221 181
0 221 181
0 220 181
0 219 179
0 221 181
0 220 180
0 221 180
0 221 180
0 218 179
0 220 181
0 219 180
0 221 181
0 219 179
0 219 179
0 216 178
0 220 180
0 219 179
0 220 180
0 219 179
0 220 180
0 220 180
0 219 178
0 220 180
0 219 180
0 220 178
0 217 177
0 220 179
0 218 178
0 220 179
0 221 180
0 219 178
0 219 178
0 221 180
0 221 180
0 221 180
0 217 178
0 219 178
0 220 180
0 215 175
0 218 179
0 217 178
0 220 178
0 221 180
0 214 173
0 219 178
0 217 178
0 218 177
0 220 179
0 219 178
0 221 177
0 221 179
0 220 177
0 219 178
0 215 175
0 217 176
0 218 175
0 219 179
0 216 176
0 219 179
0 215 176
0 219 177
0 218 179
0 218 177
0 214 175
0 221 179
0 215 176
0 213 174
0 212 175
0 216 176
0 216 176
0 214 175
0 219 179
0 220 179
0 214 175
0 218 177
0 215 177
0 215 176
0 217 177
0 213 175
0 213 175
0 215 175
0 215 177
0 217 178
0 218 179
0 219 180
0 217 177
0 217 177
0 217 178
0 216 177
0 219 178
0 220 179
0 216 178
0 218 178
0 216 177
0 215 175
0 215 177
0 220 180
0 216 177
0 215 176
0 216 175
0 213 174
0 216 177
0 216 177
0 216 175
0 220 179
0 217 178
0 217 177
0 217 177
0 214 176
0 218 179
0 220 179
0 216 176
0 217 177
0 216 176
0 218 178
0 218 177
0 219 178
0 217 177
0 218 178
0 217 177
0 219 180
0 218 180
0 215 175
0 217 177
0 218 178
0 218 178
0 218 178
0 218 180
0 218 178
0 218 179
0 218 178
0 221 181
0 220 180
0 220 180
0 220 179
0 218 178
0 220 179
0 219 179
0 217 177
0 220 179
0 220 179
0 221 178
0 219 179
0 219 179
0 220 179
0 220 180
0 219 179
0 221 180
0 219 178
0 221 181
0 218 178
0 217 178
0 219 179
0 221 179
0 219 179
0 216 178
0 222 181
0 219 179
0 221 181
0 218 178
0 221 180
0 220 180
0 219 179
0 220 180
0 220 180
0 222 181
0 220 179
0 220 180
0 220 179
0 221 179
0 219 179
0 221 181
0 221 181
0 222 181
0 220 180
0 222 180
0 221 181
0 221 181
0 219 179
0 222 181
0 219 179
0 221 180
0 220 180
0 220 179
0 220 180
0 220 178
0 220 181
0 220 179
0 221 181
0 221 181
0 221 181
0 221 181
0 221 181
0 221 181
0 222 181
0 221 181
0 220 179
0 221 181
0 221 181
0 220 180
0 221 181
0 221 181
0 221 180
0 221 181
0 221 180
0 222 181
0 221 181
0 221 181
0 222 181
0 221 181
0 221 181
0 221 181
0 219 179
0 220 181
0 221 181
0 219 180
0 218 178
0 222 181
0 221 181
0 221 181
0 221 181
0 221 181
0 221 181
0 220 180
0 222 181
0 221 181
0 221 181
0 222 181
0 222 181
0 222 181
0 220 180
0 220 181
0 221 181
0 221 181
0 220 180
0 221 181
0 220 181
0 221 181
0 221 181
0 219 178
0 221 181
0 222 181
0 221 180
0 222 181
0 221 180
0 222 181
0 220 181
0 221 181
0 221 181
0 221 180
0 221 180
0 221 181
0 222 181
0 221 181
0 220 181
0 222 181
0 222 181
0 221 181
0 222 181
0 221 181
0 221 181
0 222 181
0 222 181
0 221 180
0 220 180
0 222 181
0 221 181
0 222 181
0 221 181
0 223 181
0 221 181
0 220 180
0 222 181
0 221 181
0 222 181
0 221 181
0 222 181
0 221 181
0 221 181
0 221 181
0 221 181
0 220 181
0 221 181
0 222 181
0 221 181
0 221 181
0 221 181
0 222 181
0 220 179
0 221 181
0 221 181
0 221 181
0 220 180
0 221 181
0 221 181
0 222 181
0 221 181
0 221 181
0 221 181
0 221 181
0 222 181
0 222 181
0 222 181
0 221 181
0 221 181
0 221 181
0 222 181
0 220 180
0 222 181
0 222 181
0 222 181
0 221 181
0 221 181
0 220 179
0 222 181
0 221 181
0 221 181
0 221 181
0 221 181
0 221 181
0 220 181
0 221 181
0 221 181
0 222 181
0 221 181
0 222 181
0 221 181
0 222 181
0 221 181
0 221 181
0 221 181
0 221 181
0 221 181
0 221 181
0 222 181
0 222 181
0 221 181
0 220 180
0 221 181
0 222 181
0 220 181
0 221 181
0 220 180
0 221 180
0 221 180
0 221 180
0 220 180
0 220 181
0 220 180
0 221 181
0 220 181
0 221 181
0 221 181
0 221 180
0 222 181
0 220 180
0 221 181
0 221 181
0 220 180
0 222 181
0 222 181
0 221 181
0 221 181
0 221 181
0 220 180
0 220 180
0 221 181
0 219 179
0 221 181
0 220 180
0 221 180
0 222 181
0 221 180
0 221 181
0 220 180
0 221 181
0 221 181
0 222 181
0 221 180
0 221 181
0 222 181
0 222 180
0 221 181
0 221 181
0 220 179
0 221 181
0 220 179
0 220 180
0 222 181
0 220 180
0 220 181
0 220 180
0 220 181
0 221 180
0 219 179
0 220 179
0 221 179
0 220 180
0 221 181
0 221 181
0 220 179
0 220 180
0 220 180
0 222 181
0 222 180
0 220 180
0 219 180
0 220 180
0 219 179
0 220 179
0 221 180
0 219 178
0 219 178
0 219 179
0 221 181
0 220 180
0 218 178
0 221 181
0 221 180
0 218 178
0 219 179
0 220 180
0 218 178
0 221 181
0 221 180
0 219 178
0 219 179
0 218 178
0 219 179
0 221 180
0 221 179
0 219 178
0 222 180
0 219 179
0 220 180
0 219 179
0 218 178
0 218 177
0 219 177
0 219 178
0 219 178
0 220 179
0 218 177
0 219 178
0 217 177
0 218 176
0 219 177
0 220 178
0 215 175
0 217 175
0 219 178
0 219 177
0 217 177
0 217 177
0 221 178
0 217 176
0 221 180
0 218 178
0 217 177
0 218 178
0 217 178
0 216 176
0 216 177
0 220 179
0 216 177
0 218 178
0 216 178
0 217 177
0 212 174
0 213 174
0 216 176
0 216 177
0 214 176
0 216 175
0 213 175
0 218 179
0 214 176
0 217 178
0 214 175
0 211 174
0 214 176
0 217 176
0 216 177
0 215 176
0 218 179
0 218 177
0 216 176
0 215 177
0 216 177
0 214 176
0 214 176
0 218 177
0 217 178
0 218 179
0 217 178
0 213 175
0 214 175
0 220 179
0 219 179
0 217 177
0 218 178
0 219 179
0 219 177
0 216 175
0 219 178
0 215 175
0 218 179
0 218 179
0 213 172
0 218 178
0 216 177
0 219 179
0 219 179
0 219 177
0 219 180
0 216 176
0 219 179
0 217 177
0 215 176
0 218 178
0 216 176
0 219 178
0 217 178
0 220 180
0 216 177
0 219 179
0 214 176
0 216 177
0 219 178
0 220 180
0 219 179
0 219 179
0 218 177
0 220 180
0 219 179
0 220 179
0 220 179
0 220 179
0 218 179
0 218 178
0 218 179
0 219 179
0 220 180
0 218 179
0 219 179
0 217 177
0 219 179
0 220 180
0 222 181
0 219 177
0 219 179
0 218 179
0 217 177
0 220 179
0 221 181
0 218 179
0 220 180
0 221 180
0 219 179
0 220 179
0 222 180
0 221 181
0 219 178
0 221 181
0 221 180
0 219 180
0 220 179
0 221 181
0 221 179
0 219 178
0 221 180
0 219 178
0 221 180
0 218 177
0 220 180
0 221 180
0 220 179
0 221 181
0 220 179
0 219 178
0 220 179
0 221 180
0 221 180
0 221 181
0 222 181
0 221 180
0 221 181
0 221 181
0 221 181
0 220 180
0 220 181
0 222 181
0 220 180
0 221 179
0 220 180
0 220 181
0 220 180
0 221 181
0 222 181
0 221 181
0 220 180
0 220 181
0 221 181
0 219 180
0 220 181
0 221 180
0 222 180
0 220 180
0 221 180
0 221 181
0 220 179
0 221 181
0 220 181
0 222 181
0 220 180
0 221 180
0 221 181
0 220 181
0 220 180
0 221 181
0 221 181
0 221 180
0 220 180
0 219 179
0 221 181
0 221 181
0 221 180
0 221 181
0 221 181
0 221 181
0 221 180
0 221 181
0 221 181
0 220 180
0 221 181
0 221 181
0 221 181
0 221 181
0 220 180
0 221 181
0 220 181
0 221 181
0 219 181
0 221 181
0 222 181
0 221 181
0 220 181
0 221 181
0 221 181
0 221 180
0 222 181
0 221 181
0 221 181
0 220 179
0 222 181
0 222 181
0 221 181
0 221 180
0 220 180
0 221 181
0 220 181
0 220 180
0 221 181
0 221 181
0 220 181
0 220 181
0 222 181
0 221 181
0 221 180
0 221 181
0 220 181
0 221 181
0 221 181
0 220 181
0 222 181
0 221 181
0 222 181
0 222 181
0 221 181
0 221 181
0 221 181
0 221 181
0 221 181
0 221 181
0 221 181
0 219 180
0 221 181
0 222 181
0 222 181
0 220 180
0 221 181
0 221 181
0 220 181
0 221 181
0 220 181
0 221 181
0 221 181
0 221 181
0 221 181
0 221 181
0 221 181
0 221 181
0 221 181
0 222 181
0 220 181
0 221 181
0 222 181
0 221 181
0 221 181
0 221 181
0 222 181
0 221 181
0 221 181
0 221 181
0 221 181
0 222 181
0 222 181
0 221 181
0 221 181
0 221 181
0 221 181
0 221 181
0 221 181
0 222 181
0 220 181
0 220 181
0 221 181
0 220 180
0 221 181
0 222 181
0 221 181
0 221 181
0 221 180
0 222 181
0 220 181
0 221 181
0 221 181
0 220 180
0 221 181
0 221 181
0 222 181
0 221 181
0 221 181
0 220 180
0 222 181
0 221 181
0 221 180
0 222 181
0 221 181
0 221 181
0 222 181
0 221 181
0 222 181
0 221 181
0 221 181
0 221 181
0 220 181
0 221 181
0 221 181
0 221 180
0 222 181
0 221 181
0 221 181
0 222 181
0 222 181
0 222 180
0 220 180
0 220 180
0 222 181
0 221 181
0 222 181
0 220 180
0 221 181
0 219 179
0 220 180
0 220 181
0 221 181
0 221 181
0 221 181
0 220 180
0 222 181
0 221 181
0 220 180
0 220 180
0 221 181
0 221 181
0 219 180
0 219 180
0 220 180
0 219 179
0 219 179
0 220 179
0 220 180
0 221 181
0 220 179
0 222 181
0 221 181
0 222 181
0 220 180
0 220 180
0 220 180
0 220 180
0 220 180
0 220 180
0 221 181
0 220 180
0 221 181
0 220 179
0 221 179
0 218 178
0 219 180
0 220 180
0 220 180
0 219 180
0 221 179
0 219 179
0 222 181
0 220 180
0 220 180
0 222 181
0 221 180
0 218 178
0 219 180
0 221 181
0 220 180
0 220 180
0 219 179
0 219 179
0 219 179
0 218 179
0 220 179
0 219 178
0 221 180
0 220 179
0 219 178
0 218 178
0 222 181
0 219 178
0 219 178
0 220 179
0 220 178
0 220 180
0 215 174
0 219 178
0 220 177
0 218 177
0 221 180
0 222 178
0 220 178
0 219 178
0 220 178
0 219 178
0 215 176
0 218 176
0 213 173
0 216 176
0 217 178
0 217 177
0 217 174
0 218 178
0 216 177
0 217 176
0 213 174
0 216 176
0 220 178
0 218 178
0 213 174
0 219 178
0 213 174
0 216 177
0 218 178
0 216 177
0 216 176
0 213 175
0 217 177
0 212 174
0 217 177
0 215 176
0 218 178
0 219 178
0 217 176
0 218 180
0 216 177
0 213 174
0 215 176
0 220 179
0 217 178
0 213 175
0 215 176
0 214 175
0 213 176
0 218 177
0 215 176
0 215 174
0 217 178
0 218 178
0 214 176
0 219 179
0 216 176
0 216 178
0 217 178
0 214 173
0 218 177
0 218 178
0 214 174
0 213 176
0 216 177
0 217 177
0 217 177
0 220 180
0 214 175
0 221 180
0 215 177
0 213 174
0 217 178
0 220 179
0 217 176
0 219 179
0 214 174
0 219 179
0 217 178
0 219 178
0 217 176
0 219 178
0 215 176
0 220 180
0 219 179
0 220 179
0 218 176
0 216 178
0 219 178
0 218 177
0 218 178
0 218 177
0 218 179
0 216 177
0 219 180
0 220 180
0 222 181
0 218 179
0 220 180
0 220 179
0 215 175
0 218 178
0 219 179
0 220 180
0 219 178
0 219 178
0 219 180
0 218 179
0 218 178
0 218 178
0 219 179
0 220 180
0 220 179
0 218 178
0 221 179
0 219 179
0 220 178
0 222 181
0 219 179
0 220 179
0 219 178
0 221 181
0 218 179
0 221 181
0 221 181
0 221 181
0 222 181
0 220 181
0 220 180
0 220 180
0 220 180
0 219 179
0 220 179
0 221 179
0 221 181
0 219 178
0 220 179
0 221 181
0 220 180
0 220 179
0 221 181
0 221 179
0 221 181
0 220 179
0 221 181
0 220 180
0 221 180
0 220 179
0 220 179
0 221 180
0 221 181
0 221 181
0 221 180
0 219 179
0 221 181
0 218 179
0 222 181
0 220 180
0 221 180
0 222 179
0 221 180
0 221 181
0 221 181
0 221 180
0 220 180
0 222 181
0 220 180
0 222 181
0 220 180
0 220 180
0 221 180
0 221 181
0 221 180
0 222 181
0 219 179
0 221 181
0 222 181
0 221 181
0 222 181
0 221 181
0 220 181
0 220 180
0 222 181
0 220 181
0 221 181
0 221 181
0 222 181
0 220 180
0 221 181
0 222 181
0 222 181
0 221 181
0 219 180
0 220 181
0 221 181
0 221 181
0 222 181
0 221 181
0 220 180
0 219 180
0 221 181
0 222 181
0 221 181
0 221 181
0 222 181
0 220 181
0 221 180
0 221 181
0 221 181
0 221 181
0 222 181
0 221 181
0 221 181
0 221 181
0 221 181
0 222 181
0 222 181
0 221 181
0 221 181
0 221 181
0 221 180
0 221 181
0 222 181
0 222 181
0 220 180
0 221 181
0 221 181
0 221 181
0 222 181
0 221 181
0 222 181
0 220 181
0 222 181
0 221 181
0 221 181
0 220 181
0 221 181
0 222 181
0 221 181
0 221 181
0 221 181
0 221 181
0 222 181
0 222 181
0 221 181
0 221 181
0 222 181
0 222 181
0 221 181
0 221 181
0 221 181
0 221 181
0 221 181
0 221 181
0 221 181
0 220 180
0 222 181
0 221 181
0 221 181
0 221 181
0 222 181
0 221 181
0 222 181
0 220 181
0 222 181
0 222 181
0 220 181
0 222 181
0 221 181
0 222 181
0 221 181
0 221 180
0 221 181
0 221 181
0 222 181
0 221 180
0 221 181
0 222 181
0 220 180
0 221 181
0 221 181
0 221 181
0 222 181
0 221 181
0 221 181
0 221 181
0 221 181
0 221 181
0 221 181
0 222 181
0 221 181
0 220 180
0 221 181
0 221 181
0 221 181
0 222 181
0 221 181
0 221 181
0 221 181
0 221 181
0 221 181
0 221 180
0 221 180
0 221 181
0 219 180
0 222 181
0 221 181
0 221 181
0 221 181
0 219 180
0 222 181
0 220 180
0 221 181
0 222 181
0 220 180
0 221 181
0 219 179
0 219 180
0 221 181
0 222 181
0 221 181
0 219 180
0 221 181
0 221 181
0 221 181
0 220 180
0 221 181
0 221 181
0 221 180
0 221 181
0 221 181
0 222 181
0 221 180
0 220 180
0 221 181
0 221 180
0 220 181
0 221 181
0 221 181
0 220 180
0 222 181
0 220 181
0 220 181
0 219 179
0 220 180
0 220 180
0 219 180
0 221 180
0 221 181
0 219 179
0 220 180
0 221 181
0 220 180
0 221 181
0 219 179
0 221 180
0 221 181
0 220 180
0 220 179
0 221 181
0 221 181
0 219 179
0 219 179
0 221 180
0 219 179
0 220 180
0 217 178
0 221 180
0 219 179
0 221 180
0 220 179
0 221 181
0 219 179
0 220 180
0 219 179
0 221 179
0 221 181
0 217 178
0 219 180
0 220 180
0 219 179
0 218 179
0 218 178
0 221 180
0 219 179
0 221 179
0 222 181
0 219 178
0 220 179
0 218 179
0 219 179
0 219 177
0 219 178
0 220 179
0 219 178
0 219 179
0 219 178
0 220 178
0 220 178
0 219 180
0 220 180
0 222 178
0 216 176
0 219 176
0 219 176
0 219 177
0 222 179
0 222 180
0 217 175
0 218 174
0 219 178
0 218 178
0 217 176
0 222 180
0 216 174
0 215 175
0 217 177
0 217 176
0 220 179
0 218 178
0 214 175
0 217 175
0 219 177
0 216 176
0 220 179
0 214 176
0 216 175
0 211 174
0 215 177
0 212 174
0 215 176
0 214 176
0 214 175
0 214 175
0 211 173
0 215 176
0 217 177
0 211 174
0 216 176
0 214 176
0 215 177
0 214 175
0 215 177
0 216 175
0 219 178
0 214 175
0 214 176
0 211 173
0 213 176
0 215 176
0 219 179
0 217 179
0 216 178
0 217 177
0 216 175
0 214 174
0 217 177
0 219 179
0 218 178
0 218 178
0 217 177
0 217 178
0 216 176
0 216 175
0 219 179
0 220 180
0 220 180
0 217 177
0 219 179
0 215 175
0 220 179
0 215 176
0 216 176
0 216 176
0 215 177
0 219 179
0 218 177
0 216 176
0 217 177
0 217 176
0 216 176
0 220 178
0 215 177
0 219 179
0 218 178
0 219 178
0 218 179
0 218 178
0 218 177
0 219 178
0 219 180
0 220 179
0 220 180
0 220 180
0 219 179
0 218 178
0 220 179
0 219 178
0 220 179
0 221 180
0 218 179
0 218 178
0 215 175
0 218 178
0 221 181
0 221 181
0 220 179
0 221 180
0 219 178
0 219 179
0 219 179
0 220 179
0 220 179
0 219 178
0 219 179
0 220 180
0 221 179
0 219 179
0 219 180
0 221 181
0 221 180
0 220 180
0 221 181
0 221 180
0 221 180
0 221 181
0 219 179
0 220 179
0 218 178
0 221 181
0 221 180
0 220 180
0 221 181
0 219 180
0 221 181
0 222 181
0 222 181
0 221 181
0 221 181
0 219 180
0 221 181
0 220 180
0 219 179
0 220 179
0 221 181
0 220 180
0 221 180
0 220 180
0 220 180
0 221 181
0 221 180
0 221 181
0 221 180
0 219 180
0 221 181
0 222 181
0 221 181
0 220 180
0 220 180
0 220 181
0 221 181
0 220 180
0 221 179
0 220 180
0 221 181
0 221 181
0 222 181
0 219 179
0 220 181
0 220 179
0 222 181
0 221 181
0 221 181
0 221 181
0 219 179
0 220 180
0 222 181
0 222 181
0 220 180
0 222 181
0 222 181
0 221 181
0 221 181
0 220 180
0 222 181
0 220 180
0 221 181
0 220 179
0 221 181
0 222 181
0 222 181
0 223 181
0 222 181
0 222 181
0 221 180
0 220 180
0 221 181
0 221 181
0 221 180
0 222 181
0 221 181
0 221 181
0 221 181
0 220 180
0 222 181
0 221 181
0 221 180
0 222 181
0 221 181
0 223 181
0 220 180
0 220 181
0 220 180
0 221 181
0 221 181
0 221 181
0 220 180
0 222 181
0 222 181
0 222 181
0 221 181
0 221 181
0 221 181
0 222 181
0 220 181
0 222 181
0 221 181
0 221 180
0 221 181
0 221 181
0 221 181
0 222 181
0 221 181
0 222 181
0 221 181
0 221 181
0 221 181
0 222 181
0 221 181
0 221 181
0 221 181
0 221 181
0 220 180
0 221 181
0 221 181
0 221 181
0 221 181
0 222 181
0 222 181
0 221 181
0 221 181
0 221 181
0 222 181
0 222 181
0 221 181
0 221 181
0 221 181
0 221 181
0 221 181
0 221 181
0 222 181
0 223 181
0 220 181
0 221 180
0 221 180
0 221 181
0 221 181
0 221 181
0 221 181
0 221 181
0 220 180
0 219 179
0 220 180
0 220 181
0 221 181
0 221 181
0 221 181
0 220 181
0 222 181
0 220 181
0 221 181
0 220 180
0 221 181
0 221 181
0 222 181
0 221 181
0 221 181
0 221 181
0 220 180
0 221 181
0 220 180
0 221 181
0 221 181
0 222 181
0 222 181
0 222 181
0 221 181
0 221 181
0 221 181
0 222 181
0 221 181
0 222 181
0 222 181
0 220 181
0 220 181
0 222 181
0 222 181
0 221 181
0 222 181
0 219 180
0 221 181
0 219 179
0 221 181
0 220 181
0 221 180
0 221 181
0 222 181
0 220 180
0 219 179
0 222 181
0 221 181
0 222 181
0 222 181
0 221 181
0 220 180
0 221 181
0 221 181
0 221 181
0 219 180
0 221 180
0 221 181
0 221 181
0 221 179
0 221 180
0 221 181
0 221 181
0 221 181
0 221 180
0 222 181
0 219 179
0 220 180
0 218 179
0 221 181
0 220 180
0 220 181
0 222 181
0 219 179
0 221 180
0 221 181
0 221 181
0 221 181
0 220 180
0 222 181
0 220 180
0 219 179
0 221 181
0 220 180
0 221 181
0 221 181
0 221 181
0 220 181
0 220 180
0 218 179
0 221 181
0 221 180
0 221 180
0 220 180
0 221 181
0 220 180
0 220 180
0 222 181
0 221 180
0 220 181
0 219 180
0 220 180
0 221 180
0 221 181
0 220 180
0 218 178
0 218 178
0 222 179
0 218 179
0 220 179
0 220 180
0 222 181
0 219 180
0 218 179
0 221 178
0 220 180
0 217 178
0 220 179
0 219 178
0 222 181
0 221 179
0 218 178
0 220 180
0 216 177
0 218 178
0 220 177
0 221 178
0 217 178
0 219 177
0 220 179
0 222 179
0 222 179
0 221 179
0 217 177
0 219 176
0 221 180
0 217 176
0 221 179
0 220 179
0 217 175
0 216 174
0 217 176
0 219 176
0 216 177
0 219 178
0 215 175
0 215 174
0 214 174
0 216 177
0 217 175
0 211 173
0 212 173
0 211 174
0 219 180
0 219 178
0 217 178
0 214 175
0 216 176
0 216 176
0 217 177
0 216 177
0 216 176
0 215 177
0 210 173
0 213 175
0 212 174
0 215 176
0 214 175
0 212 173
0 217 177
0 214 175
0 215 175
0 215 176
0 211 174
0 214 175
0 214 176
0 218 177
0 215 176
0 218 178
0 214 176
0 214 175
0 216 177
0 216 177
0 211 173
0 214 175
0 214 175
0 216 176
0 216 176
0 218 179
0 213 174
0 217 177
0 218 178
0 217 178
0 218 178
0 215 177
0 219 179
0 217 177
0 218 178
0 214 173
0 216 176
0 218 178
0 217 176
0 220 179
0 218 179
0 215 175
0 216 176
0 215 176
0 218 179
0 216 176
0 218 179
0 220 179
0 220 179
0 217 177
0 220 178
0 220 178
0 216 177
0 218 178
0 219 178
0 219 178
0 214 176
0 219 179
0 220 180
0 220 179
0 219 178
0 220 180
0 220 179
0 218 177
0 221 179
0 219 179
0 220 181
0 220 181
0 219 179
0 221 180
0 220 179
0 220 181
0 217 177
0 220 179
0 221 180
0 219 178
0 222 180
0 218 179
0 221 181
0 219 179
0 218 178
0 221 180
0 220 180
0 220 180
0 220 181
0 219 180
0 221 180
0 220 179
0 220 180
0 220 180
0 220 179
0 220 180
0 219 179
0 220 181
0 220 180
0 219 180
0 221 181
0 220 179
0 219 179
0 220 179
0 221 181
0 221 181
0 222 181
0 218 178
0 221 181
0 221 180
0 221 180
0 220 179
0 221 179
0 220 179
0 221 181
0 220 180
0 221 180
0 220 181
0 221 181
0 219 179
0 221 181
0 221 181
0 222 181
0 219 179
0 222 181
0 221 181
0 222 181
0 219 180
0 220 180
0 221 181
0 221 180
0 222 181
0 220 180
0 220 181
0 220 180
0 222 181
0 221 181
0 223 181
0 221 181
0 223 181
0 221 180
0 220 180
0 220 181
0 221 181
0 220 180
0 220 179
0 221 180
0 221 181
0 222 181
0 220 180
0 220 180
0 220 180
0 220 179
0 222 181
0 222 181
0 220 180
0 221 180
0 221 181
0 221 181
0 221 181
0 221 181
0 221 181
0 220 180
0 221 181
0 221 181
0 221 181
0 221 181
0 221 181
0 222 181
0 221 181
0 221 181
0 221 181
0 221 181
0 221 181
0 220 181
0 220 181
0 222 181
0 222 181
0 222 181
0 222 181
0 220 180
0 221 181
0 221 181
0 222 181
0 221 181
0 221 181
0 221 180
0 221 181
0 221 181
0 220 179
0 221 181
0 221 180
0 222 181
0 220 181
0 221 181
0 221 181
0 221 181
0 222 181
0 222 181
0 220 181
0 221 181
0 221 181
0 221 180
0 221 180
0 221 181
0 221 181
0 221 181
0 221 180
0 221 181
0 221 181
0 222 181
0 221 181
0 222 181
0 221 181
0 221 181
0 220 181
0 220 180
0 222 181
0 222 181
0 221 181
0 221 181
0 221 181
0 221 181
0 221 181
0 221 181
0 221 181
0 221 181
0 221 181
0 221 181
0 221 181
0 222 181
0 222 181
0 220 181
0 221 181
0 221 181
0 221 181
0 220 180
0 220 181
0 221 181
0 222 181
0 220 181
0 221 181
0 222 181
0 221 181
0 222 181
0 219 180
0 222 181
0 222 181
0 220 181
0 221 181
0 220 180
0 221 181
0 221 181
0 222 181
0 221 181
0 222 181
0 222 181
0 222 181
0 221 181
0 221 181
0 221 181
0 220 181
0 221 181
0 221 181
0 219 180
0 221 181
0 221 181
0 221 180
0 220 180
0 223 181
0 222 181
0 221 180
0 221 181
0 221 181
0 220 181
0 220 180
0 221 181
0 221 180
0 222 181
0 221 181
0 220 180
0 221 181
0 221 181
0 221 181
0 221 180
0 220 180
0 219 180
0 222 181
0 221 181
0 221 181
0 221 181
0 221 180
0 221 181
0 221 180
0 221 181
0 219 179
0 220 180
0 221 181
0 221 181
0 221 181
0 222 181
0 220 180
0 221 181
0 221 181
0 220 180
0 219 179
0 223 181
0 219 180
0 221 181
0 220 180
0 220 180
0 221 181
0 221 181
0 220 181
0 220 179
0 220 181
0 220 180
0 220 180
0 221 181
0 221 181
0 220 181
0 219 179
0 222 181
0 221 180
0 220 180
0 221 180
0 221 181
0 219 180
0 222 181
0 221 181
0 221 181
0 220 180
0 220 180
0 219 179
0 222 181
0 221 180
0 221 181
0 220 180
0 220 179
0 219 179
0 221 179
0 221 180
0 221 180
0 218 179
0 217 179
0 220 180
0 220 180
0 221 181
0 220 179
0 220 179
0 221 181
0 219 178
0 221 180
0 221 180
0 219 178
0 217 178
0 221 178
0 220 180
0 222 178
0 219 178
0 218 178
0 219 179
0 220 179
0 221 180
0 220 179
0 220 178
0 220 179
0 219 178
0 218 176
0 220 178
0 218 175
0 221 178
0 219 178
0 220 178
0 221 178
0 220 177
0 218 174
0 216 175
0 220 176
0 218 176
0 218 176
0 219 175
0 216 175
0 220 177
0 218 178
0 217 177
0 217 175
0 214 174
0 214 174
0 213 174
0 216 176
0 214 174
0 216 177
0 214 175
0 214 175
0 215 175
0 213 174
0 217 177
0 214 174
0 217 178
0 219 179
0 216 177
0 215 175
0 212 175
0 215 175
0 217 175
0 214 175
0 215 175
0 212 174
0 216 176
0 214 177
0 210 171
0 215 176
0 212 174
0 215 175
0 213 175
0 214 176
0 213 175
0 217 178
0 213 174
0 213 175
0 217 177
0 216 178
0 218 178
0 210 172
0 214 176
0 218 178
0 215 176
0 216 176
0 213 174
0 213 175
0 220 180
0 214 176
0 214 175
0 217 178
0 217 178
0 219 179
0 215 175
0 216 177
0 216 176
0 217 177
0 218 177
0 216 178
0 221 180
0 216 176
0 219 178
0 217 177
0 218 178
0 216 176
0 219 178
0 218 178
0 219 178
0 218 178
0 217 176
0 221 180
0 220 179
0 216 177
0 219 179
0 218 178
0 219 180
0 217 177
0 217 178
0 219 179
0 219 178
0 216 177
0 218 177
0 219 178
0 218 179
0 216 177
0 220 180
0 220 178
0 220 178
0 220 178
0 219 179
0 220 180
0 220 180
0 218 177
0 217 176
0 220 178
0 222 180
0 219 178
0 220 180
0 220 179
0 221 181
0 219 178
0 218 178
0 221 181
0 219 178
0 220 180
0 218 177
0 221 181
0 219 179
0 218 178
0 221 181
0 221 181
0 221 181
0 220 181
0 219 178
0 220 179
0 219 180
0 220 180
0 221 181
0 220 180
0 219 179
0 221 180
0 220 179
0 221 180
0 221 181
0 220 180
0 219 180
0 220 180
0 221 180
0 221 181
0 221 180
0 222 181
0 221 181
0 221 180
0 220 180
0 221 180
0 220 179
0 220 180
0 222 181
0 221 181
0 220 181
0 221 181
0 221 180
0 221 181
0 221 180
0 221 180
0 221 181
0 220 179
0 222 181
0 222 181
0 219 179
0 222 181
0 221 180
0 220 180
0 220 179
0 220 180
0 221 181
0 221 181
0 222 181
0 222 181
0 222 181
0 220 180
0 221 181
0 220 180
0 221 180
0 221 181
0 221 181
0 222 181
0 221 181
0 220 180
0 220 180
0 221 181
0 221 181
0 222 181
0 221 181
0 221 181
0 221 181
0 220 181
0 221 181
0 222 181
0 222 181
0 220 180
0 222 181
0 221 181
0 221 181
0 221 181
0 220 181
0 221 180
0 220 180
0 221 181
0 221 181
0 221 181
0 221 181
0 221 181
0 222 181
0 222 181
0 221 181
0 220 180
0 221 181
0 221 181
0 221 181
0 221 181
0 221 181
0 222 181
0 221 181
0 221 181
0 220 181
0 221 181
0 222 181
0 221 181
0 222 181
0 221 181
0 221 181
0 222 181
0 220 181
0 220 181
0 222 181
0 220 181
0 222 181
0 221 181
0 222 181
0 221 181
0 221 181
0 221 180
0 221 181
0 222 181
0 222 181
0 222 181
0 222 181
0 222 181
0 222 181
0 221 181
0 221 181
0 221 181
0 221 181
0 221 181
0 221 180
0 221 181
0 222 181
0 222 181
0 221 181
0 221 181
0 222 181
0 221 181
0 220 181
0 220 181
0 221 181
0 222 181
0 221 181
0 221 181
0 221 181
0 222 181
0 222 181
0 220 181
0 221 181
0 221 180
0 221 181
0 221 181
0 222 181
0 221 181
0 221 181
0 222 181
0 221 181
0 221 181
0 221 181
0 221 181
0 221 181
0 221 181
0 220 180
0 221 181
0 221 181
0 222 181
0 222 181
0 221 181
0 221 181
0 220 181
0 221 181
0 221 181
0 221 181
0 221 181
0 221 181
0 221 181
0 221 181
0 221 181
0 221 181
0 222 181
0 221 181
0 221 181
0 221 181
0 221 181
0 221 181
0 222 181
0 220 180
0 221 181
0 221 181
0 221 181
0 220 180
0 221 181
0 221 181
0 220 180
0 221 181
0 220 180
0 222 181
0 221 180
0 221 181
0 221 181
0 221 181
0 220 180
0 220 180
0 221 181
0 221 180
0 222 181
0 222 181
0 220 180
0 222 181
0 221 181
0 220 179
0 221 181
0 222 181
0 220 180
0 220 180
0 221 180
0 221 181
0 219 179
0 218 178
0 221 180
0 221 180
0 221 180
0 220 180
0 221 180
0 221 181
0 222 180
0 221 181
0 219 179
0 220 180
0 219 179
0 221 180
0 220 180
0 221 181
0 221 181
0 221 180
0 220 179
0 220 181
0 221 181
0 219 179
0 222 181
0 220 180
0 218 179
0 219 179
0 221 179
0 221 180
0 221 180
0 219 179
0 219 178
0 221 181
0 221 181
0 219 180
0 221 181
0 220 181
0 221 181
0 219 179
0 221 180
0 221 181
0 219 178
0 220 179
0 220 178
0 218 179
0 219 179
0 220 179
0 221 180
0 217 178
0 216 177
0 221 179
0 220 180
0 218 179
0 217 177
0 219 179
0 220 179
0 220 178
0 221 179
0 218 177
0 219 178
0 218 177
0 218 176
0 221 177
0 222 181
0 220 178
0 221 177
0 221 176
0 220 178
0 216 176
0 219 176
0 223 180
0 220 176
0 219 178
0 219 175
0 216 173
0 215 173
0 214 173
0 218 176
0 220 177
0 217 177
0 217 177
0 217 175
0 216 176
0 215 175
0 219 178
0 212 174
0 217 177
0 214 176
0 212 173
0 213 173
0 213 174
0 210 173
0 215 177
0 216 176
0 208 170
0 211 174
0 209 172
0 215 176
0 216 177
0 213 175
0 210 173
0 213 175
0 210 173
0 213 174
0 213 175
0 217 178
0 215 177
0 212 175
0 214 176
0 220 179
0 216 176
0 209 172
0 213 175
0 215 174
0 216 177
0 211 174
0 217 176
0 211 173
0 216 176
0 215 176
0 211 173
0 213 174
0 219 179
0 218 178
0 218 177
0 216 176
0 216 177
0 217 178
0 217 176
0 217 177
0 217 177
0 214 177
0 216 177
0 220 179
0 220 180
0 216 176
0 218 176
0 217 177
0 220 179
0 218 177
0 216 175
0 219 176
0 220 180
0 217 178
0 220 179
0 214 174
0 217 175
0 218 179
0 219 178
0 218 177
0 219 179
0 217 178
0 218 178
0 219 179
0 217 178
0 218 178
0 220 181
0 220 178
0 221 180
0 218 178
0 218 177
0 219 177
0 220 179
0 218 178
0 220 178
0 220 178
0 221 181
0 220 179
0 221 180
0 219 178
0 220 179
0 220 178
0 220 180
0 220 179
0 218 177
0 215 177
0 219 179
0 220 179
0 221 180
0 219 179
0 219 179
0 220 177
0 221 181
0 218 178
0 218 179
0 219 179
0 221 180
0 221 181
0 221 181
0 219 179
0 220 180
0 221 179
0 220 179
0 220 179
0 220 180
0 220 180
0 220 179
0 220 180
0 222 181
0 218 178
0 221 180
0 221 181
0 221 181
0 220 180
0 221 180
0 220 179
0 220 180
0 220 180
0 220 179
0 221 181
0 220 179
0 221 180
0 220 180
0 221 179
0 222 181
0 220 179
0 219 179
0 221 180
0 221 180
0 221 180
0 222 181
0 222 181
0 220 180
0 221 181
0 222 181
0 221 180
0 221 181
0 220 181
0 220 181
0 221 181
0 220 180
0 221 181
0 220 179
0 221 181
0 221 181
0 221 181
0 221 181
0 221 181
0 222 181
0 221 181
0 221 181
0 221 180
0 220 179
0 221 181
0 221 180
0 221 181
0 220 180
0 221 181
0 221 181
0 221 181
0 221 180
0 219 179
0 221 181
0 221 181
0 222 181
0 221 181
0 221 181
0 222 181
0 221 181
0 221 181
0 220 181
0 220 180
0 220 180
0 221 181
0 222 181
0 221 181
0 221 181
0 221 181
0 221 181
0 221 181
0 222 181
0 221 180
0 221 181
0 221 180
0 220 181
0 221 180
0 220 181
0 221 181
0 221 181
0 222 181
0 221 181
0 221 181
0 221 181
0 222 181
0 220 180
0 220 181
0 222 181
0 221 181
0 221 181
0 221 181
0 221 181
0 221 181
0 221 181
0 220 180
0 221 180
0 222 181
0 222 181
0 220 181
0 220 181
0 221 181
0 222 181
0 221 181
0 221 181
0 221 181
0 221 181
0 222 181
0 221 181
0 221 181
0 221 181
0 221 181
0 221 181
0 221 181
0 222 181
0 221 181
0 221 181
0 222 181
0 221 181
0 221 181
0 221 181
0 221 181
0 221 181
0 222 181
0 220 181
0 222 181
0 221 181
0 221 181
0 222 181
0 220 180
0 221 181
0 220 180
0 222 181
0 221 181
0 222 181
0 221 181
0 222 181
0 221 181
0 221 181
0 221 181
0 222 181
0 221 181
0 221 181
0 221 181
0 221 181
0 222 181
0 221 181
0 221 181
0 221 181
0 221 181
0 221 181
0 221 180
0 223 181
0 221 181
0 222 181
0 222 181
0 220 180
0 221 180
0 221 181
0 221 181
0 222 181
0 221 181
0 222 181
0 221 181
0 221 181
0 221 181
0 219 180
0 222 181
0 221 181
0 220 181
0 221 181
0 221 181
0 221 181
0 220 180
0 222 181
0 221 181
0 221 181
0 221 181
0 222 181
0 220 181
0 221 181
0 219 180
0 222 181
0 221 180
0 221 181
0 222 181
0 222 181
0 222 181
0 222 181
0 221 181
0 221 180
0 221 181
0 220 180
0 221 180
0 221 180
0 221 181
0 221 181
0 220 180
0 221 180
0 221 181
0 221 181
0 221 181
0 219 180
0 220 179
0 220 180
0 219 180
0 221 181
0 222 181
0 220 180
0 221 181
0 219 179
0 218 179
0 220 180
0 220 180
0 220 181
0 221 180
0 220 181
0 221 180
0 221 181
0 222 181
0 220 180
0 220 181
0 221 181
0 220 179
0 220 179
0 220 181
0 220 180
0 219 180
0 221 180
0 220 180
0 221 181
0 221 181
0 220 180
0 221 181
0 220 180
0 220 180
0 218 179
0 221 180
0 220 179
0 221 179
0 219 179
0 219 179
0 220 179
0 217 178
0 220 180
0 219 179
0 219 180
0 222 180
0 218 178
0 219 179
0 219 179
0 219 180
0 219 179
0 219 179
0 217 178
0 217 178
0 220 178
0 218 178
0 219 178
0 218 178
0 219 177
0 219 178
0 219 177
0 217 177
0 214 175
0 219 175
0 218 178
0 219 178
0 219 176
0 221 176
0 220 177
0 218 176
0 219 175
0 223 177
0 214 174
0 220 178
0 221 176
0 219 177
0 219 176
0 218 176
0 219 177
0 213 172
0 212 172
0 217 176
0 211 173
0 213 173
0 217 175
0 212 173
0 213 175
0 215 174
0 217 177
0 212 173
0 219 176
0 214 175
0 214 175
0 217 178
0 215 176
0 217 177
0 209 173
0 215 177
0 209 174
0 210 174
0 215 176
0 215 177
0 216 177
0 207 170
0 217 178
0 212 174
0 213 174
0 212 174
0 208 170
0 216 176
0 213 175
0 214 176
0 215 178
0 217 176
0 217 177
0 213 175
0 218 178
0 215 177
0 214 175
0 212 173
0 213 175
0 216 176
0 212 173
0 216 177
0 214 174
0 215 176
0 217 178
0 216 178
0 215 177
0 217 177
0 216 177
0 213 173
0 216 177
0 216 176
0 218 178
0 217 177
0 220 180
0 217 178
0 217 178
0 220 180
0 217 177
0 218 177
0 219 178
0 218 178
0 217 176
0 218 178
0 216 178
0 218 178
0 219 178
0 215 177
0 218 178
0 219 177
0 218 178
0 220 180
0 219 179
0 216 176
0 217 177
0 220 178
0 220 180
0 218 178
0 217 178
0 220 179
0 220 180
0 220 180
0 221 181
0 220 179
0 217 178
0 218 177
0 220 179
0 217 178
0 218 179
0 219 178
0 220 180
0 219 179
0 220 180
0 221 181
0 220 181
0 221 181
0 218 178
0 221 181
0 219 177
0 221 181
0 220 181
0 220 180
0 220 180
0 221 181
0 219 179
0 220 180
0 221 181
0 221 181
0 221 180
0 219 179
0 218 178
0 221 181
0 221 180
0 221 181
0 221 181
0 218 178
0 219 178
0 219 178
0 220 180
0 221 181
0 221 180
0 220 180
0 222 181
0 220 178
0 221 181
0 221 181
0 221 180
0 221 181
0 222 180
0 221 180
0 219 179
0 221 181
0 220 179
0 221 181
0 221 180
0 220 180
0 220 180
0 221 181
0 221 180
0 220 180
0 221 181
0 221 181
0 221 181
0 222 180
0 221 181
0 221 181
0 220 179
0 221 180
0 221 181
0 220 181
0 221 181
0 221 181
0 221 181
0 220 180
0 220 180
0 222 181
0 221 180
0 221 181
0 220 181
0 222 181
0 222 181
0 220 180
0 221 181
0 222 181
0 221 181
0 221 181
0 221 180
0 221 181
0 222 180
0 221 180
0 219 179
0 220 179
0 220 181
0 222 181
0 222 181
0 221 181
0 222 181
0 221 179
0 221 181
0 219 179
0 220 180
0 221 181
0 221 181
0 221 181
0 221 180
0 221 181
0 221 181
0 221 180
0 220 181
0 221 181
0 221 181
0 221 180
0 221 181
0 221 181
0 221 181
0 221 181
0 222 181
0 222 181
0 221 180
0 221 181
0 222 181
0 221 181
0 221 181
0 221 181
0 222 181
0 221 181
0 221 181
0 221 181
0 221 180
0 221 181
0 221 180
0 222 181
0 222 181
0 220 180
0 221 181
0 221 181
0 222 181
0 221 181
0 221 181
0 221 181
0 222 181
0 221 181
0 222 181
0 221 181
0 221 181
0 221 181
0 220 180
0 220 181
0 222 181
0 222 181
0 221 181
0 221 181
0 221 181
0 221 181
0 221 181
0 221 181
0 221 181
0 221 181
0 222 181
0 221 181
0 222 181
0 221 181
0 222 181
0 221 181
0 222 181
0 220 181
0 221 181
0 221 181
0 221 181
0 221 181
0 222 181
0 220 181
0 221 181
0 221 181
0 219 179
0 220 181
0 221 181
0 220 180
0 222 181
0 222 181
0 221 181
0 221 180
0 221 181
0 221 181
0 221 181
0 222 181
0 221 181
0 221 181
0 220 181
0 221 181
0 221 181
0 221 181
0 221 181
0 222 181
0 222 181
0 221 181
0 220 181
0 221 181
0 220 181
0 221 181
0 220 181
0 221 181
0 221 181
0 221 180
0 221 181
0 220 179
0 221 181
0 220 179
0 222 181
0 221 181
0 221 180
0 220 180
0 221 181
0 221 181
0 220 181
0 221 180
0 220 180
0 220 181
0 220 180
0 220 180
0 221 181
0 221 181
0 221 181
0 221 181
0 220 180
0 222 181
0 220 180
0 221 181
0 221 181
0 222 181
0 221 181
0 221 181
0 220 180
0 220 180
0 221 181
0 221 181
0 220 180
0 221 180
0 221 181
0 220 180
0 221 181
0 222 181
0 220 180
0 221 181
0 221 181
0 219 179
0 218 178
0 220 180
0 221 180
0 219 179
0 220 181
0 221 180
0 221 180
0 219 179
0 220 180
0 219 179
0 222 181
0 220 179
0 220 180
0 222 181
0 217 178
0 221 180
0 220 180
0 221 181
0 220 180
0 221 180
0 220 181
0 219 179
0 221 181
0 219 179
0 221 180
0 219 179
0 219 179
0 218 179
0 220 180
0 219 179
0 219 179
0 219 178
0 218 178
0 221 181
0 220 179
0 221 180
0 218 179
0 221 179
0 217 178
0 222 180
0 219 179
0 219 179
0 221 179
0 221 180
0 218 179
0 217 177
0 220 179
0 220 178
0 216 175
0 218 178
0 220 179
0 221 179
0 219 178
0 220 178
0 220 177
0 221 179
0 218 177
0 218 177
0 216 174
0 218 175
0 218 175
0 218 174
0 219 175
0 216 171
0 222 176
0 219 174
0 218 174
0 217 174
0 217 175
0 220 179
0 218 175
0 219 176
0 213 173
0 214 174
0 214 174
0 216 175
0 210 171
0 217 176
0 209 170
0 212 174
0 210 173
0 215 175
0 211 173
0 214 175
0 212 174
0 210 173
0 214 176
0 208 171
0 211 172
0 212 173
0 207 171
0 217 177
0 213 174
0 213 175
0 215 176
0 216 178
0 212 175
0 215 175
0 215 176
0 214 174
0 212 174
0 213 176
0 214 175
0 210 172
0 211 174
0 216 175
0 212 174
0 214 175
0 213 175
0 216 177
0 215 176
0 214 175
0 220 179
0 216 176
0 216 176
0 213 174
0 216 177
0 215 176
0 219 179
0 214 176
0 219 179
0 216 176
0 219 179
0 216 176
0 217 177
0 218 177
0 219 178
0 219 178
0 215 175
0 217 177
0 220 179
0 218 178
0 218 178
0 217 178
0 216 177
0 217 178
0 220 178
0 218 178
0 217 177
0 218 178
0 220 179
0 220 179
0 220 180
0 219 177
0 222 180
0 217 177
0 219 177
0 218 178
0 218 178
0 218 178
0 220 180
0 219 179
0 220 178
0 220 179
0 219 179
0 219 179
0 222 181
0 217 177
0 217 178
0 220 179
0 217 178
0 218 179
0 219 178
0 218 178
0 220 179
0 219 179
0 217 177
0 220 179
0 220 179
0 218 177
0 220 180
0 221 180
0 220 180
0 220 180
0 220 181
0 221 181
0 221 180
0 221 180
0 220 180
0 219 179
0 222 181
0 222 181
0 222 181
0 221 181
0 221 181
0 221 180
0 220 180
0 220 180
0 221 181
0 219 178
0 221 180
0 221 180
0 220 180
0 221 180
0 219 179
0 221 181
0 220 180
0 220 180
0 221 181
0 221 181
0 219 180
0 220 179
0 220 180
0 220 181
0 222 181
0 220 178
0 220 179
0 221 181
0 221 181
0 220 180
0 220 180
0 219 179
0 220 180
0 221 181
0 222 181
0 220 181
0 221 181
0 222 181
0 221 180
0 221 180
0 222 181
0 221 181
0 222 181
0 220 180
0 220 179
0 221 180
0 221 181
0 222 181
0 221 181
0 220 180
0 220 179
0 219 179
0 221 181
0 221 181
0 222 181
0 220 180
0 222 181
0 220 180
0 221 179
0 220 180
0 220 181
0 221 181
0 220 181
0 222 181
0 220 180
0 221 181
0 220 181
0 222 181
0 220 181
0 221 181
0 221 181
0 223 181
0 221 181
0 221 181
0 222 181
0 221 181
0 220 181
0 221 181
0 222 181
0 222 181
0 221 180
0 221 181
0 221 181
0 222 181
0 222 181
0 221 181
0 221 181
0 220 180
0 220 180
0 221 181
0 220 180
0 221 181
0 221 181
0 222 181
0 221 181
0 221 181
0 221 181
0 222 181
0 221 181
0 219 181
0 221 181
0 222 181
0 220 180
0 221 181
0 220 179
0 221 181
0 222 181
0 221 181
0 220 180
0 221 181
0 222 181
0 222 181
0 221 181
0 221 181
0 222 181
0 221 181
0 221 181
0 220 180
0 221 181
0 222 181
0 221 180
0 221 181
0 222 181
0 220 181
0 221 181
0 222 181
0 222 181
0 221 181
0 222 181
0 221 181
0 221 181
0 221 181
0 222 181
0 222 181
0 222 181
0 221 181
0 221 181
0 221 181
0 221 181
0 221 181
0 220 179
0 222 181
0 220 180
0 221 181
0 221 181
0 220 181
0 222 181
0 222 181
0 221 181
0 221 181
0 222 181
0 222 181
0 220 181
0 222 181
0 221 181
0 220 181
0 221 181
0 221 181
0 221 181
0 221 181
0 221 181
0 222 181
0 221 181
0 221 181
0 222 181
0 221 181
0 222 181
0 222 181
0 221 181
0 220 180
0 221 180
0 220 181
0 220 180
0 221 181
0 221 181
0 221 181
0 221 181
0 220 180
0 221 181
0 221 181
0 222 181
0 221 181
0 222 181
0 222 181
0 220 181
0 221 180
0 222 181
0 220 181
0 220 180
0 222 180
0 220 180
0 220 180
0 219 179
0 221 181
0 220 180
0 221 181
0 222 181
0 222 181
0 221 181
0 222 181
0 221 181
0 221 181
0 219 179
0 220 180
0 220 180
0 221 181
0 221 181
0 221 181
0 221 180
0 221 181
0 221 181
0 220 180
0 220 180
0 220 179
0 222 181
0 221 180
0 220 180
0 220 180
0 220 180
0 222 181
0 220 181
0 220 180
0 221 181
0 220 179
0 220 180
0 220 180
0 220 181
0 221 181
0 222 180
0 219 180
0 219 179
0 220 180
0 218 179
0 219 178
0 221 181
0 220 180
0 219 179
0 221 180
0 219 179
0 219 179
0 221 180
0 218 179
0 219 179
0 220 181
0 218 178
0 221 181
0 221 180
0 220 180
0 219 179
0 221 180
0 221 181
0 221 179
0 221 180
0 220 179
0 219 180
0 220 179
0 219 180
0 220 181
0 221 179
0 221 180
0 218 178
0 222 181
0 222 179
0 216 178
0 222 180
0 221 181
0 223 178
0 220 178
0 217 176
0 219 178
0 219 178
0 219 178
0 217 177
0 217 178
0 220 178
0 221 178
0 220 178
0 221 178
0 218 174
0 218 175
0 220 178
0 220 177
0 221 178
0 217 176
0 219 178
0 217 175
0 220 175
0 221 174
0 219 175
0 220 177
0 217 173
0 218 174
0 216 174
0 214 174
0 210 171
0 213 174
0 216 176
0 213 173
0 213 171
0 209 172
0 209 173
0 210 170
0 210 172
0 211 173
0 213 173
0 214 176
0 213 175
0 209 171
0 207 172
0 215 177
0 215 176
0 206 169
0 213 175
0 216 177
0 217 177
0 212 175
0 206 170
0 209 171
0 212 173
0 211 173
0 214 176
0 213 175
0 214 173
0 218 177
0 214 175
0 211 174
0 213 175
0 210 172
0 214 177
0 214 175
0 214 174
0 215 176
0 209 172
0 216 177
0 211 172
0 218 178
0 217 176
0 212 174
0 216 175
0 215 176
0 215 176
0 216 176
0 218 176
0 217 178
0 218 177
0 217 176
0 214 175
0 218 178
0 218 178
0 219 178
0 217 177
0 220 180
0 221 180
0 217 178
0 215 175
0 216 178
0 213 175
0 219 178
0 219 178
0 218 178
0 218 178
0 219 180
0 218 178
0 217 177
0 217 177
0 219 178
0 218 178
0 219 177
0 221 180
0 219 179
0 217 176
0 221 180
0 220 180
0 219 179
0 218 177
0 219 178
0 219 178
0 220 180
0 220 180
0 219 179
0 216 176
0 221 180
0 218 178
0 220 180
0 220 180
0 220 178
0 219 178
0 221 181
0 218 177
0 221 180
0 220 180
0 220 179
0 218 178
0 219 178
0 221 180
0 219 178
0 219 179
0 219 180
0 220 180
0 221 180
0 219 179
0 220 179
0 221 181
0 219 179
0 220 180
0 219 180
0 220 179
0 221 180
0 221 181
0 219 180
0 221 180
0 221 180
0 221 181
0 219 178
0 220 179
0 222 181
0 220 180
0 221 181
0 221 181
0 221 180
0 221 180
0 221 181
0 221 181
0 221 179
0 222 181
0 222 181
0 221 181
0 221 181
0 219 179
0 221 180
0 220 180
0 221 180
0 221 181
0 221 180
0 220 179
0 220 181
0 220 180
0 221 181
0 222 181
0 222 181
0 221 181
0 221 181
0 221 181
0 222 181
0 222 180
0 221 181
0 221 181
0 220 181
0 221 181
0 222 181
0 221 181
0 222 181
0 221 181
0 221 181
0 221 180
0 221 181
0 222 181
0 220 180
0 221 179
0 221 181
0 221 181
0 221 181
0 220 180
0 220 181
0 220 181
0 222 181
0 221 181
0 221 181
0 222 181
0 222 181
0 220 180
0 222 181
0 222 181
0 220 180
0 222 181
0 221 181
0 221 180
0 221 181
0 222 181
0 220 180
0 222 181
0 221 181
0 220 180
0 221 181
0 222 180
0 221 181
0 222 181
0 221 181
0 221 181
0 223 181
0 222 181
0 221 181
0 222 181
0 222 181
0 221 181
0 221 181
0 221 181
0 221 181
0 221 181
0 221 181
0 221 181
0 221 181
0 221 181
0 221 181
0 221 181
0 221 181
0 221 181
0 222 181
0 221 181
0 222 181
0 221 181
0 222 181
0 222 181
0 221 181
0 220 181
0 220 181
0 220 181
0 221 181
0 222 181
0 222 181
0 222 181
0 221 181
0 221 181
0 221 181
0 221 181
0 221 181
0 221 181
0 221 181
0 221 181
0 221 181
0 221 181
0 222 181
0 220 181
0 222 181
0 221 181
0 221 181
0 221 181
0 222 181
0 221 181
0 221 181
0 221 181
0 221 180
0 221 181
0 222 181
0 221 181
0 222 181
0 222 181
0 222 181
0 221 181
0 221 181
0 221 181
0 221 181
0 220 180
0 222 181
0 220 180
0 221 181
0 220 181
0 221 181
0 222 181
0 220 181
0 221 180
0 221 181
0 221 181
0 222 181
0 221 181
0 220 180
0 222 181
0 220 180
0 222 180
0 221 181
0 221 181
0 221 181
0 220 180
0 220 180
0 220 181
0 222 181
0 221 181
0 221 181
0 222 181
0 221 181
0 220 181
0 222 181
0 221 181
0 221 181
0 222 181
0 221 180
0 221 180
0 221 181
0 222 181
0 221 181
0 220 180
0 221 181
0 219 180
0 221 181
0 221 181
0 221 181
0 221 180
0 221 181
0 221 181
0 220 180
0 221 181
0 221 181
0 222 181
0 221 180
0 221 180
0 220 181
0 221 180
0 221 181
0 220 181
0 220 180
0 220 180
0 220 179
0 221 181
0 219 180
0 220 180
0 220 180
0 219 179
0 221 181
0 219 179
0 220 181
0 220 180
0 222 181
0 221 180
0 221 181
0 222 180
0 219 180
0 221 181
0 218 179
0 218 179
0 220 180
0 222 180
0 221 181
0 221 180
0 220 180
0 221 181
0 221 181
0 221 181
0 221 180
0 220 180
0 221 181
0 218 179
0 221 181
0 220 180
0 220 180
0 220 179
0 221 179
0 221 180
0 218 178
0 217 178
0 220 179
0 218 178
0 219 179
0 219 179
0 220 180
0 218 180
0 219 179
0 220 180
0 220 178
0 217 178
0 217 177
0 219 178
0 219 179
0 221 180
0 216 177
0 219 178
0 217 177
0 217 177
0 217 177
0 219 178
0 217 178
0 218 177
0 219 178
0 217 175
0 220 179
0 220 178
0 218 176
0 220 178
0 221 178
0 215 176
0 218 177
0 222 179
0 221 178
0 218 177
0 219 178
0 218 177
0 222 178
0 219 176
0 216 174
0 217 176
0 213 171
0 210 168
0 214 173
0 217 176
0 215 174
0 214 174
0 213 174
0 209 171
0 210 172
0 215 175
0 209 170
0 210 172
0 216 176
0 211 173
0 209 170
0 210 172
0 213 175
0 212 173
0 212 173
0 214 175
0 214 175
0 212 174
0 209 171
0 208 171
0 214 176
0 215 177
0 211 174
0 217 177
0 214 176
0 213 175
0 213 174
0 209 172
0 211 173
0 213 176
0 210 172
0 216 178
0 215 177
0 214 174
0 217 178
0 208 172
0 215 176
0 216 175
0 214 176
0 213 174
0 214 174
0 218 177
0 216 177
0 214 176
0 219 179
0 217 178
0 217 178
0 219 178
0 218 178
0 214 175
0 218 178
0 215 176
0 216 177
0 219 178
0 217 177
0 217 178
0 217 177
0 218 178
0 216 175
0 217 178
0 218 176
0 217 177
0 217 177
0 218 177
0 219 178
0 216 177
0 218 177
0 216 176
0 214 175
0 217 176
0 218 178
0 220 180
0 218 178
0 219 178
0 219 180
0 220 179
0 218 178
0 216 176
0 217 177
0 218 177
0 219 177
0 219 178
0 219 177
0 220 179
0 220 180
0 218 178
0 220 180
0 215 176
0 218 176
0 221 180
0 219 178
0 218 178
0 221 180
0 219 179
0 220 180
0 219 177
0 218 178
0 219 180
0 221 181
0 220 179
0 217 178
0 220 180
0 220 179
0 220 179
0 221 181
0 219 179
0 221 180
0 222 181
0 219 178
0 221 181
0 220 180
0 218 179
0 222 181
0 220 179
0 219 178
0 219 179
0 221 181
0 222 181
0 221 181
0 221 180
0 219 179
0 220 180
0 218 178
0 222 181
0 220 179
0 221 180
0 221 181
0 220 181
0 220 180
0 221 179
0 221 181
0 221 179
0 222 181
0 220 180
0 221 181
0 221 181
0 221 181
0 221 181
0 220 179
0 220 180
0 220 180
0 221 181
0 220 181
0 220 181
0 221 181
0 221 181
0 222 180
0 221 181
0 221 180
0 220 181
0 219 180
0 221 181
0 221 181
0 221 181
0 221 181
0 221 181
0 218 178
0 221 180
0 218 179
0 221 180
0 219 180
0 221 181
0 222 181
0 221 181
0 222 181
0 221 180
0 222 181
0 221 181
0 221 181
0 221 181
0 221 181
0 221 181
0 222 180
0 221 181
0 221 181
0 222 181
0 222 181
0 221 181
0 221 181
0 222 181
0 222 181
0 221 181
0 221 181
0 222 181
0 220 181
0 221 181
0 222 181
0 222 181
0 220 180
0 220 180
0 221 181
0 221 181
0 221 181
0 220 181
0 220 181
0 221 181
0 221 181
0 222 181
0 221 181
0 221 181
0 222 181
0 221 181
0 221 181
0 221 181
0 221 181
0 221 181
0 221 181
0 222 181
0 221 181
0 220 181
0 221 181
0 221 180
0 220 181
0 221 181
0 220 181
0 221 181
0 221 181
0 221 181
0 219 179
0 222 181
0 222 181
0 221 181
0 221 181
0 221 181
0 221 181
0 222 181
0 221 181
0 221 181
0 222 181
0 222 181
0 221 181
0 222 181
0 220 180
0 222 181
0 221 181
0 221 181
0 222 181
0 222 181
0 220 180
0 221 181
0 221 181
0 221 181
0 221 181
0 221 181
0 221 181
0 222 181
0 221 181
0 221 181
0 221 181
0 222 181
0 221 181
0 222 181
0 221 181
0 220 181
0 221 181
0 221 181
0 221 181
0 221 181
0 221 181
0 221 180
0 221 181
0 221 181
0 222 181
0 221 181
0 222 181
0 221 181
0 222 180
0 221 181
0 221 181
0 220 181
0 221 181
0 220 180
0 221 181
0 221 181
0 221 181
0 221 181
0 222 181
0 222 181
0 220 181
0 221 181
0 221 181
0 221 181
0 221 181
0 220 180
0 221 181
0 221 181
0 221 181
0 221 181
0 222 181
0 220 181
0 220 181
0 220 181
0 221 181
0 222 181
0 222 181
0 222 181
0 221 181
0 221 181
0 221 181
0 220 180
0 222 181
0 221 181
0 221 181
0 220 180
0 220 181
0 221 181
0 220 180
0 221 181
0 221 181
0 220 180
0 220 180
0 220 181
0 222 181
0 220 180
0 221 181
0 219 180
0 221 181
0 220 180
0 221 181
0 221 181
0 221 180
0 220 180
0 221 181
0 222 181
0 220 181
0 222 181
0 222 181
0 221 181
0 220 180
0 220 181
0 221 181
0 220 180
0 221 180
0 220 180
0 219 179
0 221 180
0 220 180
0 222 181
0 218 179
0 219 179
0 221 181
0 219 180
0 218 178
0 220 180
0 219 180
0 219 179
0 219 179
0 219 179
0 220 179
0 220 180
0 219 180
0 221 181
0 218 179
0 219 180
0 221 180
0 217 178
0 219 180
0 219 180
0 219 180
0 220 180
0 218 178
0 219 178
0 219 179
0 219 177
0 220 180
0 219 179
0 220 180
0 220 178
0 219 178
0 219 179
0 220 179
0 220 179
0 218 178
0 219 178
0 220 179
0 221 179
0 221 181
0 218 177
0 218 175
0 220 178
0 218 177
0 219 178
0 218 178
0 217 178
0 219 178
0 216 177
0 219 178
0 219 179
0 217 175
0 219 179
0 219 177
0 220 178
0 220 178
0 219 177
0 217 176
0 214 174
0 213 173
0 220 178
0 217 175
0 216 172
0 214 172
0 215 173
0 215 173
0 209 171
0 214 172
0 210 172
0 206 171
0 210 172
0 207 170
0 212 173
0 212 173
0 209 172
0 213 172
0 208 171
0 208 172
0 213 175
0 208 171
0 212 173
0 213 173
0 214 177
0 213 173
0 214 176
0 206 170
0 207 172
0 211 173
0 214 175
0 212 175
0 216 177
0 216 178
0 212 174
0 210 174
0 211 172
0 210 173
0 215 176
0 209 172
0 211 171
0 214 173
0 212 174
0 217 178
0 214 176
0 218 178
0 215 176
0 211 173
0 217 175
0 211 175
0 218 178
0 211 171
0 214 175
0 214 176
0 217 177
0 219 176
0 214 175
0 217 176
0 216 176
0 219 178
0 221 180
0 214 174
0 218 178
0 216 177
0 221 179
0 219 179
0 218 178
0 217 177
0 214 175
0 215 176
0 220 180
0 220 177
0 220 180
0 217 177
0 220 179
0 221 181
0 219 177
0 221 181
0 216 176
0 219 179
0 219 178
0 219 177
0 221 180
0 219 179
0 217 177
0 218 180
0 220 180
0 218 178
0 221 179
0 219 178
0 219 177
0 217 176
0 220 179
0 219 179
0 220 180
0 219 179
0 221 180
0 220 180
0 221 178
0 219 179
0 222 181
0 219 179
0 220 179
0 219 178
0 220 179
0 220 180
0 220 179
0 220 181
0 220 179
0 220 181
0 220 179
0 220 180
0 220 179
0 218 178
0 220 179
0 221 179
0 220 180
0 219 178
0 220 179
0 220 180
0 219 180
0 221 181
0 222 181
0 220 180
0 220 179
0 221 181
0 221 180
0 221 181
0 221 181
0 221 181
0 221 181
0 221 181
0 220 178
0 221 181
0 220 180
0 221 181
0 220 180
0 220 180
0 222 181
0 220 181
0 221 181
0 222 181
0 221 181
0 221 180
0 220 181
0 221 180
0 221 180
0 221 180
0 221 180
0 222 181
0 221 180
0 222 181
0 222 181
0 221 181
0 221 181
0 221 181
0 221 181
0 221 180
0 221 180
0 222 181
0 221 181
0 221 181
0 222 181
0 222 181
0 221 181
0 221 181
0 221 180
0 221 181
0 222 181
0 220 181
0 221 180
0 220 181
0 221 181
0 222 181
0 221 181
0 222 181
0 221 180
0 221 181
0 222 181
0 221 181
0 221 179
0 221 181
0 221 181
0 222 181
0 221 181
0 221 181
0 221 181
0 221 181
0 220 180
0 222 181
0 221 181
0 221 181
0 220 181
0 221 181
0 221 181
0 221 181
0 221 181
0 221 181
0 221 181
0 222 181
0 221 181
0 221 181
0 221 181
0 221 181
0 221 181
0 221 181
0 220 180
0 221 181
0 221 181
0 221 181
0 220 181
0 221 181
0 221 181
0 221 181
0 221 181
0 222 180
0 220 181
0 222 181
0 221 181
0 220 180
0 220 180
0 221 181
0 221 181
0 221 181
0 221 181
0 222 181
0 221 181
0 222 181
0 221 181
0 222 181
0 220 181
0 221 181
0 222 181
0 221 181
0 222 181
0 221 181
0 221 181
0 221 181
0 221 181
0 222 181
0 222 181
0 221 181
0 221 181
0 220 180
0 222 181
0 221 181
0 221 181
0 221 181
0 221 181
0 221 181
0 221 181
0 222 181
0 221 181
0 222 181
0 220 181
0 221 181
0 221 181
0 220 180
0 221 181
0 222 181
0 221 181
0 222 181
0 221 181
0 220 181
0 221 181
0 220 181
0 221 181
0 221 181
0 220 181
0 221 181
0 221 181
0 220 181
0 221 180
0 222 181
0 220 181
0 221 181
0 221 181
0 221 181
0 223 181
0 222 181
0 221 181
0 219 180
0 221 181
0 222 181
0 221 181
0 220 180
0 221 180
0 221 181
0 220 180
0 221 181
0 221 181
0 221 181
0 221 180
0 221 181
0 222 181
0 222 181
0 221 181
0 220 180
0 220 180
0 220 180
0 219 180
0 222 181
0 221 180
0 221 180
0 221 180
0 222 181
0 220 181
0 222 181
0 222 181
0 221 181
0 221 181
0 220 180
0 221 181
0 221 181
0 221 180
0 222 181
0 221 181
0 221 181
0 220 179
0 219 179
0 221 181
0 221 181
0 221 180
0 221 181
0 222 181
0 221 180
0 222 181
0 220 179
0 221 181
0 220 180
0 221 181
0 220 179
0 220 180
0 220 180
0 221 181
0 219 180
0 222 181
0 221 180
0 220 180
0 222 181
0 220 180
0 221 179
0 220 179
0 222 181
0 217 178
0 221 180
0 222 179
0 221 181
0 221 180
0 221 181
0 220 180
0 219 179
0 219 179
0 219 179
0 220 179
0 220 180
0 220 179
0 219 179
0 222 181
0 221 181
0 217 178
0 219 179
0 221 181
0 219 180
0 219 178
0 222 180
0 219 179
0 218 178
0 219 179
0 218 179
0 220 180
0 218 178
0 218 177
0 220 179
0 220 179
0 217 177
0 221 180
0 217 176
0 219 178
0 217 176
0 215 176
0 220 178
0 217 176
0 219 178
0 219 178
0 221 180
0 218 177
0 217 178
0 217 178
0 218 179
0 220 179
0 218 177
0 218 177
0 215 174
0 220 179
0 218 177
0 215 175
0 219 178
0 216 174
0 217 177
0 215 175
0 217 174
0 218 176
0 212 171
0 215 174
0 213 173
0 215 174
0 212 170
0 207 169
0 212 172
0 212 172
0 210 172
0 210 172
0 210 172
0 218 177
0 211 173
0 212 173
0 217 176
0 212 174
0 209 173
0 206 171
0 211 173
0 205 168
0 212 173
0 211 175
0 208 171
0 209 172
0 205 169
0 213 175
0 215 175
0 208 171
0 210 173
0 209 171
0 210 172
0 213 175
0 215 175
0 213 175
0 216 178
0 210 172
0 210 172
0 214 176
0 209 170
0 213 175
0 210 173
0 213 175
0 215 177
0 216 176
0 217 177
0 217 177
0 215 175
0 214 175
0 217 177
0 211 173
0 215 176
0 217 177
0 218 178
0 217 177
0 218 177
0 218 178
0 216 176
0 218 177
0 215 176
0 214 174
0 215 176
0 216 177
0 218 178
0 215 176
0 220 180
0 217 178
0 218 178
0 218 178
0 217 176
0 219 178
0 216 178
0 221 180
0 220 179
0 216 175
0 219 179
0 218 177
0 220 179
0 217 177
0 219 180
0 216 176
0 218 178
0 218 179
0 220 181
0 219 178
0 218 178
0 217 177
0 221 180
0 218 177
0 220 180
0 217 178
0 220 180
0 218 177
0 221 180
0 220 179
0 219 178
0 220 180
0 220 179
0 216 177
0 218 176
0 219 180
0 218 178
0 221 181
0 220 179
0 221 181
0 218 178
0 221 180
0 221 181
0 219 178
0 221 181
0 221 180
0 220 180
0 221 180
0 220 179
0 222 181
0 221 181
0 220 180
0 220 181
0 221 180
0 219 179
0 219 179
0 222 180
0 219 180
0 222 181
0 220 180
0 221 181
0 220 181
0 221 181
0 222 180
0 221 181
0 221 180
0 221 179
0 220 180
0 220 180
0 219 179
0 222 181
0 221 181
0 221 180
0 220 180
0 221 180
0 220 180
0 220 181
0 221 180
0 220 179
0 221 180
0 218 179
0 221 181
0 222 181
0 221 181
0 222 181
0 221 180
0 220 181
0 222 181
0 221 181
0 221 181
0 220 179
0 221 181
0 220 180
0 221 180
0 219 180
0 220 180
0 221 181
0 220 181
0 221 181
0 221 181
0 221 181
0 221 181
0 221 181
0 222 181
0 222 181
0 222 181
0 222 181
0 221 181
0 220 180
0 220 181
0 222 181
0 222 181
0 221 181
0 221 180
0 220 179
0 221 181
0 222 181
0 221 180
0 221 181
0 220 181
0 220 181
0 221 181
0 221 181
0 222 181
0 220 181
0 221 181
0 221 181
0 222 181
0 221 181
0 222 181
0 220 180
0 221 181
0 220 181
0 221 181
0 222 181
0 221 181
0 221 181
0 222 181
0 221 181
0 220 179
0 221 181
0 221 181
0 222 181
0 222 181
0 220 179
0 221 181
0 222 181
0 222 181
0 221 181
0 220 180
0 221 181
0 222 181
0 221 181
0 221 181
0 221 181
0 222 181
0 221 181
0 221 180
0 221 181
0 221 181
0 221 181
0 222 181
0 221 181
0 221 181
0 221 181
0 221 181
0 222 181
0 221 181
0 220 181
0 222 181
0 221 181
0 222 181
0 222 181
0 221 181
0 222 181
0 221 181
0 220 181
0 221 181
0 222 181
0 221 180
0 221 181
0 221 180
0 220 180
0 221 181
0 221 181
0 221 181
0 221 180
0 222 181
0 222 181
0 221 181
0 222 181
0 222 181
0 221 181
0 221 181
0 221 180
0 220 180
0 221 181
0 222 181
0 222 181
0 221 181
0 221 180
0 221 180
0 221 181
0 220 180
0 221 181
0 221 181
0 220 181
0 222 181
0 222 181
0 220 181
0 221 181
0 220 180
0 222 180
0 220 181
0 221 181
0 220 181
0 221 181
0 221 181
0 221 181
0 221 181
0 221 181
0 221 181
0 220 180
0 221 181
0 221 181
0 221 181
0 220 181
0 222 181
0 221 181
0 222 181
0 221 181
0 220 181
0 221 181
0 220 180
0 221 181
0 221 181
0 222 181
0 221 181
0 220 179
0 220 180
0 221 181
0 221 181
0 221 181
0 220 181
0 221 181
0 219 179
0 220 181
0 220 180
0 221 181
0 221 181
0 222 181
0 218 179
0 221 180
0 222 181
0 220 179
0 221 181
0 220 180
0 220 180
0 222 181
0 221 181
0 220 180
0 222 181
0 221 181
0 220 180
0 222 180
0 222 180
0 221 181
0 221 181
0 220 181
0 219 179
0 220 180
0 220 180
0 221 181
0 221 181
0 220 180
0 220 180
0 221 181
0 221 180
0 219 180
0 219 178
0 220 181
0 219 180
0 221 180
0 220 180
0 221 180
0 218 178
0 220 180
0 219 180
0 220 181
0 220 180
0 221 181
0 219 180
0 219 179
0 218 179
0 219 179
0 220 180
0 220 180
0 222 180
0 219 179
0 222 180
0 220 181
0 218 179
0 220 179
0 220 180
0 218 178
0 220 180
0 217 178
0 218 178
0 221 180
0 221 180
0 218 178
0 221 180
0 222 180
0 217 176
0 222 180
0 219 179
0 220 179
0 219 179
0 220 179
0 219 180
0 218 178
0 219 179
0 219 179
0 217 176
0 220 178
0 222 178
0 219 177
0 219 177
0 218 176
0 216 174
0 220 178
0 219 177
0 218 177
0 213 173
0 217 178
0 218 176
0 217 177
0 211 172
0 214 173
0 213 172
0 219 176
0 209 170
0 205 168
0 209 170
0 209 172
0 215 173
0 200 166
0 208 171
0 209 171
0 213 173
0 209 173
0 212 174
0 203 167
0 209 172
0 206 169
0 209 171
0 204 170
0 212 173
0 209 171
0 212 174
0 203 169
0 209 171
0 209 171
0 213 174
0 214 175
0 205 169
0 213 173
0 210 171
0 218 177
0 213 174
0 212 175
0 208 171
0 212 175
0 213 175
0 210 171
0 215 176
0 214 175
0 214 176
0 214 175
0 215 175
0 214 172
0 210 173
0 215 173
0 215 176
0 215 175
0 216 176
0 213 173
0 215 174
0 214 176
0 214 175
0 214 173
0 217 175
0 214 172
0 217 176
0 218 178
0 218 178
0 217 176
0 217 177
0 218 177
0 219 178
0 215 176
0 219 178
0 217 177
0 219 179
0 219 178
0 220 179
0 220 179
0 219 179
0 218 178
0 221 180
0 218 178
0 220 180
0 217 178
0 220 180
0 218 179
0 217 178
0 220 180
0 220 180
0 218 177
0 222 181
0 221 181
0 218 179
0 217 176
0 220 179
0 220 178
0 221 180
0 221 181
0 219 179
0 219 179
0 220 179
0 221 180
0 221 180
0 215 176
0 220 179
0 221 181
0 220 179
0 221 179
0 219 179
0 222 181
0 222 181
0 219 178
0 221 178
0 218 177
0 221 180
0 221 181
0 218 179
0 220 180
0 222 181
0 221 181
0 220 179
0 220 181
0 222 181
0 221 181
0 221 180
0 220 181
0 221 181
0 221 180
0 222 181
0 220 180
0 221 181
0 222 181
0 221 181
0 220 180
0 220 179
0 220 180
0 221 180
0 221 181
0 221 181
0 221 181
0 220 181
0 222 181
0 221 180
0 221 180
0 221 180
0 220 180
0 221 180
0 220 180
0 222 181
0 221 181
0 221 181
0 221 181
0 220 178
0 221 181
0 221 181
0 221 180
0 221 181
0 220 180
0 220 181
0 219 180
0 221 180
0 221 181
0 221 180
0 221 181
0 221 181
0 222 181
0 221 181
0 221 180
0 221 180
0 222 181
0 220 181
0 221 181
0 221 181
0 222 181
0 222 181
0 221 181
0 222 181
0 221 181
0 221 181
0 221 180
0 221 181
0 221 181
0 221 180
0 221 181
0 221 181
0 221 181
0 221 181
0 221 181
0 220 180
0 222 181
0 221 181
0 220 181
0 221 180
0 221 181
0 221 181
0 222 181
0 222 181
0 221 181
0 221 181
0 222 181
0 220 180
0 221 181
0 221 181
0 221 181
0 221 181
0 220 180
0 222 181
0 221 181
0 220 181
0 221 181
0 220 181
0 222 181
0 221 181
0 221 181
0 221 181
0 221 181
0 222 181
0 221 181
0 221 181
0 221 181
0 220 181
0 221 181
0 222 181
0 222 181
0 221 181
0 221 181
0 221 181
0 220 181
0 221 181
0 221 181
0 221 181
0 222 181
0 221 181
0 222 181
0 221 181
0 222 181
0 220 180
0 223 181
0 221 181
0 222 181
0 221 181
0 221 181
0 221 181
0 221 181
0 222 181
0 221 181
0 221 181
0 222 181
0 221 181
0 222 181
0 222 181
0 221 181
0 222 181
0 221 181
0 221 181
0 222 181
0 221 180
0 220 181
0 222 181
0 222 181
0 221 181
0 221 180
0 221 181
0 222 181
0 221 181
0 222 181
0 221 181
0 222 181
0 221 181
0 220 180
0 221 181
0 222 181
0 223 181
0 222 181
0 221 181
0 222 181
0 221 181
0 220 181
0 221 181
0 221 181
0 221 181
0 221 180
0 222 181
0 221 181
0 220 180
0 222 181
0 222 181
0 221 181
0 221 181
0 220 181
0 221 180
0 221 181
0 220 181
0 221 181
0 221 181
0 221 181
0 221 180
0 220 180
0 221 181
0 222 181
0 222 181
0 221 181
0 221 181
0 221 181
0 222 181
0 221 181
0 220 180
0 221 181
0 221 180
0 222 181
0 222 181
0 221 180
0 221 181
0 222 181
0 220 180
0 220 181
0 219 179
0 220 180
0 219 179
0 221 180
0 219 180
0 221 180
0 219 180
0 221 181
0 222 181
0 221 181
0 222 181
0 221 181
0 220 180
0 221 181
0 221 181
0 222 181
0 221 181
0 222 181
0 220 181
0 221 180
0 221 181
0 222 181
0 220 180
0 219 180
0 218 179
0 221 181
0 221 180
0 221 180
0 220 180
0 219 179
0 221 181
0 220 179
0 218 179
0 220 180
0 220 180
0 217 178
0 220 180
0 221 181
0 220 180
0 218 179
0 221 180
0 220 181
0 221 181
0 219 179
0 218 179
0 219 179
0 219 179
0 221 180
0 219 179
0 221 180
0 218 178
0 215 176
0 220 179
0 218 178
0 218 177
0 220 180
0 221 179
0 220 180
0 220 180
0 217 178
0 220 179
0 217 178
0 219 178
0 217 178
0 219 180
0 218 178
0 218 178
0 217 177
0 220 179
0 220 178
0 220 180
0 221 179
0 218 178
0 218 179
0 221 180
0 220 179
0 220 178
0 220 177
0 222 178
0 222 178
0 220 177
0 219 177
0 222 173
0 221 175
0 221 176
0 217 173
0 219 175
0 215 174
0 217 175
0 217 175
0 216 175
0 211 173
0 213 174
0 212 171
0 209 169
0 213 172
0 213 172
0 209 171
0 207 168
0 204 166
0 210 172
0 204 168
0 205 169
0 205 168
0 209 170
0 208 169
0 202 167
0 207 170
0 215 175
0 213 175
0 209 172
0 208 171
0 208 172
0 210 172
0 200 165
0 208 170
0 210 173
0 199 165
0 212 173
0 214 174
0 210 173
0 210 171
0 205 168
0 215 175
0 212 174
0 213 174
0 210 172
0 208 168
0 213 175
0 210 170
0 215 175
0 211 172
0 216 177
0 213 174
0 207 169
0 216 177
0 213 174
0 216 176
0 214 173
0 213 173
0 215 175
0 212 174
0 213 173
0 216 174
0 215 176
0 216 177
0 215 175
0 216 174
0 216 176
0 218 179
0 215 176
0 214 176
0 220 180
0 216 175
0 216 177
0 213 175
0 219 178
0 217 178
0 217 177
0 219 178
0 219 179
0 218 179
0 219 179
0 219 179
0 214 176
0 218 179
0 218 177
0 218 177
0 218 178
0 218 178
0 218 178
0 219 179
0 220 180
0 221 181
0 221 180
0 216 176
0 220 180
0 219 179
0 220 180
0 221 179
0 219 179
0 220 179
0 219 180
0 219 177
0 220 181
0 219 178
0 221 180
0 220 179
0 219 177
0 217 178
0 218 178
0 220 180
0 218 178
0 219 178
0 221 181
0 222 181
0 218 178
0 221 180
0 221 179
0 219 179
0 220 180
0 221 181
0 221 180
0 221 181
0 220 180
0 221 180
0 220 179
0 221 180
0 219 178
0 221 181
0 220 179
0 222 181
0 220 181
0 221 181
0 221 180
0 220 180
0 221 180
0 220 179
0 221 178
0 219 180
0 220 180
0 221 181
0 221 180
0 221 180
0 219 180
0 223 181
0 222 181
0 222 181
0 221 181
0 222 181
0 221 180
0 220 180
0 220 180
0 221 180
0 221 181
0 221 181
0 221 180
0 221 181
0 220 180
0 221 181
0 221 181
0 220 180
0 221 181
0 222 181
0 222 181
0 221 181
0 220 181
0 220 179
0 222 181
0 222 181
0 221 180
0 221 181
0 221 180
0 222 181
0 221 181
0 220 180
0 222 181
0 220 179
0 221 181
0 219 180
0 222 181
0 221 181
0 220 181
0 221 181
0 221 181
0 222 181
0 221 181
0 221 181
0 222 181
0 221 181
0 221 181
0 220 179
0 220 180
0 220 181
0 221 181
0 220 180
0 222 181
0 222 181
0 222 181
0 222 181
0 222 181
0 222 181
0 221 181
0 222 181
0 221 181
0 222 181
0 221 181
0 220 180
0 222 181
0 221 181
0 222 181
0 221 181
0 221 180
0 221 180
0 220 181
0 221 181
0 222 181
0 221 181
0 222 181
0 222 180
0 223 181
0 221 180
0 221 181
0 221 181
0 221 181
0 222 181
0 221 181
0 221 181
0 221 181
0 222 181
0 222 181
0 222 181
0 221 181
0 221 181
0 222 181
0 220 181
0 222 181
0 222 181
0 221 181
0 221 181
0 221 181
0 221 181
0 222 181
0 221 181
0 220 180
0 221 181
0 221 181
0 222 181
0 221 181
0 221 181
0 220 180
0 220 181
0 222 181
0 222 181
0 220 180
0 221 181
0 220 181
0 221 181
0 221 181
0 221 181
0 221 181
0 222 181
0 221 181
0 221 181
0 222 181
0 219 180
0 221 181
0 221 181
0 222 180
0 221 181
0 219 180
0 222 181
0 221 181
0 222 181
0 221 181
0 221 181
0 221 181
0 222 181
0 222 181
0 222 181
0 222 181
0 222 181
0 221 181
0 222 181
0 220 181
0 222 181
0 221 181
0 220 181
0 222 181
0 222 181
0 221 181
0 221 181
0 219 179
0 221 180
0 221 181
0 221 181
0 221 181
0 220 180
0 221 181
0 220 180
0 219 180
0 222 181
0 221 181
0 222 181
0 221 181
0 221 181
0 221 181
0 221 181
0 221 181
0 221 181
0 221 181
0 222 181
0 221 181
0 222 181
0 220 180
0 221 181
0 222 181
0 220 180
0 222 181
0 220 180
0 222 181
0 221 181
0 221 181
0 220 179
0 220 180
0 220 181
0 219 179
0 220 180
0 222 181
0 222 181
0 221 181
0 220 180
0 220 180
0 220 180
0 221 181
0 220 179
0 222 181
0 219 180
0 221 181
0 220 180
0 220 180
0 220 181
0 220 179
0 218 179
0 220 180
0 220 180
0 220 180
0 219 179
0 220 180
0 220 180
0 220 180
0 221 181
0 220 180
0 221 181
0 221 181
0 221 181
0 219 180
0 221 181
0 220 180
0 217 179
0 219 179
0 219 179
0 219 179
0 220 179
0 220 180
0 219 179
0 218 179
0 218 179
0 220 179
0 220 180
0 221 181
0 221 180
0 221 180
0 217 178
0 217 178
0 219 180
0 218 178
0 220 179
0 219 179
0 217 178
0 218 178
0 218 178
0 222 179
0 215 176
0 219 178
0 217 178
0 215 176
0 220 179
0 220 179
0 220 179
0 219 179
0 219 180
0 214 176
0 221 179
0 221 179
0 220 178
0 218 176
0 218 175
0 221 179
0 221 179
0 221 178
0 221 177
0 220 174
0 218 172
0 217 170
0 219 173
0 217 171
0 217 173
0 215 172
0 217 174
0 213 173
0 215 175
0 214 174
0 212 173
0 208 169
0 211 173
0 210 171
0 210 170
0 209 170
0 204 165
0 209 171
0 208 169
0 204 168
0 209 171
0 208 171
0 204 168
0 209 171
0 207 171
0 201 167
0 206 171
0 203 166
0 210 172
0 207 171
0 211 171
0 207 170
0 204 169
0 210 173
0 204 169
0 211 174
0 206 169
0 209 171
0 208 173
0 212 173
0 213 174
0 213 174
0 211 172
0 214 175
0 210 172
0 208 169
0 211 172
0 212 173
0 211 173
0 213 173
0 213 175
0 213 174
0 210 172
0 209 171
0 214 174
0 219 176
0 219 178
0 218 177
0 211 174
0 217 177
0 214 175
0 215 175
0 217 176
0 216 175
0 218 176
0 216 176
0 220 179
0 216 177
0 217 178
0 217 177
0 218 176
0 219 178
0 216 176
0 217 177
0 217 177
0 220 178
0 218 178
0 219 179
0 217 176
0 217 177
0 219 178
0 216 177
0 216 176
0 220 179
0 219 179
0 220 179
0 217 177
0 217 177
0 220 179
0 219 178
0 217 176
0 216 176
0 218 177
0 219 178
0 220 179
0 218 178
0 214 174
0 219 179
0 217 177
0 220 180
0 221 181
0 220 178
0 219 180
0 218 178
0 220 180
0 219 178
0 219 179
0 219 179
0 220 180
0 220 179
0 220 180
0 221 180
0 221 180
0 220 178
0 223 180
0 218 178
0 220 179
0 219 180
0 220 180
0 220 180
0 220 179
0 220 179
0 221 179
0 218 178
0 221 181
0 221 180
0 221 181
0 220 181
0 221 181
0 221 181
0 220 179
0 219 179
0 220 180
0 221 181
0 221 181
0 221 180
0 219 179
0 221 181
0 219 179
0 222 181
0 219 180
0 220 180
0 221 181
0 220 180
0 219 179
0 222 180
0 221 181
0 221 181
0 221 180
0 221 180
0 220 179
0 220 180
0 222 180
0 221 181
0 220 180
0 220 181
0 220 178
0 220 180
0 221 181
0 221 181
0 222 181
0 221 181
0 221 181
0 221 181
0 220 180
0 220 181
0 221 181
0 221 181
0 222 181
0 222 181
0 221 181
0 220 181
0 220 180
0 222 181
0 221 181
0 220 180
0 222 181
0 220 180
0 221 181
0 221 181
0 221 180
0 221 181
0 221 181
0 221 180
0 222 181
0 222 181
0 221 181
0 222 181
0 221 181
0 223 181
0 221 180
0 221 181
0 221 180
0 220 181
0 221 181
0 221 181
0 221 181
0 222 181
0 221 180
0 220 180
0 221 180
0 221 181
0 221 181
0 221 181
0 221 181
0 222 181
0 221 181
0 221 181
0 222 181
0 221 181
0 221 181
0 221 181
0 222 181
0 220 181
0 222 181
0 221 181
0 221 181
0 221 181
0 221 181
0 221 181
0 222 181
0 221 181
0 221 181
0 221 181
0 221 181
0 222 181
0 221 181
0 221 181
0 222 181
0 222 181
0 221 181
0 222 181
0 222 181
0 222 181
0 221 181
0 221 181
0 221 181
0 221 181
0 222 181
0 221 181
0 221 181
0 220 181
0 221 181
0 221 181
0 222 181
0 222 181
0 221 181
0 221 181
0 222 181
0 221 181
0 222 181
0 222 181
0 221 181
0 221 180
0 221 181
0 220 181
0 220 181
0 222 181
0 221 181
0 220 181
0 220 180
0 221 181
0 221 181
0 221 181
0 221 181
0 221 180
0 221 180
0 220 179
0 221 181
0 221 181
0 223 181
0 221 181
0 221 181
0 221 181
0 221 180
0 221 181
0 220 181
0 221 181
0 220 181
0 221 181
0 221 181
0 221 181
0 222 180
0 221 181
0 220 179
0 221 181
0 221 181
0 221 181
0 222 181
0 221 181
0 220 180
0 219 180
0 220 180
0 222 181
0 220 179
0 221 181
0 221 180
0 222 181
0 221 181
0 221 181
0 222 180
0 222 181
0 222 181
0 221 180
0 221 181
0 223 181
0 221 181
0 222 181
0 222 181
0 221 181
0 222 181
0 220 180
0 221 181
0 221 181
0 221 181
0 221 181
0 219 179
0 220 179
0 221 180
0 221 181
0 220 179
0 221 181
0 220 180
0 221 181
0 222 180
0 221 181
0 221 181
0 221 181
0 218 179
0 221 181
0 220 181
0 220 180
0 219 179
0 221 181
0 218 179
0 220 180
0 221 180
0 217 178
0 221 181
0 219 179
0 217 179
0 221 181
0 220 181
0 220 180
0 222 181
0 221 179
0 219 179
0 220 180
0 220 180
0 220 180
0 219 178
0 222 181
0 218 179
0 220 180
0 222 181
0 219 180
0 221 181
0 220 180
0 219 178
0 220 180
0 217 179
0 222 181
0 219 179
0 221 180
0 218 179
0 222 181
0 220 179
0 218 178
0 221 180
0 222 181
0 217 178
0 221 181
0 219 179
0 219 178
0 219 179
0 220 180
0 218 177
0 219 179
0 221 179
0 221 180
0 220 180
0 218 179
0 220 179
0 220 179
0 218 179
0 220 180
0 218 179
0 219 179
0 221 181
0 219 179
0 217 178
0 218 177
0 219 178
0 217 176
0 219 177
0 220 175
0 218 174
0 220 175
0 220 173
0 219 174
0 214 170
0 217 171
0 219 167
0 216 170
0 217 171
0 211 165
0 211 170
0 215 171
0 214 172
0 213 174
0 208 172
0 214 175
0 211 173
0 212 171
0 209 170
0 201 164
0 203 167
0 209 172
0 198 162
0 205 168
0 205 170
0 206 170
0 206 169
0 204 168
0 206 168
0 201 167
0 201 166
0 201 167
0 207 169
0 200 163
0 207 170
0 206 170
0 212 174
0 208 170
0 210 171
0 200 166
0 209 172
0 208 171
0 209 171
0 209 172
0 203 167
0 210 173
0 210 172
0 212 173
0 208 170
0 212 173
0 214 176
0 209 172
0 210 173
0 214 175
0 211 173
0 212 173
0 209 171
0 209 171
0 213 173
0 215 177
0 215 175
0 215 175
0 214 174
0 215 176
0 213 172
0 212 173
0 213 174
0 213 174
0 215 175
0 216 175
0 216 177
0 216 177
0 218 177
0 215 175
0 220 178
0 218 177
0 216 177
0 214 174
0 220 180
0 218 178
0 215 175
0 214 173
0 212 172
0 219 177
0 220 180
0 218 178
0 218 178
0 219 177
0 220 180
0 218 176
0 217 177
0 219 180
0 218 176
0 220 179
0 219 178
0 218 178
0 217 178
0 217 178
0 221 180
0 217 177
0 218 177
0 218 178
0 220 180
0 216 175
0 220 180
0 219 178
0 219 181
0 218 177
0 218 178
0 219 179
0 220 177
0 220 180
0 221 179
0 219 179
0 221 181
0 219 178
0 221 180
0 220 179
0 218 178
0 222 180
0 219 179
0 221 181
0 219 179
0 220 181
0 219 179
0 220 179
0 221 180
0 220 180
0 220 180
0 220 179
0 220 181
0 220 180
0 220 179
0 220 180
0 219 179
0 221 181
0 221 181
0 220 180
0 221 181
0 220 180
0 221 180
0 221 180
0 221 180
0 220 179
0 220 180
0 221 180
0 220 180
0 220 180
0 221 181
0 219 180
0 220 180
0 221 181
0 220 180
0 220 181
0 221 181
0 222 181
0 222 181
0 220 180
0 220 181
0 221 181
0 221 181
0 221 180
0 222 181
0 218 179
0 221 181
0 221 181
0 221 181
0 221 181
0 221 181
0 222 181
0 220 180
0 222 181
0 221 181
0 220 180
0 218 178
0 221 181
0 221 180
0 221 180
0 221 181
0 220 180
0 220 180
0 222 181
0 222 181
0 221 181
0 221 181
0 221 181
0 222 181
0 221 181
0 220 180
0 221 181
0 221 181
0 220 181
0 221 181
0 222 181
0 221 181
0 220 180
0 221 180
0 221 181
0 221 181
0 220 180
0 222 181
0 222 181
0 221 181
0 221 181
0 221 181
0 221 181
0 222 181
0 219 180
0 221 181
0 221 181
0 221 181
0 222 181
0 221 181
0 222 181
0 222 181
0 222 181
0 220 181
0 222 181
0 220 181
0 220 180
0 221 181
0 221 180
0 222 181
0 221 181
0 220 180
0 222 181
0 222 181
0 220 181
0 220 181
0 221 181
0 221 181
0 220 180
0 221 181
0 221 181
0 221 181
0 220 181
0 221 181
0 221 181
0 220 181
0 219 180
0 222 181
0 220 181
0 222 180
0 221 181
0 221 181
0 221 181
0 221 181
0 222 181
0 222 181
0 221 181
0 222 181
0 222 181
0 222 181
0 222 181
0 221 181
0 219 180
0 222 181
0 221 181
0 221 181
0 221 181
0 222 181
0 220 181
0 221 181
0 221 181
0 220 180
0 222 181
0 221 181
0 222 181
0 221 181
0 221 181
0 221 181
0 220 181
0 222 181
0 222 181
0 222 181
0 220 181
0 221 180
0 223 181
0 220 180
0 221 181
0 221 181
0 221 181
0 220 181
0 220 180
0 221 181
0 221 180
0 221 181
0 221 181
0 220 180
0 220 181
0 222 181
0 221 181
0 222 181
0 221 181
0 221 181
0 222 180
0 220 181
0 220 181
0 222 181
0 221 181
0 221 181
0 222 181
0 220 180
0 221 180
0 221 181
0 220 180
0 222 181
0 222 181
0 222 181
0 222 181
0 221 181
0 221 181
0 222 181
0 221 180
0 221 181
0 221 181
0 221 180
0 221 180
0 221 180
0 221 180
0 219 180
0 221 181
0 221 181
0 221 181
0 221 180
0 221 181
0 221 181
0 222 181
0 220 181
0 221 181
0 221 181
0 220 180
0 219 179
0 221 181
0 221 180
0 220 180
0 220 180
0 220 179
0 220 180
0 221 181
0 220 180
0 221 180
0 221 181
0 221 181
0 221 181
0 220 181
0 220 180
0 221 181
0 220 180
0 221 180
0 219 179
0 219 180
0 221 181
0 219 179
0 221 181
0 221 181
0 218 178
0 219 179
0 221 181
0 219 180
0 220 180
0 219 179
0 220 180
0 219 179
0 220 181
0 221 181
0 217 178
0 219 180
0 219 179
0 221 180
0 220 179
0 215 176
0 220 179
0 220 180
0 220 180
0 216 177
0 215 177
0 216 178
0 219 180
0 215 176
0 217 178
0 218 178
0 216 177
0 218 178
0 219 177
0 217 177
0 217 179
0 218 179
0 218 178
0 219 179
0 219 180
0 220 180
0 222 180
0 218 178
0 220 178
0 221 177
0 217 176
0 221 178
0 220 178
0 216 175
0 217 172
0 216 171
0 218 175
0 219 172
0 218 172
0 212 163
0 215 169
0 215 170
0 210 167
0 221 175
0 210 167
0 215 171
0 210 169
0 210 172
0 215 174
0 209 172
0 211 173
0 209 173
0 206 171
0 202 164
0 198 162
0 211 172
0 203 166
0 207 169
0 207 169
0 207 171
0 208 171
0 206 168
0 201 166
0 203 168
0 207 170
0 190 160
0 201 166
0 206 169
0 211 173
0 203 167
0 206 169
0 206 170
0 211 173
0 207 169
0 204 169
0 214 175
0 205 168
0 212 172
0 205 170
0 209 171
0 205 169
0 205 169
0 207 169
0 212 171
0 214 176
0 212 174
0 213 173
0 212 175
0 214 174
0 216 176
0 213 172
0 209 171
0 212 174
0 214 174
0 210 172
0 212 173
0 211 173
0 214 175
0 213 175
0 212 173
0 217 175
0 212 174
0 214 176
0 219 178
0 216 177
0 218 178
0 214 173
0 217 175
0 217 178
0 213 175
0 217 177
0 213 172
0 217 176
0 219 179
0 215 175
0 217 177
0 220 180
0 218 177
0 219 178
0 218 177
0 217 176
0 218 176
0 219 178
0 218 178
0 219 179
0 220 179
0 217 178
0 217 177
0 220 179
0 221 180
0 220 180
0 219 180
0 218 177
0 219 180
0 219 179
0 221 179
0 221 180
0 220 180
0 221 180
0 216 177
0 221 179
0 216 177
0 220 178
0 219 178
0 219 178
0 220 180
0 220 180
0 221 180
0 220 180
0 218 179
0 219 177
0 220 180
0 220 180
0 222 181
0 220 180
0 220 179
0 216 176
0 220 179
0 222 181
0 220 180
0 219 179
0 220 179
0 221 181
0 221 181
0 221 180
0 221 181
0 221 181
0 221 181
0 219 179
0 220 179
0 220 179
0 220 181
0 220 180
0 221 181
0 221 181
0 219 178
0 221 181
0 222 181
0 220 180
0 220 180
0 221 181
0 221 181
0 219 178
0 221 181
0 222 181
0 222 181
0 220 180
0 221 181
0 221 181
0 220 181
0 221 181
0 220 180
0 222 181
0 221 180
0 221 181
0 221 181
0 221 181
0 221 181
0 220 180
0 222 181
0 221 181
0 219 180
0 221 180
0 220 181
0 221 181
0 221 181
0 222 181
0 221 180
0 221 180
0 222 181
0 219 179
0 221 181
0 221 181
0 221 181
0 220 181
0 221 181
0 221 180
0 221 181
0 221 181
0 221 181
0 222 181
0 221 181
0 222 181
0 222 181
0 222 181
0 220 181
0 221 181
0 221 181
0 222 181
0 220 181
0 220 181
0 221 181
0 221 181
0 222 181
0 221 181
0 220 180
0 221 180
0 221 181
0 221 181
0 221 181
0 221 181
0 221 181
0 221 181
0 222 181
0 220 181
0 221 181
0 221 181
0 221 181
0 222 181
0 222 181
0 221 181
0 221 181
0 220 179
0 221 181
0 221 181
0 221 181
0 221 181
0 221 181
0 221 181
0 222 181
0 221 181
0 221 181
0 221 181
0 222 181
0 221 181
0 221 181
0 222 181
0 221 181
0 221 181
0 220 181
0 221 181
0 221 181
0 222 181
0 221 181
0 221 181
0 220 180
0 221 181
0 221 181
0 221 181
0 221 181
0 223 181
0 221 181
0 221 181
0 221 181
0 221 181
0 222 181
0 222 181
0 221 181
0 221 181
0 221 181
0 221 181
0 222 181
0 221 181
0 221 181
0 220 181
0 221 181
0 221 181
0 221 181
0 220 181
0 220 181
0 221 181
0 221 181
0 220 181
0 222 181
0 221 181
0 221 181
0 222 181
0 220 180
0 221 181
0 221 181
0 221 181
0 220 180
0 221 181
0 221 181
0 222 181
0 220 181
0 222 181
0 222 180
0 221 181
0 221 181
0 221 181
0 221 181
0 221 181
0 220 180
0 221 181
0 221 181
0 222 181
0 220 180
0 220 181
0 222 181
0 219 179
0 221 181
0 221 181
0 221 181
0 221 181
0 221 181
0 221 181
0 221 180
0 221 181
0 221 180
0 221 181
0 222 181
0 221 181
0 222 181
0 221 181
0 220 181
0 222 181
0 222 181
0 221 181
0 221 180
0 220 181
0 221 180
0 220 180
0 219 180
0 221 181
0 218 179
0 221 181
0 221 181
0 220 179
0 221 181
0 219 180
0 222 181
0 218 179
0 222 181
0 222 181
0 221 181
0 221 181
0 220 181
0 220 180
0 220 181
0 221 181
0 221 181
0 222 180
0 219 179
0 222 181
0 220 180
0 221 180
0 219 180
0 220 180
0 219 179
0 220 180
0 220 181
0 221 181
0 221 181
0 218 179
0 221 181
0 220 179
0 222 181
0 220 179
0 222 181
0 221 181
0 220 180
0 220 180
0 221 180
0 219 178
0 219 179
0 221 180
0 220 181
0 220 180
0 218 179
0 220 180
0 220 180
0 220 180
0 221 180
0 220 180
0 220 180
0 219 179
0 218 178
0 219 179
0 219 179
0 219 178
0 220 180
0 218 178
0 221 180
0 221 179
0 217 177
0 217 178
0 220 180
0 217 176
0 215 177
0 218 178
0 217 177
0 219 179
0 221 180
0 218 178
0 220 180
0 219 179
0 219 179
0 220 179
0 220 178
0 219 178
0 214 174
0 216 173
0 219 175
0 215 171
0 220 174
0 220 173
0 218 171
0 214 172
0 210 165
0 212 164
0 209 166
0 215 169
0 206 163
0 213 171
0 213 168
0 205 166
0 210 170
0 205 167
0 206 168
0 213 174
0 212 175
0 210 172
0 208 171
0 201 167
0 191 159
0 202 164
0 207 167
0 199 163
0 198 163
0 203 168
0 206 168
0 201 167
0 203 168
0 197 164
0 201 164
0 207 171
0 206 170
0 211 173
0 203 166
0 206 168
0 215 175
0 207 171
0 203 168
0 203 168
0 204 168
0 213 175
0 205 168
0 206 170
0 204 168
0 205 168
0 205 169
0 201 165
0 209 169
0 210 173
0 209 172
0 210 170
0 205 168
0 209 171
0 214 174
0 211 171
0 212 173
0 212 173
0 216 176
0 212 174
0 211 173
0 215 175
0 213 174
0 214 174
0 213 173
0 216 175
0 214 174
0 213 174
0 215 175
0 216 175
0 215 175
0 214 173
0 216 178
0 217 177
0 217 177
0 215 175
0 214 175
0 217 177
0 221 180
0 214 176
0 217 177
0 217 176
0 217 175
0 215 174
0 215 175
0 218 177
0 218 179
0 219 180
0 220 178
0 219 179
0 217 177
0 220 178
0 215 175
0 219 179
0 219 180
0 220 180
0 219 178
0 218 177
0 218 178
0 220 180
0 217 175
0 216 176
0 220 178
0 218 178
0 220 180
0 219 177
0 219 178
0 218 177
0 220 180
0 222 181
0 221 179
0 221 181
0 221 180
0 221 181
0 222 181
0 221 180
0 222 180
0 220 180
0 217 177
0 221 181
0 221 180
0 219 179
0 220 179
0 220 180
0 218 177
0 220 181
0 222 181
0 220 180
0 218 178
0 219 179
0 220 179
0 221 181
0 220 180
0 222 181
0 220 179
0 220 179
0 221 180
0 221 180
0 221 181
0 220 180
0 221 180
0 222 181
0 221 181
0 220 180
0 220 181
0 220 180
0 221 180
0 220 179
0 220 179
0 221 181
0 221 181
0 222 181
0 221 181
0 221 181
0 220 181
0 221 181
0 221 180
0 221 181
0 221 181
0 221 181
0 221 181
0 221 181
0 220 181
0 221 181
0 221 181
0 221 181
0 220 181
0 221 181
0 222 181
0 221 181
0 221 181
0 221 180
0 220 180
0 222 181
0 220 180
0 221 181
0 221 181
0 221 181
0 221 181
0 221 181
0 222 181
0 221 180
0 220 180
0 221 181
0 220 181
0 222 181
0 221 181
0 221 181
0 221 181
0 222 180
0 220 181
0 222 181
0 220 181
0 221 181
0 220 180
0 221 181
0 221 181
0 222 181
0 221 181
0 221 181
0 221 181
0 221 181
0 222 181
0 221 181
0 221 181
0 221 181
0 222 181
0 221 181
0 220 181
0 222 181
0 221 181
0 220 181
0 221 181
0 220 181
0 222 181
0 221 181
0 221 181
0 221 181
0 221 181
0 222 181
0 220 180
0 221 181
0 222 181
0 221 181
0 221 181
0 220 181
0 221 181
0 220 181
0 221 180
0 222 181
0 221 181
0 221 181
0 221 181
0 221 181
0 222 181
0 220 181
0 222 181
0 221 181
0 222 181
0 221 181
0 220 180
0 220 180
0 220 181
0 221 181
0 222 181
0 221 181
0 222 181
0 221 181
0 221 181
0 221 181
0 221 180
0 222 181
0 221 181
0 221 181
0 221 181
0 221 181
0 221 181
0 222 181
0 222 181
0 222 181
0 221 181
0 221 181
0 222 181
0 221 181
0 221 181
0 221 181
0 220 181
0 220 181
0 222 181
0 221 180
0 222 181
0 221 181
0 222 181
0 220 181
0 222 181
0 222 181
0 221 181
0 220 180
0 222 181
0 220 180
0 221 181
0 222 181
0 222 181
0 221 181
0 222 181
0 221 181
0 221 181
0 221 181
0 222 181
0 220 181
0 221 181
0 221 180
0 221 181
0 219 180
0 220 180
0 220 181
0 221 181
0 221 181
0 220 181
0 220 180
0 221 181
0 222 181
0 221 180
0 220 180
0 221 181
0 221 180
0 220 181
0 221 181
0 221 181
0 220 179
0 220 180
0 221 181
0 221 181
0 220 181
0 221 181
0 222 181
0 222 181
0 220 181
0 221 181
0 220 180
0 221 181
0 222 181
0 221 181
0 219 180
0 220 180
0 221 181
0 221 181
0 220 181
0 221 180
0 218 180
0 221 181
0 220 181
0 221 181
0 221 181
0 220 181
0 221 181
0 221 181
0 222 181
0 221 181
0 221 181
0 221 181
0 221 180
0 220 180
0 221 180
0 220 180
0 220 180
0 220 180
0 221 181
0 219 179
0 221 180
0 221 181
0 220 180
0 220 180
0 220 180
0 219 180
0 220 181
0 221 180
0 221 180
0 221 181
0 221 181
0 217 178
0 219 178
0 221 180
0 220 179
0 221 181
0 219 180
0 219 179
0 220 180
0 221 181
0 221 181
0 220 180
0 218 179
0 217 177
0 217 179
0 218 178
0 219 179
0 221 179
0 221 181
0 217 178
0 219 180
0 218 178
0 218 179
0 217 178
0 217 178
0 219 178
0 217 176
0 219 180
0 219 179
0 221 181
0 221 179
0 218 178
0 219 177
0 216 176
0 220 178
0 218 177
0 219 177
0 217 175
0 218 176
0 216 173
0 220 178
0 219 174
0 217 173
0 219 176
0 209 166
0 213 169
0 212 167
0 211 164
0 212 166
0 213 167
0 207 165
0 209 170
0 211 171
0 208 168
0 207 166
0 214 172
0 210 170
0 214 176
0 211 173
0 206 169
0 202 167
0 194 158
0 204 169
0 199 165
0 200 163
0 199 164
0 204 167
0 204 167
0 206 169
0 204 167
0 194 161
0 195 161
0 201 166
0 202 168
0 199 165
0 196 162
0 202 166
0 198 164
0 203 167
0 204 169
0 210 171
0 206 168
0 207 166
0 207 170
0 207 172
0 209 172
0 207 169
0 210 171
0 211 173
0 207 170
0 199 164
0 212 174
0 210 171
0 209 173
0 213 174
0 209 173
0 212 174
0 218 178
0 215 175
0 214 173
0 209 171
0 212 173
0 211 172
0 212 171
0 207 168
0 211 173
0 214 173
0 217 177
0 213 174
0 220 179
0 214 175
0 214 174
0 218 177
0 216 175
0 219 179
0 216 176
0 217 176
0 213 173
0 217 177
0 215 176
0 216 176
0 218 178
0 219 179
0 218 177
0 217 177
0 218 177
0 220 178
0 218 177
0 220 178
0 220 179
0 217 177
0 218 176
0 220 178
0 214 175
0 219 178
0 220 180
0 218 177
0 219 178
0 220 181
0 218 178
0 217 178
0 220 179
0 220 179
0 222 181
0 221 181
0 220 179
0 220 181
0 219 179
0 218 178
0 219 179
0 221 180
0 219 179
0 219 178
0 219 179
0 218 179
0 221 181
0 218 178
0 220 179
0 222 180
0 222 181
0 220 180
0 219 179
0 221 180
0 221 180
0 220 180
0 221 181
0 221 180
0 220 181
0 221 180
0 221 181
0 221 180
0 220 180
0 220 180
0 222 181
0 221 181
0 221 180
0 220 180
0 221 181
0 222 181
0 220 181
0 222 181
0 221 181
0 221 180
0 221 181
0 221 180
0 221 181
0 219 179
0 221 181
0 222 181
0 220 180
0 222 180
0 221 180
0 221 180
0 221 181
0 220 180
0 221 181
0 221 181
0 222 181
0 221 181
0 220 179
0 221 181
0 222 180
0 220 180
0 221 181
0 220 180
0 222 181
0 222 181
0 220 180
0 222 181
0 220 181
0 221 181
0 222 181
0 221 180
0 221 181
0 222 181
0 220 181
0 221 181
0 220 180
0 221 181
0 221 181
0 222 181
0 220 181
0 222 181
0 220 181
0 220 181
0 221 181
0 222 181
0 222 181
0 222 181
0 222 181
0 221 181
0 221 181
0 222 181
0 221 181
0 221 181
0 221 181
0 222 181
0 220 181
0 221 181
0 220 180
0 221 181
0 222 181
0 220 180
0 221 181
0 220 181
0 222 181
0 221 181
0 221 181
0 221 181
0 221 181
0 220 181
0 221 181
0 222 181
0 221 181
0 221 181
0 221 181
0 221 181
0 222 181
0 222 181
0 219 179
0 221 181
0 221 181
0 220 180
0 221 181
0 221 181
0 221 181
0 222 181
0 221 181
0 222 181
0 221 181
0 221 181
0 222 181
0 221 181
0 221 181
0 221 181
0 222 181
0 221 181
0 221 181
0 221 181
0 223 181
0 221 180
0 221 181
0 223 181
0 221 181
0 221 181
0 222 181
0 220 180
0 221 181
0 221 181
0 221 181
0 221 181
0 220 181
0 221 181
0 222 181
0 221 181
0 221 181
0 221 181
0 222 181
0 222 181
0 222 181
0 221 181
0 222 181
0 221 181
0 220 181
0 221 181
0 221 181
0 221 181
0 222 181
0 221 181
0 222 181
0 220 181
0 222 181
0 221 180
0 222 181
0 220 181
0 221 181
0 221 181
0 222 181
0 220 181
0 221 181
0 221 181
0 220 181
0 221 181
0 222 181
0 220 181
0 220 179
0 221 181
0 220 180
0 220 181
0 222 181
0 222 181
0 221 181
0 221 181
0 220 180
0 222 181
0 222 181
0 222 181
0 221 180
0 221 181
0 220 181
0 221 181
0 221 181
0 220 180
0 222 181
0 221 181
0 220 181
0 221 181
0 221 180
0 221 181
0 221 181
0 221 181
0 220 180
0 221 181
0 221 181
0 222 181
0 222 181
0 221 181
0 222 181
0 221 181
0 221 181
0 221 181
0 221 181
0 221 181
0 221 180
0 220 179
0 220 181
0 222 181
0 221 180
0 222 181
0 221 181
0 221 181
0 220 180
0 219 179
0 219 180
0 221 181
0 221 180
0 222 181
0 220 180
0 219 180
0 220 179
0 220 180
0 221 181
0 220 179
0 219 179
0 221 181
0 221 180
0 221 181
0 220 180
0 221 181
0 220 180
0 220 179
0 221 180
0 218 179
0 220 180
0 221 181
0 219 179
0 221 181
0 220 181
0 221 181
0 220 181
0 219 179
0 220 180
0 221 180
0 220 180
0 221 180
0 219 179
0 220 180
0 221 180
0 217 178
0 218 179
0 219 180
0 217 178
0 220 180
0 219 180
0 219 180
0 219 178
0 220 180
0 218 178
0 220 179
0 219 179
0 217 176
0 221 180
0 219 179
0 221 180
0 216 177
0 216 178
0 221 181
0 220 180
0 221 180
0 219 180
0 219 180
0 218 179
0 217 178
0 217 178
0 216 176
0 217 177
0 219 180
0 217 176
0 216 175
0 213 174
0 217 173
0 208 168
0 219 174
0 214 170
0 213 169
0 213 168
0 208 165
0 207 166
0 203 162
0 211 168
0 211 167
0 206 166
0 201 161
0 201 164
0 200 163
0 201 164
0 202 167
0 199 166
0 210 173
0 203 168
0 203 167
0 197 163
0 201 165
0 201 164
0 200 164
0 205 168
0 201 163
0 203 167
0 193 159
0 202 164
0 198 162
0 196 163
0 197 162
0 206 167
0 199 165
0 204 168
0 202 166
0 204 167
0 211 173
0 205 169
0 205 169
0 201 165
0 198 162
0 207 168
0 207 170
0 204 166
0 211 173
0 202 164
0 202 164
0 204 167
0 207 171
0 208 168
0 206 169
0 209 171
0 209 169
0 213 175
0 206 169
0 208 170
0 207 170
0 209 169
0 207 169
0 212 173
0 213 174
0 210 169
0 214 175
0 217 177
0 219 177
0 210 171
0 216 177
0 207 168
0 215 175
0 213 173
0 215 176
0 218 177
0 217 174
0 215 175
0 215 174
0 212 173
0 217 176
0 216 177
0 215 174
0 216 177
0 219 177
0 216 176
0 215 176
0 216 176
0 218 177
0 218 177
0 219 178
0 217 178
0 218 177
0 217 176
0 219 178
0 219 179
0 218 177
0 217 178
0 219 179
0 219 179
0 220 180
0 218 178
0 219 179
0 219 179
0 220 178
0 219 179
0 219 180
0 220 180
0 221 180
0 220 179
0 220 179
0 219 179
0 220 180
0 219 178
0 218 178
0 220 180
0 220 180
0 222 180
0 222 181
0 220 181
0 220 181
0 220 179
0 220 180
0 220 180
0 220 180
0 221 179
0 220 180
0 218 177
0 220 180
0 221 181
0 220 180
0 220 181
0 222 181
0 222 181
0 220 180
0 220 180
0 221 180
0 220 180
0 221 180
0 220 180
0 220 181
0 221 181
0 221 181
0 221 180
0 221 181
0 222 181
0 222 180
0 221 180
0 221 180
0 221 181
0 221 180
0 220 181
0 222 180
0 220 179
0 222 181
0 219 180
0 221 181
0 221 181
0 220 179
0 220 179
0 221 181
0 221 180
0 221 181
0 219 177
0 220 180
0 220 180
0 221 181
0 221 181
0 221 180
0 221 181
0 222 181
0 221 181
0 221 181
0 222 181
0 221 181
0 220 180
0 222 181
0 221 181
0 221 181
0 221 181
0 222 181
0 221 181
0 221 181
0 221 181
0 221 181
0 221 181
0 221 181
0 220 181
0 222 181
0 221 181
0 220 180
0 221 181
0 220 180
0 222 181
0 221 181
0 221 181
0 221 181
0 221 181
0 221 181
0 222 181
0 221 181
0 220 181
0 221 181
0 222 181
0 221 181
0 220 181
0 220 181
0 221 181
0 220 180
0 220 181
0 221 181
0 221 181
0 221 181
0 222 181
0 221 181
0 221 181
0 222 181
0 221 181
0 220 181
0 221 181
0 221 181
0 221 181
0 221 180
0 222 181
0 222 181
0 221 181
0 221 181
0 221 181
0 221 181
0 220 181
0 221 181
0 221 181
0 221 181
0 222 181
0 222 181
0 222 181
0 222 181
0 221 181
0 220 181
0 221 181
0 221 181
0 221 181
0 221 181
0 221 181
0 221 180
0 221 181
0 221 181
0 222 181
0 221 181
0 222 181
0 221 181
0 222 181
0 221 181
0 222 181
0 222 181
0 222 181
0 221 181
0 222 181
0 221 181
0 221 181
0 222 181
0 220 181
0 220 181
0 221 181
0 220 181
0 221 181
0 221 180
0 222 181
0 221 180
0 222 181
0 221 181
0 222 181
0 221 181
0 222 181
0 221 181
0 221 181
0 222 181
0 222 181
0 221 181
0 221 181
0 221 181
0 221 181
0 221 181
0 221 181
0 220 181
0 222 181
0 220 180
0 222 181
0 221 181
0 221 181
0 222 181
0 222 181
0 220 180
0 221 181
0 220 181
0 221 181
0 221 181
0 221 181
0 221 181
0 221 181
0 221 181
0 219 179
0 221 181
0 221 180
0 221 181
0 221 181
0 221 181
0 221 180
0 221 181
0 221 181
0 221 180
0 222 181
0 222 181
0 221 181
0 221 181
0 220 180
0 220 180
0 221 181
0 221 181
0 220 181
0 220 179
0 221 181
0 221 180
0 221 181
0 221 180
0 221 181
0 221 181
0 220 180
0 221 181
0 220 180
0 221 181
0 221 181
0 220 180
0 220 180
0 219 180
0 221 181
0 220 180
0 222 181
0 221 181
0 220 180
0 222 181
0 220 181
0 219 179
0 220 180
0 219 179
0 220 180
0 221 180
0 220 181
0 222 180
0 219 179
0 221 180
0 221 180
0 221 180
0 220 179
0 221 181
0 220 180
0 219 180
0 221 180
0 222 181
0 220 180
0 220 180
0 219 179
0 220 180
0 219 179
0 220 180
0 218 178
0 221 180
0 220 180
0 221 181
0 221 181
0 220 179
0 219 179
0 220 180
0 221 179
0 222 181
0 220 180
0 221 181
0 218 179
0 220 179
0 219 179
0 219 178
0 218 178
0 218 178
0 218 178
0 217 178
0 219 178
0 213 176
0 219 179
0 217 178
0 221 181
0 220 180
0 221 180
0 217 178
0 215 176
0 216 175
0 218 179
0 218 178
0 213 174
0 216 175
0 214 174
0 214 172
0 219 176
0 212 172
0 208 167
0 211 172
0 213 170
0 213 171
0 210 167
0 214 172
0 211 169
0 207 165
0 208 168
0 208 164
0 205 166
0 201 164
0 204 167
0 198 162
0 200 162
0 208 170
0 203 168
0 210 172
0 204 167
0 205 167
0 195 161
0 186 155
0 199 164
0 198 163
0 196 162
0 197 163
0 194 162
0 198 164
0 198 164
0 206 169
0 198 163
0 199 163
0 194 161
0 199 164
0 196 160
0 201 167
0 201 165
0 200 162
0 202 166
0 201 164
0 205 169
0 207 170
0 208 169
0 201 166
0 203 167
0 201 166
0 201 166
0 207 171
0 208 170
0 212 172
0 210 172
0 208 170
0 202 167
0 205 168
0 206 168
0 208 169
0 210 172
0 213 173
0 212 174
0 210 172
0 215 176
0 216 175
0 211 171
0 216 175
0 216 176
0 210 171
0 217 176
0 215 173
0 215 174
0 216 174
0 214 175
0 217 176
0 214 174
0 213 172
0 213 174
0 213 173
0 216 175
0 216 177
0 220 178
0 217 177
0 213 172
0 217 177
0 218 176
0 215 174
0 219 177
0 218 177
0 220 179
0 218 178
0 217 179
0 218 176
0 220 180
0 219 179
0 218 178
0 216 176
0 219 177
0 218 178
0 220 180
0 220 180
0 219 179
0 219 179
0 220 179
0 217 176
0 219 179
0 219 177
0 221 181
0 218 178
0 219 179
0 216 176
0 219 178
0 221 180
0 221 181
0 221 180
0 220 180
0 219 178
0 220 180
0 220 179
0 220 180
0 220 180
0 221 180
0 221 181
0 219 179
0 221 181
0 222 181
0 221 180
0 222 181
0 221 181
0 220 180
0 221 180
0 218 179
0 221 180
0 222 180
0 219 180
0 221 180
0 220 180
0 218 178
0 220 180
0 221 180
0 221 181
0 220 180
0 220 180
0 219 179
0 222 181
0 221 179
0 220 180
0 221 181
0 220 180
0 221 181
0 222 180
0 221 179
0 222 181
0 222 181
0 220 180
0 221 181
0 221 181
0 220 181
0 221 180
0 222 181
0 221 181
0 221 181
0 221 181
0 220 180
0 221 180
0 221 178
0 221 179
0 220 180
0 220 179
0 221 181
0 221 181
0 221 180
0 222 181
0 220 181
0 221 181
0 222 181
0 222 181
0 221 180
0 220 181
0 221 181
0 221 181
0 221 181
0 221 181
0 223 181
0 220 181
0 221 181
0 220 181
0 221 181
0 220 180
0 222 181
0 222 181
0 221 181
0 221 179
0 222 181
0 221 181
0 221 181
0 222 181
0 222 181
0 221 181
0 221 181
0 221 181
0 221 181
0 221 181
0 221 181
0 221 181
0 222 181
0 221 181
0 221 181
0 221 181
0 222 181
0 221 181
0 222 181
0 221 181
0 222 181
0 221 181
0 221 181
0 222 181
0 221 181
0 222 181
0 221 181
0 221 181
0 222 181
0 221 181
0 221 181
0 222 181
0 221 181
0 221 181
0 221 181
0 221 181
0 221 181
0 221 181
0 221 181
0 222 181
0 220 181
0 221 181
0 221 181
0 221 181
0 221 181
0 221 181
0 221 181
0 222 181
0 221 181
0 221 181
0 221 181
0 221 181
0 222 181
0 221 181
0 220 181
0 221 181
0 221 181
0 221 181
0 221 180
0 221 181
0 221 181
0 221 181
0 221 181
0 220 180
0 220 181
0 221 181
0 222 181
0 222 181
0 220 180
0 221 181
0 220 181
0 221 181
0 221 181
0 221 181
0 221 181
0 221 181
0 220 181
0 222 181
0 220 180
0 221 181
0 221 181
0 222 181
0 220 181
0 221 181
0 222 181
0 222 181
0 221 181
0 222 181
0 221 181
0 220 180
0 221 181
0 221 181
0 221 181
0 220 181
0 220 181
0 222 181
0 221 181
0 221 181
0 223 181
0 220 181
0 221 181
0 222 181
0 222 181
0 221 181
0 221 181
0 220 181
0 222 181
0 222 181
0 221 181
0 222 181
0 221 181
0 221 181
0 220 180
0 222 181
0 221 181
0 222 181
0 221 181
0 221 181
0 220 180
0 221 181
0 222 181
0 221 181
0 221 181
0 220 179
0 221 181
0 221 181
0 220 180
0 222 181
0 220 180
0 221 181
0 221 181
0 222 181
0 219 179
0 220 180
0 221 180
0 222 181
0 221 181
0 221 181
0 220 180
0 220 179
0 221 180
0 221 181
0 220 180
0 222 181
0 221 181
0 220 180
0 222 181
0 221 181
0 221 181
0 221 180
0 221 181
0 220 179
0 220 180
0 221 180
0 219 180
0 221 181
0 221 181
0 221 181
0 219 179
0 222 181
0 221 181
0 221 181
0 220 179
0 221 181
0 220 180
0 221 180
0 220 180
0 218 179
0 219 179
0 221 181
0 219 178
0 221 180
0 221 180
0 220 181
0 221 180
0 221 181
0 218 179
0 218 179
0 220 180
0 219 180
0 219 179
0 215 176
0 220 181
0 219 179
0 218 178
0 217 178
0 221 181
0 219 178
0 220 180
0 220 180
0 218 178
0 219 178
0 218 178
0 218 178
0 218 179
0 220 181
0 222 181
0 220 180
0 219 179
0 220 179
0 220 180
0 213 175
0 215 177
0 215 176
0 219 178
0 215 175
0 218 177
0 209 170
0 218 177
0 209 170
0 212 173
0 212 172
0 205 166
0 203 164
0 208 167
0 209 169
0 203 165
0 208 168
0 209 166
0 195 158
0 203 161
0 203 163
0 197 162
0 193 158
0 203 167
0 205 168
0 203 167
0 204 169
0 203 163
0 206 170
0 194 161
0 201 166
0 201 164
0 194 158
0 187 155
0 196 160
0 184 152
0 194 160
0 187 155
0 184 154
0 182 151
0 201 166
0 193 159
0 199 164
0 201 164
0 197 163
0 193 160
0 203 166
0 199 166
0 200 167
0 199 163
0 195 162
0 201 166
0 200 166
0 205 167
0 202 167
0 208 171
0 201 165
0 203 166
0 199 163
0 200 162
0 206 167
0 205 166
0 208 169
0 204 167
0 204 164
0 213 173
0 206 170
0 211 173
0 205 167
0 209 169
0 211 173
0 213 172
0 211 169
0 214 174
0 215 175
0 215 175
0 211 173
0 213 171
0 214 175
0 211 171
0 215 175
0 217 178
0 219 177
0 213 175
0 218 177
0 219 179
0 216 176
0 216 176
0 219 177
0 213 173
0 216 175
0 219 178
0 216 176
0 218 177
0 220 177
0 217 176
0 218 178
0 219 179
0 217 176
0 220 180
0 218 178
0 216 177
0 219 179
0 219 179
0 218 177
0 221 179
0 221 179
0 219 178
0 220 178
0 221 180
0 219 179
0 217 177
0 221 180
0 222 181
0 219 179
0 219 178
0 221 181
0 218 178
0 222 180
0 220 180
0 221 180
0 221 180
0 221 180
0 221 180
0 220 180
0 221 181
0 218 177
0 220 178
0 220 179
0 222 180
0 220 180
0 222 181
0 221 180
0 220 180
0 221 180
0 221 180
0 221 181
0 219 178
0 220 180
0 221 180
0 220 180
0 221 180
0 220 181
0 219 179
0 219 179
0 221 181
0 221 180
0 220 180
0 222 180
0 219 179
0 221 181
0 219 179
0 220 180
0 221 181
0 222 181
0 219 180
0 221 181
0 219 180
0 221 180
0 221 181
0 221 180
0 220 180
0 219 180
0 222 181
0 221 181
0 220 181
0 221 181
0 220 180
0 220 180
0 221 181
0 221 181
0 221 181
0 220 180
0 221 181
0 221 181
0 221 181
0 221 181
0 222 181
0 221 181
0 220 179
0 222 181
0 221 181
0 221 181
0 221 181
0 222 181
0 220 179
0 220 181
0 220 181
0 221 181
0 222 181
0 221 181
0 221 180
0 221 181
0 221 181
0 221 181
0 220 181
0 221 181
0 222 179
0 221 181
0 221 180
0 221 181
0 221 181
0 221 181
0 221 181
0 221 181
0 221 181
0 221 181
0 222 181
0 222 181
0 221 180
0 221 181
0 222 181
0 221 180
0 221 181
0 221 181
0 221 181
0 222 181
0 221 181
0 221 181
0 221 181
0 222 180
0 222 181
0 221 181
0 222 181
0 222 181
0 221 181
0 222 181
0 221 181
0 221 181
0 222 181
0 221 181
0 221 181
0 221 181
0 221 181
0 221 181
0 222 181
0 221 181
0 222 181
0 222 181
0 221 181
0 222 181
0 221 181
0 221 181
0 222 181
0 221 181
0 222 181
0 221 181
0 221 181
0 221 181
0 220 180
0 221 181
0 221 181
0 221 181
0 222 181
0 221 181
0 221 181
0 221 181
0 220 181
0 221 181
0 220 181
0 221 181
0 221 181
0 221 181
0 221 181
0 221 181
0 222 181
0 221 181
0 222 181
0 220 180
0 220 181
0 221 181
0 222 181
0 221 181
0 222 181
0 221 181
0 221 181
0 221 181
0 222 181
0 221 181
0 221 181
0 221 181
0 221 181
0 221 181
0 220 181
0 221 181
0 221 181
0 220 181
0 221 181
0 221 181
0 221 181
0 221 181
0 221 181
0 222 181
0 221 181
0 221 181
0 221 181
0 221 181
0 222 181
0 221 181
0 221 181
0 220 181
0 221 181
0 221 181
0 221 181
0 219 179
0 222 181
0 222 181
0 221 181
0 221 181
0 221 181
0 221 181
0 221 181
0 222 181
0 221 180
0 221 181
0 221 181
0 221 181
0 221 181
0 220 181
0 221 181
0 222 181
0 220 180
0 221 181
0 221 181
0 221 181
0 221 181
0 221 181
0 222 181
0 220 180
0 221 181
0 220 179
0 221 180
0 221 181
0 221 181
0 221 181
0 221 181
0 221 181
0 221 181
0 220 180
0 221 180
0 221 181
0 223 181
0 221 181
0 220 179
0 221 181
0 220 180
0 219 179
0 221 180
0 221 181
0 221 181
0 221 180
0 218 179
0 219 179
0 220 180
0 221 181
0 219 179
0 221 181
0 219 180
0 220 180
0 222 181
0 221 181
0 218 178
0 220 180
0 221 181
0 221 180
0 219 180
0 219 179
0 218 178
0 219 178
0 218 179
0 220 180
0 220 180
0 220 180
0 220 181
0 219 179
0 219 179
0 218 178
0 221 179
0 221 181
0 220 179
0 218 179
0 218 179
0 218 178
0 219 178
0 215 177
0 217 178
0 216 177
0 214 176
0 216 178
0 217 178
0 215 177
0 218 178
0 219 179
0 217 178
0 220 180
0 221 181
0 219 179
0 217 178
0 218 178
0 219 179
0 218 179
0 218 178
0 212 175
0 220 179
0 215 176
0 214 176
0 211 172
0 211 174
0 211 170
0 214 173
0 213 173
0 212 171
0 213 174
0 213 171
0 202 163
0 200 163
0 196 158
0 206 165
0 207 165
0 198 162
0 201 163
0 199 161
0 198 161
0 201 164
0 202 166
0 192 161
0 195 161
0 205 169
0 197 162
0 191 159
0 198 163
0 192 158
0 188 156
0 189 158
0 185 155
0 192 159
0 195 162
0 186 154
0 197 161
0 187 155
0 181 152
0 199 164
0 184 153
0 196 162
0 198 163
0 195 160
0 198 162
0 189 153
0 195 161
0 200 165
0 198 162
0 197 162
0 206 168
0 196 160
0 209 170
0 201 164
0 197 159
0 204 167
0 203 167
0 207 167
0 204 166
0 212 172
0 205 167
0 211 172
0 207 166
0 203 167
0 209 171
0 213 174
0 210 170
0 212 172
0 213 173
0 214 174
0 218 178
0 212 171
0 216 174
0 211 169
0 215 175
0 212 171
0 214 173
0 216 176
0 216 176
0 217 176
0 218 176
0 211 171
0 213 173
0 215 175
0 211 171
0 216 175
0 215 175
0 217 176
0 218 176
0 220 179
0 218 175
0 220 179
0 219 178
0 218 178
0 219 178
0 221 181
0 219 177
0 220 178
0 220 180
0 219 177
0 218 178
0 219 178
0 220 179
0 220 180
0 219 177
0 219 179
0 221 179
0 217 177
0 220 177
0 219 178
0 218 178
0 219 179
0 221 180
0 221 180
0 220 179
0 221 180
0 220 179
0 221 179
0 220 179
0 217 178
0 219 179
0 220 179
0 220 179
0 221 180
0 220 179
0 220 181
0 219 178
0 220 180
0 221 181
0 220 179
0 219 180
0 220 180
0 221 181
0 221 181
0 220 180
0 220 179
0 222 180
0 221 181
0 221 181
0 222 181
0 221 181
0 220 179
0 221 180
0 221 180
0 222 181
0 220 180
0 222 181
0 222 180
0 221 181
0 220 180
0 221 181
0 221 180
0 221 181
0 221 181
0 221 180
0 221 181
0 222 181
0 221 181
0 221 181
0 221 181
0 221 181
0 220 180
0 222 180
0 221 180
0 221 180
0 222 181
0 221 180
0 220 181
0 221 181
0 221 181
0 221 181
0 222 181
0 221 181
0 220 180
0 220 180
0 221 181
0 221 181
0 221 180
0 221 181
0 221 181
0 221 181
0 222 181
0 221 181
0 221 181
0 221 181
0 221 181
0 221 181
0 221 181
0 220 180
0 221 180
0 221 180
0 221 181
0 220 181
0 222 181
0 222 181
0 221 181
0 221 180
0 221 181
0 221 181
0 220 180
0 222 181
0 220 181
0 221 181
0 221 181
0 221 181
0 221 181
0 221 181
0 221 181
0 221 181
0 222 181
0 223 181
0 221 181
0 221 181
0 222 181
0 221 181
0 221 181
0 220 180
0 221 181
0 221 181
0 221 181
0 222 180
0 221 181
0 222 181
0 221 181
0 222 181
0 222 181
0 221 181
0 220 181
0 221 181
0 221 181
0 222 181
0 221 181
0 221 181
0 221 181
0 221 181
0 222 181
0 220 181
0 221 181
0 221 181
0 221 181
0 222 181
0 221 181
0 221 181
0 221 181
0 221 181
0 221 181
0 221 181
0 221 181
0 221 181
0 222 181
0 221 181
0 221 181
0 221 181
0 220 181
0 221 181
0 222 181
0 222 181
0 221 181
0 221 180
0 221 181
0 220 181
0 222 181
0 222 181
0 221 181
0 221 181
0 221 180
0 220 181
0 220 181
0 220 180
0 220 181
0 221 181
0 222 181
0 221 181
0 221 181
0 221 181
0 222 181
0 221 181
0 221 181
0 221 181
0 221 181
0 221 181
0 222 181
0 221 181
0 222 181
0 221 181
0 221 181
0 222 181
0 221 181
0 221 181
0 220 180
0 222 181
0 220 181
0 221 181
0 219 180
0 221 180
0 221 181
0 221 181
0 221 181
0 222 181
0 220 180
0 222 181
0 222 181
0 221 181
0 220 180
0 220 181
0 220 181
0 221 181
0 221 181
0 221 181
0 221 181
0 222 181
0 222 181
0 222 181
0 220 181
0 222 181
0 220 180
0 221 181
0 221 181
0 220 181
0 221 180
0 220 181
0 221 181
0 221 181
0 219 180
0 221 180
0 220 180
0 220 180
0 222 181
0 220 180
0 220 181
0 221 180
0 221 181
0 221 181
0 221 181
0 221 180
0 221 180
0 222 181
0 221 181
0 220 180
0 220 180
0 219 180
0 223 181
0 220 179
0 218 179
0 220 180
0 220 180
0 221 181
0 221 180
0 221 180
0 220 180
0 220 180
0 220 180
0 219 179
0 221 180
0 221 181
0 221 181
0 221 180
0 221 180
0 220 180
0 220 180
0 220 180
0 220 180
0 220 180
0 220 180
0 218 179
0 219 179
0 220 179
0 218 179
0 221 180
0 220 180
0 219 179
0 222 181
0 219 179
0 219 180
0 221 181
0 218 179
0 220 180
0 218 179
0 217 179
0 219 178
0 216 177
0 217 178
0 219 179
0 217 177
0 218 179
0 221 180
0 219 179
0 220 180
0 217 177
0 219 178
0 219 179
0 222 180
0 221 180
0 221 181
0 222 181
0 220 180
0 217 178
0 212 174
0 216 177
0 217 178
0 218 178
0 217 177
0 214 174
0 218 177
0 212 174
0 213 174
0 208 170
0 207 169
0 206 169
0 203 166
0 210 171
0 210 172
0 208 170
0 204 165
0 202 164
0 204 166
0 201 165
0 206 169
0 197 161
0 196 161
0 200 164
0 196 161
0 193 160
0 194 157
0 183 153
0 200 166
0 201 164
0 201 165
0 195 162
0 186 156
0 185 153
0 186 155
0 187 156
0 183 151
0 188 157
0 183 152
0 182 150
0 184 151
0 189 155
0 185 151
0 191 157
0 194 159
0 195 160
0 185 150
0 187 153
0 187 151
0 204 167
0 192 158
0 193 158
0 202 166
0 191 155
0 198 162
0 196 161
0 204 166
0 197 162
0 204 167
0 205 167
0 207 170
0 208 169
0 208 168
0 207 169
0 211 171
0 207 165
0 206 168
0 211 171
0 210 171
0 212 173
0 210 170
0 210 170
0 213 173
0 212 172
0 214 175
0 214 173
0 213 174
0 215 174
0 212 172
0 212 173
0 207 168
0 214 175
0 215 175
0 212 173
0 215 174
0 215 174
0 212 172
0 215 175
0 218 178
0 213 172
0 215 174
0 214 174
0 220 178
0 219 178
0 218 178
0 216 176
0 213 173
0 216 176
0 218 179
0 219 178
0 218 177
0 221 179
0 218 177
0 218 178
0 218 178
0 219 180
0 219 178
0 218 177
0 219 179
0 218 178
0 220 179
0 219 179
0 218 178
0 217 177
0 220 180
0 218 178
0 220 179
0 222 181
0 219 178
0 216 175
0 219 179
0 219 179
0 221 181
0 219 178
0 221 180
0 221 179
0 222 181
0 217 176
0 220 180
0 221 179
0 219 178
0 219 178
0 222 181
0 219 179
0 221 180
0 220 178
0 218 178
0 221 179
0 221 180
0 220 180
0 221 181
0 220 178
0 218 178
0 220 179
0 219 180
0 221 181
0 220 180
0 221 180
0 220 179
0 220 179
0 221 181
0 221 180
0 221 181
0 221 181
0 221 180
0 221 180
0 220 180
0 222 181
0 221 181
0 220 180
0 221 181
0 222 181
0 222 181
0 221 181
0 221 180
0 221 180
0 220 180
0 221 181
0 222 181
0 221 181
0 221 181
0 221 181
0 221 181
0 221 181
0 222 181
0 220 181
0 221 181
0 222 181
0 221 181
0 221 180
0 221 181
0 223 181
0 221 181
0 221 181
0 221 181
0 221 181
0 221 180
0 221 180
0 221 181
0 221 181
0 220 181
0 222 181
0 220 181
0 222 181
0 221 181
0 222 181
0 221 181
0 221 180
0 221 180
0 220 180
0 221 181
0 221 181
0 221 181
0 220 181
0 221 181
0 221 181
0 220 181
0 222 181
0 220 180
0 222 181
0 221 181
0 222 181
0 221 181
0 221 181
0 221 181
0 221 181
0 221 181
0 222 181
0 222 181
0 221 181
0 221 181
0 221 181
0 222 181
0 221 181
0 221 181
0 221 181
0 220 180
0 221 181
0 222 181
0 222 181
0 221 181
0 222 181
0 221 181
0 221 181
0 221 181
0 222 181
0 222 181
0 221 181
0 221 181
0 222 181
0 221 181
0 221 181
0 221 181
0 222 181
0 222 181
0 221 181
0 221 181
0 221 181
0 219 181
0 221 181
0 221 181
0 221 181
0 221 181
0 221 181
0 221 181
0 222 181
0 220 181
0 221 181
0 221 181
0 220 181
0 220 181
0 220 180
0 222 181
0 222 181
0 221 181
0 221 181
0 221 181
0 222 181
0 220 180
0 221 181
0 221 181
0 221 181
0 222 181
0 222 181
0 221 181
0 222 181
0 220 181
0 220 180
0 222 181
0 221 181
0 221 181
0 221 181
0 222 181
0 221 180
0 221 181
0 222 181
0 220 180
0 220 181
0 222 181
0 222 181
0 222 181
0 221 181
0 222 181
0 221 181
0 221 181
0 222 181
0 221 181
0 221 180
0 222 181
0 221 181
0 220 181
0 221 181
0 221 181
0 220 180
0 221 181
0 221 181
0 221 181
0 221 181
0 219 180
0 222 181
0 221 181
0 221 181
0 221 181
0 222 181
0 220 180
0 222 181
0 221 181
0 221 181
0 220 180
0 221 181
0 222 181
0 222 181
0 221 181
0 221 181
0 221 180
0 221 181
0 221 181
0 221 181
0 221 180
0 220 180
0 220 180
0 220 179
0 222 181
0 220 180
0 221 181
0 221 181
0 222 181
0 219 179
0 221 181
0 222 181
0 219 179
0 221 181
0 220 180
0 220 180
0 219 179
0 219 179
0 221 181
0 221 180
0 221 181
0 219 180
0 220 180
0 221 181
0 220 180
0 221 181
0 221 181
0 218 178
0 221 181
0 220 180
0 220 180
0 219 179
0 221 180
0 220 181
0 222 181
0 221 181
0 220 180
0 222 181
0 220 180
0 220 180
0 221 181
0 220 180
0 221 180
0 219 179
0 221 181
0 220 180
0 220 180
0 220 180
0 221 181
0 219 181
0 218 179
0 221 181
0 221 181
0 216 176
0 217 179
0 218 179
0 219 180
0 219 179
0 219 179
0 218 179
0 218 179
0 219 179
0 216 177
0 220 179
0 214 176
0 218 178
0 217 178
0 220 180
0 222 181
0 218 179
0 217 178
0 218 178
0 218 178
0 217 177
0 216 177
0 218 178
0 213 175
0 212 173
0 216 174
0 212 173
0 213 175
0 215 176
0 207 171
0 216 175
0 212 172
0 212 173
0 208 170
0 208 170
0 204 165
0 203 166
0 210 171
0 201 165
0 193 159
0 195 161
0 192 158
0 191 159
0 184 154
0 172 147
0 198 161
0 183 151
0 199 165
0 199 163
0 193 159
0 189 155
0 183 151
0 186 155
0 185 151
0 180 148
0 175 144
0 170 143
0 181 150
0 179 151
0 179 147
0 191 157
0 184 154
0 190 155
0 182 152
0 185 153
0 196 161
0 194 160
0 195 159
0 192 158
0 187 155
0 198 162
0 182 149
0 189 153
0 206 168
0 192 156
0 191 157
0 202 163
0 192 156
0 207 169
0 206 165
0 208 170
0 205 164
0 208 170
0 206 167
0 212 173
0 204 166
0 213 172
0 201 162
0 209 170
0 212 172
0 211 171
0 204 166
0 210 170
0 214 174
0 209 170
0 212 171
0 213 173
0 214 174
0 215 175
0 213 174
0 215 175
0 212 173
0 214 175
0 217 178
0 211 172
0 213 173
0 215 175
0 217 178
0 216 177
0 213 172
0 218 177
0 215 174
0 220 178
0 218 178
0 217 177
0 214 174
0 220 178
0 215 173
0 219 178
0 219 179
0 220 180
0 219 178
0 219 178
0 217 177
0 219 177
0 220 179
0 220 181
0 220 178
0 219 178
0 219 178
0 219 178
0 221 181
0 221 180
0 219 178
0 218 177
0 221 181
0 220 180
0 220 179
0 220 180
0 219 179
0 222 181
0 221 180
0 220 180
0 221 180
0 220 179
0 220 179
0 221 180
0 220 180
0 219 179
0 219 178
0 220 179
0 220 180
0 219 178
0 219 178
0 221 181
0 221 181
0 221 180
0 221 181
0 221 181
0 220 179
0 221 181
0 220 180
0 221 181
0 220 180
0 220 180
0 221 181
0 221 180
0 222 181
0 221 181
0 222 181
0 220 179
0 221 181
0 221 181
0 221 181
0 221 181
0 221 181
0 220 180
0 219 178
0 221 181
0 221 181
0 220 180
0 221 181
0 221 181
0 221 180
0 221 180
0 222 181
0 221 181
0 221 180
0 221 181
0 220 180
0 221 181
0 222 181
0 221 180
0 221 181
0 220 180
0 220 180
0 220 180
0 221 181
0 221 180
0 221 181
0 221 180
0 221 180
0 221 181
0 221 181
0 221 181
0 222 181
0 220 181
0 221 181
0 221 180
0 221 180
0 221 181
0 221 181
0 221 181
0 221 181
0 222 181
0 221 181
0 220 180
0 221 181
0 221 181
0 221 181
0 221 181
0 221 181
0 221 181
0 221 181
0 221 181
0 221 181
0 221 181
0 222 181
0 220 181
0 222 181
0 221 181
0 221 181
0 221 181
0 222 181
0 221 181
0 221 181
0 220 181
0 221 181
0 223 181
0 221 181
0 220 181
0 221 181
0 222 181
0 221 181
0 221 181
0 221 181
0 221 181
0 221 180
0 221 181
0 221 181
0 221 181
0 221 181
0 221 181
0 221 181
0 221 180
0 221 181
0 222 181
0 221 181
0 221 181
0 221 181
0 221 181
0 221 181
0 221 181
0 220 181
0 221 181
0 222 181
0 221 181
0 222 181
0 221 181
0 221 181
0 221 181
0 221 181
0 221 181
0 221 181
0 222 181
0 222 181
0 223 181
0 222 181
0 221 181
0 222 181
0 221 181
0 221 181
0 221 181
0 221 181
0 221 181
0 221 181
0 220 181
0 222 181
0 220 181
0 220 181
0 222 181
0 222 181
0 221 181
0 221 181
0 222 181
0 222 181
0 221 181
0 221 181
0 221 181
0 221 181
0 221 181
0 221 181
0 220 181
0 223 181
0 220 181
0 222 181
0 222 181
0 220 181
0 220 180
0 221 181
0 222 181
0 221 181
0 222 181
0 221 181
0 222 181
0 221 181
0 220 181
0 221 181
0 219 179
0 221 181
0 223 181
0 221 181
0 221 181
0 221 181
0 221 181
0 220 180
0 221 181
0 220 181
0 221 181
0 221 181
0 221 181
0 221 181
0 221 181
0 221 181
0 220 181
0 220 180
0 221 181
0 221 181
0 219 180
0 219 180
0 222 181
0 221 181
0 222 181
0 220 180
0 221 181
0 221 181
0 221 181
0 221 181
0 221 181
0 221 180
0 221 181
0 221 181
0 221 180
0 222 181
0 221 181
0 221 181
0 221 181
0 220 180
0 219 179
0 222 180
0 221 181
0 219 180
0 222 181
0 221 181
0 221 180
0 221 181
0 221 181
0 221 180
0 220 180
0 221 179
0 219 180
0 222 181
0 220 180
0 222 181
0 222 181
0 221 181
0 221 181
0 221 180
0 221 181
0 220 181
0 221 181
0 220 181
0 220 180
0 220 180
0 219 180
0 220 180
0 219 179
0 221 180
0 219 179
0 222 181
0 221 180
0 221 180
0 219 180
0 220 180
0 219 180
0 220 180
0 220 180
0 221 181
0 220 180
0 220 179
0 218 178
0 220 180
0 215 176
0 216 178
0 218 179
0 218 178
0 218 179
0 218 179
0 217 178
0 219 178
0 219 179
0 217 178
0 219 179
0 221 181
0 220 179
0 220 180
0 219 179
0 219 180
0 216 178
0 216 178
0 215 176
0 218 179
0 214 176
0 218 177
0 213 175
0 215 175
0 206 169
0 210 172
0 213 175
0 206 170
0 211 174
0 207 170
0 210 171
0 212 172
0 210 169
0 207 169
0 196 160
0 205 167
0 189 157
0 193 157
0 190 157
0 192 157
0 191 156
0 187 155
0 192 158
0 168 140
0 168 143
0 194 160
0 205 166
0 181 148
0 177 146
0 181 148
0 181 150
0 164 135
0 169 140
0 172 143
0 175 144
0 182 148
0 168 143
0 178 148
0 174 144
0 183 151
0 173 145
0 182 150
0 188 155
0 181 150
0 186 152
0 190 159
0 188 156
0 190 155
0 192 157
0 196 160
0 192 159
0 197 162
0 198 162
0 202 165
0 188 151
0 197 161
0 203 167
0 201 163
0 198 162
0 205 165
0 198 161
0 199 159
0 204 166
0 205 166
0 203 162
0 205 168
0 210 169
0 208 168
0 208 169
0 208 168
0 212 171
0 214 174
0 209 170
0 211 170
0 213 172
0 214 173
0 219 178
0 211 171
0 209 170
0 207 168
0 215 175
0 217 178
0 215 173
0 215 174
0 214 174
0 219 178
0 212 171
0 219 178
0 214 174
0 216 175
0 213 173
0 216 176
0 215 175
0 219 176
0 217 178
0 219 178
0 219 178
0 216 177
0 219 178
0 219 177
0 219 179
0 216 175
0 217 175
0 217 176
0 218 177
0 219 179
0 218 176
0 221 181
0 220 180
0 217 176
0 221 179
0 218 176
0 220 179
0 220 181
0 219 178
0 221 180
0 218 177
0 220 180
0 218 178
0 220 179
0 220 179
0 221 180
0 219 178
0 220 179
0 221 181
0 219 180
0 221 180
0 220 179
0 222 181
0 221 181
0 222 181
0 220 179
0 220 178
0 221 181
0 220 179
0 221 181
0 221 180
0 221 181
0 221 180
0 220 180
0 220 180
0 220 180
0 220 179
0 221 181
0 221 181
0 222 181
0 220 180
0 221 181
0 221 181
0 221 181
0 222 181
0 222 181
0 220 180
0 219 178
0 221 181
0 221 181
0 222 181
0 220 180
0 221 181
0 219 179
0 221 181
0 222 181
0 220 180
0 221 181
0 221 181
0 221 181
0 221 181
0 221 181
0 220 181
0 220 180
0 221 181
0 221 181
0 220 181
0 220 179
0 222 181
0 222 181
0 221 181
0 221 181
0 221 181
0 222 181
0 221 181
0 221 181
0 221 180
0 221 181
0 221 181
0 221 181
0 222 181
0 221 181
0 221 181
0 221 181
0 221 180
0 221 181
0 222 181
0 221 181
0 222 181
0 221 181
0 221 181
0 220 180
0 221 181
0 221 181
0 221 181
0 221 181
0 221 181
0 221 181
0 222 181
0 221 181
0 220 181
0 221 181
0 222 181
0 221 181
0 221 181
0 222 181
0 221 180
0 222 181
0 222 181
0 221 181
0 221 180
0 221 181
0 222 181
0 220 180
0 222 181
0 221 181
0 221 181
0 222 181
0 221 181
0 222 181
0 221 181
0 221 181
0 221 181
0 222 181
0 221 181
0 220 181
0 221 181
0 221 181
0 221 181
0 222 181
0 221 181
0 221 181
0 220 181
0 222 181
0 221 181
0 221 181
0 222 181
0 221 181
0 221 181
0 221 181
0 221 181
0 221 181
0 221 181
0 221 181
0 221 181
0 221 181
0 220 180
0 221 181
0 221 181
0 221 181
0 220 181
0 221 181
0 222 181
0 220 181
0 221 181
0 222 181
0 221 181
0 221 180
0 221 181
0 221 181
0 221 181
0 221 181
0 221 181
0 221 181
0 222 181
0 222 181
0 221 181
0 221 181
0 221 181
0 222 181
0 221 181
0 220 180
0 221 181
0 222 181
0 221 181
0 221 181
0 221 181
0 221 181
0 222 181
0 222 181
0 221 181
0 222 181
0 222 181
0 220 181
0 221 181
0 220 181
0 221 180
0 222 181
0 221 181
0 222 181
0 220 180
0 221 181
0 221 181
0 221 181
0 221 181
0 221 181
0 221 181
0 222 181
0 221 181
0 221 181
0 221 181
0 220 181
0 222 181
0 222 181
0 220 181
0 220 180
0 221 181
0 221 181
0 222 181
0 222 181
0 221 180
0 221 181
0 221 181
0 222 181
0 221 181
0 221 181
0 220 181
0 221 181
0 221 181
0 221 180
0 222 181
0 220 180
0 221 181
0 222 181
0 221 181
0 220 180
0 220 180
0 220 180
0 221 181
0 222 181
0 221 180
0 221 181
0 221 180
0 220 180
0 221 181
0 221 181
0 219 180
0 220 180
0 222 181
0 221 181
0 220 181
0 222 181
0 221 181
0 219 179
0 219 180
0 221 181
0 220 181
0 220 180
0 220 180
0 221 180
0 221 181
0 221 181
0 220 180
0 220 179
0 221 180
0 218 179
0 220 180
0 220 180
0 221 181
0 218 178
0 219 179
0 219 180
0 218 179
0 219 179
0 219 179
0 219 179
0 217 178
0 218 178
0 219 179
0 220 179
0 220 181
0 219 178
0 220 180
0 220 180
0 216 177
0 219 178
0 218 179
0 217 178
0 221 180
0 218 179
0 221 180
0 219 179
0 218 179
0 215 177
0 220 179
0 221 181
0 220 180
0 221 181
0 220 180
0 221 180
0 216 177
0 218 179
0 215 177
0 220 179
0 218 178
0 213 176
0 209 172
0 214 176
0 213 174
0 210 174
0 211 173
0 207 170
0 205 169
0 209 172
0 207 170
0 206 169
0 204 168
0 202 166
0 195 163
0 191 160
0 197 161
0 189 157
0 184 153
0 194 159
0 187 155
0 199 161
0 176 147
0 171 143
0 158 130
0 180 149
0 196 161
0 190 156
0 172 143
0 172 140
0 176 145
0 171 142
0 155 130
0 165 136
0 168 138
0 169 140
0 169 143
0 163 137
0 166 137
0 169 141
0 167 138
0 168 140
0 178 146
0 172 140
0 181 148
0 183 152
0 192 156
0 183 152
0 187 154
0 196 161
0 198 164
0 195 161
0 192 156
0 200 164
0 197 160
0 203 167
0 201 161
0 196 155
0 197 163
0 208 170
0 197 160
0 201 162
0 201 163
0 205 166
0 207 168
0 208 168
0 202 162
0 213 173
0 208 167
0 217 175
0 207 167
0 213 174
0 206 164
0 208 169
0 215 173
0 216 174
0 210 170
0 213 170
0 213 172
0 215 175
0 213 171
0 215 173
0 212 173
0 212 173
0 216 173
0 214 173
0 217 177
0 211 172
0 216 174
0 216 174
0 217 176
0 217 176
0 213 171
0 220 178
0 216 175
0 218 177
0 217 176
0 217 177
0 219 178
0 216 173
0 218 178
0 219 178
0 218 178
0 219 178
0 218 178
0 219 179
0 221 180
0 221 180
0 219 179
0 219 177
0 220 180
0 220 179
0 220 179
0 218 177
0 219 180
0 221 179
0 219 178
0 220 178
0 219 178
0 217 177
0 221 181
0 219 179
0 220 178
0 219 179
0 220 180
0 220 181
0 222 181
0 221 180
0 221 181
0 221 181
0 220 179
0 221 181
0 223 181
0 220 179
0 219 179
0 222 181
0 221 180
0 221 181
0 220 181
0 221 180
0 221 181
0 221 180
0 220 179
0 221 181
0 221 181
0 221 179
0 222 181
0 221 181
0 221 181
0 221 179
0 221 181
0 221 181
0 221 180
0 221 180
0 220 179
0 222 181
0 221 181
0 221 181
0 221 180
0 222 180
0 219 180
0 221 181
0 221 181
0 221 180
0 221 181
0 221 180
0 220 180
0 220 180
0 220 180
0 221 181
0 222 181
0 220 180
0 220 180
0 220 180
0 221 181
0 220 180
0 221 181
0 220 181
0 222 181
0 221 181
0 221 181
0 221 181
0 220 181
0 222 181
0 221 181
0 220 179
0 221 181
0 221 181
0 221 181
0 222 181
0 221 181
0 222 181
0 221 180
0 221 181
0 220 181
0 222 181
0 221 181
0 222 181
0 221 181
0 219 180
0 221 181
0 221 181
0 221 181
0 221 181
0 222 181
0 221 180
0 221 181
0 221 181
0 221 181
0 221 181
0 222 181
0 221 181
0 221 181
0 221 181
0 221 181
0 222 181
0 222 181
0 222 180
0 221 181
0 222 181
0 222 181
0 220 181
0 221 181
0 220 181
0 222 181
0 221 181
0 221 181
0 221 181
0 222 181
0 222 181
0 221 181
0 221 181
0 221 181
0 221 181
0 221 181
0 222 181
0 222 181
0 221 181
0 220 181
0 221 181
0 221 181
0 221 181
0 222 181
0 221 181
0 221 181
0 221 181
0 222 181
0 222 181
0 222 181
0 222 181
0 221 181
0 220 180
0 221 181
0 221 181
0 222 181
0 221 181
0 221 181
0 222 181
0 220 181
0 221 181
0 220 181
0 221 181
0 220 180
0 221 181
0 222 181
0 222 181
0 222 181
0 222 181
0 221 181
0 222 181
0 222 181
0 221 181
0 222 181
0 221 181
0 221 181
0 222 181
0 222 181
0 222 181
0 222 181
0 220 181
0 221 181
0 221 181
0 221 181
0 221 181
0 221 181
0 221 181
0 220 180
0 221 181
0 221 181
0 222 181
0 221 181
0 222 181
0 221 181
0 222 181
0 221 181
0 222 181
0 220 180
0 222 181
0 221 181
0 222 181
0 222 181
0 222 181
0 220 180
0 221 181
0 221 181
0 222 181
0 221 181
0 220 180
0 220 181
0 219 180
0 221 181
0 220 180
0 222 181
0 220 180
0 221 181
0 221 181
0 221 181
0 220 180
0 221 181
0 221 181
0 222 181
0 220 181
0 220 180
0 221 181
0 222 181
0 221 181
0 221 181
0 222 181
0 221 181
0 222 181
0 221 181
0 221 181
0 223 181
0 221 181
0 221 180
0 222 181
0 221 181
0 220 181
0 221 181
0 221 181
0 221 181
0 222 180
0 220 179
0 220 181
0 220 180
0 221 181
0 220 180
0 222 181
0 220 179
0 221 179
0 221 180
0 219 180
0 219 180
0 221 181
0 220 180
0 221 181
0 220 180
0 221 179
0 222 181
0 222 181
0 220 180
0 221 180
0 219 179
0 219 179
0 220 179
0 219 179
0 219 180
0 222 181
0 221 180
0 219 179
0 221 180
0 219 179
0 221 180
0 221 180
0 220 180
0 221 181
0 219 179
0 218 178
0 217 177
0 219 179
0 219 179
0 221 180
0 220 180
0 218 178
0 220 180
0 217 177
0 218 179
0 220 180
0 218 178
0 214 177
0 218 179
0 219 180
0 220 180
0 221 181
0 221 180
0 220 180
0 217 178
0 217 178
0 218 179
0 217 178
0 217 178
0 217 178
0 212 174
0 211 173
0 217 177
0 211 174
0 209 173
0 213 175
0 206 169
0 208 170
0 208 171
0 205 168
0 198 164
0 205 168
0 199 163
0 192 159
0 193 161
0 184 154
0 186 155
0 190 154
0 182 153
0 169 141
0 178 146
0 167 139
0 156 131
0 174 143
0 189 155
0 184 151
0 147 121
0 170 140
0 156 130
0 159 131
0 145 123
0 140 117
0 144 122
0 147 125
0 167 139
0 171 141
0 163 132
0 164 135
0 160 132
0 179 146
0 176 143
0 172 144
0 176 146
0 179 151
0 175 143
0 185 152
0 188 153
0 187 153
0 180 149
0 199 164
0 196 158
0 192 157
0 200 164
0 193 158
0 194 157
0 199 160
0 200 165
0 206 166
0 205 163
0 200 161
0 201 164
0 201 162
0 203 163
0 207 166
0 207 166
0 205 165
0 206 168
0 211 169
0 212 171
0 208 168
0 213 173
0 214 172
0 215 173
0 211 171
0 214 175
0 210 169
0 213 173
0 213 173
0 216 177
0 218 178
0 214 173
0 216 173
0 213 173
0 215 174
0 217 174
0 212 172
0 215 173
0 217 174
0 219 179
0 217 177
0 215 173
0 218 178
0 220 180
0 219 177
0 219 179
0 219 179
0 219 178
0 219 179
0 219 178
0 217 177
0 221 179
0 216 176
0 221 180
0 219 180
0 215 176
0 221 178
0 218 178
0 218 177
0 220 179
0 220 180
0 222 181
0 218 178
0 220 181
0 219 178
0 219 179
0 221 181
0 218 179
0 220 179
0 219 179
0 221 180
0 221 181
0 220 179
0 221 180
0 219 178
0 220 180
0 221 180
0 219 179
0 221 181
0 221 180
0 221 181
0 220 180
0 221 180
0 220 180
0 220 180
0 222 181
0 220 180
0 222 181
0 220 180
0 221 181
0 221 181
0 221 179
0 221 181
0 221 180
0 220 179
0 220 180
0 221 180
0 221 180
0 221 181
0 222 181
0 221 181
0 221 179
0 220 179
0 220 180
0 221 181
0 221 181
0 220 181
0 220 181
0 220 181
0 221 181
0 221 181
0 221 181
0 221 181
0 221 181
0 221 180
0 221 181
0 221 181
0 222 181
0 220 181
0 221 181
0 221 181
0 221 181
0 221 180
0 221 181
0 221 181
0 222 181
0 221 181
0 221 181
0 221 181
0 221 181
0 220 180
0 221 180
0 221 181
0 222 181
0 221 181
0 221 181
0 221 181
0 221 181
0 220 180
0 220 180
0 221 180
0 221 181
0 222 181
0 218 179
0 220 181
0 221 181
0 221 181
0 222 181
0 221 181
0 221 181
0 221 180
0 222 181
0 221 181
0 222 181
0 221 181
0 221 181
0 221 181
0 222 181
0 221 181
0 220 181
0 221 181
0 221 181
0 222 181
0 222 181
0 220 180
0 222 181
0 221 181
0 222 181
0 221 181
0 222 181
0 222 181
0 220 181
0 222 181
0 221 181
0 222 181
0 221 181
0 221 181
0 221 181
0 221 181
0 221 181
0 222 181
0 222 181
0 222 181
0 222 181
0 221 181
0 221 181
0 221 181
0 222 181
0 221 181
0 220 181
0 221 181
0 221 181
0 221 181
0 221 181
0 222 181
0 221 181
0 221 181
0 220 181
0 220 181
0 221 181
0 221 181
0 221 180
0 220 181
0 221 181
0 221 181
0 221 181
0 220 181
0 221 181
0 223 181
0 221 181
0 222 181
0 222 181
0 221 181
0 221 181
0 222 181
0 222 181
0 222 181
0 221 181
0 221 181
0 222 181
0 222 181
0 221 181
0 221 181
0 221 181
0 222 181
0 221 181
0 221 181
0 221 181
0 222 181
0 221 181
0 222 181
0 221 181
0 222 181
0 222 181
0 220 181
0 220 181
0 221 181
0 221 181
0 221 181
0 221 181
0 221 181
0 221 181
0 221 181
0 220 180
0 221 181
0 220 181
0 222 181
0 222 181
0 221 181
0 221 181
0 220 180
0 222 181
0 222 181
0 222 181
0 221 181
0 221 181
0 221 180
0 219 180
0 220 179
0 221 181
0 221 181
0 220 180
0 222 181
0 222 181
0 220 180
0 221 181
0 221 181
0 221 180
0 221 181
0 221 181
0 219 180
0 220 180
0 221 181
0 222 181
0 221 181
0 221 181
0 221 181
0 220 181
0 220 179
0 221 181
0 221 181
0 221 181
0 221 181
0 221 181
0 221 181
0 222 181
0 222 181
0 220 181
0 221 181
0 221 180
0 221 181
0 221 180
0 220 180
0 221 181
0 222 181
0 221 181
0 221 180
0 221 181
0 220 181
0 222 181
0 220 180
0 222 181
0 221 180
0 221 181
0 221 180
0 220 180
0 220 180
0 220 180
0 221 180
0 222 181
0 221 181
0 218 179
0 220 180
0 221 181
0 218 179
0 219 180
0 220 180
0 218 178
0 220 180
0 221 180
0 220 180
0 219 179
0 220 180
0 220 179
0 216 178
0 221 180
0 219 179
0 217 178
0 219 179
0 221 181
0 216 176
0 220 179
0 218 178
0 218 177
0 218 179
0 217 178
0 217 178
0 218 179
0 214 177
0 218 179
0 222 181
0 221 181
45 222 184
0 218 179
0 220 180
0 218 178
0 217 177
0 218 177
0 218 178
0 217 178
0 219 178
0 211 173
0 216 176
0 215 177
0 215 177
0 216 175
0 212 175
0 210 172
0 212 174
0 213 176
0 203 168
0 204 168
0 208 172
0 192 159
0 194 160
0 193 158
0 190 156
0 178 148
0 185 150
0 187 154
0 173 141
0 165 136
0 131 111
0 124 103
0 128 108
0 196 157
0 171 140
0 141 119
0 164 135
0 147 121
0 144 118
0 129 108
0 142 118
0 155 128
0 143 118
0 149 127
0 153 128
0 160 133
0 160 131
0 163 134
0 159 129
0 178 145
0 175 144
0 162 133
0 181 148
0 185 152
0 178 146
0 180 148
0 188 155
0 186 151
0 189 155
0 186 149
0 185 152
0 195 159
0 195 157
0 190 155
0 199 160
0 203 167
0 208 167
0 200 157
0 208 167
0 199 159
0 206 163
0 203 163
0 196 157
0 205 165
0 208 167
0 207 166
0 212 173
0 210 167
0 212 171
0 213 173
0 213 173
0 207 165
0 206 162
0 210 169
0 214 172
0 205 164
0 212 170
0 217 176
0 217 177
0 216 177
0 214 172
0 214 173
0 214 173
0 217 178
0 218 176
0 214 173
0 219 178
0 219 178
0 220 178
0 216 175
0 216 174
0 216 175
0 219 177
0 218 177
0 217 178
0 219 179
0 220 178
0 218 178
0 218 178
0 220 178
0 219 178
0 218 178
0 218 178
0 218 178
0 221 180
0 219 179
0 219 179
0 220 180
0 221 181
0 221 180
0 217 177
0 218 178
0 220 179
0 220 180
0 221 181
0 219 178
0 220 179
0 220 179
0 220 178
0 221 181
0 220 180
0 220 180
0 220 180
0 221 181
0 220 179
0 219 179
0 221 180
0 221 180
0 221 179
0 219 180
0 221 180
0 219 178
0 220 180
0 220 178
0 220 180
0 221 181
0 221 180
0 221 180
0 221 181
0 221 181
0 220 181
0 223 181
0 220 179
0 219 180
0 221 181
0 221 180
0 220 179
0 221 181
0 221 180
0 222 180
0 221 181
0 221 181
0 219 178
0 220 179
0 221 180
0 220 180
0 221 180
0 221 181
0 220 180
0 220 181
0 221 181
0 221 181
0 220 179
0 221 181
0 220 178
0 222 181
0 221 181
0 220 180
0 221 181
0 220 181
0 222 181
0 222 181
0 221 181
0 221 181
0 221 181
0 221 181
0 221 181
0 221 181
0 221 181
0 221 181
0 221 181
0 221 181
0 221 181
0 222 181
0 221 181
0 220 181
0 220 181
0 221 180
0 221 181
0 221 180
0 221 181
0 220 181
0 221 181
0 220 181
0 220 180
0 221 181
0 221 181
0 222 181
0 221 181
0 222 181
0 222 181
0 220 181
0 221 181
0 222 181
0 220 181
0 222 181
0 222 181
0 221 181
0 221 181
0 222 181
0 221 181
0 220 181
0 220 181
0 221 181
0 220 181
0 222 181
0 221 181
0 222 181
0 222 181
0 221 181
0 221 181
0 221 181
0 221 181
0 221 181
0 222 181
0 221 181
0 222 181
0 221 181
0 221 181
0 221 181
0 222 181
0 221 181
0 221 181
0 221 181
0 221 181
0 221 181
0 221 181
0 221 181
0 222 181
0 221 181
0 221 181
0 222 181
0 221 181
0 221 181
0 221 180
0 221 181
0 221 181
0 221 181
0 222 181
0 222 181
0 221 181
0 222 181
0 221 181
0 222 181
0 221 181
0 221 181
0 222 181
0 221 181
0 222 181
0 222 181
0 219 180
0 222 181
0 222 181
0 222 181
0 222 181
0 222 181
0 221 181
0 222 181
0 221 181
0 220 180
0 221 181
0 221 181
0 221 180
0 222 181
0 223 181
0 222 181
0 220 181
0 222 181
0 221 181
0 220 181
0 221 181
0 221 181
0 223 181
0 220 181
0 221 181
0 221 181
0 221 181
0 221 181
0 222 181
0 221 181
0 221 181
0 221 181
0 221 181
0 221 181
0 222 181
0 221 181
0 221 181
0 220 180
0 221 181
0 221 181
0 221 181
0 221 181
0 220 181
0 221 180
0 220 181
0 221 181
0 220 180
0 221 181
0 221 181
0 221 181
0 221 181
0 222 181
0 222 181
0 222 181
0 221 181
0 221 180
0 221 181
0 221 181
0 221 181
0 221 181
0 221 181
0 221 181
0 222 181
0 220 181
0 221 181
0 220 180
0 220 180
0 221 181
0 219 180
0 221 181
0 220 180
0 220 180
0 221 180
0 221 181
0 220 180
0 221 181
0 220 180
0 220 180
0 221 181
0 221 181
0 221 181
0 221 181
0 221 181
0 221 181
0 221 180
0 217 178
0 221 181
0 221 181
0 220 180
0 220 179
0 221 181
0 221 180
0 220 180
0 221 181
0 222 181
0 221 180
0 220 179
0 221 180
0 219 179
0 221 181
0 222 180
0 221 181
0 219 179
0 219 179
0 219 179
0 219 179
0 217 179
0 221 181
0 221 180
0 220 179
0 219 179
0 220 180
0 220 180
0 221 180
0 220 180
0 218 178
0 217 178
0 222 181
0 219 178
0 220 179
0 214 175
0 218 178
0 221 180
0 218 178
0 218 178
0 219 180
0 216 177
0 217 178
0 218 179
0 220 180
123 226 206
0 220 180
0 221 180
0 218 179
0 220 180
0 218 179
0 217 177
0 217 178
0 215 176
0 213 175
0 209 173
0 212 174
0 213 174
0 207 171
0 208 172
0 212 173
0 203 169
0 203 168
0 197 166
0 202 167
0 207 169
0 201 166
0 198 165
0 189 155
0 182 151
0 178 148
0 171 142
0 171 140
0 156 131
0 133 111
6 115 100
22 93 114
31 123 132
0 191 144
0 166 136
17 114 112
0 142 118
0 136 112
0 134 111
0 125 105
0 122 104
0 128 108
0 133 108
0 133 107
0 130 108
0 137 117
0 150 123
0 157 130
0 157 128
0 151 126
0 163 133
0 164 134
0 174 143
0 175 140
0 180 146
0 179 147
0 178 146
0 181 145
0 180 146
0 174 141
0 181 145
0 189 155
0 194 156
0 200 162
0 197 160
0 199 161
0 199 161
0 198 159
0 202 163
0 202 162
0 202 159
0 197 158
0 207 168
0 202 164
0 210 166
0 207 164
0 210 169
0 204 163
0 210 169
0 214 173
0 208 167
0 213 171
0 215 173
0 207 162
0 209 167
0 215 173
0 212 172
0 217 176
0 214 172
0 214 174
0 214 172
0 217 174
0 214 175
0 216 175
0 215 173
0 217 174
0 215 175
0 218 177
0 219 178
0 218 177
0 218 178
0 218 177
0 217 177
0 219 179
0 219 178
0 220 181
0 217 176
0 219 178
0 220 179
0 218 177
0 221 181
0 218 177
0 219 177
0 220 180
0 219 179
0 219 177
0 221 181
0 220 179
0 220 180
0 218 177
0 221 179
0 221 180
0 219 178
0 220 179
0 217 178
0 220 180
0 221 181
0 222 181
0 222 180
0 220 180
0 221 180
0 221 181
0 220 179
0 220 179
0 220 178
0 220 178
0 221 180
0 221 180
0 221 180
0 221 181
0 220 178
0 220 180
0 219 179
0 221 180
0 221 180
0 221 180
0 219 180
0 220 179
0 220 180
0 221 180
0 221 180
0 220 180
0 220 181
0 221 181
0 221 180
0 221 181
0 221 180
0 221 180
0 220 180
0 222 181
0 221 181
0 221 181
0 222 181
0 221 181
0 220 180
0 221 181
0 221 181
0 220 178
0 219 179
0 221 181
0 221 180
0 221 181
0 221 181
0 221 181
0 220 181
0 221 181
0 219 180
0 220 180
0 222 181
0 220 180
0 221 181
0 221 181
0 222 181
0 220 180
0 221 181
0 221 180
0 220 180
0 221 181
0 221 181
0 221 181
0 221 181
0 222 181
0 221 181
0 222 181
0 220 181
0 222 181
0 221 181
0 221 180
0 222 181
0 221 181
0 221 181
0 219 180
0 221 181
0 220 181
0 221 181
0 221 181
0 222 181
0 221 181
0 222 181
0 222 181
0 220 181
0 221 181
0 221 181
0 221 180
0 221 181
0 221 181
0 221 181
0 221 181
0 222 181
0 222 181
0 221 181
0 221 181
0 221 180
0 221 181
0 221 181
0 221 181
0 221 181
0 222 181
0 222 181
0 222 181
0 221 181
0 221 181
0 221 181
0 222 181
0 220 181
0 222 181
0 221 181
0 222 181
0 221 181
0 221 181
0 222 181
0 221 181
0 221 181
0 222 181
0 222 181
0 221 181
0 221 181
0 220 180
0 221 181
0 221 181
0 221 181
0 221 181
0 221 181
0 222 181
0 221 181
0 221 181
0 219 180
0 222 181
0 221 181
0 221 181
0 222 181
0 221 181
0 221 181
0 222 181
0 223 181
0 221 181
0 221 181
0 221 181
0 221 181
0 222 181
0 221 181
0 222 181
0 220 181
0 221 181
0 220 179
0 222 181
0 221 181
0 221 181
0 222 181
0 221 181
0 221 181
0 221 181
0 221 181
0 221 181
0 220 181
0 219 180
0 221 181
0 220 180
0 221 181
0 220 181
0 222 181
0 221 181
0 221 181
0 222 181
0 221 181
0 221 181
0 221 181
0 221 181
0 221 181
0 221 180
0 220 180
0 221 181
0 222 181
0 221 181
0 222 181
0 221 181
0 221 181
0 221 181
0 220 181
0 222 181
0 222 181
0 221 181
0 221 181
0 220 180
0 221 181
0 221 181
0 221 181
0 221 181
0 222 181
0 221 181
0 221 180
0 220 181
0 222 181
0 221 180
0 220 180
0 221 181
0 221 181
0 220 180
0 220 181
0 221 181
0 222 181
0 221 181
0 221 181
0 221 181
0 221 181
0 222 181
0 221 181
0 222 181
0 220 180
0 220 180
0 221 181
0 221 181
0 220 181
0 221 181
0 221 181
0 221 181
0 220 181
0 219 180
0 219 179
0 221 181
0 221 180
0 222 181
0 220 181
0 221 181
0 220 180
0 221 181
0 221 180
0 221 181
0 220 180
0 221 181
0 220 180
0 217 178
0 221 181
0 220 179
0 221 181
0 218 179
0 221 181
0 220 180
0 220 181
0 220 180
0 221 181
0 220 180
0 218 179
0 221 181
0 221 181
0 219 179
0 220 179
0 219 180
0 219 179
0 219 178
0 219 179
0 219 179
0 221 181
0 220 180
0 220 180
0 218 178
0 217 177
0 221 181
0 220 180
0 221 181
0 221 180
0 219 180
0 220 180
0 219 180
0 219 179
0 217 178
0 215 177
0 218 179
0 221 180
0 221 181
151 229 217
89 223 194
0 219 180
0 220 180
0 216 178
0 216 178
0 219 179
0 213 176
0 214 176
0 215 176
0 216 177
0 215 177
0 212 174
0 210 173
0 214 176
0 207 171
0 207 171
0 212 175
0 205 169
0 207 170
0 207 171
0 206 169
0 205 168
0 188 156
0 185 156
0 178 148
0 171 142
0 164 137
0 158 132
17 123 119
33 97 136
35 95 140
31 115 135
6 177 133
33 114 139
32 95 136
11 134 118
18 102 109
24 103 122
23 103 123
25 103 122
21 100 117
19 101 109
20 101 114
16 104 102
0 131 110
0 120 96
0 138 114
0 147 122
0 149 122
0 165 136
0 151 122
0 162 133
0 146 120
0 181 145
0 179 147
0 169 138
0 172 142
0 190 152
0 193 156
0 183 149
0 192 151
0 198 157
0 184 144
0 196 157
0 198 158
0 195 156
0 196 152
0 202 163
0 197 158
0 201 161
0 202 160
0 205 163
0 208 168
0 203 163
0 210 167
0 205 164
0 208 168
0 203 165
0 205 162
0 209 166
0 206 164
0 211 168
0 215 173
0 208 167
0 214 172
0 214 173
0 215 173
0 213 172
0 214 175
0 215 174
0 217 175
0 218 174
0 215 174
0 214 173
0 217 174
0 217 175
0 219 177
0 217 176
0 217 176
0 218 177
0 215 173
0 218 177
0 215 176
0 220 179
0 218 178
0 217 175
0 217 177
0 218 178
0 218 177
0 219 178
0 219 178
0 219 179
0 217 177
0 216 176
0 221 180
0 221 181
0 219 179
0 220 181
0 219 180
0 219 179
0 220 180
0 221 181
0 220 179
0 220 180
0 221 181
0 222 181
0 220 180
0 220 181
0 221 181
0 220 181
0 222 181
0 218 178
0 222 181
0 218 178
0 220 178
0 221 180
0 221 180
0 221 181
0 221 181
0 222 181
0 218 179
0 219 179
0 219 180
0 220 180
0 221 179
0 220 180
0 222 181
0 221 181
0 221 181
0 220 180
0 220 179
0 220 181
0 221 181
0 221 180
0 221 181
0 221 181
0 221 181
0 221 181
0 221 180
0 221 181
0 221 181
0 222 181
0 221 181
0 220 181
0 221 180
0 222 181
0 220 179
0 221 181
0 222 181
0 221 180
0 222 181
0 220 180
0 221 181
0 222 181
0 222 181
0 221 181
0 221 180
0 222 181
0 221 181
0 221 181
0 220 180
0 221 180
0 221 181
0 220 180
0 220 181
0 222 181
0 222 181
0 221 181
0 222 181
0 222 181
0 221 181
0 221 181
0 222 181
0 221 181
0 221 181
0 222 181
0 222 181
0 221 181
0 222 181
0 222 180
0 221 181
0 221 181
0 221 181
0 221 181
0 221 181
0 222 181
0 221 181
0 221 181
0 220 181
0 222 181
0 221 181
0 221 181
0 222 181
0 222 181
0 222 181
0 222 181
0 221 181
0 221 181
0 221 181
0 221 181
0 220 181
0 221 180
0 221 181
0 221 181
0 221 181
0 221 181
0 221 181
0 221 181
0 221 181
0 221 181
0 221 181
0 221 181
0 220 181
0 221 181
0 221 181
0 222 181
0 222 181
0 221 181
0 221 181
0 221 181
0 221 181
0 221 181
0 221 181
0 221 181
0 222 181
0 221 181
0 222 181
0 221 181
0 220 181
0 222 181
0 221 181
0 221 181
0 221 181
0 222 181
0 221 181
0 221 181
0 221 180
0 221 181
0 221 181
0 221 181
0 222 181
0 221 181
0 221 181
0 222 181
0 221 181
0 221 181
0 221 181
0 221 181
0 220 181
0 223 181
0 221 181
0 221 181
0 221 180
0 221 180
0 220 181
0 222 181
0 221 181
0 221 181
0 221 181
0 221 181
0 220 181
0 222 181
0 220 181
0 222 181
0 222 180
0 221 181
0 221 181
0 222 180
0 221 181
0 221 181
0 222 181
0 222 181
0 221 180
0 220 181
0 221 181
0 220 180
0 221 181
0 221 181
0 221 181
0 221 181
0 221 181
0 221 181
0 220 181
0 221 181
0 221 181
0 222 181
0 221 181
0 222 181
0 221 181
0 222 181
0 221 181
0 221 181
0 220 180
0 222 181
0 219 180
0 221 181
0 220 180
0 221 181
0 221 181
0 221 181
0 220 180
0 221 181
0 221 181
0 221 181
0 222 181
0 220 180
0 222 181
0 222 181
0 222 181
0 220 181
0 222 181
0 221 181
0 221 181
0 221 180
0 222 181
0 219 180
0 220 181
0 220 181
0 221 181
0 222 180
0 221 180
0 221 181
0 221 181
0 222 181
0 221 181
0 221 180
0 222 181
0 220 180
0 220 180
0 220 180
0 221 181
0 220 180
0 221 181
0 221 181
0 220 181
0 222 181
0 220 180
0 222 180
0 220 180
0 221 181
0 222 181
0 222 181
0 222 181
0 220 180
0 221 181
0 221 180
0 220 180
0 220 180
0 220 180
0 220 180
0 221 181
0 220 181
0 220 180
0 218 178
0 221 180
0 219 179
0 220 179
0 219 179
0 220 180
0 220 180
0 219 179
0 220 180
0 219 180
0 218 179
0 219 179
0 220 180
0 221 181
0 219 179
0 221 180
0 219 179
0 220 179
0 216 178
0 219 179
0 213 176
0 220 180
0 220 180
0 216 178
0 220 180
0 221 181
131 227 209
154 228 220
0 221 181
0 220 180
0 216 178
0 219 179
0 214 177
0 213 175
0 217 178
0 217 177
0 218 178
0 213 175
0 212 174
0 210 174
0 207 170
0 212 173
0 211 174
0 201 166
0 201 167
0 204 168
0 195 162
0 197 164
0 190 158
0 186 153
0 185 152
0 171 143
0 164 137
0 155 128
22 118 124
33 96 138
35 94 139
41 97 147
41 130 148
28 131 129
45 98 153
37 96 143
24 132 137
36 94 138
36 93 137
39 96 143
37 95 142
30 94 134
40 95 143
35 91 136
33 93 135
33 94 130
27 104 122
6 128 106
0 139 112
0 131 108
0 138 112
0 147 120
0 148 121
0 162 129
0 163 132
0 156 126
0 175 138
0 168 138
0 178 144
0 183 147
0 193 157
0 189 149
0 186 147
0 188 150
0 180 139
0 190 149
0 194 155
0 198 158
0 202 161
0 201 157
0 200 161
0 203 160
0 205 163
0 203 161
0 205 163
0 201 161
0 206 165
0 207 169
0 206 164
0 206 161
0 209 166
0 207 163
0 211 170
0 214 169
0 211 169
0 218 176
0 210 167
0 215 172
0 210 168
0 215 170
0 215 175
0 217 174
0 216 177
0 218 177
0 216 176
0 219 178
0 220 178
0 221 180
0 216 175
0 215 174
0 217 177
0 219 177
0 216 176
0 220 179
0 218 177
0 219 179
0 221 181
0 222 180
0 221 180
0 217 176
0 220 180
0 219 177
0 221 181
0 219 179
0 220 178
0 219 179
0 219 179
0 221 181
0 220 180
0 221 181
0 218 179
0 220 180
0 219 179
0 219 178
0 220 179
0 221 179
0 221 180
0 221 181
0 221 181
0 221 181
0 221 180
0 220 180
0 220 181
0 219 178
0 220 179
0 220 179
0 220 179
0 221 181
0 220 180
0 221 181
0 222 180
0 221 180
0 220 180
0 222 181
0 221 181
0 222 181
0 221 181
0 220 181
0 221 181
0 221 181
0 222 181
0 219 180
0 221 181
0 221 180
0 220 180
0 220 180
0 220 179
0 221 181
0 222 181
0 219 179
0 220 181
0 220 181
0 221 180
0 220 181
0 221 181
0 221 180
0 221 180
0 220 181
0 220 180
0 222 181
0 221 181
0 220 181
0 222 181
0 220 181
0 221 181
0 221 181
0 221 180
0 222 181
0 221 181
0 222 181
0 221 181
0 221 181
0 221 180
0 221 181
0 221 181
0 221 181
0 221 181
0 221 181
0 221 181
0 220 181
0 221 181
0 221 181
0 221 181
0 220 180
0 220 181
0 222 181
0 221 181
0 222 181
0 222 181
0 221 181
0 221 181
0 220 181
0 222 181
0 220 181
0 222 181
0 221 181
0 221 181
0 221 181
0 221 181
0 220 180
0 221 181
0 221 181
0 222 181
0 221 181
0 221 181
0 222 181
0 220 181
0 222 181
0 220 181
0 222 181
0 222 181
0 221 181
0 220 180
0 221 181
0 221 181
0 221 181
0 221 181
0 221 181
0 221 181
0 222 181
0 221 181
0 220 181
0 221 181
0 221 181
0 222 181
0 222 181
0 220 181
0 221 181
0 220 181
0 221 181
0 221 181
0 222 181
0 221 181
0 222 181
0 221 181
0 221 181
0 221 181
0 222 181
0 221 181
0 221 181
0 222 181
0 220 181
0 221 181
0 221 181
0 222 181
0 221 181
0 222 181
0 222 181
0 222 181
0 222 181
0 221 181
0 221 181
0 221 181
0 221 181
0 222 181
0 222 181
0 221 181
0 221 181
0 221 181
0 221 181
0 221 181
0 222 181
0 221 181
0 222 181
0 221 181
0 221 181
0 222 181
0 220 181
0 222 181
0 221 181
0 221 181
0 220 181
0 222 181
0 221 181
0 222 181
0 221 181
0 222 181
0 221 181
0 222 181
0 221 181
0 221 181
0 221 181
0 222 181
0 221 181
0 221 181
0 220 180
0 222 181
0 221 181
0 221 181
0 222 181
0 221 181
0 220 180
0 221 180
0 220 181
0 222 181
0 222 181
0 221 181
0 220 180
0 221 181
0 220 180
0 221 181
0 223 181
0 221 181
0 221 181
0 221 181
0 221 181
0 219 179
0 221 181
0 220 180
0 220 180
0 222 181
0 221 181
0 220 180
0 222 181
0 220 181
0 221 181
0 221 181
0 221 181
0 222 181
0 220 181
0 221 181
0 220 181
0 221 180
0 221 181
0 221 180
0 221 181
0 220 180
0 220 180
0 221 181
0 222 181
0 221 181
0 221 181
0 221 181
0 221 181
0 221 181
0 220 179
0 220 180
0 220 181
0 222 181
0 221 181
0 220 181
0 220 180
0 221 180
0 221 180
0 220 181
0 220 180
0 220 180
0 221 181
0 222 181
0 220 180
0 220 180
0 221 181
0 219 179
0 220 180
0 221 181
0 222 181
0 222 181
0 221 179
0 221 181
0 220 180
0 220 180
0 221 180
0 222 181
0 220 181
0 219 180
0 220 180
0 220 180
0 215 177
0 220 180
0 221 180
0 217 178
0 219 180
0 220 180
0 220 180
0 219 180
0 221 180
0 219 179
0 221 180
0 219 178
0 219 179
0 217 178
0 214 176
0 217 179
0 220 180
0 218 179
0 218 178
0 215 176
0 217 177
0 217 178
0 221 181
112 226 202
209 235 248
0 220 179
0 221 180
0 218 179
0 218 178
0 218 180
0 214 176
0 217 176
0 212 174
0 214 175
0 214 176
0 206 171
0 211 174
0 211 174
0 208 171
0 210 173
0 202 166
0 205 170
0 202 168
0 194 162
0 193 159
0 205 169
0 183 153
0 185 155
0 169 141
0 168 140
23 134 138
38 96 144
42 96 146
39 97 147
47 97 154
65 113 137
47 99 156
44 97 151
47 96 153
27 124 139
41 99 149
34 96 140
38 96 143
40 96 145
43 96 148
40 97 145
40 96 145
41 97 147
39 95 144
36 97 142
38 94 140
30 120 133
6 129 106
0 148 116
0 146 117
0 151 123
0 151 118
0 177 141
0 162 132
0 174 134
0 171 134
0 172 137
0 179 141
0 187 145
0 179 138
0 190 148
0 187 148
0 183 143
0 198 159
0 191 150
0 196 153
0 200 152
0 197 151
0 200 159
0 198 153
0 201 160
0 195 149
0 207 165
0 211 170
0 205 163
0 206 163
0 207 165
0 206 166
0 210 169
0 208 167
0 208 168
0 215 174
0 201 157
0 211 168
0 216 175
0 214 173
0 214 172
0 214 173
0 215 174
0 213 172
0 216 175
0 213 172
0 217 174
0 218 178
0 212 170
0 215 175
0 218 179
0 219 178
0 220 178
0 217 175
0 216 174
0 218 176
0 220 180
0 220 179
0 219 180
0 217 177
0 219 178
0 219 179
0 220 179
0 220 179
0 218 180
0 220 179
0 220 179
0 220 180
0 221 180
0 220 179
0 220 178
0 220 179
0 221 179
0 218 179
0 221 181
0 220 179
0 219 179
0 219 179
0 221 179
0 221 181
0 219 179
0 221 181
0 220 179
0 220 181
0 221 181
0 221 181
0 221 180
0 218 178
0 221 181
0 220 178
0 219 179
0 220 180
0 221 180
0 221 180
0 221 181
0 220 180
0 221 181
0 221 181
0 221 181
0 220 178
0 221 181
0 221 180
0 221 181
0 220 179
0 221 181
0 222 181
0 221 181
0 220 181
0 222 181
0 222 181
0 221 180
0 221 181
0 221 181
0 222 181
0 221 181
0 221 181
0 221 181
0 221 181
0 221 180
0 221 181
0 221 181
0 220 181
0 222 181
0 221 181
0 222 181
0 221 181
0 221 181
0 221 181
0 222 181
0 221 181
0 221 180
0 222 181
0 221 181
0 221 181
0 220 181
0 219 178
0 221 181
0 221 181
0 221 181
0 222 181
0 221 181
0 220 180
0 222 181
0 221 181
0 221 181
0 220 180
0 221 181
0 221 180
0 221 181
0 221 181
0 221 181
0 222 181
0 220 181
0 222 181
0 222 181
0 221 181
0 221 181
0 221 181
0 221 181
0 222 181
0 221 181
0 221 181
0 222 181
0 221 181
0 221 181
0 221 181
0 222 181
0 220 180
0 221 181
0 223 181
0 221 181
0 222 181
0 221 181
0 221 181
0 221 181
0 221 181
0 221 181
0 221 181
0 221 181
0 220 181
0 222 181
0 221 181
0 220 181
0 221 181
0 222 181
0 221 181
0 222 181
0 222 181
0 221 181
0 222 181
0 221 181
0 221 181
0 221 181
0 220 181
0 222 181
0 222 181
0 221 181
0 223 181
0 221 181
0 221 181
0 221 181
0 221 181
0 221 181
0 221 181
0 222 181
0 222 181
0 222 181
0 221 181
0 222 181
0 222 181
0 221 181
0 221 181
0 221 181
0 221 181
0 221 181
0 221 181
0 222 181
0 221 181
0 221 180
0 221 181
0 221 181
0 220 181
0 221 181
0 221 181
0 222 181
0 221 181
0 221 181
0 222 181
0 222 181
0 221 181
0 221 181
0 221 181
0 221 181
0 222 181
0 221 181
0 221 180
0 222 181
0 222 181
0 222 181
0 221 181
0 221 181
0 222 181
0 221 181
0 222 181
0 221 181
0 221 181
0 221 181
0 221 181
0 221 181
0 222 181
0 222 181
0 221 181
0 220 179
0 222 181
0 221 181
0 221 181
0 222 181
0 221 180
0 221 181
0 221 181
0 221 181
0 220 180
0 221 181
0 222 181
0 221 181
0 221 181
0 221 181
0 220 181
0 221 181
0 222 181
0 222 181
0 221 181
0 219 180
0 221 181
0 221 181
0 222 181
0 221 181
0 222 181
0 221 181
0 221 181
0 221 180
0 220 181
0 221 181
0 222 181
0 221 181
0 221 181
0 221 181
0 222 181
0 219 180
0 221 181
0 221 181
0 221 181
0 221 181
0 221 181
0 221 181
0 221 181
0 220 181
0 220 181
0 219 179
0 222 181
0 220 181
0 221 181
0 221 181
0 221 180
0 220 180
0 221 180
0 220 180
0 219 179
0 220 180
0 221 181
0 220 180
0 221 181
0 220 180
0 220 180
0 221 180
0 221 181
0 222 181
0 221 181
0 221 181
0 220 180
0 220 180
0 221 181
0 220 180
0 221 180
0 221 181
0 221 180
0 218 178
0 220 179
0 220 180
0 220 179
0 220 180
0 220 180
0 219 179
0 218 179
0 219 180
0 220 180
0 219 179
0 219 179
0 220 179
0 218 179
0 220 180
0 217 178
0 220 181
0 219 179
0 219 180
0 218 178
0 219 178
0 219 179
0 219 180
0 219 179
0 220 179
0 219 179
39 220 183
223 237 255
127 226 208
0 221 181
0 218 179
0 219 178
0 218 178
0 217 177
0 217 178
0 214 176
0 214 176
0 213 175
0 218 178
0 207 170
0 209 172
0 211 172
0 212 174
0 208 171
0 205 169
0 203 167
0 204 169
0 193 162
0 200 165
0 184 154
0 188 155
0 178 148
24 141 138
37 94 139
44 97 151
40 97 146
42 97 150
50 98 159
49 100 159
50 99 160
46 97 153
34 97 138
37 117 148
43 99 152
42 96 149
40 98 149
42 99 151
43 97 150
45 98 152
45 97 152
41 97 148
44 96 150
46 99 154
44 96 149
38 94 141
34 99 133
26 116 115
0 147 116
0 150 117
0 144 115
0 155 122
0 163 129
0 165 130
0 190 152
0 181 145
0 172 132
0 169 133
0 184 142
0 183 146
0 184 145
0 191 147
0 192 149
0 179 136
0 196 153
0 193 150
0 195 154
0 196 154
0 199 157
0 201 157
0 204 162
0 203 163
0 204 162
0 196 152
0 206 163
0 207 159
0 204 161
0 213 171
0 212 170
0 206 161
0 214 169
0 216 175
0 210 167
0 215 174
0 216 175
0 219 176
0 211 170
0 212 173
0 215 174
0 215 173
0 215 174
0 217 176
0 216 176
0 216 176
0 217 176
0 218 177
0 220 179
0 218 176
0 218 177
0 219 176
0 219 178
0 222 180
0 220 179
0 217 175
0 219 178
0 219 179
0 218 178
0 218 177
0 216 176
0 220 179
0 220 179
0 220 179
0 219 178
0 220 181
0 221 181
0 220 180
0 220 180
0 220 179
0 218 178
0 220 180
0 220 178
0 220 181
0 221 181
0 220 180
0 220 179
0 220 178
0 219 179
0 221 181
0 222 180
0 219 177
0 221 181
0 221 180
0 221 179
0 220 180
0 222 181
0 220 180
0 221 181
0 219 179
0 221 179
0 221 180
0 221 181
0 221 180
0 220 179
0 221 181
0 221 180
0 222 181
0 221 181
0 221 179
0 221 181
0 221 181
0 221 181
0 221 181
0 220 180
0 222 181
0 221 181
0 221 181
0 221 181
0 222 181
0 221 181
0 220 181
0 220 179
0 221 181
0 221 181
0 221 181
0 221 181
0 221 181
0 221 180
0 222 181
0 221 181
0 220 180
0 221 181
0 221 181
0 221 180
0 221 181
0 221 181
0 222 181
0 222 181
0 221 181
0 220 180
0 220 179
0 221 181
0 222 181
0 222 181
0 221 181
0 221 181
0 221 181
0 222 181
0 222 181
0 222 181
0 221 180
0 222 181
0 220 181
0 221 181
0 220 181
0 222 181
0 221 181
0 222 181
0 221 181
0 222 181
0 221 181
0 220 180
0 222 181
0 221 180
0 221 181
0 221 181
0 222 181
0 222 181
0 221 180
0 222 181
0 221 181
0 222 181
0 221 181
0 222 180
0 222 181
0 221 181
0 222 181
0 221 181
0 220 181
0 222 181
0 221 181
0 221 181
0 221 181
0 222 181
0 221 181
0 221 181
0 221 181
0 221 181
0 220 181
0 221 181
0 222 181
0 221 181
0 221 181
0 221 181
0 221 181
0 222 181
0 221 181
0 221 181
0 221 181
0 221 181
0 221 181
0 221 181
0 220 181
0 221 181
0 220 181
0 221 181
0 221 181
0 221 181
0 221 181
0 221 181
0 221 181
0 222 181
0 221 181
0 221 181
0 222 181
0 221 181
0 221 181
0 221 181
0 221 181
0 221 181
0 221 181
0 221 181
0 221 181
0 221 181
0 222 181
0 221 181
0 221 181
0 221 181
0 221 181
0 221 181
0 220 181
0 222 181
0 221 181
0 221 181
0 219 180
0 221 181
0 222 181
0 221 181
0 221 181
0 221 181
0 221 181
0 221 181
0 222 181
0 221 181
0 221 181
0 221 181
0 221 181
0 221 181
0 222 181
0 221 181
0 221 181
0 221 181
0 219 180
0 221 181
0 221 181
0 221 181
0 219 180
0 220 181
0 222 180
0 219 179
0 220 181
0 221 181
0 222 181
0 222 181
0 222 181
0 220 181
0 220 180
0 221 181
0 221 181
0 221 181
0 221 181
0 221 181
0 221 181
0 221 181
0 220 180
0 221 181
0 221 181
0 220 180
0 221 181
0 220 180
0 221 181
0 221 181
0 219 179
0 220 181
0 219 180
0 222 181
0 221 181
0 221 181
0 220 181
0 220 180
0 221 181
0 221 181
0 220 181
0 222 181
0 222 181
0 220 180
0 222 181
0 221 181
0 220 181
0 221 181
0 221 181
0 218 179
0 221 181
0 221 181
0 221 181
0 221 181
0 220 180
0 221 181
0 221 181
0 221 181
0 221 181
0 221 181
0 221 181
0 221 181
0 222 181
0 222 181
0 220 179
0 221 180
0 221 181
0 220 180
0 220 180
0 220 180
0 220 180
0 219 180
0 220 181
0 220 180
0 221 181
0 220 181
0 222 181
0 221 181
0 220 180
0 221 181
0 221 181
0 221 181
0 218 179
0 219 179
0 220 180
0 220 180
0 217 177
0 220 180
0 220 179
0 220 180
0 220 179
0 222 181
0 222 180
0 218 179
0 219 179
0 219 179
0 218 179
0 218 178
0 221 180
0 216 177
0 220 180
0 218 178
0 219 179
0 215 177
0 216 176
0 221 180
0 221 180
192 232 238
210 234 250
59 222 186
0 219 179
0 220 180
0 217 177
0 221 180
0 217 178
0 213 175
0 216 177
0 217 178
0 217 178
0 210 173
0 208 172
0 209 173
0 213 175
0 209 172
0 207 171
0 209 172
0 202 167
0 205 168
0 189 156
0 194 161
0 186 155
21 160 150
39 99 145
40 96 146
45 98 152
47 98 156
51 99 162
50 99 160
54 100 167
50 98 160
44 97 151
39 118 150
42 97 149
44 97 152
49 99 158
43 98 153
45 97 152
46 98 154
47 100 156
44 98 152
47 98 155
46 99 155
42 98 149
46 98 154
43 99 151
45 96 150
41 100 145
25 124 124
0 159 127
0 163 128
0 172 135
0 162 128
0 173 139
0 166 128
0 176 136
0 176 132
0 174 136
0 173 129
0 175 135
0 185 142
0 180 138
0 189 147
0 178 140
0 183 142
0 195 151
0 184 141
0 190 146
0 190 149
0 200 155
0 199 153
0 198 151
0 201 160
0 202 159
0 205 159
0 206 166
0 203 158
0 207 163
0 209 164
0 209 165
0 208 166
0 207 163
0 208 163
0 215 172
0 212 172
0 213 171
0 211 169
0 214 173
0 218 176
0 208 168
0 215 172
0 215 175
0 214 173
0 218 177
0 217 176
0 214 174
0 216 175
0 215 173
0 217 176
0 217 175
0 217 176
0 219 179
0 221 181
0 219 178
0 218 178
0 215 173
0 220 179
0 221 180
0 219 178
0 220 180
0 221 181
0 217 177
0 219 176
0 221 181
0 220 178
0 221 179
0 220 180
0 220 179
0 220 180
0 220 179
0 219 179
0 221 181
0 221 180
0 221 180
0 221 180
0 222 181
0 219 179
0 221 181
0 222 181
0 220 180
0 221 181
0 221 181
0 219 180
0 220 181
0 221 181
0 221 181
0 220 181
0 222 181
0 218 179
0 222 181
0 221 181
0 221 181
0 221 180
0 221 181
0 221 180
0 221 181
0 220 181
0 222 180
0 220 180
0 221 181
0 220 181
0 222 181
0 220 181
0 220 179
0 221 180
0 222 181
0 222 181
0 221 180
0 221 181
0 221 180
0 222 181
0 221 181
0 221 181
0 222 181
0 221 181
0 222 181
0 221 181
0 220 181
0 221 181
0 221 181
0 221 180
0 222 181
0 221 181
0 220 180
0 222 181
0 221 181
0 221 180
0 222 181
0 221 181
0 221 181
0 220 181
0 222 181
0 222 181
0 221 181
0 221 181
0 221 181
0 220 180
0 222 181
0 222 181
0 221 181
0 220 180
0 222 181
0 221 181
0 222 181
0 222 181
0 221 181
0 222 181
0 222 181
0 221 181
0 222 181
0 221 181
0 221 180
0 221 181
0 220 181
0 220 180
0 221 181
0 221 181
0 221 181
0 221 181
0 221 181
0 221 181
0 220 181
0 221 181
0 221 181
0 221 181
0 221 181
0 221 181
0 221 181
0 221 181
0 222 181
0 222 181
0 221 181
0 221 181
0 221 181
0 222 181
0 221 181
0 221 181
0 222 181
0 221 181
0 221 181
0 221 181
0 221 181
0 221 181
0 222 181
0 221 181
0 221 181
0 220 181
0 221 181
0 221 181
0 221 181
0 222 181
0 222 181
0 222 181
0 221 181
0 221 181
0 222 181
0 221 181
0 222 181
0 222 181
0 221 181
0 221 181
0 222 181
0 221 181
0 222 181
0 221 181
0 221 181
0 221 181
0 221 181
0 221 181
0 221 181
0 221 181
0 221 181
0 221 181
0 221 181
0 221 181
0 221 181
0 221 181
0 222 181
0 222 181
0 221 181
0 220 181
0 221 181
0 221 181
0 221 181
0 221 181
0 222 181
0 222 181
0 221 181
0 221 181
0 221 181
0 221 181
0 221 181
0 221 181
0 221 181
0 222 181
0 221 180
0 221 181
0 221 181
0 221 181
0 221 181
0 221 181
0 221 181
0 221 181
0 221 181
0 222 181
0 222 181
0 221 181
0 222 181
0 221 181
0 222 181
0 222 181
0 221 181
0 220 180
0 221 181
0 221 181
0 221 181
0 221 181
0 220 181
0 222 181
0 221 181
0 222 181
0 221 181
0 222 181
0 222 181
0 220 181
0 221 181
0 221 181
0 221 181
0 222 181
0 221 180
0 222 181
0 222 181
0 220 180
0 222 181
0 221 181
0 221 181
0 221 181
0 220 181
0 223 181
0 221 181
0 222 181
0 221 181
0 221 181
0 220 180
0 221 181
0 221 181
0 221 180
0 220 180
0 221 180
0 222 181
0 221 181
0 221 181
0 222 181
0 221 181
0 222 181
0 221 180
0 221 181
0 221 181
0 221 181
0 220 181
0 221 181
0 220 180
0 222 181
0 221 181
0 221 181
0 221 181
0 221 181
0 221 181
0 222 181
0 221 180
0 220 180
0 220 180
0 222 181
0 222 180
0 220 180
0 220 180
0 221 180
0 219 179
0 220 180
0 219 179
0 220 180
0 219 179
0 220 181
0 220 179
0 220 180
0 221 181
0 217 178
0 219 179
0 219 179
0 219 179
0 220 180
0 220 180
0 219 180
0 218 178
0 218 178
0 218 179
0 219 180
0 214 176
0 219 179
0 218 178
0 219 179
0 219 179
0 217 178
0 218 178
0 218 179
0 217 178
0 220 179
0 221 181
144 228 214
221 235 255
173 230 230
0 222 181
0 221 181
0 215 177
0 218 179
0 218 179
0 216 177
0 216 176
0 215 176
0 212 175
0 213 174
0 210 173
0 213 176
0 208 171
0 208 171
0 206 169
0 202 167
0 210 173
0 202 167
0 201 166
0 196 164
15 185 160
41 100 149
44 98 152
45 97 152
48 98 158
46 98 157
52 99 163
55 101 168
53 99 164
47 98 156
48 98 156
44 106 154
49 98 159
48 99 157
50 97 157
46 99 155
46 97 154
46 98 153
47 98 155
49 98 158
44 99 154
45 98 153
48 98 156
44 98 153
42 97 149
43 96 148
47 97 153
34 95 135
21 132 121
0 149 115
0 168 133
0 156 122
0 145 112
0 163 124
0 170 126
0 170 135
0 166 121
0 172 132
0 168 127
0 182 135
0 178 136
0 179 134
0 183 136
0 189 144
0 179 133
0 192 142
0 189 141
0 190 143
0 195 152
0 190 147
0 200 156
0 198 154
0 204 160
0 198 153
0 202 156
0 202 163
0 207 165
0 206 164
0 214 171
0 208 167
0 211 167
0 212 170
0 213 172
0 213 171
0 217 174
0 215 173
0 214 169
0 217 175
0 216 172
0 214 172
0 214 173
0 217 176
0 218 178
0 215 175
0 217 176
0 220 178
0 220 179
0 216 175
0 218 176
0 216 176
0 218 176
0 221 179
0 220 179
0 219 178
0 219 179
0 220 179
0 217 178
0 217 177
0 220 178
0 220 179
0 221 181
0 221 180
0 220 180
0 221 180
0 220 179
0 220 180
0 219 179
0 219 179
0 220 180
0 220 180
0 221 180
0 221 180
0 220 180
0 220 180
0 220 178
0 221 181
0 221 179
0 220 179
0 221 180
0 222 181
0 220 180
0 221 181
0 221 181
0 221 181
0 221 180
0 220 179
0 221 181
0 221 181
0 221 181
0 221 181
0 220 181
0 221 180
0 220 180
0 221 181
0 221 181
0 221 180
0 221 181
0 222 181
0 221 181
0 220 181
0 221 181
0 220 180
0 222 180
0 220 180
0 221 181
0 222 181
0 221 181
0 221 180
0 222 181
0 219 179
0 220 181
0 221 181
0 221 181
0 221 181
0 221 180
0 222 181
0 221 181
0 221 181
0 221 181
0 222 181
0 222 181
0 221 181
0 222 181
0 222 181
0 220 181
0 222 181
0 219 180
0 222 181
0 221 181
0 221 181
0 221 181
0 222 181
0 221 181
0 221 181
0 221 181
0 221 181
0 222 181
0 222 181
0 221 181
0 222 181
0 221 181
0 221 181
0 220 181
0 222 180
0 221 181
0 221 181
0 221 181
0 221 181
0 222 181
0 222 181
0 221 181
0 221 181
0 221 181
0 223 181
0 222 181
0 221 181
0 221 181
0 220 180
0 222 181
0 222 181
0 221 181
0 221 181
0 220 180
0 219 180
0 221 181
0 222 181
0 221 181
0 221 181
0 220 181
0 222 181
0 221 181
0 222 181
0 220 181
0 221 181
0 221 181
0 221 181
0 221 181
0 221 181
0 222 181
0 221 181
0 221 181
0 222 181
0 222 181
0 222 181
0 221 181
0 222 181
0 221 181
0 222 181
0 222 181
0 222 181
0 221 181
0 221 181
0 221 181
0 222 181
0 221 181
0 222 181
0 220 181
0 222 181
0 221 181
0 221 181
0 221 181
0 221 181
0 221 181
0 221 181
0 220 181
0 221 181
0 220 181
0 222 181
0 222 181
0 221 181
0 221 181
0 221 181
0 221 181
0 221 181
0 222 181
0 221 181
0 220 181
0 221 181
0 221 181
0 221 181
0 221 181
0 221 181
0 221 181
0 221 181
0 221 181
0 220 181
0 221 181
0 221 181
0 222 181
0 222 181
0 221 181
0 221 181
0 222 181
0 221 181
0 221 181
0 221 181
0 221 181
0 221 181
0 220 181
0 221 181
0 220 181
0 221 181
0 222 181
0 222 181
0 222 181
0 221 181
0 221 181
0 221 181
0 221 181
0 220 181
0 221 181
0 223 181
0 221 181
0 221 181
0 221 181
0 222 181
0 221 181
0 220 180
0 221 181
0 222 181
0 220 180
0 221 181
0 221 181
0 222 181
0 222 181
0 221 181
0 221 181
0 221 181
0 221 181
0 221 181
0 221 181
0 220 180
0 221 181
0 220 179
0 221 181
0 222 181
0 221 181
0 221 181
0 221 181
0 221 181
0 221 181
0 221 181
0 222 181
0 222 181
0 221 181
0 222 181
0 219 180
0 221 181
0 221 180
0 220 181
0 221 181
0 220 180
0 221 181
0 221 181
0 222 181
0 221 181
0 221 181
0 221 181
0 220 181
0 219 179
0 222 181
0 222 181
0 221 181
0 221 181
0 221 181
0 221 181
0 220 180
0 220 180
0 221 181
0 221 181
0 219 179
0 221 180
0 220 180
0 220 180
0 221 180
0 221 181
0 220 180
0 222 180
0 219 180
0 221 181
0 217 178
0 218 179
0 220 180
0 220 180
0 220 180
0 222 181
0 221 181
0 220 180
0 220 179
0 221 179
0 220 180
0 217 178
0 220 179
0 220 179
0 220 179
0 222 181
0 222 181
0 218 178
0 221 180
0 219 179
0 221 181
0 219 179
0 217 178
0 218 179
0 217 178
0 216 177
0 221 181
39 222 183
208 235 247
218 234 255
150 228 218
0 220 180
0 221 180
0 217 178
0 221 179
0 216 178
0 221 180
0 218 178
0 215 176
0 211 174
0 217 178
0 214 176
0 214 176
0 209 173
0 203 170
0 203 168
0 206 171
0 207 170
0 204 168
0 196 162
29 127 144
43 98 151
50 98 160
47 98 157
52 99 164
54 100 167
58 100 172
54 99 167
55 100 169
53 100 165
46 99 154
45 101 156
47 99 157
49 98 158
43 97 151
45 97 153
48 98 157
46 98 154
50 99 160
50 99 159
45 98 154
46 98 154
45 98 154
47 99 158
46 97 152
39 95 143
44 98 151
45 97 152
40 94 140
13 142 120
0 144 106
0 164 126
0 160 120
0 146 108
0 171 129
0 162 116
0 175 130
0 166 127
0 172 127
0 176 131
0 176 129
0 168 122
0 177 132
0 185 134
0 176 127
0 188 142
0 189 138
0 191 142
0 187 139
0 195 147
0 201 155
0 200 155
0 209 163
0 200 155
0 204 157
0 207 161
0 210 165
0 203 159
0 208 164
0 211 171
0 212 169
0 207 166
0 212 167
0 213 170
0 213 172
0 214 171
0 210 165
0 216 173
0 217 176
0 215 170
0 213 172
0 217 174
0 216 175
0 215 173
0 216 174
0 216 175
0 214 173
0 218 177
0 215 176
0 218 177
0 218 177
0 219 178
0 219 179
0 219 178
0 220 179
0 219 178
0 217 177
0 219 178
0 220 179
0 220 179
0 220 179
0 218 178
0 219 178
0 220 179
0 221 180
0 218 178
0 221 179
0 222 181
0 221 180
0 220 180
0 220 179
0 222 181
0 219 178
0 220 179
0 220 181
0 221 181
0 221 181
0 222 181
0 221 180
0 221 181
0 219 179
0 220 180
0 219 179
0 222 181
0 222 181
0 222 181
0 221 180
0 220 181
0 221 181
0 221 180
0 221 181
0 220 180
0 221 181
0 220 180
0 221 181
0 221 181
0 221 181
0 221 181
0 221 181
0 221 181
0 222 181
0 220 178
0 221 181
0 222 181
0 222 181
0 221 181
0 220 180
0 220 181
0 221 181
0 221 181
0 221 180
0 221 181
0 220 180
0 222 181
0 221 181
0 221 181
0 221 181
0 221 181
0 221 181
0 222 181
0 221 181
0 221 181
0 221 181
0 222 181
0 221 181
0 222 181
0 222 181
0 221 181
0 221 181
0 221 181
0 221 181
0 220 181
0 220 180
0 221 181
0 221 181
0 221 181
0 221 181
0 220 181
0 222 181
0 222 181
0 221 181
0 221 180
0 221 181
0 222 181
0 221 181
0 222 181
0 221 181
0 221 181
0 221 181
0 222 181
0 222 181
0 221 181
0 221 181
0 222 181
0 221 181
0 222 181
0 221 180
0 222 181
0 223 181
0 221 181
0 222 181
0 221 181
0 221 181
0 221 181
0 220 180
0 222 181
0 221 181
0 221 181
0 220 180
0 222 181
0 221 181
0 222 181
0 222 181
0 222 181
0 221 181
0 221 181
0 222 181
0 221 181
0 222 181
0 222 181
0 222 181
0 221 181
0 222 181
0 222 181
0 221 181
0 221 181
0 220 181
0 222 181
0 221 181
0 220 181
0 222 181
0 221 181
0 221 181
0 221 181
0 220 181
0 222 181
0 222 181
0 221 181
0 222 181
0 220 181
0 222 181
0 222 181
0 221 181
0 220 181
0 221 181
0 222 181
0 222 181
0 221 181
0 221 181
0 221 181
0 221 181
0 221 181
0 221 181
0 221 181
0 222 181
0 221 181
0 222 181
0 222 181
0 220 181
0 221 181
0 221 181
0 221 181
0 223 181
0 221 181
0 223 181
0 221 181
0 221 181
0 221 181
0 222 181
0 221 181
0 221 181
0 220 180
0 221 181
0 220 180
0 221 181
0 221 181
0 222 181
0 222 181
0 221 181
0 221 181
0 221 181
0 221 180
0 220 181
0 222 181
0 222 181
0 221 181
0 221 181
0 220 181
0 221 181
0 220 180
0 220 180
0 222 181
0 221 180
0 221 181
0 222 181
0 221 181
0 221 181
0 222 181
0 220 181
0 220 181
0 220 181
0 221 181
0 221 181
0 221 181
0 221 181
0 220 181
0 221 181
0 222 181
0 220 181
0 221 181
0 220 181
0 221 181
0 220 181
0 221 181
0 222 181
0 221 180
0 222 181
0 220 180
0 222 181
0 220 180
0 222 180
0 221 180
0 221 181
0 221 181
0 222 181
0 220 180
0 221 181
0 222 181
0 221 181
0 219 179
0 221 181
0 221 181
0 221 180
0 220 180
0 221 181
0 221 180
0 220 180
0 220 180
0 221 181
0 221 181
0 221 181
0 220 180
0 221 181
0 221 181
0 220 181
0 221 181
0 220 180
0 222 181
0 221 180
0 220 180
0 220 180
0 221 181
0 220 180
0 221 181
0 220 179
0 222 181
0 221 181
0 222 181
0 221 181
0 219 179
0 220 179
0 221 181
0 220 179
0 220 180
0 219 179
0 220 179
0 219 180
0 221 181
0 220 180
0 220 180
0 216 178
0 217 178
0 218 179
0 221 179
0 222 181
0 219 178
0 219 180
0 221 180
0 218 178
0 219 179
0 219 179
0 216 177
0 220 180
0 219 179
0 219 179
0 219 179
0 219 179
0 222 180
135 228 211
221 235 255
217 233 255
152 229 219
0 221 180
0 220 180
0 216 178
0 217 179
0 217 178
0 219 179
0 211 173
0 213 174
0 218 179
0 215 176
0 210 173
0 212 175
0 211 173
0 208 170
0 207 171
0 206 169
0 205 169
24 175 162
52 99 163
48 99 158
52 100 162
48 100 160
55 100 168
58 100 173
59 100 175
53 99 166
52 100 164
51 98 163
45 105 157
53 99 165
49 99 158
53 99 164
49 99 159
50 98 162
55 100 168
48 98 158
47 98 156
52 100 163
48 99 158
55 100 165
49 99 159
48 99 157
48 98 159
49 100 158
47 98 156
45 99 155
43 96 148
43 109 144
6 162 130
0 149 114
0 158 115
0 153 117
0 159 114
0 159 111
0 163 121
0 172 128
0 164 114
0 169 119
0 179 131
0 165 112
0 170 120
0 175 127
0 181 131
0 183 130
0 190 141
0 183 134
0 191 142
0 199 152
0 200 150
0 196 149
0 201 158
0 197 148
0 212 164
0 205 159
0 208 164
0 212 167
0 208 166
0 208 166
0 213 170
0 209 166
0 217 175
0 213 169
0 214 172
0 216 175
0 213 168
0 217 174
0 212 171
0 218 176
0 214 172
0 217 176
0 215 172
0 216 177
0 216 175
0 217 176
0 219 178
0 218 176
0 217 176
0 219 178
0 220 179
0 219 177
0 220 178
0 218 177
0 218 176
0 219 178
0 218 177
0 219 179
0 219 179
0 220 179
0 219 178
0 219 177
0 220 180
0 221 180
0 219 176
0 220 181
0 219 179
0 218 179
0 220 181
0 221 181
0 221 179
0 221 181
0 219 178
0 220 179
0 218 178
0 221 180
0 221 180
0 221 181
0 221 181
0 221 181
0 221 181
0 221 181
0 221 181
0 221 181
0 222 181
0 221 181
0 220 180
0 220 181
0 222 181
0 221 180
0 222 181
0 221 181
0 221 181
0 221 181
0 222 181
0 222 181
0 220 180
0 221 181
0 221 181
0 222 181
0 220 179
0 220 180
0 222 181
0 221 181
0 221 181
0 220 179
0 222 181
0 221 181
0 221 181
0 221 181
0 220 181
0 221 181
0 219 180
0 222 181
0 220 180
0 221 181
0 221 181
0 221 181
0 221 180
0 221 180
0 220 179
0 222 181
0 222 181
0 221 181
0 221 181
0 220 180
0 221 181
0 221 181
0 222 181
0 220 181
0 221 181
0 222 181
0 222 181
0 222 181
0 221 180
0 221 181
0 222 181
0 221 181
0 222 181
0 221 181
0 222 181
0 221 180
0 222 181
0 221 181
0 221 181
0 221 181
0 221 181
0 220 181
0 221 181
0 221 181
0 221 181
0 222 181
0 221 181
0 221 181
0 221 181
0 222 181
0 221 181
0 221 181
0 222 181
0 222 181
0 221 181
0 221 181
0 222 181
0 221 181
0 222 181
0 221 181
0 221 181
0 221 181
0 222 181
0 221 181
0 221 181
0 222 181
0 220 181
0 221 181
0 221 181
0 222 181
0 221 180
0 222 181
0 222 181
0 221 181
0 221 180
0 222 181
0 220 181
0 222 181
0 222 181
0 221 181
0 221 181
0 221 181
0 221 181
0 222 181
0 222 181
0 221 181
0 221 181
0 221 181
0 222 181
0 221 181
0 222 181
0 222 181
0 221 181
0 222 181
0 221 181
0 222 181
0 221 181
0 221 181
0 221 181
0 222 181
0 221 181
0 220 180
0 221 181
0 221 181
0 220 181
0 221 181
0 222 181
0 221 181
0 220 181
0 221 181
0 221 181
0 222 181
0 222 181
0 221 181
0 220 181
0 221 181
0 221 181
0 222 181
0 222 181
0 221 181
0 221 181
0 221 181
0 221 181
0 221 181
0 221 181
0 222 181
0 221 181
0 221 181
0 221 181
0 221 181
0 222 181
0 221 181
0 221 181
0 221 181
0 220 180
0 221 181
0 221 181
0 221 181
0 222 181
0 222 181
0 222 181
0 221 181
0 221 181
0 221 181
0 221 181
0 221 181
0 220 181
0 221 181
0 221 181
0 220 180
0 221 181
0 221 181
0 222 181
0 222 181
0 221 181
0 221 181
0 222 181
0 221 181
0 222 181
0 220 181
0 221 181
0 220 181
0 222 181
0 222 181
0 221 181
0 221 181
0 221 180
0 221 181
0 221 181
0 220 180
0 222 181
0 221 181
0 221 181
0 221 181
0 221 181
0 221 181
0 221 181
0 221 181
0 221 181
0 221 181
0 220 181
0 221 181
0 222 181
0 222 181
0 222 181
0 221 181
0 220 181
0 221 180
0 220 180
0 221 181
0 221 181
0 220 180
0 220 180
0 218 178
0 221 181
0 221 181
0 221 181
0 221 180
0 220 180
0 220 180
0 221 181
0 220 181
0 219 180
0 221 180
0 219 180
0 221 180
0 220 180
0 218 178
0 219 180
0 220 180
0 220 179
0 221 181
0 220 180
0 221 181
0 220 180
0 221 181
0 219 179
0 217 178
0 219 179
0 218 178
0 220 180
0 222 181
0 219 179
0 219 180
0 221 180
0 217 178
0 219 179
0 219 179
0 219 179
0 219 179
0 220 179
0 218 178
0 221 180
0 217 177
0 216 177
0 220 180
0 220 179
0 218 179
0 215 177
0 218 178
0 218 179
0 219 180
0 220 180
170 231 227
220 235 255
216 232 255
166 230 226
45 223 184
0 220 179
0 220 180
0 217 178
0 217 178
0 218 179
0 219 179
0 219 179
0 220 179
0 212 175
0 214 175
0 212 174
0 216 177
0 216 176
0 213 174
6 206 172
49 112 162
45 97 155
50 99 163
55 99 168
54 99 168
59 99 175
58 100 174
56 99 171
54 99 167
54 99 166
45 102 157
50 99 161
50 99 163
52 99 164
53 100 166
49 99 161
52 99 164
51 99 162
50 100 161
53 100 165
51 100 163
52 100 163
51 100 162
52 100 164
52 98 162
47 100 157
49 99 159
52 99 161
50 99 158
50 100 160
45 95 150
24 134 120
0 146 108
0 157 111
0 159 120
0 152 113
0 151 109
0 145 101
0 154 107
0 144 100
0 149 94
0 150 104
0 151 90
0 170 113
0 168 107
0 177 124
0 179 125
0 180 128
0 188 131
0 187 137
0 193 141
0 192 137
0 201 153
0 195 144
0 204 155
0 194 151
0 201 158
0 206 162
0 211 170
0 207 162
0 206 163
0 210 166
0 214 170
0 214 170
0 210 166
0 213 170
0 214 171
0 216 173
0 213 173
0 218 177
0 218 176
0 217 174
0 217 175
0 216 175
0 217 175
0 219 179
0 218 178
0 215 175
0 217 176
0 220 178
0 220 179
0 221 179
0 219 178
0 220 178
0 221 181
0 221 179
0 220 179
0 220 179
0 218 178
0 220 178
0 220 180
0 219 180
0 221 180
0 221 181
0 220 180
0 218 177
0 220 179
0 222 181
0 219 179
0 221 179
0 221 181
0 221 181
0 221 181
0 220 178
0 220 180
0 221 180
0 222 181
0 220 179
0 220 180
0 221 180
0 220 179
0 219 179
0 221 181
0 221 180
0 220 179
0 220 181
0 221 181
0 220 179
0 221 181
0 221 180
0 222 181
0 221 180
0 220 181
0 221 181
0 221 181
0 221 181
0 221 181
0 221 181
0 222 181
0 221 181
0 221 181
0 221 181
0 221 181
0 222 180
0 223 181
0 221 181
0 220 181
0 221 181
0 221 181
0 221 181
0 222 181
0 221 180
0 220 181
0 221 180
0 222 181
0 220 181
0 221 181
0 221 181
0 221 181
0 222 181
0 221 181
0 221 181
0 221 180
0 221 180
0 222 181
0 220 179
0 221 181
0 222 181
0 222 181
0 221 181
0 221 181
0 222 181
0 220 181
0 221 181
0 221 180
0 220 181
0 221 181
0 222 181
0 221 181
0 221 181
0 221 181
0 221 181
0 221 181
0 221 180
0 221 181
0 221 181
0 220 181
0 221 181
0 221 181
0 221 181
0 222 181
0 221 181
0 221 181
0 221 181
0 221 181
0 221 181
0 222 181
0 221 181
0 221 181
0 222 181
0 221 180
0 220 181
0 222 181
0 221 181
0 222 181
0 221 181
0 221 181
0 221 181
0 222 181
0 221 181
0 221 181
0 221 181
0 221 181
0 221 181
0 221 181
0 222 181
0 221 181
0 222 181
0 221 181
0 221 180
0 222 181
0 220 181
0 221 181
0 220 181
0 221 181
0 220 181
0 222 181
0 221 181
0 221 181
0 222 181
0 221 181
0 222 181
0 221 181
0 221 181
0 221 181
0 221 181
0 221 181
0 223 181
0 221 181
0 221 181
0 221 181
0 221 181
0 222 181
0 220 181
0 222 181
0 221 181
0 221 181
0 220 181
0 221 181
0 222 181
0 221 181
0 221 181
0 221 181
0 221 181
0 222 181
0 221 181
0 220 181
0 220 181
0 222 181
0 221 181
0 221 181
0 221 181
0 221 181
0 222 181
0 221 181
0 221 181
0 221 181
0 222 181
0 221 181
0 221 181
0 221 181
0 222 181
0 221 181
0 222 181
0 221 181
0 221 181
0 221 181
0 221 181
0 221 181
0 220 181
0 221 181
0 220 181
0 221 181
0 220 180
0 220 181
0 221 181
0 220 180
0 221 181
0 221 181
0 222 181
0 222 181
0 222 181
0 221 181
0 221 181
0 221 181
0 221 181
0 221 181
0 221 181
0 221 181
0 221 181
0 221 181
0 221 181
0 220 180
0 222 180
0 221 181
0 221 181
0 220 180
0 222 181
0 221 181
0 222 181
0 221 181
0 221 181
0 221 181
0 222 181
0 222 181
0 221 181
0 220 181
0 220 180
0 222 181
0 221 181
0 221 181
0 220 181
0 220 180
0 221 180
0 219 179
0 222 181
0 221 181
0 221 181
0 222 181
0 222 181
0 221 180
0 220 180
0 221 181
0 220 181
0 220 180
0 221 181
0 222 181
0 221 181
0 221 181
0 221 181
0 221 181
0 221 181
0 220 179
0 220 180
0 221 181
0 221 181
0 221 181
0 222 181
0 222 181
0 221 180
0 220 180
0 220 180
0 220 180
0 222 181
0 220 180
0 221 180
0 222 181
0 219 179
0 220 180
0 221 181
0 221 181
0 219 180
0 220 180
0 218 179
0 220 180
0 219 179
0 220 181
0 222 181
0 221 181
0 221 180
0 219 179
0 218 179
0 220 180
0 222 181
0 220 180
0 217 178
0 220 180
0 220 180
0 221 180
0 219 179
0 218 178
0 221 180
0 220 180
0 218 179
0 219 179
0 220 179
0 218 178
0 215 176
0 217 178
0 220 179
67 222 188
200 234 242
218 234 255
215 232 255
205 233 246
90 223 194
0 222 181
0 218 178
0 219 180
0 220 180
0 219 178
0 215 176
0 217 178
0 215 176
0 217 177
0 213 176
0 212 174
0 212 174
0 217 177
31 175 168
48 99 159
52 99 164
55 99 168
55 99 169
57 100 172
61 100 178
58 100 173
56 100 169
54 100 168
48 101 160
55 100 168
55 100 168
51 98 162
49 99 161
53 99 166
53 100 167
53 99 166
53 100 164
52 100 164
50 99 161
48 99 160
54 99 167
54 100 166
50 99 160
51 100 162
48 98 156
54 100 165
50 99 161
48 98 157
46 98 155
46 97 152
44 109 150
9 136 100
0 142 101
0 142 100
0 145 92
0 124 80
0 143 94
0 134 84
0 139 80
0 151 99
0 147 88
0 152 98
0 163 105
0 159 107
0 167 108
0 178 123
0 177 124
0 187 133
0 183 128
0 179 121
0 190 140
0 188 137
0 205 157
0 201 153
0 203 155
0 202 155
0 209 162
0 206 159
0 208 164
0 212 170
0 211 167
0 214 171
0 206 162
0 210 166
0 218 175
0 217 175
0 215 174
0 215 173
0 216 175
0 220 179
0 218 175
0 215 174
0 219 176
0 218 178
0 217 174
0 216 174
0 218 176
0 218 178
0 219 179
0 220 180
0 219 177
0 219 179
0 221 180
0 217 177
0 219 179
0 221 179
0 220 179
0 221 180
0 221 180
0 219 178
0 218 175
0 221 180
0 220 180
0 219 180
0 220 180
0 221 180
0 221 181
0 221 179
0 221 180
0 219 177
0 221 181
0 220 179
0 220 180
0 219 179
0 221 181
0 220 180
0 221 179
0 221 181
0 221 180
0 221 181
0 221 180
0 222 181
0 220 180
0 221 180
0 222 181
0 222 181
0 221 181
0 221 181
0 221 181
0 222 180
0 220 180
0 221 181
0 221 181
0 221 181
0 222 181
0 221 181
0 221 181
0 221 180
0 221 181
0 221 181
0 221 180
0 221 181
0 221 181
0 221 180
0 221 180
0 222 181
0 221 181
0 221 181
0 221 180
0 221 181
0 222 181
0 221 181
0 222 181
0 221 181
0 221 181
0 222 181
0 221 180
0 221 181
0 221 181
0 221 181
0 221 181
0 222 181
0 220 181
0 222 181
0 221 181
0 221 181
0 221 181
0 221 181
0 221 181
0 222 181
0 221 181
0 221 181
0 220 180
0 221 181
0 221 181
0 222 181
0 222 181
0 222 181
0 221 181
0 223 181
0 222 181
0 221 180
0 221 181
0 221 181
0 222 181
0 221 181
0 221 181
0 222 181
0 221 181
0 221 181
0 221 181
0 221 181
0 220 181
0 222 181
0 220 181
0 220 181
0 221 181
0 220 181
0 221 181
0 222 181
0 221 181
0 221 181
0 222 181
0 221 181
0 221 181
0 222 181
0 221 181
0 221 181
0 222 181
0 221 181
0 221 181
0 221 181
0 221 181
0 221 181
0 221 181
0 220 181
0 221 181
0 222 181
0 222 181
0 221 181
0 221 181
0 221 181
0 222 181
0 222 181
0 220 181
0 223 181
0 221 181
0 221 181
0 222 181
0 222 181
0 221 181
0 221 181
0 221 181
0 221 181
0 221 181
0 221 181
0 221 181
0 222 181
0 223 181
0 221 181
0 221 181
0 221 181
0 221 181
0 221 181
0 221 181
0 221 181
0 221 181
0 222 181
0 222 181
0 221 181
0 221 181
0 221 180
0 220 180
0 221 181
0 221 181
0 221 181
0 222 181
0 219 180
0 222 181
0 221 181
0 222 181
0 221 181
0 221 181
0 221 181
0 222 181
0 221 181
0 221 181
0 221 181
0 222 181
0 221 181
0 221 181
0 221 181
0 220 181
0 220 180
0 221 181
0 221 181
0 220 181
0 222 181
0 221 181
0 221 181
0 222 181
0 222 181
0 222 181
0 221 181
0 221 181
0 221 181
0 220 181
0 220 181
0 220 181
0 221 181
0 221 181
0 222 181
0 221 181
0 223 181
0 222 181
0 220 181
0 221 181
0 222 181
0 222 181
0 222 181
0 221 181
0 221 181
0 222 181
0 222 181
0 222 181
0 221 181
0 221 181
0 222 181
0 221 181
0 221 181
0 221 181
0 223 181
0 222 181
0 221 181
0 220 181
0 222 181
0 221 181
0 221 181
0 221 181
0 221 181
0 221 181
0 221 181
0 220 181
0 221 181
0 220 180
0 222 181
0 220 180
0 221 181
0 219 179
0 220 179
0 221 181
0 221 181
0 221 180
0 221 181
0 221 181
0 220 181
0 220 181
0 221 181
0 221 181
0 219 180
0 219 180
0 221 181
0 222 181
0 219 180
0 220 180
0 221 181
0 222 181
0 221 180
0 221 181
0 221 180
0 220 180
0 219 179
0 220 180
0 220 181
0 221 181
0 221 180
0 221 181
0 222 181
0 220 180
0 222 181
0 220 180
0 221 181
0 220 180
0 221 181
0 219 180
0 219 179
0 219 178
0 218 179
0 220 181
0 221 179
0 221 181
0 218 178
0 220 180
0 218 178
0 219 179
0 219 180
0 219 178
0 221 181
0 220 180
0 218 179
0 220 180
0 219 180
0 218 179
0 218 178
0 219 178
0 215 176
0 216 177
0 219 179
0 217 176
0 219 180
63 222 188
201 234 243
218 234 255
214 232 255
214 232 254
179 231 232
90 223 194
0 220 179
0 218 179
0 218 179
0 220 179
0 221 180
0 218 179
0 220 180
0 222 181
0 215 175
0 216 177
0 217 177
41 148 166
55 100 169
57 99 172
71 108 177
64 101 178
60 99 176
59 100 175
57 100 171
52 99 165
49 99 161
51 105 164
51 99 163
52 99 165
51 100 165
54 99 166
54 100 167
53 99 166
57 100 169
54 100 167
50 100 162
53 99 165
55 100 167
53 100 166
56 100 168
53 100 166
50 100 162
53 100 166
49 99 160
55 100 168
52 99 162
52 100 162
45 96 150
49 98 156
27 126 115
0 126 87
0 141 95
0 133 88
0 134 91
0 126 73
0 126 77
0 131 73
0 119 59
0 118 70
0 135 78
0 142 83
0 153 96
0 160 103
0 165 113
0 175 124
0 175 115
0 186 128
0 195 139
0 191 137
0 193 142
0 199 146
0 195 147
0 204 157
0 201 156
0 207 162
0 210 166
0 207 165
0 214 171
0 210 169
0 212 169
0 214 170
0 209 167
0 213 170
0 216 175
0 215 172
0 219 178
0 217 176
0 216 173
0 217 174
0 218 176
0 219 177
0 219 178
0 216 175
0 219 177
0 218 177
0 219 177
0 219 178
0 219 177
0 220 179
0 220 180
0 219 177
0 220 179
0 220 180
0 219 179
0 220 180
0 220 180
0 220 178
0 219 178
0 220 179
0 220 179
0 220 180
0 221 181
0 220 180
0 221 181
0 221 181
0 220 179
0 220 179
0 222 181
0 220 181
0 221 181
0 222 181
0 220 180
0 220 181
0 222 180
0 221 181
0 221 181
0 220 179
0 221 181
0 221 181
0 222 181
0 221 180
0 221 181
0 221 181
0 220 180
0 221 181
0 220 181
0 220 180
0 221 181
0 221 181
0 221 180
0 220 180
0 221 180
0 220 180
0 219 179
0 222 181
0 221 181
0 221 180
0 221 180
0 221 181
0 221 181
0 221 181
0 221 180
0 221 181
0 220 180
0 222 180
0 222 181
0 221 181
0 222 181
0 220 181
0 222 181
0 222 181
0 221 181
0 221 181
0 221 180
0 221 181
0 220 180
0 221 181
0 221 181
0 220 181
0 220 181
0 221 181
0 223 181
0 221 179
0 221 181
0 219 180
0 220 180
0 220 181
0 221 181
0 221 181
0 222 181
0 220 180
0 221 181
0 221 181
0 221 181
0 222 181
0 221 181
0 221 181
0 220 181
0 222 181
0 221 181
0 221 180
0 221 181
0 222 181
0 222 181
0 222 181
0 221 181
0 220 181
0 222 181
0 221 181
0 221 181
0 221 181
0 221 181
0 222 181
0 222 181
0 221 181
0 222 181
0 221 181
0 221 181
0 221 181
0 221 181
0 221 181
0 222 181
0 220 181
0 220 180
0 221 181
0 221 181
0 221 181
0 221 181
0 221 181
0 220 181
0 221 181
0 220 181
0 220 180
0 222 181
0 221 181
0 221 181
0 221 181
0 222 181
0 221 181
0 221 181
0 221 181
0 221 181
0 221 181
0 221 181
0 221 181
0 222 181
0 220 181
0 222 181
0 222 181
0 222 181
0 222 181
0 222 181
0 221 181
0 220 181
0 221 181
0 221 181
0 222 181
0 221 181
0 220 181
0 221 181
0 221 181
0 222 181
0 222 181
0 222 181
0 221 181
0 221 181
0 220 181
0 221 181
0 221 181
0 221 181
0 221 181
0 220 181
0 221 181
0 221 181
0 222 181
0 221 181
0 221 181
0 221 181
0 221 181
0 222 181
0 221 181
0 221 181
0 222 181
0 222 181
0 221 181
0 222 181
0 221 181
0 222 181
0 222 181
0 222 181
0 222 181
0 221 181
0 222 181
0 221 181
0 221 181
0 221 181
0 221 181
0 222 181
0 220 180
0 220 181
0 222 181
0 221 181
0 221 181
0 221 181
0 221 181
0 221 181
0 221 181
0 221 181
0 222 181
0 221 181
0 222 181
0 221 181
0 221 180
0 220 181
0 221 181
0 221 181
0 221 181
0 221 181
0 221 181
0 221 181
0 221 181
0 220 181
0 222 181
0 221 181
0 221 181
0 221 181
0 221 180
0 221 181
0 222 181
0 221 181
0 220 181
0 221 180
0 219 179
0 221 181
0 221 181
0 220 181
0 221 181
0 221 181
0 220 180
0 220 180
0 221 181
0 221 181
0 220 180
0 221 181
0 220 180
0 220 180
0 222 181
0 221 181
0 221 181
0 221 181
0 221 181
0 221 181
0 221 181
0 220 180
0 222 181
0 221 181
0 221 181
0 220 180
0 221 181
0 221 181
0 221 181
0 222 181
0 221 180
0 222 181
0 220 181
0 222 181
0 222 181
0 221 181
0 220 181
0 222 181
0 223 181
0 220 180
0 221 180
0 221 181
0 221 180
0 221 181
0 221 180
0 219 179
0 220 181
0 221 180
0 221 181
0 219 180
0 219 180
0 219 179
0 221 181
0 220 180
0 218 179
0 219 179
0 221 181
0 220 180
0 221 180
0 221 180
0 220 180
0 218 177
0 219 179
0 221 180
0 220 180
0 220 180
0 219 180
0 217 178
0 218 179
0 219 178
0 218 177
0 219 179
0 219 179
0 218 178
0 218 179
0 214 177
0 219 180
59 222 187
184 232 234
220 235 255
215 232 255
213 231 255
214 232 254
185 231 236
140 227 213
81 224 192
0 220 180
0 220 179
0 219 180
0 219 179
0 221 180
0 220 180
0 220 180
22 219 180
69 124 176
96 126 185
155 176 218
122 146 202
60 100 177
60 100 176
57 100 172
56 99 170
54 99 167
49 104 163
55 99 169
54 99 167
54 99 166
57 100 170
57 100 171
53 100 167
57 100 172
54 100 167
53 99 165
54 100 166
56 100 169
53 100 166
57 100 170
52 100 164
55 100 169
52 101 163
53 100 165
50 99 161
55 99 167
49 99 160
52 100 162
53 100 162
50 98 157
38 109 132
0 134 85
0 139 95
0 130 83
0 113 73
0 103 59
0 100 49
0 98 40
0 88 37
0 108 44
0 110 46
0 116 50
0 136 75
19 141 82
19 152 90
0 177 123
0 173 119
0 178 127
0 186 131
0 191 137
0 196 148
0 194 145
0 200 152
0 199 151
0 198 150
0 205 156
0 208 162
0 203 158
0 213 167
0 213 170
0 212 172
0 212 167
0 218 176
0 213 170
0 216 172
0 216 174
0 216 173
0 216 176
0 217 176
0 219 180
0 219 177
0 218 177
0 220 181
0 221 179
0 218 178
0 219 175
0 219 178
0 221 179
0 218 176
0 217 177
0 221 180
0 219 178
0 218 177
0 219 178
0 221 180
0 221 180
0 221 181
0 221 181
0 220 179
0 219 179
0 220 180
0 220 179
0 219 179
0 219 178
0 218 177
0 219 178
0 221 180
0 220 180
0 221 180
0 220 179
0 222 181
0 221 180
0 221 181
0 220 180
0 220 180
0 221 181
0 221 180
0 221 180
0 220 179
0 221 180
0 221 181
0 219 179
0 222 181
0 220 180
0 221 181
0 221 181
0 221 181
0 222 181
0 220 181
0 220 179
0 221 181
0 221 181
0 221 181
0 221 181
0 221 181
0 221 180
0 220 179
0 221 181
0 221 181
0 220 181
0 221 180
0 221 181
0 221 181
0 223 181
0 221 180
0 221 181
0 222 181
0 220 181
0 223 181
0 221 181
0 221 180
0 221 181
0 220 181
0 221 181
0 221 181
0 221 181
0 221 180
0 221 181
0 222 181
0 221 181
0 221 181
0 221 180
0 221 181
0 221 181
0 221 181
0 221 181
0 222 181
0 221 181
0 221 180
0 221 181
0 221 181
0 222 181
0 222 181
0 222 181
0 221 181
0 221 181
0 221 181
0 221 181
0 222 181
0 222 181
0 220 181
0 222 181
0 222 181
0 221 181
0 222 181
0 221 181
0 220 181
0 221 181
0 221 181
0 221 181
0 221 181
0 221 181
0 221 181
0 222 181
0 221 181
0 221 181
0 221 181
0 221 181
0 222 181
0 222 181
0 222 181
0 222 181
0 221 181
0 221 181
0 222 181
0 221 181
0 221 181
0 221 181
0 221 181
0 221 181
0 221 181
0 221 181
0 221 181
0 221 181
0 222 181
0 222 181
0 222 181
0 221 181
0 221 181
0 221 180
0 221 181
0 222 180
0 222 181
0 222 181
0 222 181
0 221 181
0 222 181
0 221 181
0 221 181
0 221 181
0 221 181
0 221 181
0 221 181
0 222 181
0 220 181
0 221 181
0 221 181
0 221 181
0 221 181
0 222 181
0 222 181
0 221 181
0 221 181
0 221 181
0 221 181
0 221 181
0 221 181
0 221 181
0 221 181
0 221 181
0 221 181
0 221 181
0 222 181
0 221 181
0 221 181
0 221 181
0 221 181
0 221 181
0 221 181
0 221 181
0 219 180
0 221 181
0 222 181
0 222 181
0 222 181
0 222 181
0 221 181
0 221 181
0 222 181
0 222 181
0 222 181
0 222 181
0 221 181
0 221 181
0 222 181
0 221 181
0 221 181
0 221 181
0 222 181
0 221 181
0 221 181
0 221 181
0 221 181
0 222 181
0 220 181
0 221 181
0 220 181
0 222 181
0 221 181
0 220 180
0 221 181
0 221 181
0 222 181
0 221 181
0 221 181
0 221 181
0 221 181
0 221 181
0 222 181
0 221 181
0 220 181
0 220 180
0 222 181
0 222 181
0 221 181
0 222 181
0 222 181
0 221 181
0 221 181
0 221 181
0 222 181
0 221 181
0 221 181
0 221 181
0 221 181
0 221 181
0 221 181
0 221 181
0 221 181
0 221 181
0 222 181
0 221 181
0 221 181
0 219 180
0 221 180
0 222 181
0 220 180
0 222 181
0 222 181
0 221 181
0 221 181
0 221 181
0 221 181
0 220 180
0 221 181
0 221 180
0 219 180
0 219 179
0 221 180
0 221 181
0 221 181
0 221 180
0 221 181
0 220 180
0 222 181
0 221 181
0 221 181
0 221 181
0 222 181
0 221 181
0 221 180
0 221 181
0 220 180
0 220 180
0 221 181
0 221 180
0 222 180
0 219 179
0 220 180
0 221 181
0 220 180
0 219 179
0 222 181
0 221 181
0 221 181
0 222 181
0 220 180
0 222 181
0 219 178
0 221 181
0 221 181
0 222 181
0 220 180
0 220 181
0 220 180
0 219 179
0 217 178
0 220 180
0 220 180
0 218 178
0 219 179
0 219 179
0 215 177
0 218 178
0 219 179
0 220 180
0 219 179
0 220 180
0 219 179
0 216 177
0 220 179
22 222 181
154 229 219
216 235 252
218 234 255
215 232 255
212 230 255
214 231 255
217 233 255
200 232 244
184 232 235
168 230 226
154 228 220
178 231 231
182 231 233
185 231 236
213 233 252
215 232 255
215 232 255
162 182 222
60 100 176
59 100 174
58 99 174
54 100 168
52 109 165
50 106 164
56 99 170
57 99 171
57 100 172
57 99 171
54 100 168
57 99 171
56 99 171
55 100 168
55 100 169
59 100 174
53 99 167
56 100 170
56 100 170
55 100 167
55 100 168
56 100 169
56 100 169
56 100 170
57 100 169
55 100 167
51 99 163
52 99 162
54 99 164
50 96 158
48 104 152
0 137 83
0 126 77
0 109 63
0 91 38
0 99 41
0 99 45
0 110 48
0 113 49
28 118 54
44 123 58
0 121 55
19 113 51
28 130 61
33 115 53
34 126 65
18 156 99
0 189 129
0 188 130
0 179 123
0 197 145
0 201 152
0 202 156
0 200 157
0 205 158
0 205 158
0 210 162
0 211 166
0 209 166
0 213 167
0 211 166
0 217 173
0 213 170
0 217 174
0 211 167
0 218 176
0 215 177
0 215 171
0 219 177
0 217 175
0 217 175
0 217 176
0 217 174
0 220 178
0 220 180
0 221 181
0 220 177
0 218 177
0 220 180
0 218 178
0 218 175
0 220 179
0 219 177
0 221 179
0 219 177
0 221 179
0 220 178
0 221 181
0 219 178
0 220 180
0 221 180
0 220 179
0 221 179
0 220 181
0 220 179
0 219 179
0 220 179
0 222 181
0 221 181
0 220 180
0 220 180
0 221 181
0 221 181
0 221 181
0 220 180
0 222 180
0 220 180
0 221 180
0 221 180
0 221 180
0 221 181
0 221 179
0 221 180
0 220 179
0 220 181
0 222 181
0 220 181
0 221 180
0 220 180
0 221 181
0 221 180
0 222 181
0 220 181
0 222 181
0 221 181
0 222 181
0 222 181
0 221 181
0 221 181
0 221 181
0 221 180
0 221 181
0 221 181
0 222 181
0 221 181
0 221 181
0 220 181
0 220 181
0 221 180
0 222 181
0 221 181
0 222 181
0 222 181
0 221 180
0 221 180
0 222 181
0 221 181
0 221 181
0 222 181
0 221 181
0 221 181
0 221 181
0 222 181
0 221 181
0 222 181
0 220 181
0 221 181
0 221 181
0 221 181
0 220 181
0 222 181
0 220 181
0 220 181
0 221 181
0 221 181
0 222 181
0 221 181
0 222 181
0 223 181
0 221 181
0 221 181
0 221 181
0 221 181
0 222 181
0 222 180
0 221 181
0 221 181
0 221 181
0 220 181
0 221 181
0 221 181
0 221 181
0 221 181
0 222 181
0 221 181
0 221 181
0 222 181
0 221 181
0 221 181
0 221 181
0 222 181
0 221 181
0 222 181
0 221 181
0 221 181
0 223 181
0 221 181
0 221 181
0 221 181
0 222 181
0 221 181
0 220 181
0 221 181
0 222 181
0 221 181
0 222 181
0 221 181
0 221 181
0 222 181
0 221 181
0 221 181
0 221 181
0 221 181
0 221 181
0 221 181
0 220 181
0 221 181
0 221 181
0 221 181
0 221 181
0 221 181
0 222 181
0 222 181
0 221 181
0 222 181
0 221 181
0 221 181
0 222 181
0 222 181
0 221 181
0 221 181
0 221 181
0 221 181
0 221 181
0 221 181
0 222 181
0 222 181
0 221 181
0 221 181
0 221 181
0 222 181
0 221 181
0 220 181
0 221 181
0 222 181
0 222 181
0 221 181
0 221 181
0 221 181
0 221 180
0 221 181
0 221 181
0 222 181
0 221 181
0 222 181
0 221 181
0 221 181
0 221 181
0 221 181
0 222 181
0 220 181
0 221 181
0 221 181
0 221 181
0 222 181
0 220 181
0 222 181
0 222 181
0 221 181
0 220 181
0 223 181
0 221 181
0 221 181
0 221 181
0 220 180
0 221 181
0 221 180
0 221 181
0 221 181
0 220 180
0 221 181
0 220 180
0 221 181
0 221 181
0 221 181
0 221 181
0 221 181
0 222 181
0 220 180
0 221 181
0 222 181
0 221 181
0 221 181
0 221 181
0 222 181
0 221 181
0 222 181
0 222 181
0 221 181
0 221 181
0 221 181
0 221 181
0 221 181
0 222 181
0 221 181
0 222 181
0 222 181
0 221 181
0 220 180
0 222 181
0 221 180
0 221 181
0 222 181
0 221 181
0 222 181
0 221 181
0 222 181
0 222 181
0 221 180
0 219 179
0 219 179
0 221 181
0 221 181
0 221 181
0 221 180
0 220 180
0 221 181
0 221 181
0 220 181
0 222 180
0 220 180
0 222 181
0 220 181
0 220 180
0 220 180
0 219 180
0 221 181
0 221 180
0 220 179
0 222 181
0 221 180
0 221 181
0 221 181
0 220 179
0 220 180
0 219 179
0 220 180
0 221 181
0 220 180
0 220 180
0 222 181
0 220 180
0 217 178
0 220 180
0 221 180
0 218 179
0 221 180
0 222 181
0 221 180
0 221 181
0 219 180
0 221 181
0 221 180
0 221 181
0 219 179
0 219 179
0 220 179
0 219 179
0 219 180
0 219 179
0 219 178
0 219 179
0 222 181
0 221 181
0 221 181
0 217 178
0 218 179
0 220 179
0 219 178
0 216 177
0 212 175
0 217 178
0 220 180
59 220 185
173 231 228
214 235 251
219 234 255
216 233 255
214 231 255
212 230 255
212 230 255
212 230 255
212 231 255
212 231 255
213 231 255
214 232 255
216 233 255
219 234 255
201 216 243
67 104 178
59 100 174
58 100 172
55 104 168
49 117 165
51 109 166
53 100 166
53 98 167
55 100 168
54 100 167
57 100 173
56 100 169
55 100 169
57 100 171
56 100 170
58 101 171
57 100 171
57 100 171
57 100 171
59 100 174
58 100 173
55 100 169
54 99 168
56 100 169
54 100 167
54 99 166
56 100 168
58 100 172
53 100 165
53 100 165
49 97 156
48 97 153
19 119 93
20 103 46
6 105 47
5 100 45
7 111 53
19 118 54
20 127 59
40 125 60
44 129 61
34 129 60
52 137 65
52 131 63
39 136 63
38 133 62
44 131 62
38 129 60
39 136 81
19 183 132
0 197 145
0 200 152
0 197 149
0 206 156
0 198 149
0 210 162
0 214 172
0 211 168
0 207 164
0 209 164
0 207 163
0 212 170
0 218 175
0 215 173
0 216 175
0 217 175
0 217 175
0 217 175
0 218 176
0 217 175
0 218 176
0 220 179
0 217 175
0 219 177
0 220 180
0 219 178
0 220 178
0 220 178
0 219 177
0 220 178
0 218 178
0 219 178
0 221 179
0 220 180
0 221 180
0 221 181
0 217 176
0 222 180
0 220 180
0 220 180
0 220 180
0 220 180
0 220 180
0 219 179
0 221 181
0 220 180
0 222 181
0 219 179
0 219 179
0 220 180
0 218 177
0 221 181
0 220 178
0 222 181
0 221 181
0 221 181
0 221 181
0 222 181
0 219 180
0 221 181
0 220 181
0 221 181
0 222 181
0 220 180
0 221 181
0 220 181
0 221 181
0 221 180
0 221 181
0 221 181
0 220 180
0 222 181
0 222 181
0 222 181
0 222 181
0 222 181
0 221 181
0 220 181
0 221 181
0 221 181
0 221 181
0 222 181
0 221 181
0 221 181
0 221 180
0 222 181
0 220 181
0 220 180
0 221 181
0 221 181
0 222 181
0 222 181
0 221 181
0 222 181
0 221 181
0 221 181
0 221 181
0 222 181
0 222 181
0 220 180
0 221 181
0 221 181
0 222 181
0 221 181
0 222 181
0 222 181
0 221 181
0 221 181
0 220 180
0 221 181
0 222 181
0 221 181
0 220 180
0 222 181
0 221 181
0 220 180
0 222 181
0 221 181
0 220 181
0 221 180
0 221 181
0 221 181
0 221 181
0 221 181
0 222 181
0 221 181
0 221 181
0 221 181
0 221 181
0 221 181
0 222 181
0 221 181
0 222 181
0 221 181
0 221 181
0 221 181
0 222 181
0 221 181
0 221 181
0 222 181
0 221 181
0 222 180
0 220 181
0 221 181
0 221 181
0 222 181
0 221 181
0 221 181
0 221 181
0 222 181
0 221 181
0 221 181
0 222 181
0 221 181
0 222 181
0 221 181
0 221 181
0 221 181
0 221 181
0 221 181
0 221 181
0 222 181
0 222 181
0 221 181
0 222 181
0 221 181
0 221 181
0 221 181
0 222 181
0 221 181
0 222 181
0 222 181
0 221 181
0 221 181
0 221 181
0 221 181
0 221 181
0 220 181
0 221 181
0 222 181
0 223 181
0 221 181
0 220 181
0 221 181
0 222 181
0 222 181
0 221 181
0 221 181
0 221 181
0 221 181
0 221 181
0 222 181
0 221 181
0 220 180
0 220 181
0 222 181
0 222 181
0 222 181
0 221 181
0 222 181
0 221 181
0 223 181
0 221 181
0 221 181
0 222 181
0 220 181
0 221 181
0 221 181
0 222 181
0 221 181
0 221 181
0 221 181
0 221 181
0 222 181
0 222 181
0 221 181
0 221 181
0 221 181
0 222 181
0 222 181
0 221 181
0 221 181
0 221 181
0 222 181
0 221 180
0 222 181
0 222 181
0 221 181
0 221 181
0 221 181
0 221 180
0 221 181
0 221 181
0 222 181
0 221 181
0 221 181
0 221 181
0 222 181
0 221 181
0 221 181
0 222 181
0 221 181
0 222 181
0 221 181
0 222 181
0 222 181
0 221 181
0 221 181
0 221 181
0 221 181
0 222 181
0 221 181
0 221 181
0 222 181
0 220 181
0 222 181
0 221 181
0 221 181
0 221 181
0 221 181
0 222 181
0 221 181
0 222 181
0 221 181
0 221 180
0 221 181
0 220 180
0 221 181
0 222 181
0 221 181
0 221 181
0 221 181
0 221 181
0 219 180
0 219 180
0 220 181
0 220 181
0 221 181
0 221 181
0 220 180
0 221 181
0 221 181
0 221 181
0 221 181
0 221 181
0 221 181
0 220 180
0 220 180
0 221 181
0 222 181
0 221 181
0 221 181
0 220 180
0 221 180
0 221 181
0 219 179
0 218 179
0 221 181
0 221 181
0 221 180
0 219 179
0 223 181
0 218 179
0 221 181
0 220 180
0 220 180
0 220 179
0 221 181
0 220 180
0 222 181
0 219 180
0 220 180
0 221 180
0 219 178
0 220 179
0 222 180
0 221 181
0 221 180
0 219 179
0 221 180
0 220 179
0 219 179
0 219 179
0 219 179
0 219 180
0 220 179
0 220 180
0 219 179
0 215 177
0 220 179
0 218 177
0 217 177
0 218 179
0 217 178
0 215 176
0 220 179
55 222 185
145 228 215
168 230 226
210 234 249
221 235 255
220 235 255
219 234 255
218 234 255
220 235 255
221 235 255
212 235 250
178 231 231
157 229 220
63 152 180
56 99 170
53 104 166
46 135 166
51 121 167
57 99 172
56 100 170
56 99 171
55 100 169
59 100 174
60 100 176
55 99 170
58 100 173
58 99 174
58 100 173
58 100 172
60 100 174
57 100 171
59 100 175
56 99 171
57 99 172
60 100 175
57 100 171
58 99 173
58 100 171
55 100 169
54 99 168
53 100 166
55 100 168
55 99 167
53 100 164
53 99 164
52 98 160
37 94 88
40 96 46
19 99 46
8 114 55
11 114 53
34 121 58
49 127 63
36 123 61
52 133 65
67 141 72
55 138 67
47 138 66
55 135 65
61 135 66
63 142 70
42 132 62
67 139 68
67 142 78
37 184 130
0 197 142
0 201 151
0 205 156
0 201 155
0 206 160
0 212 170
0 213 168
0 214 172
0 213 169
0 209 165
0 219 174
0 213 170
0 218 175
0 217 174
0 215 174
0 213 170
0 215 173
0 216 173
0 218 176
0 217 176
0 216 174
0 217 176
0 219 178
0 220 177
0 220 179
0 219 178
0 219 177
0 217 176
0 219 180
0 219 178
0 217 177
0 221 181
0 220 177
0 218 177
0 220 180
0 221 180
0 221 180
0 221 181
0 221 180
0 221 180
0 221 180
0 220 179
0 220 179
0 221 181
0 220 181
0 221 180
0 222 181
0 219 179
0 221 181
0 221 180
0 220 180
0 221 181
0 220 180
0 220 181
0 222 181
0 221 180
0 221 181
0 221 180
0 220 180
0 221 180
0 221 180
0 221 181
0 220 178
0 222 181
0 221 180
0 221 180
0 221 181
0 221 180
0 221 181
0 221 181
0 221 181
0 221 180
0 222 181
0 222 181
0 221 181
0 222 181
0 221 181
0 222 181
0 221 181
0 221 180
0 221 181
0 221 181
0 221 181
0 221 181
0 221 181
0 221 181
0 221 181
0 221 180
0 221 181
0 221 181
0 222 181
0 222 181
0 221 181
0 221 181
0 222 181
0 221 181
0 221 181
0 220 180
0 221 181
0 221 181
0 221 181
0 221 181
0 221 181
0 222 181
0 219 180
0 222 181
0 221 181
0 222 181
0 221 181
0 221 181
0 220 181
0 221 180
0 221 181
0 221 181
0 222 181
0 222 181
0 222 181
0 221 181
0 222 181
0 221 181
0 221 181
0 221 181
0 221 181
0 222 181
0 223 181
0 221 181
0 221 181
0 220 181
0 221 181
0 221 181
0 222 181
0 222 181
0 222 181
0 221 181
0 221 181
0 221 181
0 221 181
0 222 181
0 221 181
0 223 181
0 221 181
0 221 181
0 221 181
0 222 181
0 221 181
0 222 181
0 222 181
0 222 181
0 221 181
0 221 181
0 222 181
0 222 181
0 221 181
0 222 181
0 221 181
0 221 181
0 220 181
0 222 181
0 222 181
0 222 181
0 222 181
0 221 181
0 221 181
0 220 181
0 221 181
0 221 181
0 221 181
0 222 181
0 221 181
0 221 181
0 222 181
0 220 181
0 221 181
0 222 181
0 221 181
0 221 181
0 221 181
0 221 181
0 221 181
0 221 181
0 221 181
0 222 181
0 222 181
0 220 181
0 221 181
0 222 181
0 221 181
0 220 181
0 220 181
0 222 181
0 221 181
0 221 181
0 221 181
0 222 181
0 221 181
0 222 181
0 220 181
0 221 181
0 220 181
0 222 181
0 222 181
0 222 181
0 221 181
0 221 181
0 222 181
0 221 181
0 222 181
0 222 181
0 221 181
0 221 181
0 222 181
0 220 181
0 221 181
0 221 181
0 221 181
0 221 181
0 221 181
0 221 181
0 221 181
0 220 180
0 221 181
0 222 181
0 222 181
0 221 181
0 221 181
0 221 180
0 222 181
0 221 181
0 221 181
0 222 181
0 221 181
0 221 181
0 222 181
0 222 181
0 221 181
0 221 181
0 221 181
0 222 181
0 221 181
0 221 181
0 222 181
0 222 181
0 221 181
0 221 181
0 222 181
0 221 181
0 221 181
0 220 181
0 221 181
0 221 181
0 221 181
0 221 181
0 221 181
0 222 181
0 221 181
0 222 181
0 221 181
0 220 181
0 221 181
0 221 181
0 221 181
0 221 180
0 221 181
0 221 181
0 220 181
0 221 181
0 222 181
0 221 181
0 220 181
0 221 181
0 221 181
0 221 180
0 219 180
0 221 181
0 221 181
0 219 180
0 222 181
0 222 181
0 221 180
0 220 180
0 221 180
0 220 180
0 221 181
0 220 180
0 221 181
0 222 181
0 221 181
0 220 181
0 221 181
0 219 179
0 220 180
0 221 181
0 222 181
0 222 181
0 221 181
0 222 181
0 221 181
0 220 180
0 218 178
0 221 181
0 220 181
0 220 181
0 220 180
0 222 181
0 220 180
0 222 181
0 222 181
0 219 179
0 221 180
0 222 180
0 221 180
0 219 179
0 219 179
0 221 180
0 221 180
0 217 178
0 219 180
0 219 180
0 218 179
0 221 181
0 220 179
0 219 179
0 218 178
0 220 179
0 217 178
0 221 180
0 218 178
0 218 179
0 217 178
0 217 178
0 216 177
0 216 176
0 219 179
0 215 176
0 214 176
0 214 175
0 217 177
0 221 181
0 219 180
74 223 190
105 224 199
112 225 202
112 226 201
108 225 200
71 223 189
0 217 178
0 217 178
0 217 177
15 206 173
26 183 169
43 135 164
56 100 170
57 100 171
56 99 171
56 99 170
58 99 174
56 99 171
58 99 174
58 100 174
58 99 175
60 99 177
57 100 172
58 100 173
60 100 175
56 100 171
59 100 175
56 100 170
60 100 176
58 99 174
59 100 174
60 100 175
57 100 170
58 100 173
57 100 172
56 100 170
57 100 170
58 100 171
55 99 167
58 100 170
54 98 163
56 99 166
30 96 93
9 83 40
29 110 55
36 106 54
43 124 64
55 124 64
48 127 65
69 135 69
73 140 73
77 144 73
74 144 74
67 150 74
92 154 80
81 148 75
77 151 77
54 141 68
60 143 70
77 129 67
59 137 70
27 185 130
0 200 148
0 206 159
0 204 157
0 206 164
0 213 166
0 214 170
0 211 165
0 206 160
0 215 172
0 214 168
0 216 173
0 215 173
0 217 176
0 215 173
0 217 176
0 217 176
0 220 180
0 217 175
0 221 179
0 218 176
0 219 178
0 218 178
0 220 178
0 216 175
0 217 175
0 219 178
0 221 181
0 219 178
0 219 178
0 221 180
0 220 178
0 221 180
0 222 180
0 220 179
0 220 180
0 220 178
0 221 180
0 221 180
0 221 179
0 222 180
0 222 181
0 221 180
0 220 181
0 220 179
0 222 181
0 222 181
0 221 181
0 220 179
0 221 181
0 220 180
0 221 181
0 221 181
0 221 181
0 220 180
0 220 180
0 221 180
0 221 181
0 221 181
0 221 181
0 221 181
0 220 181
0 222 181
0 221 180
0 221 181
0 221 181
0 221 180
0 222 181
0 221 181
0 221 180
0 221 181
0 222 181
0 221 181
0 221 181
0 222 181
0 220 180
0 221 181
0 221 181
0 222 181
0 221 181
0 221 181
0 221 181
0 221 181
0 222 181
0 220 180
0 221 181
0 222 181
0 221 181
0 222 181
0 221 181
0 221 181
0 222 181
0 222 181
0 222 181
0 221 181
0 221 181
0 222 181
0 220 181
0 220 180
0 222 181
0 221 181
0 221 181
0 221 181
0 222 181
0 221 181
0 221 180
0 221 181
0 221 181
0 221 181
0 222 181
0 222 181
0 221 181
0 220 180
0 222 181
0 221 180
0 220 181
0 222 181
0 221 181
0 221 181
0 220 181
0 220 181
0 221 181
0 221 181
0 221 181
0 220 181
0 221 181
0 221 181
0 221 181
0 222 181
0 220 181
0 221 181
0 221 181
0 221 181
0 221 181
0 221 181
0 221 181
0 221 181
0 221 181
0 220 181
0 222 181
0 221 181
0 221 181
0 221 181
0 221 181
0 221 181
0 222 181
0 221 181
0 222 181
0 221 181
0 222 181
0 222 181
0 222 181
0 221 181
0 221 181
0 221 181
0 221 181
0 221 181
0 221 181
0 222 181
0 222 181
0 223 181
0 221 181
0 221 181
0 222 181
0 222 181
0 222 181
0 221 181
0 221 181
0 221 181
0 221 181
0 222 181
0 221 181
0 222 181
0 221 181
0 221 181
0 222 181
0 222 181
0 221 180
0 221 181
0 221 181
0 220 181
0 220 181
0 221 181
0 222 181
0 221 181
0 222 181
0 221 181
0 222 181
0 221 181
0 221 181
0 220 181
0 221 181
0 221 181
0 221 181
0 221 181
0 221 181
0 220 181
0 222 181
0 221 181
0 221 181
0 221 181
0 221 181
0 220 181
0 221 181
0 222 181
0 221 181
0 222 181
0 221 181
0 221 181
0 222 181
0 220 181
0 220 180
0 220 181
0 221 181
0 221 181
0 221 181
0 221 181
0 222 181
0 221 181
0 221 181
0 221 181
0 221 181
0 222 181
0 222 181
0 221 181
0 221 181
0 221 181
0 221 181
0 221 181
0 222 181
0 220 181
0 220 181
0 221 181
0 222 181
0 221 181
0 221 181
0 221 181
0 222 181
0 221 181
0 222 181
0 221 181
0 220 180
0 221 181
0 221 181
0 222 181
0 221 181
0 222 181
0 221 181
0 221 181
0 221 181
0 222 181
0 222 181
0 221 181
0 222 181
0 221 181
0 221 181
0 221 181
0 221 181
0 221 181
0 221 181
0 221 181
0 221 181
0 222 181
0 221 180
0 221 181
0 222 181
0 219 179
0 221 181
0 221 181
0 220 181
0 221 181
0 220 180
0 221 181
0 220 180
0 219 180
0 220 181
0 220 180
0 220 180
0 220 181
0 221 180
0 221 181
0 222 181
0 220 180
0 221 181
0 221 181
0 220 181
0 220 181
0 222 181
0 220 180
0 220 180
0 221 181
0 221 181
0 219 180
0 221 181
0 221 181
0 221 181
0 220 180
0 221 180
0 221 181
0 220 181
0 220 180
0 220 180
0 220 180
0 218 179
0 221 181
0 219 179
0 220 181
0 220 180
0 219 179
0 221 180
0 221 179
0 221 181
0 219 179
0 222 180
0 221 181
0 220 180
0 220 180
0 221 180
0 221 181
0 221 181
0 219 178
0 219 179
0 221 180
0 219 179
0 219 178
0 216 177
0 219 179
0 219 179
0 217 179
0 216 178
0 217 178
0 221 180
0 218 179
0 216 177
0 218 179
0 218 178
0 217 176
0 219 178
0 214 176
0 217 178
0 216 178
0 213 175
0 219 179
0 214 176
0 216 176
0 211 174
0 205 169
0 209 173
0 213 172
31 177 168
52 99 164
57 100 172
59 100 174
56 99 170
59 100 174
57 100 171
58 100 173
58 100 173
60 100 175
58 99 172
60 100 176
58 100 174
61 100 177
62 101 177
54 99 167
58 99 173
58 99 174
60 100 175
59 100 175
54 99 166
60 101 175
58 100 173
56 100 170
58 100 172
59 100 174
57 99 171
59 100 173
58 99 171
54 98 166
54 96 161
54 98 163
30 89 91
13 86 41
16 94 49
32 114 56
47 118 61
78 131 72
69 130 70
80 132 73
102 149 82
77 145 75
73 145 75
92 154 81
91 154 81
100 155 83
73 154 78
95 151 80
91 151 80
86 143 74
75 138 71
45 119 62
27 195 144
0 205 159
0 214 167
0 211 167
0 214 170
0 211 167
0 211 169
0 214 171
0 215 174
0 218 175
0 215 173
0 214 172
0 216 173
0 218 177
0 216 173
0 218 175
0 219 178
0 217 175
0 219 178
0 216 174
0 218 176
0 218 176
0 218 178
0 220 178
0 218 177
0 218 179
0 221 180
0 220 179
0 218 179
0 220 179
0 219 177
0 221 179
0 221 180
0 220 178
0 221 181
0 220 180
0 222 181
0 220 179
0 220 179
0 221 180
0 220 179
0 219 177
0 222 181
0 220 178
0 221 181
0 222 181
0 221 180
0 222 181
0 222 181
0 221 181
0 221 181
0 221 181
0 221 180
0 220 179
0 221 180
0 221 180
0 222 181
0 221 181
0 221 181
0 221 181
0 222 181
0 222 181
0 221 181
0 221 180
0 221 180
0 221 180
0 221 181
0 222 181
0 222 181
0 220 181
0 221 181
0 220 180
0 220 180
0 221 181
0 221 181
0 221 181
0 221 181
0 221 181
0 221 181
0 220 180
0 221 180
0 221 181
0 221 181
0 221 181
0 220 181
0 221 181
0 221 181
0 221 181
0 221 181
0 221 181
0 221 181
0 222 181
0 222 181
0 222 181
0 221 181
0 221 181
0 221 181
0 221 181
0 221 181
0 221 181
0 222 181
0 221 181
0 221 181
0 221 181
0 221 181
0 222 181
0 220 181
0 221 181
0 221 181
0 221 181
0 221 181
0 221 181
0 221 180
0 221 181
0 221 181
0 221 181
0 221 181
0 221 181
0 222 181
0 222 181
0 220 181
0 221 181
0 220 181
0 222 181
0 221 181
0 220 181
0 220 181
0 222 181
0 221 181
0 221 181
0 222 181
0 220 181
0 221 181
0 222 181
0 220 180
0 221 181
0 221 181
0 221 181
0 220 180
0 222 181
0 221 181
0 221 181
0 221 181
0 220 181
0 221 181
0 221 181
0 221 181
0 222 181
0 222 181
0 221 181
0 221 181
0 220 181
0 221 181
0 221 181
0 220 180
0 221 181
0 221 181
0 221 181
0 221 181
0 222 181
0 220 181
0 222 181
0 220 181
0 221 181
0 221 181
0 221 181
0 222 181
0 220 181
0 221 181
0 221 181
0 221 181
0 221 181
0 222 181
0 222 181
0 221 181
0 221 181
0 222 181
0 221 181
0 222 181
0 222 181
0 221 181
0 221 181
0 221 181
0 222 181
0 221 181
0 220 181
0 221 181
0 221 181
0 223 181
0 222 181
0 221 181
0 222 181
0 221 181
0 222 181
0 221 181
0 221 181
0 221 181
0 222 181
0 221 181
0 221 181
0 221 181
0 221 181
0 221 181
0 221 181
0 221 181
0 221 181
0 221 181
0 222 181
0 221 181
0 220 180
0 221 181
0 220 181
0 222 181
0 221 181
0 221 181
0 221 181
0 221 181
0 221 181
0 222 181
0 221 181
0 221 181
0 221 181
0 221 181
0 221 181
0 221 181
0 221 181
0 221 181
0 221 181
0 221 181
0 222 181
0 222 181
0 221 181
0 222 181
0 222 181
0 222 181
0 222 181
0 221 181
0 221 181
0 221 181
0 221 181
0 220 181
0 222 181
0 221 181
0 221 181
0 222 181
0 222 181
0 222 181
0 221 181
0 221 181
0 222 181
0 221 181
0 222 181
0 220 181
0 221 181
0 220 180
0 221 181
0 222 181
0 221 181
0 221 181
0 221 181
0 222 181
0 222 181
0 221 181
0 221 181
0 222 181
0 221 181
0 221 181
0 221 181
0 221 181
0 221 181
0 221 181
0 221 181
0 221 181
0 222 181
0 222 181
0 221 181
0 221 181
0 221 181
0 221 181
0 220 180
0 221 180
0 220 180
0 220 181
0 222 181
0 221 181
0 221 181
0 221 181
0 222 181
0 221 181
0 221 180
0 221 181
0 221 180
0 221 180
0 221 180
0 221 181
0 220 180
0 221 181
0 220 180
0 222 180
0 221 180
0 219 180
0 221 181
0 219 180
0 220 179
0 221 181
0 220 180
0 220 180
0 221 181
0 219 181
0 220 180
0 218 178
0 221 180
0 221 181
0 219 179
0 219 179
0 219 178
0 222 180
0 221 180
0 219 179
0 221 181
0 220 180
0 220 180
0 219 180
0 217 177
0 218 179
0 220 180
0 220 181
0 221 180
0 215 176
0 215 177
0 218 179
0 218 180
0 218 179
0 217 178
0 219 179
0 216 177
0 217 177
0 215 177
0 217 178
0 219 179
0 219 178
0 214 175
0 216 177
0 216 177
0 217 176
0 214 174
0 213 176
0 215 176
31 185 172
54 100 167
55 100 168
58 100 172
57 100 172
58 99 173
59 100 175
59 100 174
60 100 176
58 99 175
60 100 176
59 100 175
59 100 175
60 100 175
61 100 177
61 100 177
61 100 176
58 99 173
61 100 177
58 100 174
58 100 173
58 99 173
59 100 174
57 99 172
57 100 172
58 100 173
57 99 171
56 99 169
57 100 170
53 100 165
59 99 171
55 97 163
28 82 89
16 103 52
43 99 55
59 108 62
75 116 66
80 123 72
86 136 75
98 148 82
101 150 83
95 147 81
93 154 81
113 159 87
107 156 85
92 158 82
96 158 83
96 157 82
96 152 81
87 143 75
96 145 77
74 136 69
76 144 89
0 210 166
0 211 167
0 209 163
0 210 165
0 212 167
0 216 172
0 216 174
0 218 174
0 213 170
0 215 173
0 214 170
0 217 174
0 220 179
0 218 177
0 219 177
0 215 173
0 220 178
0 219 179
0 219 180
0 218 177
0 220 179
0 217 177
0 219 179
0 219 178
0 220 179
0 221 180
0 220 178
0 220 179
0 220 179
0 221 181
0 220 180
0 221 180
0 221 181
0 221 180
0 221 180
0 221 180
0 221 181
0 220 180
0 218 178
0 220 179
0 221 180
0 222 181
0 221 180
0 221 180
0 220 181
0 221 181
0 221 179
0 222 181
0 220 180
0 220 180
0 220 180
0 221 181
0 222 181
0 221 181
0 221 180
0 221 180
0 221 181
0 220 180
0 221 181
0 221 181
0 221 180
0 221 181
0 222 181
0 222 181
0 221 181
0 221 181
0 221 181
0 220 180
0 220 181
0 222 181
0 220 180
0 221 180
0 222 181
0 222 181
0 221 181
0 223 181
0 221 181
0 220 180
0 221 181
0 221 180
0 221 181
0 222 181
0 222 181
0 221 180
0 221 181
0 221 181
0 222 181
0 221 180
0 221 181
0 221 181
0 221 181
0 221 181
0 222 181
0 221 181
0 222 181
0 221 181
0 220 181
0 220 180
0 220 181
0 221 181
0 221 181
0 221 181
0 220 181
0 222 181
0 221 181
0 222 181
0 221 181
0 221 181
0 221 181
0 221 181
0 221 181
0 222 181
0 221 181
0 221 181
0 221 181
0 221 181
0 221 181
0 221 181
0 221 181
0 222 181
0 220 181
0 221 181
0 221 181
0 221 181
0 221 181
0 221 181
0 221 181
0 221 181
0 220 180
0 221 181
0 221 181
0 221 181
0 221 181
0 222 181
0 222 181
0 222 181
0 222 181
0 221 181
0 220 181
0 223 181
0 220 180
0 222 181
0 221 181
0 222 181
0 222 181
0 221 181
0 222 181
0 221 181
0 221 181
0 221 181
0 220 181
0 222 181
0 220 181
0 221 181
0 221 181
0 221 181
0 221 181
0 221 181
0 220 181
0 221 181
0 221 181
0 221 181
0 221 181
0 221 181
0 220 181
0 221 181
0 221 181
0 222 181
0 221 181
0 221 181
0 221 181
0 222 181
0 222 181
0 222 181
0 222 181
0 221 181
0 221 181
0 221 181
0 222 181
0 220 181
0 221 181
0 221 181
0 221 181
0 221 181
0 222 181
0 221 181
0 223 181
0 221 181
0 220 181
0 222 181
0 222 181
0 221 181
0 223 181
0 221 181
0 221 181
0 222 181
0 222 181
0 221 181
0 222 181
0 221 181
0 222 181
0 221 181
0 221 181
0 222 181
0 221 181
0 221 181
0 222 181
0 222 181
0 220 181
0 220 181
0 221 181
0 221 181
0 221 181
0 221 180
0 222 181
0 222 181
0 221 181
0 221 181
0 221 181
0 222 181
0 221 181
0 221 181
0 222 181
0 222 181
0 221 181
0 222 181
0 222 181
0 222 181
0 221 181
0 221 181
0 221 181
0 221 181
0 221 181
0 221 181
0 221 181
0 221 181
0 222 181
0 221 181
0 221 181
0 221 181
0 221 181
0 220 181
0 221 181
0 221 181
0 220 181
0 220 181
0 221 181
0 221 181
0 221 181
0 222 181
0 221 181
0 222 181
0 221 181
0 221 181
0 221 181
0 221 181
0 220 180
0 221 181
0 221 181
0 221 181
0 221 181
0 222 180
0 220 180
0 220 181
0 222 181
0 222 181
0 220 180
0 221 180
0 222 181
0 221 181
0 221 181
0 220 181
0 221 181
0 220 180
0 221 181
0 221 181
0 221 181
0 220 180
0 221 181
0 221 181
0 221 181
0 221 181
0 221 181
0 221 181
0 222 181
0 219 179
0 220 181
0 222 181
0 222 181
0 219 179
0 219 180
0 218 179
0 222 181
0 222 181
0 221 181
0 219 179
0 221 181
0 220 180
0 219 180
0 221 180
0 222 181
0 220 180
0 219 179
0 220 179
0 221 181
0 222 181
0 221 180
0 221 181
0 220 180
0 220 179
0 220 179
0 222 181
0 221 181
0 220 179
0 219 180
0 221 180
0 221 181
0 221 180
0 219 179
0 219 179
0 220 180
0 219 179
0 219 179
0 220 179
0 220 179
0 218 179
0 219 178
0 220 180
0 218 178
0 218 177
0 220 180
0 216 176
0 217 177
0 215 175
0 217 178
0 221 180
0 216 176
0 217 178
0 216 178
0 218 177
0 213 174
0 214 175
0 209 173
0 217 176
0 217 178
0 216 177
0 210 173
23 198 174
55 100 169
58 100 173
58 100 173
59 99 176
58 100 173
60 100 175
59 99 176
61 99 178
59 99 176
60 100 176
61 100 178
60 100 176
60 99 177
59 100 175
60 99 176
57 99 173
59 100 175
58 99 175
59 99 176
57 100 172
58 100 174
59 100 173
58 100 174
58 100 173
59 100 174
58 100 173
57 99 169
60 100 173
57 99 169
56 96 162
48 94 151
26 81 72
29 98 52
56 98 57
43 112 62
90 136 77
80 129 73
102 145 83
113 148 87
116 152 88
101 161 87
116 162 91
114 161 89
108 159 86
119 165 91
104 158 84
110 157 86
100 160 85
104 154 83
98 147 78
98 146 79
72 144 73
65 166 117
0 213 170
0 213 169
0 208 162
0 212 168
0 216 172
0 214 172
0 214 170
0 214 171
0 219 178
0 215 174
0 218 176
0 219 180
0 219 176
0 219 177
0 220 178
0 218 177
0 219 179
0 219 179
0 220 178
0 219 177
0 219 179
0 219 178
0 221 180
0 220 179
0 220 179
0 219 179
0 219 178
0 220 179
0 220 180
0 220 177
0 218 180
0 220 181
0 219 179
0 222 181
0 219 181
0 221 181
0 221 180
0 220 179
0 222 181
0 220 181
0 221 180
0 220 181
0 221 181
0 221 180
0 221 181
0 220 179
0 221 181
0 220 180
0 220 179
0 221 180
0 221 180
0 222 181
0 221 181
0 221 181
0 221 181
0 221 181
0 221 181
0 221 180
0 220 180
0 222 181
0 221 181
0 221 181
0 220 179
0 221 181
0 221 180
0 221 181
0 220 181
0 221 181
0 221 181
0 222 181
0 222 180
0 222 181
0 221 181
0 221 181
0 222 181
0 222 181
0 222 181
0 221 181
0 221 181
0 221 181
0 220 180
0 221 181
0 222 181
0 222 181
0 222 181
0 222 181
0 222 181
0 221 180
0 221 181
0 221 181
0 222 181
0 220 181
0 221 181
0 221 181
0 221 181
0 222 181
0 221 181
0 221 181
0 222 181
0 221 181
0 221 181
0 222 181
0 222 181
0 222 181
0 222 181
0 222 181
0 222 181
0 221 181
0 222 181
0 220 181
0 221 181
0 221 181
0 221 181
0 222 181
0 221 181
0 221 181
0 221 180
0 221 181
0 221 181
0 221 181
0 222 181
0 221 181
0 222 181
0 221 181
0 221 181
0 222 181
0 222 181
0 221 181
0 221 181
0 221 181
0 221 181
0 221 181
0 221 181
0 220 181
0 221 181
0 221 181
0 222 181
0 221 181
0 221 181
0 220 181
0 221 181
0 220 181
0 222 181
0 221 181
0 221 181
0 220 181
0 221 181
0 221 181
0 221 181
0 221 181
0 222 181
0 221 181
0 221 181
0 222 181
0 221 181
0 221 181
0 222 181
0 222 181
0 222 181
0 220 181
0 222 181
0 221 181
0 221 181
0 221 181
0 221 181
0 221 181
0 220 181
0 220 181
0 221 181
0 221 181
0 221 181
0 221 181
0 222 181
0 221 181
0 221 181
0 221 181
0 221 181
0 222 181
0 221 181
0 221 181
0 220 181
0 223 181
0 221 181
0 222 181
0 222 181
0 221 181
0 221 181
0 221 181
0 221 181
0 222 181
0 221 181
0 221 181
0 222 181
0 222 181
0 221 181
0 222 181
0 221 181
0 221 181
0 221 181
0 222 181
0 221 181
0 222 181
0 222 181
0 222 181
0 221 181
0 221 181
0 222 181
0 221 181
0 221 181
0 221 181
0 221 181
0 221 181
0 221 181
0 221 181
0 221 181
0 221 181
0 222 181
0 221 181
0 222 181
0 222 181
0 221 181
0 221 181
0 222 181
0 221 181
0 221 180
0 221 181
0 221 181
0 221 181
0 222 181
0 221 181
0 221 181
0 222 181
0 221 181
0 221 181
0 221 181
0 221 181
0 220 181
0 221 181
0 221 181
0 222 181
0 221 181
0 221 181
0 221 181
0 221 181
0 220 180
0 221 181
0 221 181
0 222 181
0 221 181
0 220 180
0 222 181
0 220 180
0 221 181
0 222 181
0 222 181
0 221 181
0 221 181
0 222 181
0 220 181
0 221 180
0 220 178
0 221 181
0 222 181
0 221 181
0 221 181
0 222 181
0 221 181
0 220 181
0 221 181
0 220 181
0 221 181
0 221 181
0 221 181
0 221 181
0 221 181
0 221 181
0 221 181
0 221 181
0 221 181
0 221 181
0 221 181
0 221 181
0 221 181
0 220 180
0 221 180
0 220 180
0 220 180
0 221 181
0 221 181
0 220 180
0 221 181
0 220 180
0 220 180
0 221 181
0 221 181
0 221 181
0 221 181
0 221 181
0 221 180
0 221 181
0 221 180
0 220 180
0 221 181
0 221 181
0 219 179
0 220 180
0 221 181
0 221 181
0 221 179
0 220 180
0 220 180
0 220 179
0 220 180
0 222 181
0 221 181
0 220 179
0 222 181
0 219 180
0 220 180
0 218 178
0 218 178
0 219 179
0 220 180
0 218 179
0 219 180
0 220 179
0 221 180
0 219 178
0 219 178
0 220 179
0 218 178
0 220 179
0 220 180
0 219 179
0 217 177
0 218 179
0 219 178
0 218 179
0 216 177
0 213 174
0 216 177
0 216 177
0 217 176
0 215 177
0 210 173
0 215 175
9 213 176
54 102 167
59 101 174
57 100 171
58 100 175
59 100 174
59 100 175
61 100 178
58 99 175
60 100 176
60 100 176
61 100 178
61 100 177
61 100 178
59 99 177
61 100 177
59 99 177
61 99 179
61 100 177
60 99 177
59 99 176
57 100 173
58 100 173
59 100 175
61 100 177
58 100 174
61 100 176
58 99 172
60 99 175
60 99 173
59 99 171
52 96 158
23 66 41
29 76 45
56 103 63
73 112 67
84 124 75
99 140 82
111 151 88
99 145 83
116 153 89
124 161 94
122 159 92
125 162 93
112 159 89
113 164 90
119 159 89
103 161 86
120 157 88
100 153 83
111 152 84
94 155 82
79 135 69
78 131 77
0 217 174
0 211 168
0 215 172
0 207 165
0 213 171
0 215 172
0 216 172
0 215 172
0 217 176
0 218 178
0 218 177
0 218 178
0 218 175
0 219 177
0 217 176
0 220 179
0 218 178
0 220 180
0 218 176
0 220 180
0 221 179
0 220 178
0 221 180
0 219 179
0 221 181
0 221 180
0 221 181
0 220 181
0 220 178
0 218 176
0 221 180
0 220 181
0 220 178
0 221 180
0 220 181
0 221 181
0 221 180
0 221 180
0 221 181
0 222 181
0 218 178
0 221 181
0 220 181
0 221 181
0 221 180
0 221 181
0 220 180
0 221 181
0 221 181
0 222 181
0 221 181
0 220 181
0 221 181
0 221 181
0 222 181
0 221 181
0 220 180
0 221 181
0 221 181
0 221 180
0 222 181
0 221 181
0 221 181
0 221 181
0 221 181
0 221 181
0 221 181
0 221 181
0 221 181
0 221 181
0 220 181
0 221 181
0 220 181
0 221 181
0 221 181
0 221 181
0 221 181
0 221 181
0 222 181
0 221 180
0 222 181
0 221 181
0 221 180
0 220 181
0 220 180
0 221 181
0 221 181
0 221 180
0 221 181
0 221 181
0 220 180
0 221 181
0 221 181
0 222 181
0 221 181
0 221 181
0 220 181
0 222 181
0 221 181
0 220 181
0 221 181
0 222 181
0 221 180
0 221 181
0 222 181
0 221 180
0 222 181
0 221 181
0 221 180
0 221 181
0 221 181
0 222 181
0 222 181
0 222 181
0 222 181
0 221 181
0 222 181
0 221 181
0 221 180
0 222 181
0 221 181
0 221 181
0 221 181
0 221 181
0 220 181
0 222 181
0 223 181
0 221 181
0 221 181
0 221 181
0 220 181
0 221 181
0 221 181
0 222 181
0 221 181
0 222 181
0 222 181
0 221 181
0 220 181
0 221 181
0 221 181
0 221 181
0 221 181
0 222 181
0 221 181
0 220 181
0 221 181
0 221 181
0 221 181
0 221 181
0 221 181
0 222 181
0 221 181
0 222 181
0 221 181
0 222 181
0 222 181
0 221 181
0 221 181
0 222 181
0 221 181
0 221 181
0 221 181
0 221 181
0 222 181
0 221 181
0 222 181
0 221 181
0 222 181
0 222 181
0 221 181
0 221 181
0 222 181
0 221 181
0 222 181
0 221 181
0 222 181
0 221 181
0 221 181
0 221 181
0 221 181
0 221 181
0 220 181
0 221 181
0 222 181
0 220 181
0 221 181
0 221 181
0 222 181
0 220 181
0 221 181
0 221 181
0 221 181
0 221 181
0 222 181
0 222 181
0 222 181
0 219 180
0 221 181
0 221 181
0 222 181
0 220 180
0 222 181
0 223 181
0 222 181
0 221 181
0 220 180
0 221 181
0 221 181
0 222 181
0 222 181
0 221 181
0 221 181
0 221 181
0 222 181
0 221 181
0 221 181
0 223 181
0 221 181
0 222 181
0 222 181
0 220 180
0 222 181
0 222 181
0 221 181
0 221 181
0 221 181
0 221 181
0 221 181
0 221 181
0 221 181
0 221 181
0 221 181
0 222 181
0 221 181
0 222 181
0 221 181
0 221 181
0 222 181
0 221 181
0 221 181
0 222 181
0 221 181
0 222 181
0 222 181
0 222 181
0 222 181
0 222 181
0 222 181
0 221 181
0 220 181
0 222 181
0 221 181
0 221 180
0 220 180
0 221 181
0 222 181
0 222 181
0 222 181
0 222 181
0 222 181
0 221 181
0 222 181
0 222 181
0 221 181
0 221 181
0 220 181
0 221 181
0 220 180
0 221 181
0 221 181
0 221 181
0 221 181
0 221 181
0 221 180
0 221 180
0 221 180
0 222 181
0 220 180
0 220 180
0 220 181
0 222 181
0 221 181
0 221 180
0 221 181
0 221 181
0 221 181
0 219 179
0 221 181
0 221 181
0 222 181
0 220 180
0 221 181
0 220 180
0 221 180
0 222 181
0 221 181
0 222 181
0 221 181
0 219 179
0 221 180
0 220 180
0 221 181
0 221 180
0 220 180
0 221 180
0 221 181
0 220 181
0 220 181
0 220 180
0 221 181
0 221 179
0 221 181
0 222 181
0 221 180
0 217 178
0 220 178
0 221 179
0 220 180
0 220 180
0 220 180
0 218 179
0 219 180
0 221 181
0 219 179
0 221 181
0 219 180
0 220 180
0 218 178
0 218 178
0 217 179
0 217 177
0 219 180
0 218 178
0 218 178
0 218 178
0 216 176
0 217 177
0 218 178
0 217 177
0 216 177
0 214 175
0 212 172
0 217 177
0 214 176
0 217 177
0 214 175
50 137 173
57 100 171
57 100 172
59 100 175
59 100 175
60 100 176
61 100 178
61 100 177
61 100 177
61 100 178
58 99 176
62 100 179
61 99 178
63 100 180
61 100 179
61 100 177
61 100 177
61 100 178
59 100 175
61 100 178
59 99 175
60 100 176
60 99 177
61 100 176
58 100 174
62 100 178
61 100 176
60 99 173
58 98 168
56 97 164
51 88 140
60 84 57
54 80 55
75 93 63
102 130 80
97 128 78
104 135 82
122 148 91
123 154 93
117 155 91
139 162 97
128 160 94
145 167 99
138 167 98
129 164 94
136 168 97
127 167 94
122 163 91
118 157 88
111 152 85
101 155 83
106 144 80
87 136 72
51 184 137
0 215 172
0 217 175
0 219 177
0 216 171
0 216 174
0 214 171
0 219 177
0 222 181
0 218 177
0 219 177
0 217 176
0 220 178
0 219 177
0 220 177
0 219 177
0 218 177
0 221 180
0 221 181
0 221 178
0 221 181
0 220 179
0 219 179
0 220 180
0 219 177
0 221 181
0 218 177
0 221 181
0 220 179
0 221 181
0 220 180
0 222 181
0 221 181
0 221 180
0 218 178
0 219 179
0 220 180
0 220 178
0 220 179
0 219 179
0 218 177
0 222 181
0 220 181
0 222 181
0 221 181
0 221 181
0 220 180
0 220 179
0 219 180
0 221 181
0 222 180
0 221 181
0 221 181
0 221 181
0 220 180
0 219 179
0 221 181
0 222 181
0 222 180
0 221 181
0 220 180
0 221 181
0 222 181
0 222 181
0 222 181
0 222 181
0 222 181
0 221 181
0 221 181
0 221 181
0 222 181
0 221 180
0 222 181
0 222 181
0 222 181
0 221 181
0 221 181
0 222 181
0 221 181
0 221 181
0 219 181
0 221 181
0 221 181
0 221 181
0 221 181
0 221 181
0 221 181
0 221 181
0 221 181
0 221 181
0 220 180
0 221 181
0 222 180
0 222 181
0 222 181
0 221 181
0 221 181
0 221 181
0 221 181
0 222 181
0 222 181
0 221 181
0 221 181
0 221 181
0 221 181
0 222 181
0 220 181
0 221 181
0 222 181
0 221 181
0 221 181
0 222 181
0 221 181
0 221 181
0 221 181
0 221 181
0 221 181
0 221 181
0 221 181
0 222 181
0 222 181
0 221 181
0 221 181
0 221 181
0 222 181
0 222 181
0 221 181
0 221 180
0 222 181
0 221 181
0 222 181
0 221 181
0 220 180
0 222 181
0 221 181
0 222 181
0 221 181
0 220 181
0 221 181
0 221 181
0 222 181
0 221 181
0 220 181
0 220 181
0 221 181
0 222 181
0 221 181
0 221 181
0 221 181
0 221 181
0 221 181
0 222 181
0 221 181
0 221 181
0 222 181
0 222 181
0 222 181
0 221 181
0 221 181
0 222 181
0 221 181
0 222 181
0 222 181
0 221 181
0 222 181
0 220 181
0 221 181
0 221 181
0 221 181
0 221 181
0 222 181
0 222 181
0 222 181
0 221 181
0 221 181
0 222 181
0 221 181
0 222 181
0 222 181
0 221 181
0 221 181
0 221 181
0 222 181
0 222 181
0 223 181
0 221 181
0 221 181
0 220 181
0 221 181
0 221 181
0 221 181
0 222 181
0 221 181
0 221 181
0 222 181
0 221 181
0 221 181
0 222 181
0 221 181
0 221 181
0 221 181
0 221 181
0 222 181
0 221 181
0 221 181
0 222 181
0 222 181
0 221 181
0 221 181
0 222 181
0 221 181
0 222 181
0 222 181
0 221 181
0 221 181
0 221 181
0 221 181
0 222 181
0 221 181
0 221 181
0 220 181
0 222 181
0 221 181
0 221 181
0 220 181
0 221 181
0 221 181
0 222 181
0 221 181
0 221 181
0 221 181
0 222 181
0 221 181
0 221 181
0 221 181
0 221 181
0 220 181
0 221 180
0 220 181
0 221 181
0 222 181
0 221 181
0 222 181
0 222 181
0 221 181
0 220 181
0 221 181
0 221 181
0 221 180
0 221 181
0 221 181
0 221 181
0 221 181
0 219 180
0 221 181
0 222 181
0 220 180
0 221 181
0 221 181
0 220 180
0 221 181
0 221 181
0 221 181
0 221 181
0 221 180
0 221 181
0 221 181
0 221 180
0 222 181
0 220 180
0 220 181
0 221 181
0 222 181
0 221 181
0 220 181
0 221 181
0 221 181
0 221 181
0 222 181
0 221 181
0 221 181
0 222 181
0 220 180
0 221 181
0 221 181
0 220 179
0 220 180
0 221 181
0 221 181
0 220 180
0 221 181
0 220 180
0 221 181
0 222 180
0 219 180
0 222 181
0 219 179
0 219 179
0 220 180
0 221 181
0 221 181
0 221 180
0 221 180
0 220 181
0 221 181
0 221 181
0 219 179
0 221 181
0 220 180
0 220 179
0 221 181
0 220 180
0 220 179
0 220 180
0 221 181
0 218 179
0 220 180
0 221 181
0 217 178
0 220 179
0 219 179
0 221 180
0 221 181
0 221 181
0 220 180
0 221 179
0 219 179
0 220 179
0 221 180
0 219 178
0 220 180
0 216 177
0 218 178
0 219 179
0 220 180
0 219 178
0 216 176
0 218 178
0 219 178
0 220 179
0 219 178
0 217 177
0 219 179
0 217 178
0 220 179
0 216 177
0 218 179
38 176 176
56 100 171
58 99 174
60 100 176
60 100 176
61 100 177
61 100 179
62 100 179
59 99 176
60 99 177
61 100 178
61 100 179
61 100 179
61 100 178
62 100 179
60 99 178
59 99 176
61 100 179
60 99 177
60 99 177
60 99 177
59 100 175
59 100 175
61 100 178
60 100 176
61 99 176
57 99 173
58 99 172
58 99 171
57 98 170
43 74 101
59 72 52
78 96 64
91 112 74
96 117 77
99 127 81
115 139 86
134 151 95
128 156 94
137 158 97
132 169 98
129 162 96
142 169 100
137 170 99
137 168 98
123 164 93
118 159 89
131 165 95
140 161 95
116 159 89
113 152 86
113 146 83
101 135 75
78 170 119
0 214 171
0 212 170
0 218 176
0 217 174
0 214 171
0 219 177
0 220 177
0 218 176
0 218 177
0 218 175
0 218 178
0 217 175
0 219 178
0 220 179
0 216 175
0 218 176
0 218 177
0 220 180
0 220 179
0 221 181
0 220 178
0 219 179
0 220 178
0 221 181
0 220 181
0 220 179
0 222 181
0 219 177
0 220 179
0 221 179
0 221 180
0 221 181
0 221 181
0 220 181
0 220 179
0 221 180
0 221 181
0 220 179
0 221 181
0 221 181
0 221 181
0 219 178
0 219 179
0 221 180
0 220 180
0 221 181
0 221 179
0 219 179
0 221 180
0 221 181
0 221 181
0 221 181
0 221 181
0 221 181
0 221 181
0 221 181
0 222 181
0 221 181
0 221 180
0 220 181
0 220 181
0 220 179
0 221 181
0 222 181
0 221 180
0 221 181
0 221 181
0 222 181
0 220 180
0 222 181
0 221 181
0 221 181
0 221 181
0 221 180
0 221 181
0 221 180
0 220 181
0 222 181
0 221 181
0 222 181
0 220 181
0 221 181
0 221 181
0 221 181
0 221 181
0 222 181
0 221 181
0 222 181
0 221 181
0 221 181
0 221 181
0 221 181
0 221 180
0 221 181
0 221 181
0 222 181
0 222 181
0 221 181
0 221 181
0 220 181
0 221 181
0 222 181
0 222 181
0 221 181
0 222 181
0 222 181
0 220 181
0 221 181
0 222 181
0 222 181
0 221 181
0 221 181
0 221 181
0 221 181
0 220 181
0 221 181
0 221 181
0 221 181
0 222 181
0 222 181
0 222 181
0 220 181
0 222 181
0 221 181
0 221 181
0 222 181
0 222 181
0 222 181
0 221 181
0 222 181
0 222 181
0 221 181
0 222 181
0 220 181
0 221 181
0 222 181
0 222 181
0 221 181
0 222 181
0 222 181
0 221 181
0 222 181
0 221 181
0 220 181
0 221 181
0 221 181
0 221 181
0 221 181
0 221 181
0 221 181
0 221 181
0 221 181
0 221 181
0 221 181
0 222 181
0 222 181
0 222 181
0 222 181
0 221 181
0 222 181
0 221 181
0 222 181
0 221 181
0 222 181
0 221 181
0 221 181
0 221 181
0 221 181
0 221 181
0 221 181
0 220 181
0 221 181
0 220 181
0 221 181
0 221 181
0 222 181
0 221 181
0 221 181
0 221 181
0 222 181
0 222 181
0 221 181
0 222 181
0 221 181
0 221 181
0 222 181
0 222 181
0 221 181
0 221 181
0 222 181
0 221 181
0 221 181
0 222 181
0 221 181
0 222 181
0 221 181
0 221 181
0 221 181
0 221 181
0 221 181
0 221 181
0 220 181
0 221 181
0 222 181
0 221 181
0 221 181
0 221 181
0 222 181
0 221 181
0 221 181
0 221 181
0 222 181
0 221 181
0 222 181
0 221 181
0 221 181
0 222 181
0 222 181
0 222 181
0 221 181
0 221 181
0 221 181
0 222 181
0 222 181
0 221 181
0 221 181
0 222 181
0 220 180
0 221 181
0 221 181
0 222 181
0 221 181
0 222 181
0 221 181
0 221 181
0 220 181
0 221 181
0 222 181
0 221 181
0 220 181
0 221 181
0 221 181
0 222 181
0 221 181
0 221 181
0 220 181
0 221 180
0 221 181
0 221 181
0 221 181
0 222 181
0 222 181
0 221 181
0 221 181
0 221 181
0 222 181
0 221 181
0 221 181
0 222 180
0 221 181
0 221 181
0 221 181
0 221 181
0 221 181
0 221 181
0 221 181
0 222 181
0 222 181
0 221 181
0 221 181
0 221 181
0 221 181
0 222 181
0 221 180
0 221 181
0 221 181
0 221 181
0 221 181
0 222 181
0 221 181
0 221 180
0 222 181
0 222 181
0 221 181
0 221 181
0 220 181
0 221 181
0 222 181
0 221 181
0 220 181
0 220 180
0 221 181
0 221 180
0 221 180
0 222 181
0 221 181
0 221 181
0 221 181
0 219 180
0 221 180
0 221 181
0 222 181
0 221 181
0 222 181
0 221 181
0 220 180
0 220 180
0 221 180
0 219 179
0 220 180
0 221 181
0 219 179
0 221 181
0 220 180
0 221 180
0 220 179
0 219 180
0 218 179
0 220 181
0 219 178
0 218 178
0 221 180
0 220 180
0 219 179
0 220 180
0 219 179
0 216 176
0 218 179
0 218 178
0 220 180
0 218 179
0 220 180
0 220 180
0 219 177
0 221 180
0 220 179
0 219 178
0 218 178
0 217 178
0 217 178
0 218 179
0 214 175
0 217 177
0 219 178
0 218 178
0 218 179
20 204 175
57 107 174
61 100 177
59 99 176
62 100 178
62 100 179
61 100 177
62 100 179
61 99 178
61 100 178
61 100 179
61 99 179
62 99 180
62 100 181
62 100 180
61 100 178
61 99 179
60 100 176
60 99 177
61 100 179
60 99 178
59 99 176
62 100 179
60 100 176
61 100 178
60 100 177
60 99 175
60 100 175
61 98 175
57 95 155
53 63 57
74 85 62
84 93 67
93 106 73
108 125 82
123 136 91
130 145 93
126 147 93
120 153 92
146 166 100
152 168 103
148 168 103
156 170 104
142 167 99
156 170 104
150 173 104
149 165 100
134 163 95
135 165 95
131 163 95
131 153 90
115 145 84
101 143 79
98 141 81
0 217 174
0 217 175
0 217 174
0 218 176
0 216 175
0 219 177
0 219 177
0 219 176
0 219 177
0 219 178
0 220 178
0 218 178
0 220 177
0 218 177
0 220 179
0 221 179
0 220 180
0 222 181
0 219 180
0 221 179
0 220 178
0 219 179
0 220 178
0 220 180
0 220 180
0 220 181
0 222 181
0 220 179
0 222 181
0 220 180
0 220 181
0 220 179
0 222 181
0 221 180
0 221 181
0 221 181
0 221 180
0 221 180
0 222 181
0 220 179
0 221 179
0 222 181
0 220 180
0 221 180
0 220 181
0 221 180
0 222 181
0 221 180
0 221 180
0 222 181
0 222 181
0 222 181
0 222 181
0 221 181
0 222 181
0 222 181
0 221 180
0 221 181
0 221 180
0 221 181
0 221 180
0 221 181
0 221 181
0 221 181
0 221 181
0 220 179
0 220 181
0 221 180
0 220 180
0 222 181
0 222 181
0 221 181
0 221 180
0 221 181
0 222 181
0 222 181
0 220 181
0 220 179
0 222 181
0 221 180
0 222 181
0 221 181
0 221 181
0 222 181
0 221 181
0 222 181
0 221 180
0 221 181
0 221 181
0 221 181
0 221 181
0 221 181
0 221 181
0 220 181
0 222 181
0 221 181
0 220 181
0 222 181
0 221 181
0 221 181
0 222 181
0 221 181
0 221 181
0 221 181
0 221 181
0 221 181
0 221 181
0 221 181
0 220 181
0 222 181
0 222 181
0 221 181
0 221 181
0 221 181
0 221 181
0 221 181
0 221 181
0 222 181
0 221 181
0 222 181
0 222 181
0 221 181
0 220 181
0 222 181
0 222 181
0 221 181
0 221 181
0 221 181
0 222 181
0 221 181
0 221 181
0 222 181
0 221 181
0 222 181
0 221 180
0 222 181
0 221 181
0 221 181
0 221 181
0 221 181
0 221 181
0 221 181
0 221 181
0 222 181
0 220 181
0 221 181
0 221 181
0 222 181
0 221 181
0 221 181
0 221 181
0 221 181
0 221 181
0 221 181
0 221 181
0 221 181
0 221 181
0 222 181
0 220 181
0 221 181
0 221 181
0 221 181
0 221 181
0 221 181
0 221 181
0 221 181
0 222 181
0 222 181
0 221 181
0 221 181
0 221 181
0 222 181
0 222 181
0 222 181
0 221 181
0 221 181
0 221 181
0 222 181
0 221 181
0 223 181
0 221 181
0 222 181
0 222 181
0 221 181
0 220 181
0 222 181
0 222 181
0 221 181
0 220 181
0 221 181
0 222 181
0 221 181
0 221 181
0 221 181
0 221 181
0 221 181
0 221 181
0 222 181
0 221 181
0 222 181
0 222 181
0 221 181
0 222 181
0 220 181
0 221 181
0 222 181
0 222 181
0 221 181
0 222 181
0 221 181
0 221 181
0 221 181
0 221 181
0 221 181
0 221 181
0 221 181
0 221 181
0 220 181
0 222 181
0 222 181
0 221 181
0 222 181
0 223 181
0 222 181
0 222 181
0 221 181
0 221 181
0 222 181
0 221 181
0 222 181
0 221 181
0 221 181
0 222 181
0 221 181
0 221 181
0 221 181
0 220 181
0 220 181
0 222 181
0 222 181
0 221 181
0 221 181
0 221 181
0 221 181
0 221 180
0 221 181
0 221 181
0 221 181
0 221 181
0 221 181
0 222 181
0 221 181
0 221 181
0 222 181
0 220 180
0 222 181
0 221 181
0 221 181
0 221 181
0 220 180
0 221 181
0 222 181
0 221 181
0 221 181
0 219 179
0 221 181
0 220 181
0 221 181
0 221 181
0 221 181
0 221 181
0 220 180
0 222 181
0 220 181
0 221 181
0 220 180
0 221 181
0 220 180
0 221 181
0 221 181
0 221 181
0 220 180
0 221 181
0 222 181
0 221 181
0 220 179
0 220 180
0 222 181
0 221 181
0 219 180
0 220 180
0 222 181
0 221 181
0 221 181
0 222 181
0 220 180
0 221 181
0 221 179
0 222 181
0 222 181
0 221 181
0 222 181
0 220 180
0 222 181
0 222 181
0 218 179
0 220 179
0 220 180
0 221 181
0 220 181
0 220 180
0 222 181
0 221 180
0 221 181
0 220 180
0 221 181
0 220 181
0 220 180
0 220 180
0 220 180
0 220 179
0 218 179
0 220 180
0 220 181
0 220 179
0 218 178
0 221 181
0 218 179
0 220 179
0 221 180
0 221 181
0 217 177
0 222 181
0 217 177
0 219 180
0 218 179
0 220 179
0 219 178
0 217 178
0 219 180
0 218 178
0 220 180
0 220 179
0 217 178
0 216 176
0 216 177
0 218 178
42 162 174
61 100 178
60 100 177
61 100 178
59 99 175
61 99 178
61 100 178
61 99 179
62 100 180
62 99 180
62 99 180
62 99 179
62 100 179
60 99 178
61 100 178
62 100 180
60 99 178
61 99 178
61 99 180
61 99 180
61 100 178
61 99 178
61 100 179
60 98 177
60 99 177
59 99 175
59 98 172
60 98 172
65 87 123
70 78 56
94 101 73
107 112 79
118 123 85
118 131 88
126 140 92
140 144 97
141 150 98
132 154 97
148 165 102
144 162 100
155 171 106
158 172 106
153 172 104
149 168 101
149 171 102
152 169 103
150 163 99
149 162 99
148 166 101
126 162 93
121 156 89
117 145 83
105 139 78
33 207 165
0 217 175
0 218 176
0 216 175
0 219 176
0 219 177
0 218 176
0 219 177
0 220 180
0 219 177
0 219 178
0 219 178
0 219 179
0 220 180
0 218 177
0 215 175
0 220 178
0 221 181
0 221 180
0 220 179
0 221 180
0 220 180
0 220 180
0 220 180
0 220 179
0 221 180
0 219 178
0 220 181
0 219 178
0 220 181
0 222 181
0 221 181
0 221 181
0 219 178
0 220 181
0 221 181
0 222 181
0 220 180
0 220 178
0 221 181
0 221 181
0 221 181
0 221 181
0 221 181
0 221 181
0 222 181
0 221 180
0 220 180
0 219 180
0 221 181
0 220 180
0 221 181
0 222 181
0 221 181
0 221 180
0 220 180
0 221 180
0 222 181
0 221 181
0 221 181
0 222 181
0 222 181
0 222 181
0 221 181
0 222 181
0 222 181
0 221 181
0 221 181
0 221 181
0 221 181
0 221 181
0 221 181
0 222 181
0 221 181
0 221 180
0 222 181
0 221 181
0 222 181
0 221 181
0 222 181
0 222 181
0 220 181
0 220 181
0 221 181
0 220 181
0 222 181
0 222 181
0 221 181
0 221 181
0 222 181
0 222 181
0 221 181
0 220 181
0 221 181
0 221 181
0 222 181
0 220 181
0 222 181
0 221 181
0 221 180
0 221 181
0 221 181
0 222 181
0 221 181
0 222 181
0 221 181
0 221 181
0 220 181
0 221 181
0 221 181
0 222 181
0 221 181
0 221 180
0 221 181
0 222 181
0 221 181
0 221 181
0 221 181
0 221 181
0 222 181
0 221 181
0 221 181
0 221 180
0 221 181
0 221 181
0 221 181
0 222 181
0 221 181
0 222 181
0 221 181
0 221 181
0 221 181
0 222 181
0 221 181
0 221 181
0 221 181
0 222 181
0 221 181
0 221 181
0 221 181
0 221 181
0 220 181
0 221 181
0 221 181
0 221 181
0 221 181
0 221 181
0 221 181
0 220 181
0 221 181
0 221 181
0 221 181
0 221 181
0 221 181
0 221 181
0 222 181
0 221 181
0 221 181
0 221 181
0 221 181
0 222 181
0 221 181
0 222 181
0 221 181
0 223 181
0 221 181
0 221 181
0 221 181
0 221 181
0 221 181
0 221 181
0 221 181
0 221 181
0 221 181
0 221 181
0 221 181
0 221 181
0 222 181
0 221 181
0 221 181
0 221 180
0 221 181
0 221 181
0 222 181
0 221 181
0 221 181
0 221 181
0 221 181
0 221 181
0 222 181
0 220 181
0 221 181
0 221 181
0 222 181
0 222 181
0 221 181
0 222 181
0 221 181
0 220 181
0 221 181
0 221 181
0 221 181
0 221 181
0 222 181
0 221 181
0 221 181
0 221 181
0 221 181
0 220 181
0 221 181
0 221 181
0 222 181
0 222 181
0 220 181
0 222 181
0 221 181
0 222 181
0 221 181
0 222 181
0 222 181
0 221 181
0 221 181
0 222 181
0 222 181
0 221 181
0 220 180
0 223 181
0 221 181
0 221 181
0 221 181
0 221 181
0 222 181
0 221 181
0 221 181
0 221 181
0 221 180
0 221 181
0 221 181
0 221 181
0 221 181
0 221 181
0 221 181
0 221 181
0 221 181
0 221 181
0 221 181
0 221 181
0 222 181
0 221 181
0 222 181
0 221 181
0 219 181
0 221 181
0 222 181
0 221 181
0 222 181
0 221 181
0 220 181
0 221 181
0 221 180
0 221 181
0 220 181
0 221 181
0 220 181
0 222 181
0 220 181
0 221 181
0 222 181
0 222 181
0 221 181
0 221 181
0 220 180
0 222 181
0 221 181
0 221 181
0 221 181
0 222 181
0 221 180
0 220 180
0 221 181
0 222 181
0 221 181
0 221 181
0 222 181
0 220 180
0 222 181
0 220 180
0 221 180
0 221 180
0 220 180
0 221 181
0 220 180
0 221 181
0 221 180
0 221 181
0 220 181
0 220 180
0 221 181
0 219 179
0 220 180
0 221 181
0 221 181
0 220 180
0 221 181
0 220 181
0 220 180
0 219 180
0 219 179
0 220 181
0 221 181
0 221 180
0 220 180
0 220 180
0 220 180
0 221 181
0 221 181
0 221 181
0 219 179
0 220 180
0 219 178
0 219 180
0 222 181
0 220 180
0 221 180
0 216 176
0 219 179
0 218 179
0 221 181
0 221 180
0 220 179
0 221 179
0 220 179
0 217 178
0 219 178
0 219 178
0 221 180
0 217 177
0 219 179
0 219 179
0 215 177
0 221 180
0 219 179
0 218 177
0 219 178
0 217 178
0 220 179
0 216 176
18 209 176
58 103 175
60 100 176
61 100 177
61 99 179
61 99 179
61 100 178
61 99 178
62 99 181
61 99 180
62 100 179
62 99 181
60 99 177
62 99 181
62 99 180
62 99 180
63 100 180
60 99 178
61 99 179
62 100 179
62 99 180
61 99 178
60 99 175
60 99 178
61 100 178
59 98 175
59 98 171
56 94 160
92 102 73
84 88 65
99 108 75
107 112 82
114 125 87
117 125 88
136 143 96
137 150 97
145 154 100
147 161 102
152 167 105
156 167 106
162 171 108
160 169 106
154 173 106
156 172 105
158 170 105
148 167 101
147 168 101
153 164 101
147 158 98
127 159 92
138 158 94
123 147 86
100 140 78
46 211 168
0 219 178
0 218 176
0 220 179
0 219 179
0 216 174
0 219 178
0 219 178
0 217 176
0 221 180
0 220 179
0 220 178
0 219 178
0 222 181
0 220 178
0 220 180
0 217 176
0 221 180
0 220 179
0 220 179
0 221 181
0 220 180
0 222 181
0 221 180
0 219 178
0 221 181
0 220 181
0 220 179
0 222 181
0 221 180
0 220 181
0 220 179
0 220 181
0 221 181
0 220 180
0 221 180
0 221 181
0 220 180
0 220 180
0 222 181
0 221 181
0 221 181
0 221 181
0 222 181
0 222 181
0 221 180
0 221 181
0 221 181
0 221 181
0 221 181
0 220 180
0 221 181
0 222 181
0 222 180
0 221 180
0 220 180
0 221 180
0 221 181
0 221 181
0 221 181
0 220 180
0 221 181
0 220 181
0 221 181
0 221 180
0 221 181
0 221 181
0 221 181
0 221 181
0 221 181
0 221 181
0 222 181
0 221 180
0 221 181
0 221 181
0 221 181
0 222 181
0 222 181
0 222 181
0 221 181
0 221 181
0 221 181
0 221 181
0 221 181
0 222 181
0 221 180
0 222 181
0 220 181
0 221 181
0 221 181
0 221 181
0 221 181
0 221 181
0 222 181
0 220 181
0 221 181
0 221 181
0 221 181
0 221 181
0 222 181
0 222 181
0 221 181
0 221 181
0 221 181
0 223 181
0 221 181
0 221 181
0 221 181
0 220 181
0 222 181
0 222 181
0 221 181
0 222 181
0 221 181
0 222 181
0 222 181
0 220 181
0 221 181
0 221 181
0 220 181
0 221 181
0 221 181
0 222 181
0 222 181
0 221 181
0 221 181
0 221 181
0 222 181
0 222 181
0 221 181
0 221 181
0 222 181
0 222 181
0 221 181
0 222 181
0 221 181
0 221 181
0 221 181
0 221 181
0 221 181
0 221 181
0 221 181
0 221 181
0 222 181
0 221 181
0 221 181
0 221 181
0 222 181
0 222 181
0 221 181
0 221 181
0 221 181
0 222 181
0 222 181
0 221 181
0 221 181
0 221 181
0 221 181
0 221 181
0 221 181
0 221 181
0 221 181
0 221 181
0 222 181
0 222 181
0 220 181
0 222 181
0 221 181
0 221 181
0 222 181
0 222 181
0 220 181
0 222 181
0 220 181
0 221 181
0 222 181
0 221 181
0 221 181
0 221 181
0 222 181
0 221 181
0 221 181
0 221 181
0 221 181
0 220 181
0 221 181
0 221 181
0 221 181
0 222 181
0 222 181
0 221 181
0 222 181
0 221 181
0 220 181
0 221 181
0 221 181
0 221 181
0 221 181
0 221 181
0 221 181
0 222 181
0 222 181
0 221 181
0 221 181
0 221 181
0 221 181
0 221 181
0 221 181
0 221 181
0 221 181
0 221 181
0 222 181
0 221 181
0 221 181
0 222 181
0 221 181
0 221 181
0 221 181
0 222 181
0 221 181
0 222 181
0 221 181
0 221 181
0 220 181
0 221 180
0 221 181
0 221 181
0 222 181
0 221 181
0 222 181
0 221 181
0 222 181
0 222 181
0 220 181
0 221 181
0 221 181
0 222 181
0 221 181
0 222 181
0 221 181
0 222 181
0 222 181
0 221 181
0 222 181
0 221 181
0 221 181
0 221 181
0 220 181
0 221 181
0 221 181
0 221 181
0 221 181
0 221 181
0 222 181
0 221 181
0 222 181
0 221 181
0 221 181
0 221 181
0 221 181
0 222 181
0 221 181
0 220 180
0 222 181
0 221 181
0 221 180
0 221 181
0 221 181
0 221 181
0 221 181
0 222 181
0 221 181
0 222 181
0 221 181
0 221 181
0 221 181
0 222 181
0 221 181
0 222 181
0 221 181
0 221 181
0 221 181
0 221 181
0 222 181
0 222 181
0 221 181
0 221 181
0 222 181
0 220 180
0 220 180
0 221 181
0 221 181
0 221 181
0 222 181
0 221 181
0 221 181
0 222 181
0 222 181
0 219 180
0 221 181
0 221 181
0 219 179
0 221 181
0 220 180
0 221 181
0 220 180
0 221 181
0 219 179
0 221 181
0 219 179
0 221 180
0 221 181
0 221 181
0 220 180
0 220 179
0 221 181
0 219 179
0 221 181
0 218 178
0 221 181
0 221 181
0 221 181
0 219 180
0 220 180
0 219 179
0 221 181
0 220 179
0 220 180
0 220 180
0 220 180
0 217 178
0 219 179
0 221 180
0 219 178
0 219 179
0 219 179
0 217 178
0 218 178
0 219 180
0 221 181
0 218 178
0 219 178
0 221 180
0 219 178
0 220 178
0 219 179
0 217 177
0 217 176
33 188 177
62 100 180
60 100 176
62 99 180
61 99 179
62 99 180
61 100 179
62 99 180
61 99 181
61 99 180
61 99 180
62 99 180
62 99 180
62 99 181
63 100 181
61 99 179
62 99 181
62 99 181
62 99 181
62 99 180
61 99 178
60 99 176
61 99 178
60 98 175
60 99 176
58 97 168
82 100 103
101 104 70
109 114 79
112 115 82
117 120 85
121 125 90
134 143 96
144 149 101
153 156 102
152 160 104
157 161 105
155 166 106
160 169 108
164 171 109
162 171 108
168 173 110
161 172 108
168 172 109
156 168 105
162 170 105
155 170 104
142 164 98
137 159 95
128 152 90
124 147 86
99 135 76
42 208 165
0 219 178
0 221 178
0 219 178
0 218 177
0 220 179
0 216 174
0 219 178
0 221 180
0 220 180
0 220 178
0 219 178
0 220 178
0 220 179
0 219 179
0 219 178
0 219 180
0 220 180
0 221 180
0 222 181
0 219 178
0 220 179
0 220 179
0 221 181
0 221 181
0 220 180
0 221 180
0 220 179
0 221 181
0 220 180
0 221 180
0 222 181
0 221 181
0 221 181
0 221 180
0 222 181
0 222 181
0 222 180
0 222 181
0 220 180
0 220 180
0 221 180
0 221 181
0 221 181
0 221 180
0 221 181
0 222 181
0 221 180
0 221 180
0 222 180
0 221 181
0 222 181
0 221 181
0 222 181
0 220 181
0 221 181
0 221 181
0 221 181
0 221 180
0 221 181
0 221 181
0 222 181
0 220 180
0 222 181
0 221 180
0 221 181
0 221 181
0 222 181
0 220 181
0 221 181
0 222 181
0 222 181
0 222 181
0 221 181
0 221 181
0 221 181
0 221 181
0 220 180
0 221 181
0 221 181
0 221 180
0 222 181
0 222 181
0 221 181
0 222 181
0 221 181
0 220 181
0 222 181
0 221 181
0 221 181
0 221 181
0 221 181
0 221 181
0 220 181
0 221 181
0 221 181
0 221 181
0 221 181
0 221 181
0 221 181
0 221 181
0 221 181
0 222 181
0 221 181
0 221 181
0 221 181
0 221 181
0 222 181
0 221 181
0 221 181
0 222 181
0 222 181
0 223 181
0 221 181
0 222 181
0 220 181
0 221 181
0 221 181
0 222 181
0 222 181
0 221 181
0 222 181
0 222 181
0 222 181
0 221 181
0 222 181
0 221 181
0 222 181
0 222 181
0 221 181
0 222 181
0 221 181
0 221 181
0 222 181
0 222 181
0 220 181
0 222 181
0 221 181
0 220 181
0 221 181
0 222 181
0 222 181
0 222 181
0 221 181
0 221 181
0 221 181
0 222 181
0 221 181
0 222 181
0 220 181
0 222 181
0 222 181
0 222 181
0 221 181
0 221 181
0 221 181
0 222 181
0 221 181
0 221 181
0 221 181
0 221 181
0 221 181
0 221 181
0 221 181
0 221 181
0 221 181
0 222 181
0 221 181
0 222 181
0 221 181
0 221 181
0 221 181
0 221 181
0 222 181
0 221 181
0 221 181
0 220 181
0 220 181
0 220 181
0 221 181
0 221 181
0 221 181
0 222 181
0 221 181
0 222 181
0 220 181
0 222 181
0 221 181
0 222 181
0 220 181
0 221 181
0 222 181
0 221 181
0 222 181
0 221 181
0 220 181
0 221 181
0 221 181
0 222 181
0 221 181
0 221 181
0 221 181
0 220 181
0 221 181
0 221 181
0 220 181
0 222 181
0 221 181
0 221 181
0 221 181
0 221 181
0 221 181
0 221 181
0 222 181
0 221 181
0 221 181
0 221 181
0 222 181
0 221 181
0 221 181
0 221 181
0 222 181
0 221 181
0 221 181
0 221 181
0 221 181
0 221 181
0 220 181
0 221 181
0 221 181
0 221 181
0 220 181
0 220 181
0 222 181
0 222 181
0 220 181
0 222 181
0 221 181
0 221 181
0 222 181
0 221 181
0 222 181
0 222 181
0 221 181
0 222 181
0 221 181
0 221 181
0 221 181
0 222 181
0 222 181
0 221 181
0 222 181
0 221 181
0 221 181
0 221 181
0 221 181
0 221 181
0 221 181
0 222 181
0 221 181
0 222 181
0 222 181
0 222 181
0 221 181
0 221 181
0 221 181
0 221 180
0 221 181
0 222 181
0 220 180
0 220 181
0 220 181
0 221 181
0 221 181
0 221 181
0 221 181
0 221 181
0 220 181
0 221 181
0 222 181
0 221 181
0 221 181
0 221 181
0 221 181
0 222 181
0 220 181
0 222 181
0 220 180
0 222 181
0 221 181
0 222 181
0 221 181
0 221 181
0 221 181
0 222 181
0 221 181
0 222 181
0 220 181
0 222 181
0 221 180
0 220 180
0 222 180
0 222 181
0 222 181
0 221 181
0 220 181
0 220 181
0 221 181
0 222 181
0 220 180
0 220 181
0 221 181
0 221 180
0 219 180
0 219 180
0 221 180
0 220 179
0 220 180
0 221 181
0 221 179
0 218 179
0 222 181
0 221 180
0 220 180
0 220 179
0 219 179
0 221 180
0 220 180
0 218 178
0 221 181
0 219 179
0 220 180
0 221 181
0 219 180
0 221 180
0 219 177
0 220 180
0 217 177
0 222 181
0 221 179
0 217 177
0 219 178
0 220 179
0 219 178
0 217 178
0 218 178
0 216 176
0 216 177
0 217 178
44 165 177
61 100 178
62 100 179
62 99 180
62 99 180
62 100 180
62 99 181
63 100 181
61 99 180
61 99 181
61 99 180
61 99 180
61 99 180
61 99 180
62 99 180
61 99 179
63 100 181
61 99 179
62 99 180
61 99 179
61 99 179
61 99 177
60 98 175
60 97 173
90 108 120
111 125 80
113 117 79
118 122 82
108 110 78
132 136 95
134 134 92
138 143 96
146 149 102
156 161 106
146 157 102
165 168 110
161 166 108
161 170 108
157 171 108
165 172 109
161 172 108
161 170 108
158 164 104
167 169 109
147 163 101
151 162 100
142 155 95
146 160 97
133 152 91
130 151 90
104 133 75
45 207 163
0 219 179
0 220 178
0 221 181
0 219 179
0 219 178
0 219 178
0 219 178
0 221 179
0 220 179
0 219 178
0 218 177
0 221 180
0 221 180
0 220 179
0 221 180
0 220 180
0 221 181
0 218 178
0 222 181
0 221 180
0 220 180
0 221 181
0 221 180
0 221 181
0 221 180
0 220 179
0 221 181
0 222 181
0 221 180
0 221 181
0 221 180
0 221 181
0 221 180
0 221 180
0 222 181
0 220 181
0 221 180
0 219 178
0 222 181
0 221 180
0 221 181
0 221 180
0 221 181
0 221 181
0 221 181
0 221 181
0 222 181
0 221 180
0 221 181
0 222 181
0 222 181
0 221 181
0 220 181
0 220 181
0 222 181
0 221 180
0 221 181
0 220 180
0 221 181
0 221 181
0 221 180
0 222 181
0 221 180
0 221 181
0 222 181
0 222 180
0 222 181
0 223 181
0 221 181
0 222 181
0 222 181
0 221 181
0 223 181
0 220 181
0 221 181
0 221 181
0 221 181
0 221 181
0 221 181
0 221 181
0 221 181
0 221 180
0 221 181
0 220 181
0 220 181
0 222 181
0 221 180
0 222 181
0 222 181
0 221 181
0 222 181
0 221 181
0 221 181
0 220 181
0 221 181
0 221 181
0 221 181
0 220 181
0 221 181
0 220 181
0 222 181
0 221 181
0 222 181
0 221 181
0 221 181
0 222 181
0 221 181
0 220 180
0 221 181
0 222 181
0 221 181
0 221 181
0 221 181
0 222 181
0 221 181
0 221 181
0 220 181
0 222 181
0 221 181
0 221 181
0 222 181
0 220 181
0 221 181
0 222 181
0 221 181
0 221 181
0 220 181
0 221 181
0 222 181
0 221 181
0 221 181
0 221 181
0 220 181
0 221 181
0 220 181
0 221 181
0 221 181
0 221 181
0 223 181
0 221 181
0 223 181
0 221 181
0 221 181
0 222 181
0 222 181
0 222 181
0 221 181
0 220 181
0 221 181
0 222 181
0 222 181
0 221 181
0 221 181
0 221 181
0 222 181
0 221 181
0 222 181
0 221 181
0 222 181
0 221 181
0 222 181
0 221 181
0 221 181
0 221 181
0 221 181
0 221 181
0 222 181
0 221 181
0 222 181
0 221 181
0 223 181
0 221 181
0 222 181
0 222 181
0 221 181
0 221 181
0 222 181
0 221 181
0 221 181
0 221 181
0 221 181
0 221 181
0 221 181
0 221 181
0 222 181
0 222 181
0 222 181
0 221 181
0 221 181
0 221 181
0 221 181
0 222 181
0 221 181
0 222 181
0 221 181
0 221 181
0 221 181
0 221 181
0 222 181
0 221 181
0 220 181
0 221 181
0 222 181
0 223 181
0 221 181
0 221 181
0 221 181
0 221 181
0 221 181
0 222 181
0 221 181
0 221 181
0 222 181
0 221 181
0 222 181
0 222 181
0 222 181
0 221 181
0 221 181
0 222 181
0 222 181
0 222 181
0 222 181
0 222 181
0 222 181
0 221 181
0 221 181
0 221 181
0 221 181
0 221 181
0 221 181
0 221 181
0 221 181
0 221 181
0 222 181
0 221 181
0 220 181
0 221 181
0 222 181
0 221 181
0 221 181
0 221 181
0 222 181
0 221 181
0 222 181
0 221 181
0 222 181
0 221 181
0 221 181
0 221 180
0 221 181
0 221 181
0 221 180
0 221 181
0 222 181
0 222 181
0 221 181
0 221 181
0 221 181
0 220 181
0 222 181
0 221 181
0 220 181
0 222 181
0 221 181
0 221 181
0 221 180
0 222 181
0 221 180
0 221 181
0 220 180
0 221 181
0 221 181
0 221 181
0 222 181
0 220 179
0 221 181
0 220 180
0 221 180
0 222 180
0 222 181
0 221 181
0 220 180
0 221 181
0 221 181
0 221 181
0 220 180
0 220 181
0 222 181
0 222 181
0 221 181
0 221 181
0 222 181
0 221 181
0 221 180
0 222 180
0 222 181
0 221 181
0 221 181
0 221 181
0 221 181
0 220 180
0 221 181
0 221 180
0 221 181
0 221 181
0 221 180
0 220 181
0 221 181
0 222 181
0 222 181
0 220 179
0 221 179
0 221 181
0 220 179
0 221 180
0 219 179
0 221 181
0 221 181
0 220 179
0 218 178
0 222 181
0 221 180
0 221 180
0 219 180
0 221 181
0 220 178
0 222 180
0 221 181
0 220 180
0 218 178
0 219 179
0 220 179
0 219 180
0 219 179
0 217 177
0 222 181
0 220 180
0 220 179
0 220 180
0 220 179
0 221 179
0 217 178
0 219 178
0 218 177
0 218 178
0 219 178
0 219 178
6 219 180
46 147 173
60 99 177
61 99 179
62 99 180
60 99 179
61 99 180
61 99 181
61 98 181
61 99 181
62 99 181
62 99 180
62 99 181
62 99 181
62 99 181
62 99 181
61 99 180
61 99 179
62 100 180
61 99 180
61 99 177
61 98 178
60 98 175
83 114 134
122 137 84
118 129 84
121 127 85
128 135 90
127 128 91
133 134 93
144 144 98
145 146 99
153 156 105
159 163 107
161 165 108
168 166 110
163 164 109
170 172 111
173 171 113
171 171 112
169 171 110
163 170 108
168 167 108
161 170 108
159 165 104
150 160 100
153 160 100
150 160 100
147 156 96
131 147 89
119 140 84
0 212 172
0 220 178
0 220 179
0 218 177
0 217 177
0 220 179
0 220 179
0 221 180
0 221 180
0 220 179
0 220 178
0 222 181
0 222 181
0 221 180
0 220 180
0 219 179
0 221 180
0 220 179
0 221 180
0 221 180
0 221 180
0 220 180
0 220 179
0 221 180
0 223 181
0 221 179
0 222 181
0 221 180
0 222 181
0 221 180
0 221 180
0 221 181
0 221 181
0 221 180
0 222 181
0 221 181
0 221 181
0 220 181
0 221 181
0 221 181
0 221 181
0 221 181
0 221 181
0 221 181
0 221 181
0 220 181
0 221 181
0 221 181
0 221 181
0 222 181
0 222 181
0 222 181
0 222 181
0 222 181
0 220 181
0 222 181
0 221 181
0 222 181
0 220 181
0 221 181
0 221 181
0 222 181
0 221 181
0 222 181
0 220 181
0 222 181
0 221 181
0 220 181
0 221 181
0 221 181
0 221 181
0 221 181
0 222 181
0 221 181
0 221 181
0 221 181
0 222 181
0 220 180
0 221 180
0 221 181
0 221 181
0 221 181
0 221 181
0 222 181
0 222 181
0 221 181
0 222 181
0 222 181
0 222 181
0 221 181
0 221 181
0 221 181
0 221 181
0 222 181
0 221 181
0 221 181
0 221 181
0 221 181
0 221 181
0 221 181
0 221 181
0 220 181
0 221 181
0 221 181
0 222 181
0 222 181
0 221 181
0 221 181
0 221 181
0 220 181
0 222 181
0 222 181
0 221 181
0 221 181
0 222 181
0 221 181
0 221 181
0 222 181
0 220 181
0 220 181
0 222 181
0 222 181
0 221 181
0 220 181
0 221 181
0 222 181
0 222 181
0 221 181
0 221 181
0 221 181
0 221 181
0 221 181
0 221 181
0 222 181
0 221 181
0 222 181
0 221 181
0 222 181
0 220 181
0 221 181
0 221 181
0 222 181
0 221 181
0 221 181
0 221 181
0 222 181
0 222 181
0 221 181
0 221 181
0 221 181
0 221 181
0 221 181
0 222 181
0 221 181
0 221 181
0 220 181
0 221 181
0 222 181
0 221 181
0 222 181
0 222 181
0 221 181
0 221 181
0 221 181
0 221 181
0 221 181
0 222 181
0 222 181
0 222 181
0 221 181
0 221 181
0 222 181
0 220 181
0 221 181
0 221 181
0 222 181
0 221 181
0 220 181
0 221 181
0 221 181
0 221 181
0 221 181
0 221 181
0 222 181
0 222 181
0 222 181
0 221 181
0 221 181
0 221 181
0 222 181
0 221 181
0 221 181
0 221 181
0 221 181
0 221 181
0 222 181
0 221 181
0 222 181
0 221 181
0 221 181
0 222 181
0 221 181
0 221 181
0 221 181
0 220 181
0 221 181
0 220 181
0 220 181
0 222 181
0 220 181
0 221 181
0 221 181
0 222 181
0 221 181
0 221 181
0 221 181
0 222 181
0 221 181
0 222 181
0 220 181
0 221 181
0 221 181
0 221 181
0 222 181
0 222 181
0 221 181
0 222 181
0 222 181
0 221 181
0 220 181
0 221 181
0 222 181
0 222 181
0 222 181
0 221 181
0 221 181
0 221 181
0 221 181
0 222 181
0 222 181
0 221 181
0 221 181
0 222 181
0 221 181
0 221 181
0 221 181
0 222 181
0 220 181
0 221 181
0 221 181
0 221 181
0 221 181
0 221 181
0 221 181
0 221 181
0 222 181
0 220 181
0 221 181
0 221 181
0 221 181
0 220 181
0 221 181
0 221 181
0 221 181
0 222 181
0 222 181
0 222 181
0 220 181
0 223 181
0 221 181
0 222 181
0 221 180
0 221 181
0 221 181
0 219 180
0 222 181
0 221 181
0 220 181
0 221 181
0 222 181
0 220 181
0 222 181
0 221 181
0 222 181
0 222 181
0 221 181
0 220 180
0 221 181
0 222 181
0 222 181
0 221 181
0 219 179
0 220 180
0 221 180
0 220 180
0 221 181
0 221 181
0 221 180
0 221 181
0 221 181
0 219 179
0 220 180
0 222 181
0 222 181
0 221 181
0 220 180
0 220 180
0 221 181
0 220 180
0 221 181
0 220 180
0 220 181
0 221 181
0 221 180
0 221 181
0 221 180
0 220 180
0 220 180
0 221 181
0 220 180
0 221 181
0 220 181
0 220 180
0 220 181
0 221 181
0 221 180
0 220 180
0 222 181
0 221 180
0 219 179
0 219 179
0 219 180
0 221 181
0 221 180
0 221 181
0 220 180
0 218 178
0 221 180
0 217 177
0 220 180
0 218 178
0 219 179
0 218 177
0 219 179
0 219 178
0 217 178
0 217 178
0 218 178
0 219 179
0 218 178
0 219 179
42 171 177
60 98 178
62 99 180
62 99 181
61 99 180
61 99 180
62 99 181
62 99 181
61 98 181
63 100 181
61 98 181
62 99 181
61 98 181
61 99 180
62 99 180
61 98 178
62 99 181
61 99 179
60 98 176
61 100 176
38 177 175
86 170 121
109 130 78
123 136 87
124 136 88
134 140 91
134 137 93
137 139 96
150 150 101
153 153 103
151 151 101
161 159 106
165 168 110
168 167 111
172 170 112
168 169 112
169 170 111
170 169 110
166 164 108
169 170 110
168 168 109
163 167 107
155 162 104
153 162 103
152 159 100
147 163 99
144 157 97
133 151 90
104 150 96
0 219 179
0 220 180
0 220 179
0 220 179
0 220 178
0 219 178
0 218 177
0 221 180
0 220 178
0 220 181
0 221 181
0 221 181
0 222 181
0 219 180
0 220 181
0 220 179
0 222 181
0 219 179
0 220 180
0 221 181
0 221 181
0 221 181
0 221 180
0 220 180
0 221 180
0 220 178
0 221 181
0 222 181
0 221 180
0 221 181
0 220 180
0 221 181
0 221 181
0 220 180
0 221 181
0 221 181
0 220 178
0 221 181
0 220 180
0 221 181
0 222 181
0 221 180
0 221 181
0 220 180
0 223 181
0 222 181
0 221 181
0 221 181
0 221 181
0 221 181
0 221 181
0 221 181
0 222 181
0 220 181
0 221 181
0 221 180
0 221 180
0 222 181
0 221 181
0 222 181
0 221 181
0 221 181
0 222 181
0 221 181
0 221 181
0 221 181
0 222 181
0 221 181
0 221 181
0 221 181
0 221 181
0 222 181
0 220 181
0 221 181
0 220 181
0 222 181
0 221 181
0 221 181
0 222 181
0 222 181
0 222 181
0 221 181
0 220 180
0 221 181
0 223 181
0 222 181
0 220 181
0 222 181
0 222 181
0 221 181
0 221 181
0 222 181
0 221 181
0 221 181
0 221 181
0 221 181
0 221 181
0 221 181
0 221 181
0 221 181
0 221 181
0 220 180
0 222 181
0 221 181
0 220 181
0 222 181
0 220 181
0 222 181
0 222 181
0 221 181
0 222 181
0 221 181
0 221 181
0 222 181
0 221 181
0 222 181
0 222 181
0 221 181
0 221 181
0 221 181
0 221 181
0 221 181
0 221 181
0 221 181
0 221 181
0 220 181
0 222 181
0 221 181
0 221 181
0 221 181
0 222 181
0 222 181
0 221 181
0 221 181
0 221 181
0 222 181
0 222 181
0 222 181
0 222 181
0 221 181
0 221 181
0 222 181
0 221 181
0 221 181
0 220 181
0 221 181
0 221 181
0 221 181
0 221 181
0 220 181
0 221 181
0 221 181
0 221 181
0 221 181
0 220 181
0 222 181
0 221 181
0 221 181
0 221 181
0 221 181
0 221 181
0 221 181
0 221 181
0 221 181
0 221 181
0 222 181
0 221 181
0 222 181
0 221 181
0 222 181
0 221 181
0 221 181
0 221 181
0 222 181
0 221 181
0 221 181
0 221 181
0 222 181
0 222 181
0 221 181
0 221 181
0 220 181
0 220 181
0 221 181
0 222 181
0 221 181
0 222 181
0 222 181
0 222 181
0 221 181
0 221 181
0 221 181
0 222 181
0 222 181
0 221 181
0 222 181
0 221 181
0 222 181
0 222 181
0 221 181
0 222 181
0 221 181
0 222 181
0 223 181
0 221 181
0 220 181
0 221 181
0 221 181
0 222 181
0 222 181
0 221 181
0 221 181
0 222 181
0 222 181
0 221 181
0 221 181
0 222 181
0 221 181
0 221 181
0 221 181
0 222 181
0 221 181
0 222 181
0 220 181
0 221 181
0 221 181
0 222 181
0 221 181
0 220 181
0 221 180
0 221 181
0 221 181
0 222 181
0 221 181
0 221 181
0 221 181
0 221 181
0 221 181
0 221 181
0 221 181
0 222 181
0 222 181
0 221 181
0 221 181
0 222 181
0 221 181
0 222 181
0 222 181
0 221 181
0 222 181
0 222 181
0 222 181
0 222 181
0 222 181
0 221 181
0 221 181
0 221 181
0 221 180
0 222 181
0 222 181
0 221 181
0 221 181
0 221 181
0 222 181
0 221 180
0 221 181
0 221 181
0 221 181
0 221 181
0 220 180
0 221 181
0 222 181
0 221 181
0 221 181
0 220 181
0 221 181
0 222 181
0 221 181
0 222 181
0 220 180
0 221 181
0 220 180
0 221 181
0 221 181
0 222 181
0 221 181
0 221 181
0 221 181
0 221 181
0 221 181
0 221 181
0 222 181
0 222 181
0 222 181
0 221 181
0 221 181
0 221 181
0 221 181
0 222 181
0 221 181
0 221 180
0 222 181
0 221 181
0 220 180
0 221 181
0 221 181
0 220 180
0 221 181
0 221 181
0 220 180
0 221 180
0 220 180
0 221 181
0 220 180
0 222 181
0 221 181
0 221 181
0 221 181
0 220 180
0 220 180
0 219 179
0 217 179
0 219 180
0 222 181
0 220 180
0 218 179
0 218 179
0 221 181
0 221 180
0 220 180
0 220 179
0 219 179
0 220 180
0 218 177
0 220 180
0 221 181
0 221 180
0 220 180
0 221 180
0 220 180
0 220 179
0 220 179
0 218 179
0 216 177
0 218 179
0 218 179
0 220 179
0 220 179
0 220 179
0 219 179
0 218 178
0 218 177
31 197 179
55 132 180
63 100 180
62 99 180
61 99 181
62 99 181
61 98 181
61 99 181
61 99 181
61 99 181
61 99 181
61 98 181
62 99 181
61 99 181
61 99 181
61 99 179
62 99 178
57 122 177
29 195 176
0 217 175
76 186 143
131 142 88
126 137 86
135 140 91
136 141 93
146 147 98
155 154 104
151 152 103
157 155 105
157 155 105
162 161 108
168 165 110
169 167 112
169 167 111
174 171 113
173 169 112
172 170 112
172 170 112
166 168 110
166 167 109
166 168 108
160 163 104
155 162 103
153 162 102
143 154 96
142 151 94
122 140 82
86 185 142
0 219 178
0 217 177
0 219 178
0 221 181
0 220 179
0 220 178
0 221 180
0 219 178
0 221 181
0 221 181
0 219 179
0 218 177
0 220 180
0 221 180
0 222 180
0 221 181
0 221 180
0 220 179
0 220 179
0 221 180
0 219 178
0 221 181
0 220 180
0 220 180
0 221 181
0 221 181
0 221 180
0 220 180
0 221 181
0 219 178
0 222 181
0 221 180
0 221 181
0 221 180
0 220 180
0 221 180
0 222 181
0 222 181
0 220 180
0 220 180
0 221 180
0 221 181
0 221 181
0 222 180
0 221 181
0 221 181
0 222 181
0 221 181
0 222 181
0 221 181
0 222 181
0 221 181
0 221 181
0 223 181
0 221 181
0 222 181
0 222 181
0 222 181
0 221 181
0 221 181
0 222 181
0 221 181
0 221 181
0 222 181
0 221 181
0 222 181
0 222 181
0 221 181
0 223 181
0 221 181
0 221 181
0 221 181
0 221 181
0 221 181
0 222 181
0 221 181
0 222 181
0 220 181
0 221 181
0 222 181
0 221 181
0 221 181
0 222 181
0 222 181
0 221 181
0 221 181
0 221 181
0 221 181
0 221 181
0 221 181
0 220 181
0 222 180
0 222 181
0 221 181
0 221 181
0 221 181
0 221 181
0 222 181
0 221 181
0 221 181
0 221 181
0 221 181
0 221 181
0 221 181
0 221 181
0 221 181
0 221 181
0 222 181
0 221 181
0 221 181
0 221 181
0 221 181
0 222 181
0 222 181
0 222 181
0 222 181
0 221 180
0 221 181
0 222 181
0 221 181
0 221 181
0 220 181
0 221 181
0 221 181
0 220 181
0 221 181
0 221 181
0 221 181
0 222 181
0 221 181
0 221 181
0 222 181
0 221 181
0 220 181
0 220 181
0 222 181
0 221 181
0 221 181
0 221 181
0 221 181
0 221 181
0 220 181
0 221 181
0 221 181
0 221 181
0 221 181
0 222 181
0 221 181
0 222 181
0 222 181
0 221 181
0 221 181
0 222 181
0 221 181
0 221 181
0 222 181
0 222 181
0 221 181
0 221 181
0 221 181
0 220 181
0 221 181
0 221 181
0 222 181
0 222 181
0 221 181
0 221 181
0 221 181
0 222 181
0 221 181
0 221 181
0 222 181
0 222 181
0 221 181
0 221 181
0 222 181
0 221 181
0 222 181
0 222 181
0 221 181
0 222 181
0 222 181
0 221 181
0 222 181
0 222 181
0 222 181
0 221 181
0 221 181
0 221 181
0 222 181
0 221 181
0 222 181
0 221 181
0 222 181
0 222 181
0 221 181
0 221 181
0 220 181
0 222 181
0 222 181
0 220 181
0 222 181
0 221 181
0 221 181
0 222 181
0 221 181
0 221 181
0 222 181
0 222 181
0 221 181
0 221 181
0 222 181
0 221 181
0 221 181
0 221 181
0 221 181
0 222 181
0 221 181
0 221 181
0 222 181
0 221 181
0 222 181
0 221 181
0 221 181
0 222 181
0 222 181
0 222 181
0 222 181
0 222 181
0 221 181
0 222 181
0 221 181
0 220 181
0 222 181
0 221 181
0 221 181
0 221 181
0 222 181
0 221 181
0 221 181
0 222 181
0 222 181
0 221 181
0 221 180
0 221 181
0 221 181
0 221 181
0 221 181
0 221 181
0 222 181
0 222 181
0 221 181
0 221 181
0 221 181
0 220 181
0 220 181
0 222 181
0 221 181
0 220 181
0 221 181
0 221 181
0 222 181
0 220 181
0 221 181
0 221 181
0 221 181
0 220 181
0 221 180
0 222 181
0 221 181
0 221 181
0 220 181
0 220 180
0 221 181
0 222 181
0 221 181
0 222 181
0 221 180
0 221 181
0 221 181
0 222 181
0 221 181
0 220 180
0 221 181
0 221 181
0 221 181
0 220 179
0 222 181
0 221 181
0 221 181
0 221 181
0 222 181
0 221 181
0 221 181
0 221 179
0 221 181
0 222 181
0 221 181
0 220 180
0 221 181
0 221 181
0 222 181
0 221 181
0 221 181
0 221 180
0 221 181
0 222 181
0 221 181
0 221 181
0 220 181
0 219 180
0 221 181
0 221 181
0 220 180
0 221 180
0 221 181
0 221 181
0 221 181
0 219 179
0 221 181
0 219 179
0 219 179
0 220 181
0 221 181
0 222 181
0 221 181
0 219 179
0 222 180
0 221 180
0 219 179
0 219 179
0 219 180
0 221 181
0 221 181
0 219 180
0 221 180
0 220 180
0 217 177
0 220 180
0 219 179
0 221 179
0 219 179
0 219 179
0 220 180
0 219 178
0 221 181
0 219 179
0 221 180
0 221 180
0 219 179
0 219 180
0 221 180
0 220 179
9 216 179
38 183 180
56 125 180
62 99 180
62 99 181
62 99 181
62 99 181
61 98 181
62 99 181
61 98 181
61 99 181
62 99 181
61 99 181
61 99 179
54 135 178
39 183 179
6 218 179
0 215 175
0 217 177
46 210 168
109 144 88
141 149 93
133 139 89
144 151 98
142 143 94
153 153 101
155 154 103
157 155 103
166 163 109
163 161 108
171 167 110
170 166 110
169 166 110
171 168 112
170 167 111
169 166 110
165 162 108
170 167 110
163 164 107
161 159 103
158 161 103
157 162 103
152 156 100
137 148 91
142 152 94
123 137 82
62 204 163
0 221 180
0 219 177
0 221 180
0 221 181
0 220 180
0 221 181
0 221 180
0 221 181
0 220 180
0 219 178
0 220 180
0 219 178
0 221 181
0 221 180
0 220 180
0 221 179
0 221 180
0 221 181
0 220 180
0 221 181
0 222 181
0 220 180
0 220 181
0 221 181
0 221 181
0 220 180
0 221 181
0 222 181
0 220 181
0 221 181
0 222 181
0 222 181
0 220 181
0 221 180
0 221 180
0 222 181
0 221 181
0 221 181
0 222 181
0 221 180
0 221 180
0 221 181
0 221 181
0 220 179
0 221 180
0 222 181
0 221 181
0 220 180
0 221 181
0 222 181
0 221 181
0 220 180
0 222 181
0 221 181
0 222 181
0 221 181
0 222 181
0 222 181
0 221 181
0 221 181
0 221 181
0 221 181
0 220 181
0 221 181
0 221 180
0 220 181
0 221 180
0 221 181
0 222 181
0 221 181
0 221 181
0 222 181
0 221 181
0 221 181
0 222 181
0 221 181
0 221 181
0 221 181
0 221 181
0 220 181
0 221 181
0 221 181
0 221 181
0 221 181
0 221 181
0 222 181
0 221 181
0 221 181
0 220 180
0 221 181
0 221 181
0 221 181
0 223 181
0 221 181
0 221 181
0 221 181
0 221 181
0 221 181
0 221 181
0 222 181
0 221 181
0 222 181
0 222 181
0 221 181
0 221 181
0 221 181
0 222 181
0 221 181
0 221 181
0 222 181
0 222 181
0 221 181
0 222 181
0 222 181
0 221 181
0 221 181
0 221 181
0 220 181
0 222 181
0 221 181
0 222 181
0 221 181
0 222 181
0 221 181
0 221 181
0 222 181
0 222 181
0 220 181
0 221 181
0 221 181
0 221 181
0 222 181
0 222 181
0 220 181
0 221 181
0 223 181
0 221 181
0 221 181
0 220 181
0 221 181
0 222 181
0 222 181
0 222 181
0 221 181
0 221 181
0 222 181
0 221 181
0 221 181
0 221 181
0 221 181
0 221 181
0 221 181
0 222 181
0 221 181
0 222 181
0 222 181
0 221 181
0 222 181
0 221 181
0 223 181
0 221 181
0 221 181
0 222 181
0 221 181
0 221 181
0 222 181
0 221 181
0 222 181
0 222 181
0 221 181
0 222 181
0 221 181
0 221 181
0 220 181
0 221 181
0 222 181
0 221 181
0 221 181
0 221 181
0 222 181
0 221 181
0 221 181
0 222 181
0 222 181
0 220 181
0 221 181
0 221 181
0 221 181
0 222 181
0 222 181
0 220 181
0 221 181
0 220 181
0 222 181
0 221 181
0 221 181
0 221 181
0 221 181
0 221 181
0 221 181
0 222 181
0 221 181
0 221 181
0 222 181
0 221 181
0 221 181
0 221 181
0 222 181
0 222 181
0 221 181
0 221 181
0 222 181
0 221 181
0 220 181
0 222 181
0 222 181
0 222 181
0 222 181
0 222 181
0 222 181
0 221 181
0 222 181
0 221 181
0 221 181
0 222 181
0 221 181
0 221 181
0 221 181
0 221 181
0 222 181
0 221 181
0 222 181
0 221 181
0 221 181
0 221 181
0 221 181
0 221 181
0 221 181
0 221 181
0 221 181
0 220 181
0 221 181
0 220 181
0 221 180
0 222 181
0 222 181
0 221 181
0 221 181
0 222 181
0 222 181
0 221 181
0 221 181
0 221 181
0 221 181
0 221 180
0 221 181
0 222 181
0 222 181
0 222 181
0 220 181
0 220 180
0 221 181
0 222 181
0 221 181
0 221 181
0 222 181
0 221 181
0 221 181
0 222 181
0 220 181
0 220 181
0 220 181
0 221 181
0 222 181
0 221 181
0 221 180
0 222 181
0 222 181
0 220 181
0 221 181
0 220 180
0 221 181
0 222 181
0 221 181
0 223 181
0 220 179
0 220 180
0 221 181
0 221 181
0 221 181
0 221 181
0 222 181
0 222 181
0 221 181
0 221 181
0 221 181
0 220 180
0 220 180
0 219 180
0 221 181
0 222 181
0 222 181
0 222 181
0 221 180
0 222 181
0 219 180
0 221 181
0 220 180
0 220 180
0 223 181
0 222 181
0 222 181
0 221 181
0 221 181
0 221 181
0 221 180
0 220 180
0 220 180
0 221 180
0 221 181
0 222 181
0 221 181
0 222 181
0 222 181
0 220 180
0 220 179
0 221 180
0 222 181
0 220 180
0 220 180
0 221 181
0 220 180
0 220 179
0 221 180
0 221 181
0 221 180
0 220 180
0 222 181
0 221 181
0 219 179
0 221 181
0 221 181
0 221 180
0 219 179
0 222 181
0 221 181
0 218 178
0 220 180
0 218 177
0 220 179
0 219 180
0 220 179
0 220 180
0 220 180
0 219 178
6 220 180
31 193 176
36 187 181
54 137 180
59 114 181
61 102 180
61 101 181
60 106 180
57 123 180
50 148 179
43 169 179
21 208 179
0 219 178
0 218 178
0 219 179
0 219 179
0 217 175
0 218 178
82 182 135
130 145 88
130 137 87
144 146 95
152 153 99
154 153 102
154 153 102
159 157 105
164 162 108
168 164 110
170 168 111
165 162 108
161 159 107
165 161 107
168 165 110
169 166 110
170 167 112
158 155 103
166 162 107
161 159 105
152 155 100
154 153 99
152 149 97
148 153 97
135 141 87
100 155 108
0 222 181
0 222 181
0 220 179
0 221 181
0 221 180
0 220 179
0 220 181
0 220 179
0 220 180
0 221 181
0 220 180
0 221 181
0 220 178
0 221 181
0 221 181
0 220 181
0 221 181
0 221 181
0 221 181
0 220 181
0 222 181
0 220 181
0 222 181
0 221 179
0 222 181
0 221 181
0 221 181
0 222 181
0 222 181
0 221 179
0 221 181
0 221 181
0 221 181
0 222 181
0 221 180
0 221 180
0 221 181
0 222 181
0 221 181
0 221 180
0 221 181
0 220 180
0 220 180
0 221 181
0 222 181
0 221 181
0 222 181
0 220 181
0 221 181
0 221 180
0 222 181
0 220 181
0 222 181
0 222 181
0 221 181
0 222 181
0 222 181
0 221 181
0 220 181
0 221 181
0 221 181
0 221 181
0 221 181
0 221 181
0 220 181
0 221 181
0 221 181
0 221 181
0 222 181
0 220 180
0 221 181
0 222 181
0 221 181
0 222 181
0 220 181
0 221 181
0 221 181
0 222 181
0 220 181
0 221 181
0 221 181
0 221 181
0 222 181
0 221 181
0 221 181
0 221 181
0 221 181
0 221 181
0 221 181
0 221 181
0 220 181
0 221 181
0 220 181
0 221 181
0 222 181
0 221 181
0 222 181
0 221 181
0 221 181
0 222 181
0 222 181
0 221 181
0 221 181
0 221 181
0 221 181
0 220 181
0 221 181
0 221 181
0 221 181
0 222 181
0 222 181
0 221 181
0 220 181
0 221 181
0 221 181
0 222 181
0 221 181
0 221 181
0 221 181
0 220 181
0 222 181
0 221 181
0 222 181
0 222 181
0 221 181
0 221 181
0 222 181
0 222 181
0 221 181
0 220 181
0 222 181
0 221 181
0 222 181
0 222 181
0 221 181
0 221 181
0 221 181
0 221 181
0 220 181
0 222 181
0 221 181
0 222 181
0 221 181
0 220 181
0 221 181
0 222 181
0 222 181
0 222 181
0 222 181
0 222 181
0 221 181
0 221 181
0 221 181
0 222 181
0 222 181
0 220 181
0 222 181
0 222 181
0 221 181
0 221 181
0 222 181
0 222 181
0 221 181
0 222 181
0 222 181
0 222 181
0 221 181
0 221 181
0 221 181
0 221 181
0 222 181
0 221 181
0 222 181
0 222 181
0 221 181
0 221 181
0 221 181
0 222 181
0 221 181
0 220 181
0 222 181
0 221 181
0 221 181
0 221 181
0 220 181
0 222 181
0 221 181
0 222 181
0 221 181
0 221 181
0 221 181
0 221 181
0 221 181
0 221 181
0 221 181
0 222 181
0 221 181
0 221 181
0 221 181
0 221 181
0 221 181
0 221 181
0 221 181
0 221 181
0 222 181
0 222 181
0 221 181
0 221 181
0 222 181
0 222 181
0 221 181
0 221 181
0 221 181
0 220 181
0 221 181
0 221 181
0 222 181
0 222 181
0 221 181
0 222 181
0 221 181
0 221 181
0 222 181
0 221 181
0 221 181
0 221 181
0 222 181
0 221 181
0 221 181
0 221 181
0 222 181
0 222 181
0 221 181
0 220 180
0 222 181
0 221 181
0 220 181
0 221 181
0 221 181
0 221 181
0 221 181
0 222 181
0 222 181
0 221 181
0 221 181
0 221 181
0 221 181
0 221 181
0 221 181
0 221 181
0 220 181
0 220 181
0 221 181
0 221 181
0 221 181
0 221 181
0 221 181
0 221 181
0 220 180
0 221 181
0 221 181
0 220 181
0 221 181
0 221 181
0 221 181
0 221 181
0 221 181
0 222 181
0 221 181
0 221 181
0 222 181
0 221 181
0 221 181
0 221 181
0 221 181
0 221 181
0 221 181
0 221 181
0 221 181
0 223 181
0 222 181
0 221 181
0 220 180
0 221 181
0 222 181
0 222 181
0 220 180
0 221 180
0 222 181
0 220 181
0 222 181
0 221 181
0 221 181
0 221 181
0 221 181
0 221 181
0 221 181
0 220 180
0 221 181
0 220 180
0 220 180
0 222 181
0 220 180
0 220 181
0 221 181
0 221 180
0 222 181
0 221 181
0 221 181
0 221 181
0 220 181
0 221 181
0 221 181
0 221 180
0 222 181
0 220 180
0 220 180
0 222 181
0 221 181
0 222 181
0 222 181
0 222 181
0 221 181
0 219 180
0 220 180
0 222 180
0 220 181
0 221 181
0 220 180
0 221 181
0 220 180
0 221 181
0 221 180
0 222 181
0 221 180
0 221 180
0 220 180
0 220 180
0 219 179
0 218 178
0 219 180
0 220 180
0 221 180
0 220 180
0 219 179
0 221 180
0 219 179
0 219 178
0 220 179
0 221 180
0 221 179
0 218 178
0 221 181
0 220 180
0 218 179
0 220 180
0 220 179
0 220 177
0 219 179
0 220 179
0 220 180
0 219 179
0 220 179
0 219 179
0 218 178
0 219 179
0 219 178
0 220 179
0 220 180
0 220 178
0 219 178
0 218 177
0 219 178
0 221 180
38 214 174
118 143 94
140 147 92
145 146 94
146 148 96
157 156 102
149 150 100
161 158 106
163 162 108
163 161 108
166 163 108
165 162 108
165 162 108
163 161 107
166 164 109
170 167 112
165 163 108
166 163 108
163 161 106
166 163 108
157 162 104
159 161 105
141 142 91
143 150 94
137 145 91
52 210 168
0 221 180
0 220 179
0 220 179
0 221 180
0 221 181
0 222 181
0 221 180
0 221 180
0 218 177
0 221 180
0 221 181
0 220 180
0 220 180
0 221 181
0 221 181
0 221 181
0 220 181
0 220 180
0 222 181
0 220 180
0 220 181
0 222 181
0 221 181
0 223 181
0 221 181
0 221 181
0 221 181
0 221 179
0 220 181
0 221 181
0 221 181
0 220 180
0 221 181
0 221 181
0 221 181
0 221 181
0 221 181
0 221 181
0 221 181
0 222 181
0 222 181
0 221 181
0 221 181
0 222 181
0 221 181
0 221 181
0 221 181
0 221 181
0 221 181
0 220 180
0 221 181
0 221 181
0 221 181
0 221 181
0 221 181
0 220 181
0 220 181
0 221 181
0 221 181
0 221 181
0 221 180
0 221 181
0 221 181
0 222 181
0 221 181
0 222 181
0 220 181
0 220 181
0 221 180
0 221 181
0 221 181
0 222 181
0 221 181
0 221 181
0 221 181
0 222 181
0 221 181
0 221 181
0 221 181
0 221 181
0 221 181
0 221 181
0 221 181
0 221 181
0 221 181
0 221 181
0 221 181
0 222 180
0 220 181
0 221 181
0 221 181
0 221 181
0 221 181
0 221 181
0 221 181
0 221 181
0 222 181
0 221 181
0 221 181
0 222 181
0 221 181
0 221 181
0 222 181
0 220 181
0 221 181
0 221 181
0 221 181
0 221 181
0 221 181
0 222 181
0 221 181
0 220 181
0 221 181
0 221 181
0 222 181
0 222 181
0 222 181
0 222 181
0 222 181
0 222 181
0 221 181
0 221 181
0 221 181
0 221 181
0 221 181
0 222 181
0 221 181
0 221 181
0 222 181
0 221 181
0 220 181
0 221 181
0 221 181
0 221 181
0 221 181
0 221 181
0 221 181
0 220 181
0 222 181
0 222 181
0 222 181
0 221 181
0 221 181
0 221 181
0 221 181
0 222 181
0 222 181
0 221 181
0 221 181
0 222 181
0 221 181
0 222 181
0 222 181
0 221 181
0 222 181
0 221 181
0 221 181
0 222 181
0 222 181
0 222 181
0 221 181
0 222 181
0 222 181
0 221 181
0 221 181
0 222 181
0 221 181
0 222 181
0 221 181
0 221 181
0 221 181
0 222 181
0 221 181
0 222 181
0 222 181
0 221 181
0 221 181
0 221 181
0 222 181
0 222 181
0 221 181
0 221 181
0 222 181
0 220 181
0 221 181
0 221 181
0 222 181
0 221 181
0 222 181
0 221 181
0 222 181
0 221 181
0 221 181
0 221 181
0 222 181
0 221 181
0 221 181
0 221 181
0 220 181
0 222 181
0 221 181
0 221 181
0 221 181
0 221 181
0 221 181
0 221 181
0 221 181
0 221 181
0 221 181
0 221 181
0 222 181
0 222 181
0 221 181
0 221 181
0 222 181
0 221 181
0 221 181
0 221 181
0 222 181
0 221 181
0 221 181
0 221 181
0 221 181
0 222 181
0 222 181
0 222 181
0 221 181
0 221 181
0 221 181
0 221 181
0 221 181
0 222 181
0 221 181
0 221 181
0 221 181
0 222 181
0 221 181
0 221 181
0 221 181
0 222 181
0 221 181
0 220 181
0 222 181
0 221 181
0 222 181
0 221 181
0 221 181
0 222 181
0 221 181
0 221 181
0 220 181
0 221 181
0 221 181
0 220 181
0 221 181
0 221 181
0 221 181
0 222 181
0 221 181
0 221 181
0 221 181
0 221 181
0 220 180
0 221 181
0 221 181
0 222 181
0 221 181
0 221 181
0 221 181
0 221 181
0 221 180
0 221 181
0 221 181
0 221 181
0 221 181
0 221 181
0 222 181
0 220 181
0 221 181
0 221 181
0 221 181
0 221 181
0 220 180
0 221 181
0 222 181
0 221 181
0 221 181
0 222 181
0 221 181
0 221 181
0 222 181
0 221 181
0 222 181
0 222 181
0 220 181
0 221 181
0 221 180
0 221 181
0 220 181
0 221 181
0 221 180
0 220 180
0 222 181
0 222 181
0 220 179
0 221 181
0 220 180
0 221 181
0 220 180
0 222 181
0 220 181
0 220 180
0 221 181
0 221 181
0 220 180
0 221 180
0 221 181
0 220 180
0 221 181
0 221 180
0 221 179
0 220 181
0 222 181
0 221 181
0 221 181
0 221 181
0 221 180
0 220 181
0 221 181
0 221 180
0 220 180
0 220 181
0 221 181
0 220 180
0 220 179
0 221 181
0 221 181
0 220 179
0 221 181
0 221 180
0 220 180
0 219 178
0 221 181
0 221 180
0 221 181
0 219 179
0 220 180
0 220 179
0 220 179
0 220 180
0 220 178
0 220 180
0 220 180
0 221 179
0 217 178
0 219 180
0 219 179
0 221 181
0 219 178
0 218 178
0 220 179
0 219 179
0 220 180
0 220 180
0 222 181
0 220 179
0 220 179
0 221 180
0 219 179
0 221 180
0 221 181
0 219 177
0 221 181
0 220 180
0 218 177
46 203 163
121 136 82
138 142 89
148 149 96
154 158 102
162 160 105
155 153 101
160 160 105
164 162 108
159 156 104
167 164 109
165 163 109
163 161 108
156 155 104
159 157 105
154 152 102
167 164 109
164 160 106
162 159 104
152 152 98
156 156 101
146 144 93
139 144 90
98 184 139
0 222 180
0 220 180
0 221 180
0 221 181
0 220 179
0 221 181
0 220 179
0 220 180
0 219 179
0 220 179
0 221 181
0 221 180
0 221 180
0 221 181
0 220 180
0 220 180
0 221 181
0 220 180
0 221 181
0 220 179
0 221 180
0 221 181
0 220 181
0 221 181
0 220 180
0 221 181
0 220 180
0 220 180
0 221 179
0 220 180
0 221 181
0 221 181
0 221 181
0 222 181
0 220 180
0 221 180
0 222 181
0 221 181
0 222 180
0 220 181
0 220 181
0 221 181
0 222 181
0 221 181
0 221 181
0 220 181
0 221 181
0 221 180
0 221 181
0 222 181
0 222 181
0 222 181
0 221 181
0 221 181
0 221 181
0 223 181
0 221 181
0 222 181
0 221 181
0 221 181
0 221 180
0 221 181
0 221 180
0 221 181
0 221 181
0 221 181
0 221 181
0 220 181
0 221 181
0 221 181
0 221 181
0 221 181
0 220 181
0 221 181
0 221 181
0 221 181
0 220 181
0 221 181
0 222 181
0 222 181
0 221 181
0 222 181
0 222 181
0 223 181
0 221 181
0 221 181
0 221 181
0 220 181
0 221 181
0 221 181
0 222 181
0 221 181
0 221 181
0 222 181
0 221 181
0 221 181
0 220 181
0 221 181
0 221 181
0 221 181
0 221 181
0 222 181
0 221 181
0 221 181
0 221 181
0 221 181
0 222 181
0 221 181
0 222 181
0 221 181
0 222 181
0 222 181
0 221 181
0 222 181
0 221 181
0 222 181
0 222 181
0 222 181
0 221 181
0 221 181
0 220 181
0 222 181
0 222 181
0 221 181
0 221 181
0 221 181
0 220 181
0 222 181
0 223 181
0 221 181
0 221 181
0 221 181
0 222 181
0 222 181
0 221 181
0 222 181
0 222 181
0 222 181
0 221 181
0 220 181
0 222 181
0 221 181
0 222 181
0 222 181
0 221 181
0 221 181
0 221 181
0 221 181
0 221 181
0 221 181
0 221 181
0 222 181
0 222 181
0 221 181
0 222 181
0 221 181
0 221 181
0 222 181
0 221 181
0 222 181
0 221 181
0 222 181
0 221 181
0 221 181
0 221 181
0 222 181
0 222 181
0 221 181
193 234 236
168 231 224
112 226 201
68 223 188
0 222 181
0 222 181
0 222 181
0 221 181
0 221 181
0 222 181
0 222 181
0 222 181
0 223 181
0 221 181
0 220 181
0 222 181
0 221 181
0 222 181
0 221 181
0 222 181
0 221 181
0 221 181
0 222 181
0 222 181
0 221 181
0 222 181
0 221 181
0 222 181
0 221 181
0 221 181
0 221 181
0 221 181
0 221 181
0 221 181
0 222 181
0 222 181
0 221 181
0 222 181
0 221 181
0 221 181
0 221 181
0 221 181
0 221 181
0 221 181
0 221 181
0 222 181
0 222 181
0 221 181
0 222 181
0 221 181
0 222 181
0 222 181
0 222 181
0 222 181
0 222 181
0 222 181
0 221 181
0 222 181
0 221 181
0 222 181
0 222 181
0 222 181
0 221 181
0 222 181
0 222 181
0 221 181
0 221 181
0 222 181
0 221 181
0 221 181
0 221 181
0 220 181
0 220 181
0 221 181
0 222 181
0 222 181
0 220 181
0 222 181
0 221 181
0 222 181
0 221 181
0 221 181
0 222 181
0 221 181
0 222 181
0 221 180
0 221 181
0 221 181
0 221 181
0 221 181
0 221 181
0 221 181
0 221 181
0 221 181
0 220 181
0 222 181
0 221 180
0 221 181
0 221 181
0 221 181
0 221 181
0 220 181
0 223 181
0 221 181
0 220 180
0 221 181
0 222 181
0 222 181
0 221 181
0 221 181
0 221 181
0 222 181
0 221 181
0 221 181
0 221 181
0 221 181
0 221 181
0 221 181
0 221 181
0 221 181
0 221 181
0 221 181
0 221 181
0 221 181
0 222 181
0 220 181
0 223 181
0 221 181
0 221 181
0 221 181
0 221 181
0 221 181
0 221 181
0 222 181
0 220 180
0 221 181
0 221 181
0 219 180
0 221 181
0 221 181
0 221 181
0 220 180
0 220 181
0 222 181
0 219 178
0 220 180
0 222 181
0 221 181
0 221 181
0 221 181
0 220 181
0 222 181
0 222 181
0 222 181
0 221 181
0 222 181
0 221 181
0 221 181
0 220 180
0 221 181
0 221 181
0 221 180
0 222 180
0 221 181
0 220 180
0 220 179
0 221 181
0 221 181
0 221 181
0 220 181
0 221 181
0 221 180
0 221 181
0 222 181
0 219 179
0 219 179
0 220 179
0 222 181
0 218 179
0 221 181
0 220 180
0 219 179
0 220 180
0 219 179
0 221 181
0 222 181
0 221 180
0 221 181
0 220 178
0 219 178
0 219 179
0 220 180
0 221 180
0 219 179
0 220 179
0 220 180
0 220 178
0 220 181
0 219 177
0 216 177
0 219 178
0 220 179
0 219 178
0 221 180
0 221 180
0 221 181
0 220 179
0 216 176
0 219 178
75 189 149
133 142 88
145 146 93
153 154 100
155 156 101
161 158 104
165 162 108
158 154 102
163 159 106
158 156 104
157 155 103
166 164 109
156 154 103
160 158 106
162 158 105
162 160 106
154 154 101
157 155 102
153 148 97
144 148 93
140 146 91
97 162 118
0 220 180
0 221 181
0 221 181
0 221 181
0 221 180
0 221 181
0 221 181
0 221 181
0 220 180
0 220 179
0 222 181
0 220 179
0 222 181
0 222 181
0 221 180
0 221 181
0 221 181
0 221 181
0 222 181
0 220 180
0 221 181
0 221 181
0 221 181
0 221 181
0 220 181
0 221 181
0 220 180
0 222 181
0 221 180
0 222 181
0 221 181
0 222 181
0 220 180
0 220 181
0 221 180
0 221 181
0 222 181
0 221 181
0 221 180
0 221 181
0 222 181
0 221 181
0 222 181
0 221 181
0 222 181
0 222 181
0 222 181
0 220 178
0 220 181
0 221 179
0 221 180
0 223 181
0 221 181
0 222 181
0 221 181
0 221 181
0 221 181
0 221 181
0 220 181
0 222 181
0 221 181
0 221 181
0 222 181
0 221 181
0 222 181
0 222 181
0 221 181
0 221 181
0 221 181
0 221 181
0 220 181
0 220 181
0 221 181
0 221 181
0 221 181
0 220 181
0 221 181
0 221 181
0 222 181
0 221 181
0 221 181
0 222 181
0 221 181
0 222 181
0 220 181
0 221 181
0 221 181
0 221 181
0 221 181
0 221 181
0 221 181
0 222 181
0 222 181
0 222 181
0 222 181
0 222 181
0 221 180
0 220 181
0 221 181
0 221 181
0 221 181
0 222 181
0 220 181
0 220 181
0 221 181
0 221 181
0 221 181
0 221 181
0 221 181
0 222 181
0 221 181
0 221 181
0 221 181
0 222 181
0 221 181
0 221 181
0 223 181
0 220 181
0 220 181
0 221 181
0 220 181
0 221 181
0 221 181
0 221 181
0 222 181
0 222 181
0 221 181
0 222 181
0 221 181
0 222 181
0 221 181
0 221 181
0 222 181
0 222 181
0 221 181
0 221 181
0 221 181
0 222 181
0 221 181
0 221 181
0 221 181
0 221 181
0 221 181
0 222 181
0 220 181
0 221 181
0 221 181
0 221 181
0 222 181
0 223 181
0 221 181
0 222 181
0 222 181
0 221 181
0 221 181
0 222 181
0 221 181
0 221 181
0 221 181
0 221 181
0 221 181
0 222 181
0 222 181
0 221 181
0 221 181
45 222 184
121 227 204
160 230 220
202 236 241
229 240 255
229 240 255
229 240 255
228 240 255
206 236 243
183 233 231
131 227 208
68 223 188
0 221 181
0 222 181
0 222 181
0 222 181
0 221 181
0 221 181
0 221 181
0 222 181
0 222 181
0 223 181
0 221 181
0 222 181
0 221 181
0 221 181
0 221 181
0 221 181
0 221 181
0 222 181
0 221 181
0 221 181
0 222 181
0 221 181
0 221 181
0 222 181
0 221 181
0 222 181
0 222 181
0 221 181
0 221 181
0 222 181
0 221 181
0 221 181
0 221 181
0 221 181
0 222 181
0 221 181
0 221 181
0 221 181
0 221 181
0 221 181
0 220 181
0 221 181
0 221 181
0 221 181
0 221 181
0 221 181
0 221 181
0 221 181
0 221 181
0 222 181
0 222 181
0 221 181
0 221 181
0 221 181
0 221 181
0 222 181
0 221 181
0 222 181
0 220 180
0 222 181
0 221 181
0 222 181
0 221 181
0 221 181
0 221 181
0 221 181
0 223 181
0 222 181
0 222 181
0 221 181
0 221 181
0 221 181
0 220 181
0 221 181
0 222 181
0 220 181
0 222 181
0 221 181
0 222 181
0 222 181
0 221 181
0 222 181
0 222 181
0 221 181
0 222 181
0 221 181
0 221 181
0 222 181
0 220 181
0 222 181
0 220 180
0 222 181
0 220 180
0 221 181
0 222 181
0 221 181
0 221 181
0 222 181
0 221 181
0 222 181
0 221 181
0 221 181
0 220 181
0 221 181
0 220 181
0 221 181
0 221 181
0 221 181
0 221 181
0 222 181
0 221 181
0 221 181
0 221 181
0 221 181
0 221 181
0 219 180
0 221 181
0 222 181
0 222 181
0 220 181
0 221 181
0 221 181
0 219 179
0 221 181
0 221 181
0 221 181
0 221 181
0 222 181
0 221 181
0 222 181
0 221 181
0 221 181
0 220 180
0 221 181
0 222 181
0 220 180
0 221 180
0 221 180
0 221 181
0 221 181
0 221 181
0 222 181
0 221 181
0 219 180
0 220 181
0 219 180
0 220 180
0 220 181
0 222 181
0 221 181
0 222 181
0 220 180
0 220 181
0 220 179
0 221 180
0 221 181
0 220 180
0 221 181
0 221 181
0 221 181
0 220 180
0 221 181
0 222 181
0 219 180
0 221 181
0 220 179
0 219 179
0 222 180
0 219 178
0 221 181
0 221 181
0 219 179
0 221 181
0 220 179
0 221 181
0 221 181
0 220 180
0 220 180
0 222 181
0 220 180
0 219 179
0 220 179
0 220 180
0 219 180
0 221 181
0 220 180
0 221 180
0 221 180
0 221 180
0 220 180
0 221 180
0 221 181
0 220 178
0 221 181
0 220 179
0 220 180
0 219 179
0 220 179
0 220 180
0 220 181
0 219 179
0 219 177
80 188 146
119 136 84
138 146 91
158 157 101
157 152 100
154 150 99
159 155 103
160 157 104
159 157 105
159 157 104
155 152 101
157 155 103
156 152 101
159 155 103
161 159 105
155 154 101
145 141 93
141 140 90
140 144 90
117 163 120
0 218 178
0 220 180
0 221 180
0 221 181
0 221 181
0 222 181
0 221 180
0 222 181
0 221 181
0 221 181
0 221 180
0 222 181
0 222 180
0 218 179
0 219 178
0 221 180
0 221 181
0 220 181
0 221 181
0 222 181
0 221 181
0 220 181
0 222 181
0 221 180
0 219 179
0 221 181
0 221 181
0 222 181
0 221 180
0 221 181
0 221 181
0 221 181
0 223 181
0 221 181
0 221 180
0 221 180
0 221 181
0 221 181
0 221 181
0 221 179
0 222 181
0 222 181
0 221 181
0 222 181
0 222 181
0 222 181
0 222 181
0 221 181
0 221 181
0 222 181
0 221 181
0 220 181
0 221 181
0 221 181
0 222 181
0 221 181
0 223 181
0 221 181
0 221 181
0 220 180
0 221 181
0 221 181
0 221 181
0 221 181
0 221 181
0 222 181
0 221 181
0 222 181
0 221 181
0 220 181
0 222 181
0 222 181
0 221 181
0 221 181
0 221 181
0 221 181
0 222 181
0 221 180
0 222 181
0 221 181
0 221 181
0 221 181
0 221 181
0 222 181
0 221 181
0 221 181
0 221 181
0 222 181
0 221 181
0 220 181
0 220 181
0 222 181
0 222 181
0 221 181
0 221 181
0 223 181
0 220 181
0 222 181
0 222 181
0 220 181
0 222 181
0 222 181
0 221 181
0 222 181
0 221 181
0 222 181
0 221 181
0 221 181
0 221 181
0 222 181
0 222 181
0 222 181
0 222 181
0 221 181
0 221 181
0 221 181
0 222 181
0 222 181
0 221 181
0 222 181
0 222 181
0 221 181
0 222 181
0 222 181
0 221 181
0 222 181
0 220 181
0 222 181
0 221 181
0 222 181
0 221 181
0 222 181
0 220 181
0 221 181
0 220 181
0 222 181
0 221 181
0 221 181
0 221 181
0 221 181
0 221 181
0 221 181
0 221 181
0 221 181
0 221 181
0 221 181
0 221 181
0 222 181
0 221 181
0 221 181
0 222 181
0 221 181
0 222 181
0 221 181
0 222 181
0 221 181
0 221 181
0 221 181
0 221 181
0 221 181
0 221 181
0 221 181
94 225 195
133 228 209
179 233 229
203 236 242
229 240 255
229 240 255
229 240 255
229 240 255
228 240 255
229 240 255
229 240 255
229 240 255
229 240 255
229 240 255
229 240 255
229 240 255
219 239 250
194 235 237
146 229 214
102 225 198
39 222 183
0 221 181
0 221 181
0 222 181
0 221 181
0 222 181
0 221 181
0 223 181
0 220 181
0 221 181
0 222 181
0 221 181
0 221 181
0 221 181
0 221 181
0 221 181
0 221 181
0 223 181
0 221 181
0 221 181
0 221 181
0 221 181
0 222 181
0 221 181
0 220 181
0 221 181
0 222 181
0 222 181
0 222 181
0 221 181
0 221 181
0 222 181
0 221 181
0 221 181
0 222 181
0 221 181
0 221 181
0 221 181
0 221 181
0 221 181
0 220 181
0 221 181
0 222 181
0 221 181
0 222 181
0 221 181
0 221 181
0 222 181
0 221 181
0 222 181
0 221 181
0 221 181
0 222 181
0 221 181
0 221 181
0 221 181
0 222 181
0 221 181
0 220 181
0 222 181
0 221 181
0 222 181
0 222 181
0 222 181
0 221 181
0 221 181
0 220 181
0 221 181
0 221 181
0 221 181
0 222 181
0 220 181
0 222 181
0 221 181
0 221 181
0 221 181
0 221 181
0 221 181
0 221 181
0 221 181
0 221 181
0 221 181
0 221 181
0 222 181
0 221 181
0 223 181
0 221 181
0 221 181
0 221 181
0 221 181
0 221 181
0 221 181
0 221 181
0 221 181
0 221 181
0 221 181
0 222 181
0 221 181
0 222 181
0 221 181
0 221 181
0 221 181
0 221 181
0 221 181
0 222 181
0 221 181
0 220 181
0 221 181
0 221 181
0 222 181
0 220 181
0 221 181
0 221 181
0 222 181
0 221 181
0 221 181
0 221 181
0 221 181
0 221 181
0 220 181
0 222 181
0 222 181
0 221 181
0 220 180
0 221 180
0 221 181
0 221 181
0 221 181
0 222 181
0 221 181
0 221 181
0 221 181
0 222 181
0 221 181
0 221 181
0 221 181
0 221 181
0 221 181
0 222 181
0 219 180
0 220 180
0 221 181
0 220 180
0 221 181
0 221 181
0 220 181
0 221 181
0 221 181
0 221 181
0 221 181
0 221 181
0 222 181
0 222 181
0 222 181
0 222 181
0 220 181
0 221 181
0 220 180
0 220 179
0 221 180
0 220 180
0 221 181
0 222 181
0 221 180
0 221 181
0 220 180
0 221 181
0 221 181
0 218 178
0 221 180
0 218 178
0 220 180
0 220 181
0 220 180
0 219 180
0 219 179
0 219 180
0 221 181
0 221 180
0 220 181
0 219 178
0 219 179
0 221 181
0 219 179
0 221 180
0 218 179
0 220 178
0 216 177
0 221 181
0 221 178
0 221 180
0 219 179
0 220 180
0 218 179
0 219 179
0 219 178
0 220 179
0 220 180
0 220 180
68 207 164
126 148 97
138 137 88
146 145 93
159 155 102
156 153 100
158 154 102
154 151 100
154 151 101
150 147 98
153 150 99
150 146 97
158 154 103
148 144 95
138 134 88
160 153 100
131 138 87
84 174 136
26 220 179
0 221 180
0 222 181
0 222 181
0 221 180
0 220 178
0 220 180
0 221 181
0 220 180
0 221 181
0 221 181
0 221 180
0 221 181
0 222 181
0 219 180
0 221 181
0 220 179
0 221 181
0 221 180
0 221 181
0 220 180
0 220 179
0 220 179
0 221 181
0 221 181
0 220 180
0 220 180
0 222 181
0 221 180
0 220 180
0 221 181
0 222 181
0 221 181
0 220 180
0 222 180
0 221 181
0 221 181
0 222 181
0 222 181
0 222 181
0 222 181
0 221 181
0 222 181
0 221 181
0 222 181
0 221 181
0 222 181
0 221 181
0 221 181
0 222 181
0 221 181
0 221 181
0 221 181
0 221 181
0 221 181
0 221 181
0 220 180
0 222 181
0 223 181
0 221 181
0 221 181
0 221 181
0 221 181
0 221 181
0 222 181
0 221 181
0 221 181
0 221 181
0 221 181
0 223 181
0 221 181
0 221 181
0 220 181
0 221 181
0 220 181
0 221 181
0 221 181
0 221 181
0 222 181
0 221 181
0 221 181
0 222 181
0 222 181
0 220 181
0 222 181
0 222 181
0 221 181
0 221 181
0 221 181
0 221 181
0 222 181
0 222 181
0 221 181
0 220 181
0 221 181
0 221 181
0 221 181
0 221 181
0 222 181
0 221 181
0 221 181
0 221 181
0 222 181
0 221 181
0 221 181
0 222 181
0 222 181
0 222 181
0 223 181
0 221 181
0 222 181
0 222 181
0 221 181
0 221 181
0 220 181
0 221 181
0 222 181
0 221 181
0 222 181
0 222 181
0 222 181
0 220 181
0 221 181
0 222 181
0 222 181
0 221 181
0 221 181
0 222 181
0 221 181
0 221 181
0 221 181
0 221 181
0 222 181
0 222 181
0 221 181
0 222 181
0 221 181
0 221 181
0 221 181
0 221 181
0 222 181
0 221 181
0 221 181
0 221 181
0 221 181
0 221 181
0 221 181
0 220 181
0 222 181
0 222 181
0 222 181
0 222 181
0 222 181
0 220 181
0 221 181
0 222 181
0 222 181
0 221 181
22 222 181
109 225 200
157 230 219
189 234 234
222 239 252
229 240 255
229 240 255
229 240 255
229 240 255
229 240 255
229 240 255
229 240 255
228 240 255
228 240 255
228 240 255
228 240 255
228 240 255
228 240 255
229 240 255
229 240 255
229 240 255
229 240 255
229 240 255
229 240 255
229 240 255
226 239 254
203 236 242
157 231 219
123 226 205
45 222 184
0 222 181
0 221 181
0 221 181
0 221 181
0 220 181
0 222 181
0 221 181
0 222 181
0 221 181
0 221 181
0 221 181
0 222 181
0 221 181
0 221 181
0 221 181
0 222 181
0 221 181
0 221 181
0 222 181
0 223 181
0 221 181
0 221 181
0 221 181
0 222 181
0 221 181
0 221 181
0 222 181
0 221 181
0 221 181
0 221 181
0 221 181
0 222 181
0 221 181
0 222 181
0 221 181
0 221 181
0 222 181
0 221 181
0 221 181
0 222 181
0 222 181
0 222 181
0 222 181
0 222 181
0 222 181
0 222 181
0 222 181
0 221 181
0 222 181
0 222 181
0 221 181
0 221 181
0 221 181
0 223 181
0 220 180
0 221 181
0 221 181
0 221 181
0 221 181
0 221 181
0 221 181
0 222 181
0 220 181
0 221 181
0 221 181
0 220 181
0 222 181
0 222 181
0 221 181
0 221 181
0 220 181
0 221 181
0 222 181
0 220 181
0 222 181
0 222 181
0 221 181
0 221 181
0 222 181
0 220 181
0 221 181
0 220 181
0 222 181
0 221 181
0 222 181
0 221 181
0 221 181
0 221 181
0 222 181
0 222 181
0 221 181
0 221 181
0 221 181
0 222 181
0 221 181
0 222 181
0 220 181
0 222 181
0 221 181
0 221 181
0 221 181
0 222 181
0 222 181
0 221 181
0 221 181
0 221 181
0 221 181
0 221 181
0 221 181
0 221 181
0 221 181
0 221 181
0 221 181
0 221 181
0 220 181
0 220 181
0 220 181
0 221 181
0 222 181
0 220 179
0 221 181
0 221 181
0 222 181
0 221 181
0 220 180
0 221 181
0 220 181
0 221 180
0 221 181
0 221 181
0 221 181
0 221 181
0 221 180
0 221 181
0 222 181
0 220 180
0 221 181
0 220 181
0 221 181
0 221 181
0 221 181
0 221 181
0 221 181
0 220 179
0 222 181
0 221 180
0 222 181
0 221 180
0 222 180
0 221 181
0 221 181
0 222 181
0 219 180
0 221 181
0 221 181
0 220 180
0 219 178
0 221 181
0 221 180
0 219 179
0 219 180
0 222 181
0 221 181
0 220 180
0 220 180
0 220 179
0 220 180
0 219 179
0 220 180
0 220 179
0 221 181
0 221 181
0 219 179
0 221 181
0 221 180
0 220 179
0 219 178
0 221 181
0 221 181
0 221 181
0 221 180
0 220 180
0 221 181
0 218 179
0 219 179
0 220 180
0 220 180
0 222 180
0 221 180
0 220 180
0 219 179
0 221 181
0 221 181
0 221 180
0 221 179
27 219 178
100 186 141
128 144 98
136 136 87
145 144 93
149 143 94
158 154 101
149 145 95
150 145 95
151 147 97
152 147 96
137 134 88
156 150 98
146 145 94
101 161 119
67 208 167
0 222 181
0 221 181
0 220 180
0 221 181
0 221 181
0 220 180
0 222 181
0 220 179
0 221 181
0 221 181
0 221 181
0 222 181
0 220 181
0 221 181
0 221 181
0 220 179
0 221 179
0 221 181
0 221 181
0 221 181
0 222 181
0 221 181
0 221 181
0 221 180
0 221 180
0 220 180
0 220 181
0 222 181
0 222 181
0 222 181
0 221 181
0 221 181
0 220 181
0 222 181
0 220 180
0 221 181
0 220 181
0 222 181
0 221 181
0 221 181
0 220 181
0 221 181
0 221 181
0 222 181
0 221 180
0 222 181
0 221 180
0 222 181
0 221 181
0 221 181
0 221 181
0 221 181
0 221 181
0 222 181
0 221 181
0 222 181
0 221 181
0 221 181
0 222 181
0 222 181
0 221 181
0 220 181
0 221 181
0 221 181
0 221 181
0 221 181
0 221 181
0 222 181
0 222 181
0 222 181
0 221 181
0 221 181
0 220 180
0 220 181
0 221 181
0 221 181
0 221 181
0 221 181
0 221 181
0 221 181
0 222 181
0 221 181
0 221 180
0 222 181
0 220 181
0 221 181
0 220 181
0 221 181
0 222 181
0 222 181
0 221 181
0 221 181
0 222 181
0 221 181
0 222 181
0 221 181
0 222 181
0 221 181
0 221 181
0 221 181
0 222 181
0 222 181
0 221 181
0 221 181
0 222 181
0 221 181
0 222 181
0 221 181
0 221 181
0 221 181
0 221 181
0 222 181
0 221 181
0 222 181
0 222 181
0 221 181
0 221 181
0 221 181
0 221 181
0 220 181
0 221 181
0 220 181
0 221 181
0 221 181
0 221 181
0 222 181
0 222 181
0 222 181
0 222 181
0 222 181
0 221 181
0 221 181
0 222 181
0 222 181
0 221 181
0 221 181
0 221 181
0 222 181
0 222 181
0 221 181
0 222 181
0 222 181
0 221 181
0 222 181
0 222 181
0 221 181
0 222 181
0 221 181
0 221 181
0 221 181
0 222 181
0 221 181
0 221 181
0 222 181
0 222 181
76 223 190
139 228 211
173 232 226
206 236 243
225 239 254
229 240 255
229 240 255
229 240 255
229 240 255
229 240 255
229 240 255
229 240 255
228 240 255
228 240 255
228 240 255
228 240 255
228 240 255
228 240 255
228 240 255
228 240 255
228 240 255
228 240 255
228 240 255
228 240 255
228 240 255
228 240 255
228 240 255
229 240 255
229 240 255
229 240 255
229 240 255
229 240 255
229 240 255
228 240 255
207 237 244
189 234 234
148 230 215
79 224 191
0 221 181
0 223 181
0 221 181
0 222 181
0 220 181
0 221 181
0 221 181
0 222 181
0 222 181
0 221 181
0 221 181
0 222 181
0 221 181
0 222 181
0 222 181
0 221 181
0 222 181
0 221 181
0 222 181
0 221 181
0 221 181
0 222 181
0 221 181
0 222 181
0 222 181
0 221 181
0 221 181
0 221 181
0 222 181
0 221 181
0 222 181
0 221 181
0 223 181
0 222 181
0 222 181
0 221 181
0 222 181
0 220 181
0 220 181
0 221 181
0 221 181
0 221 181
0 222 181
0 222 181
0 220 181
0 221 181
0 222 181
0 221 181
0 221 181
0 221 181
0 221 181
0 222 181
0 221 181
0 221 181
0 221 181
0 220 179
0 221 181
0 222 181
0 221 181
0 221 181
0 221 181
0 222 181
0 221 181
0 221 181
0 221 181
0 221 181
0 221 181
0 221 181
0 222 181
0 221 181
0 221 181
0 221 181
0 222 181
0 221 181
0 222 181
0 221 181
0 221 181
0 221 181
0 221 181
0 222 181
0 223 181
0 222 181
0 221 181
0 221 181
0 221 181
0 221 181
0 222 181
0 220 181
0 221 181
0 221 181
0 222 181
0 222 181
0 222 181
0 221 181
0 220 180
0 222 181
0 222 181
0 221 181
0 222 181
0 221 181
0 221 181
0 222 181
0 220 180
0 222 181
0 220 181
0 221 181
0 222 181
0 221 181
0 221 181
0 221 181
0 221 181
0 221 181
0 221 181
0 221 181
0 221 181
0 221 181
0 221 181
0 222 181
0 221 181
0 222 181
0 222 181
0 220 180
0 221 181
0 222 181
0 221 181
0 221 181
0 220 181
0 220 180
0 221 179
0 222 181
0 221 181
0 220 180
0 220 181
0 221 181
0 222 181
0 221 181
0 220 180
0 222 181
0 222 181
0 221 181
0 220 180
0 221 181
0 221 181
0 221 181
0 221 181
0 220 180
0 221 181
0 221 181
0 220 180
0 221 180
0 221 180
0 221 181
0 220 179
0 221 181
0 221 180
0 222 180
0 220 180
0 219 179
0 222 181
0 219 179
0 221 181
0 221 180
0 221 181
0 219 180
0 220 180
0 220 181
0 219 179
0 220 181
0 221 181
0 219 179
0 221 181
0 221 181
0 220 179
0 220 179
0 221 181
0 221 181
0 218 178
0 221 181
0 220 178
0 220 180
0 221 181
0 221 180
0 221 181
0 221 180
0 221 180
0 219 180
0 220 181
0 220 180
0 220 180
0 221 181
0 221 181
0 220 180
0 221 181
42 217 176
82 197 154
113 175 129
128 150 103
141 137 88
140 135 88
141 139 89
145 140 91
149 148 97
108 159 117
74 183 144
57 207 166
0 220 180
0 220 180
0 221 181
0 222 181
0 222 181
0 221 181
0 220 181
0 221 181
0 221 180
0 221 181
0 221 181
0 221 180
0 221 181
0 221 181
0 220 181
0 220 180
0 222 181
0 221 181
0 222 181
0 221 181
0 221 181
0 221 181
0 221 181
0 221 181
0 222 181
0 221 181
0 220 180
0 221 181
0 222 181
0 222 181
0 221 181
0 222 181
0 221 181
0 222 181
0 220 181
0 221 181
0 221 181
0 220 181
0 222 181
0 220 181
0 221 181
0 221 181
0 221 181
0 221 181
0 221 181
0 222 181
0 222 181
0 221 181
0 222 181
0 222 181
0 222 181
0 222 181
0 221 181
0 222 181
0 221 180
0 221 181
0 221 181
0 221 181
0 221 181
0 221 181
0 221 181
0 221 181
0 221 181
0 221 181
0 222 181
0 221 181
0 221 181
0 222 181
0 221 181
0 222 181
0 221 181
0 222 181
0 221 181
0 220 181
0 221 181
0 221 181
0 222 181
0 222 181
0 221 181
0 221 181
0 222 181
0 221 181
0 221 181
0 222 181
0 221 181
0 222 181
0 221 181
0 221 181
0 221 181
0 222 181
0 221 181
0 222 181
0 221 181
0 221 181
0 222 181
0 222 181
0 221 181
0 221 181
0 222 181
0 221 181
0 222 181
0 220 181
0 220 181
0 221 181
0 221 181
0 220 181
0 222 181
0 221 181
0 221 181
0 221 181
0 221 181
0 221 181
0 220 181
0 221 181
0 221 181
0 221 181
0 221 181
0 222 181
0 222 181
0 221 181
0 220 181
0 221 181
0 221 181
0 221 181
0 222 181
0 221 181
0 221 181
0 221 181
0 221 181
0 221 181
0 220 181
0 222 181
0 220 181
0 221 181
0 221 181
0 222 181
0 222 181
0 221 181
0 222 181
0 222 181
0 221 181
0 221 181
0 221 181
0 222 181
0 221 181
0 221 181
0 222 181
0 221 181
0 221 181
0 222 181
0 222 181
0 221 181
0 221 181
105 226 199
152 230 217
177 233 228
214 238 248
229 240 255
229 240 255
229 240 255
229 240 255
229 240 255
229 240 255
228 240 255
228 240 255
228 240 255
228 240 255
228 240 255
228 240 255
228 240 255
228 240 255
228 240 255
228 240 255
228 240 255
228 239 255
228 239 255
228 239 255
228 239 255
228 239 255
228 240 255
228 240 255
228 240 255
228 240 255
228 240 255
228 240 255
228 240 255
228 240 255
228 240 255
228 240 255
229 240 255
229 240 255
229 240 255
229 240 255
229 240 255
229 240 255
222 239 252
187 233 233
146 230 214
94 225 195
60 223 187
0 223 181
0 221 181
0 222 181
0 222 181
0 221 181
0 221 181
0 221 181
0 221 181
0 222 181
0 221 181
0 221 181
0 221 181
0 222 181
0 221 181
0 221 181
0 222 181
0 222 181
0 221 181
0 221 181
0 221 181
0 222 181
0 222 181
0 220 181
0 220 181
0 222 181
0 221 181
0 221 181
0 222 181
0 222 181
0 222 181
0 220 181
0 222 181
0 222 181
0 221 181
0 221 181
0 222 181
0 221 181
0 221 181
0 222 181
0 222 181
0 221 181
0 221 181
0 222 181
0 222 181
0 221 181
0 222 181
0 221 181
0 221 181
0 222 181
0 222 181
0 220 180
0 221 181
0 222 181
0 222 181
0 221 181
0 222 181
0 221 181
0 222 181
0 221 181
0 220 181
0 222 181
0 221 181
0 221 181
0 222 181
0 221 181
0 221 181
0 221 181
0 221 181
0 222 181
0 222 181
0 221 181
0 221 181
0 221 181
0 222 181
0 221 181
0 222 181
0 221 181
0 222 181
0 221 181
0 221 181
0 221 181
0 221 180
0 221 181
0 221 181
0 221 181
0 221 181
0 221 181
0 221 181
0 222 181
0 221 181
0 221 181
0 221 181
0 221 181
0 222 181
0 222 181
0 221 181
0 222 181
0 222 181
0 222 181
0 222 181
0 221 180
0 222 181
0 221 181
0 220 180
0 221 181
0 222 181
0 222 181
0 221 181
0 222 181
0 222 181
0 221 181
0 221 180
0 221 181
0 220 180
0 221 181
0 221 181
0 221 181
0 218 179
0 221 181
0 222 181
0 221 181
0 221 181
0 221 180
0 221 181
0 222 181
0 221 181
0 222 181
0 220 181
0 222 181
0 221 180
0 221 181
0 221 181
0 221 181
0 222 181
0 220 180
0 219 178
0 221 181
0 221 181
0 222 181
0 221 181
0 222 181
0 221 181
0 220 180
0 220 180
0 221 181
0 221 181
0 222 181
0 221 181
0 221 181
0 221 181
0 220 180
0 222 181
0 221 181
0 221 181
0 219 179
0 221 181
0 220 181
0 220 180
0 221 181
0 220 179
0 221 181
0 219 179
0 221 181
0 220 179
0 221 181
0 220 180
0 220 178
0 221 180
0 222 181
0 221 181
0 220 180
0 221 181
0 221 180
0 220 179
0 221 181
0 220 181
0 221 181
0 221 181
0 219 179
0 221 181
0 220 179
0 221 181
0 220 179
0 219 178
0 221 181
0 220 179
0 219 177
0 219 179
0 221 180
0 221 179
0 222 181
0 220 179
0 219 178
37 211 170
57 210 169
36 217 176
18 221 180
0 220 180
0 221 179
0 221 180
0 220 178
0 221 181
0 221 180
0 222 181
0 221 181
0 222 181
0 219 179
0 221 181
0 220 179
0 221 181
0 222 181
0 220 181
0 220 180
0 220 178
0 221 180
0 220 181
0 221 181
0 222 181
0 221 181
0 221 179
0 221 181
0 222 181
0 220 181
0 221 181
0 221 181
0 221 181
0 221 181
0 221 181
0 221 181
0 221 181
0 222 181
0 221 181
0 220 181
0 221 181
0 222 181
0 222 181
0 221 181
0 221 181
0 220 180
0 221 181
0 222 181
0 221 180
0 221 181
0 220 181
0 221 181
0 221 181
0 223 181
0 221 181
0 221 181
0 222 181
0 221 181
0 220 181
0 222 181
0 220 181
0 222 181
0 222 181
0 222 181
0 221 181
0 221 181
0 222 181
0 221 181
0 221 181
0 221 181
0 220 181
0 221 181
0 221 181
0 221 181
0 221 181
0 222 181
0 222 181
0 220 181
0 222 181
0 222 181
0 222 181
0 221 181
0 220 181
0 221 181
0 221 181
0 222 181
0 221 181
0 222 181
0 220 181
0 221 181
0 221 181
0 222 181
0 220 181
0 222 181
0 222 181
0 221 181
0 222 181
0 221 181
0 222 181
0 221 181
0 220 181
0 222 181
0 221 181
0 220 181
0 220 181
0 220 181
0 222 181
0 220 181
0 222 181
0 221 181
0 221 181
0 221 181
0 222 181
0 221 181
0 222 181
0 221 181
0 222 181
0 222 181
0 221 181
0 222 181
0 222 181
0 221 181
0 220 181
0 221 181
0 222 181
0 221 181
0 221 181
0 222 181
0 222 181
0 222 181
0 222 181
0 221 181
0 221 181
0 221 181
0 220 181
0 221 181
0 222 181
0 222 181
0 222 181
0 221 181
0 222 181
0 221 181
0 221 181
0 221 181
0 222 181
0 222 181
0 222 181
0 221 181
0 222 181
0 222 181
0 220 181
0 222 181
0 221 181
0 222 181
0 221 181
45 223 184
116 226 203
153 229 217
194 235 237
221 238 251
229 240 255
229 240 255
229 240 255
229 240 255
229 240 255
229 240 255
228 240 255
228 240 255
228 240 255
228 240 255
228 240 255
228 240 255
228 240 255
228 240 255
228 240 255
228 240 255
228 239 255
228 239 255
228 239 255
228 239 255
228 239 255
228 239 255
228 239 255
228 239 255
228 239 255
228 239 255
228 239 255
228 239 255
228 239 255
228 239 255
228 239 255
228 240 255
228 240 255
228 240 255
228 240 255
228 240 255
228 240 255
228 240 255
228 240 255
228 240 255
228 240 255
229 240 255
229 240 255
229 240 255
229 240 255
229 240 255
226 239 254
211 237 246
173 232 226
146 229 214
91 224 194
0 221 181
0 222 181
0 221 181
0 221 181
0 221 181
0 221 181
0 221 181
0 221 181
0 221 181
0 221 181
0 221 181
0 220 181
0 221 181
0 221 181
0 222 181
0 222 181
0 222 181
0 221 181
0 221 181
0 221 181
0 222 181
0 221 181
0 221 181
0 221 181
0 222 181
0 221 181
0 221 181
0 221 181
0 221 181
0 221 181
0 221 181
0 221 181
0 221 181
0 221 181
0 221 181
0 222 181
0 222 181
0 220 181
0 221 181
0 222 181
0 222 181
0 220 181
0 221 181
0 222 181
0 221 181
0 221 181
0 221 181
0 221 181
0 221 181
0 221 181
0 222 181
0 222 181
0 222 181
0 222 181
0 221 181
0 221 181
0 222 181
0 221 181
0 222 181
0 222 181
0 221 181
0 222 181
0 222 181
0 221 181
0 222 181
0 221 181
0 222 181
0 222 181
0 222 181
0 221 181
0 221 181
0 222 181
0 221 181
0 220 181
0 221 181
0 221 181
0 221 181
0 221 181
0 221 181
0 222 181
0 221 181
0 221 181
0 222 181
0 221 181
0 222 181
0 221 181
0 222 181
0 221 181
0 221 181
0 221 181
0 220 181
0 220 180
0 222 181
0 221 181
0 221 181
0 221 181
0 221 181
0 221 181
0 221 181
0 220 181
0 221 181
0 221 181
0 221 181
0 221 181
0 221 181
0 222 181
0 221 181
0 220 181
0 221 181
0 221 181
0 221 181
0 221 181
0 221 181
0 221 181
0 222 181
0 222 181
0 222 181
0 219 180
0 221 180
0 222 181
0 220 181
0 221 181
0 221 181
0 221 180
0 222 181
0 221 181
0 220 180
0 221 181
0 219 180
0 221 181
0 222 181
0 222 181
0 221 180
0 221 181
0 221 181
0 221 181
0 221 181
0 222 181
0 222 181
0 220 180
0 222 181
0 222 181
0 222 181
0 221 181
0 222 181
0 222 181
0 222 181
0 221 181
0 220 180
0 221 181
0 220 180
0 220 180
0 220 181
0 221 181
0 218 179
0 221 180
0 220 180
0 221 180
0 221 181
0 221 181
0 220 180
0 222 181
0 221 181
0 220 180
0 220 181
0 221 181
0 220 180
0 219 179
0 222 181
0 222 180
0 221 181
0 221 181
0 220 179
0 221 181
0 221 180
0 221 181
0 220 181
0 222 181
0 221 180
0 219 179
0 220 180
0 219 179
0 219 180
0 220 181
0 220 181
0 221 181
0 220 180
0 221 180
0 221 179
0 221 181
0 220 179
0 220 180
0 221 180
0 219 179
0 222 181
0 220 180
0 222 181
0 221 181
0 221 181
0 221 181
0 221 181
0 220 181
0 221 181
0 221 180
0 223 181
0 219 178
0 220 181
0 221 180
0 221 181
0 221 180
0 222 181
0 221 181
0 221 181
0 221 181
0 221 180
0 221 181
0 221 181
0 222 181
0 220 180
0 223 181
0 221 181
0 221 181
0 222 181
0 221 181
0 222 181
0 221 181
0 221 181
0 221 181
0 221 181
0 221 180
0 221 181
0 221 181
0 221 181
0 220 181
0 221 181
0 222 181
0 221 181
0 221 181
0 222 181
0 222 181
0 222 181
0 221 181
0 221 181
0 221 181
0 221 181
0 221 180
0 221 181
0 221 181
0 221 181
0 220 180
0 221 181
0 220 181
0 222 181
0 221 181
0 221 181
0 222 181
0 221 181
0 221 181
0 222 181
0 221 181
0 221 181
0 220 181
0 222 181
0 221 181
0 221 181
0 222 181
0 220 181
0 221 181
0 221 181
0 221 181
0 220 181
0 221 181
0 221 181
0 221 181
0 220 181
0 222 181
0 221 181
0 222 181
0 222 181
0 222 181
0 221 181
0 221 181
0 221 181
0 221 181
0 221 181
0 220 180
0 221 181
0 221 181
0 221 181
0 221 181
0 220 180
0 222 181
0 222 181
0 222 181
0 222 181
0 222 181
0 222 181
0 221 181
0 220 181
0 222 181
0 221 181
0 221 181
0 222 181
0 221 181
0 221 181
0 220 181
0 221 181
0 221 181
0 222 181
0 221 181
0 221 181
0 220 181
0 221 181
0 222 181
0 222 181
0 221 181
0 222 181
0 222 181
0 221 181
0 221 181
0 221 181
0 222 181
0 221 181
0 221 181
0 222 181
0 222 181
0 221 181
0 222 181
0 222 181
0 221 181
0 222 181
0 222 181
0 221 181
0 221 181
0 222 181
0 222 181
0 222 181
0 222 181
0 221 181
0 221 181
85 224 193
127 228 207
173 232 226
206 236 243
229 240 255
229 240 255
229 240 255
229 240 255
229 240 255
229 240 255
228 240 255
228 240 255
228 240 255
228 240 255
228 240 255
228 240 255
228 240 255
228 240 255
228 240 255
228 240 255
228 239 255
228 239 255
228 239 255
228 239 255
228 239 255
228 239 255
228 239 255
228 239 255
228 239 255
228 239 255
228 239 255
228 239 255
228 239 255
228 239 255
228 239 255
228 239 255
228 239 255
228 239 255
228 239 255
228 239 255
228 239 255
228 239 255
228 239 255
228 239 255
228 239 255
228 240 255
228 240 255
228 240 255
228 240 255
228 240 255
228 240 255
228 240 255
228 240 255
228 240 255
228 240 255
228 240 255
229 240 255
229 240 255
229 240 255
229 240 255
220 239 251
197 235 238
168 232 224
127 227 207
39 222 183
0 221 181
0 222 181
0 221 181
0 222 181
0 222 181
0 221 181
0 222 181
0 221 181
0 221 181
0 221 181
0 221 181
0 221 181
0 222 181
0 221 181
0 222 181
0 221 181
0 222 181
0 222 181
0 220 181
0 221 181
0 222 181
0 221 181
0 222 181
0 222 181
0 221 181
0 221 181
0 221 181
0 221 181
0 221 181
0 222 181
0 222 181
0 221 181
0 220 181
0 222 181
0 220 181
0 222 181
0 222 181
0 221 181
0 222 181
0 221 181
0 220 181
0 221 181
0 221 181
0 222 181
0 220 181
0 222 181
0 222 181
0 221 181
0 221 181
0 222 181
0 221 181
0 221 181
0 221 181
0 221 180
0 221 181
0 222 181
0 221 181
0 222 181
0 221 181
0 221 181
0 221 181
0 222 181
0 221 181
0 220 181
0 222 181
0 221 181
0 221 181
0 221 181
0 222 181
0 222 181
0 221 181
0 221 181
0 221 181
0 221 181
0 222 181
0 220 181
0 221 181
0 221 181
0 221 181
0 221 181
0 221 181
0 221 181
0 222 181
0 221 180
0 221 181
0 221 181
0 222 181
0 222 181
0 221 181
0 222 181
0 221 181
0 221 181
0 222 181
0 221 181
0 221 181
0 221 181
0 221 181
0 220 181
0 221 181
0 221 181
0 222 181
0 221 181
0 222 181
0 222 181
0 221 181
0 221 181
0 222 181
0 221 181
0 221 181
0 221 181
0 220 181
0 220 181
0 221 181
0 222 181
0 221 181
0 221 181
0 222 181
0 221 181
0 222 181
0 221 181
0 220 181
0 221 181
0 222 181
0 221 181
0 221 181
0 221 181
0 221 181
0 221 180
0 221 181
0 220 181
0 221 181
0 221 181
0 222 181
0 221 181
0 220 180
0 222 181
0 221 181
0 222 181
0 221 181
0 221 181
0 221 180
0 221 181
0 221 180
0 221 181
0 220 181
0 221 180
0 221 181
0 221 181
0 220 181
0 222 181
0 221 181
0 221 181
0 220 181
0 221 181
0 220 180
0 221 181
0 222 180
0 220 180
0 222 181
0 220 180
0 221 181
0 221 180
0 221 181
0 220 180
0 220 180
0 220 180
0 220 180
0 221 181
0 221 181
0 221 180
0 220 180
0 221 181
0 221 181
0 222 181
0 220 180
0 221 181
0 221 181
0 221 180
0 220 180
0 221 180
0 221 180
0 221 180
0 220 179
0 221 181
0 221 181
0 221 181
0 221 181
0 220 181
0 221 181
0 220 181
0 222 181
0 220 181
0 222 181
0 221 181
0 221 181
0 222 181
0 221 181
0 220 181
0 221 181
0 222 181
0 221 179
0 221 181
0 221 181
0 221 181
0 222 181
0 221 181
0 222 181
0 221 181
0 221 181
0 222 181
0 221 181
0 220 180
0 221 181
0 221 181
0 221 181
0 221 181
0 221 180
0 222 180
0 221 181
0 223 181
0 221 181
0 221 179
0 221 181
0 221 181
0 220 181
0 221 181
0 221 181
0 221 181
0 221 181
0 221 181
0 221 181
0 221 181
0 222 181
0 221 181
0 221 181
0 221 181
0 221 181
0 221 181
0 221 181
0 222 181
0 221 180
0 222 181
0 221 181
0 221 181
0 221 181
0 221 181
0 221 181
0 221 181
0 222 181
0 221 181
0 221 181
0 220 180
0 221 181
0 221 181
0 221 181
0 220 181
0 221 181
0 221 181
0 220 181
0 221 181
0 221 181
0 221 181
0 221 181
0 221 181
0 220 180
0 221 181
0 222 181
0 221 181
0 222 181
0 221 181
0 221 181
0 221 181
0 221 181
0 220 181
0 222 181
0 221 181
0 222 181
0 221 181
0 221 181
0 221 181
0 221 181
0 221 181
0 221 181
0 222 181
0 222 181
0 221 181
0 221 181
0 221 181
0 222 181
0 221 181
0 220 181
0 221 181
0 222 181
0 222 181
0 222 181
0 221 181
0 221 181
0 221 181
0 221 181
0 221 181
0 221 181
0 221 181
0 221 181
0 221 181
0 221 181
0 222 181
0 222 181
0 222 181
0 221 181
0 222 181
0 221 181
0 221 181
0 222 181
0 222 181
0 221 181
0 221 181
0 221 181
0 222 181
0 221 181
0 222 181
0 223 181
0 222 181
0 221 181
0 221 181
0 222 181
0 221 181
0 221 181
0 222 181
0 221 181
0 222 181
51 223 185
125 228 206
155 230 218
199 235 240
227 240 255
229 240 255
229 240 255
229 240 255
229 240 255
229 240 255
228 240 255
228 240 255
228 240 255
228 240 255
228 240 255
228 240 255
228 240 255
228 240 255
228 240 255
228 240 255
228 239 255
228 239 255
228 239 255
228 239 255
228 239 255
228 239 255
228 239 255
228 239 255
228 239 255
228 239 255
228 239 255
228 239 255
228 239 255
228 239 255
228 239 255
228 239 255
228 239 255
228 239 255
228 239 255
228 239 255
228 239 255
228 239 255
228 239 255
228 239 255
228 239 255
228 239 255
228 239 255
228 239 255
228 239 255
228 239 255
228 239 255
228 239 255
228 239 255
228 239 255
228 239 255
228 240 255
228 240 255
228 240 255
228 240 255
228 240 255
228 240 255
228 240 255
228 240 255
228 240 255
228 240 255
228 240 255
229 240 255
229 240 255
229 240 255
226 239 254
207 237 244
184 234 232
171 232 226
105 225 199
32 222 182
0 221 181
0 222 181
0 221 181
0 222 181
0 222 181
0 220 181
0 221 181
0 221 181
0 220 181
0 222 181
0 221 181
0 221 181
0 221 181
0 222 181
0 222 181
0 221 181
0 221 181
0 221 181
0 221 181
0 222 181
0 221 181
0 221 181
0 221 181
0 221 181
0 221 181
0 221 181
0 221 181
0 221 181
0 221 181
0 221 181
0 221 181
0 221 181
0 221 181
0 221 181
0 221 181
0 222 181
0 221 181
0 221 181
0 222 181
0 221 181
0 221 181
0 221 181
0 221 181
0 221 181
0 222 181
0 222 181
0 221 181
0 221 181
0 222 181
0 221 181
0 221 181
0 221 181
0 221 181
0 222 181
0 221 181
0 221 181
0 220 181
0 222 181
0 221 181
0 222 181
0 220 181
0 222 181
0 222 181
0 220 181
0 220 181
0 221 181
0 221 181
0 221 181
0 221 181
0 220 180
0 221 181
0 221 181
0 222 181
0 222 181
0 221 181
0 221 181
0 222 181
0 221 181
0 221 181
0 222 181
0 221 181
0 220 181
0 221 181
0 221 181
0 221 181
0 221 181
0 221 181
0 222 181
0 221 181
0 222 181
0 221 181
0 220 181
0 221 181
0 220 181
0 221 180
0 221 181
0 221 181
0 221 181
0 221 181
0 222 181
0 221 181
0 221 181
0 221 181
0 222 181
0 222 181
0 221 180
0 221 181
0 221 181
0 221 181
0 221 181
0 221 181
0 221 181
0 221 181
0 221 180
0 221 181
0 221 181
0 220 180
0 222 181
0 221 180
0 221 181
0 221 181
0 221 181
0 222 181
0 221 181
0 221 181
0 223 181
0 222 181
0 221 181
0 221 181
0 221 181
0 221 181
0 221 180
0 221 181
0 222 181
0 221 181
0 221 181
0 221 181
0 220 180
0 221 181
0 221 181
0 221 180
0 222 181
0 221 181
0 221 181
0 222 181
0 221 181
0 220 180
0 220 181
0 220 180
0 220 181
0 222 181
0 221 181
0 221 180
0 221 181
0 219 180
0 221 181
0 221 180
0 221 180
0 221 180
0 220 180
0 221 179
0 221 181
0 220 181
0 221 180
0 221 181
0 221 181
0 222 181
0 221 181
0 221 181
0 221 181
0 221 181
0 220 180
0 220 180
0 222 181
0 221 181
0 221 181
0 221 181
0 222 181
0 221 181
0 221 180
0 221 181
0 221 181
0 222 180
0 221 180
0 221 181
0 221 181
0 221 181
0 220 180
0 221 181
0 221 181
0 221 180
0 221 181
0 222 181
0 221 180
0 221 180
0 221 181
0 221 181
0 221 181
0 221 181
0 221 181
0 223 181
0 221 181
0 221 181
0 222 181
0 222 181
0 221 181
0 221 181
0 221 181
0 221 180
0 221 181
0 221 180
0 221 181
0 222 181
0 221 181
0 221 181
0 221 181
0 221 181
0 220 180
0 222 181
0 222 181
0 221 181
0 220 181
0 221 181
0 222 181
0 222 181
0 222 181
0 221 181
0 222 181
0 220 181
0 221 180
0 221 181
0 222 181
0 220 180
0 221 181
0 221 181
0 222 181
0 222 181
0 222 181
0 221 181
0 222 181
0 221 181
0 221 181
0 220 181
0 222 181
0 221 181
0 221 181
0 220 181
0 221 181
0 223 181
0 221 181
0 220 181
0 220 181
0 221 181
0 220 181
0 221 181
0 221 181
0 221 181
0 220 181
0 221 181
0 221 181
0 221 181
0 221 181
0 222 181
0 221 181
0 221 181
0 221 181
0 222 181
0 221 181
0 221 181
0 223 181
0 221 181
0 222 181
0 221 181
0 222 181
0 222 181
0 222 181
0 221 181
0 221 181
0 221 181
0 222 181
0 222 181
0 222 181
0 222 181
0 221 181
0 221 181
0 222 181
0 220 181
0 220 181
0 221 181
0 222 181
0 221 181
0 221 181
0 222 181
0 220 181
0 221 181
0 221 181
0 223 181
0 220 181
0 221 181
0 221 181
0 221 181
0 221 181
0 221 181
0 222 181
0 221 181
0 221 181
0 222 181
0 222 181
0 221 181
0 221 181
0 221 181
0 222 181
0 221 181
0 222 181
0 221 181
0 221 181
0 222 181
0 222 181
0 223 181
0 222 181
22 222 181
97 225 196
150 229 216
178 233 229
204 236 242
229 240 255
229 240 255
229 240 255
229 240 255
229 240 255
228 240 255
228 240 255
228 240 255
228 240 255
228 240 255
228 240 255
228 240 255
228 240 255
228 240 255
228 240 255
228 239 255
228 239 255
228 239 255
228 239 255
228 239 255
228 239 255
228 239 255
228 239 255
228 239 255
228 239 255
228 239 255
228 239 255
228 239 255
228 239 255
228 239 255
228 239 255
228 239 255
228 239 255
228 239 255
228 239 255
228 239 255
228 239 255
228 239 255
228 239 255
228 239 255
228 239 255
228 239 255
228 239 255
228 239 255
228 239 255
228 239 255
228 239 255
228 239 255
228 239 255
228 239 255
228 239 255
228 239 255
228 239 255
228 239 255
228 239 255
228 239 255
228 239 255
228 239 255
228 239 255
228 239 255
228 239 255
228 240 255
228 240 255
228 240 255
228 240 255
228 240 255
228 240 255
228 240 255
228 240 255
228 240 255
229 240 255
229 240 255
229 240 255
229 240 255
222 239 252
194 235 237
166 231 223
131 228 208
72 223 189
0 222 181
0 221 181
0 221 181
0 222 181
0 222 181
0 220 181
0 221 181
0 221 181
0 220 181
0 222 181
0 221 181
0 222 181
0 222 181
0 221 181
0 221 181
0 222 181
0 222 181
0 221 181
0 221 181
0 221 181
0 222 181
0 221 181
0 221 181
0 221 181
0 221 181
0 222 181
0 220 181
0 222 181
0 221 181
0 221 181
0 221 181
0 222 181
0 221 181
0 222 181
0 222 181
0 221 181
0 222 181
0 221 181
0 221 181
0 221 181
0 220 181
0 221 181
0 220 181
0 222 181
0 222 181
0 221 181
0 221 181
0 222 181
0 221 181
0 221 181
0 222 181
0 221 181
0 221 181
0 221 181
0 222 181
0 222 181
0 220 181
0 221 181
0 221 181
0 222 181
0 221 181
0 221 181
0 222 181
0 222 181
0 221 181
0 221 181
0 221 181
0 221 181
0 221 181
0 221 181
0 220 181
0 221 181
0 222 181
0 221 181
0 221 181
0 221 181
0 220 181
0 222 181
0 221 181
0 221 181
0 221 181
0 220 181
0 221 181
0 221 181
0 222 181
0 221 181
0 220 181
0 221 181
0 222 181
0 221 181
0 221 181
0 222 181
0 221 181
0 221 181
0 223 181
0 221 181
0 221 181
0 222 181
0 221 181
0 222 181
0 220 181
0 221 181
0 221 181
0 220 181
0 221 181
0 220 181
0 222 181
0 222 181
0 221 181
0 221 181
0 221 181
0 222 181
0 220 180
0 221 181
0 222 181
0 221 181
0 221 181
0 221 181
0 221 181
0 221 181
0 221 181
0 221 181
0 221 181
0 220 180
0 221 181
0 222 181
0 220 181
0 220 181
0 221 181
0 221 181
0 221 181
0 221 180
0 220 179
0 222 181
0 221 181
0 220 180
0 221 181
0 221 181
0 221 181
0 221 181
0 221 181
0 222 181
0 220 180
0 221 180
0 221 180
0 221 180
0 220 180
0 221 180
0 222 181
0 219 179
0 220 180
0 221 181
0 220 181
0 220 181
0 221 180
0 220 180
0 221 180
0 221 181
0 222 181
0 220 180
0 221 180
0 221 181
0 221 181
0 220 180
0 222 181
0 221 181
0 218 179
0 222 181
0 222 181
0 221 180
0 221 180
0 220 179
0 220 181
0 220 181
0 220 181
0 221 181
0 222 181
0 221 181
0 220 181
0 221 181
0 221 181
0 221 181
0 221 180
0 221 180
0 222 181
0 221 181
0 222 181
0 221 180
0 222 181
0 221 181
0 221 181
0 221 181
0 220 180
0 221 181
0 221 181
0 222 181
0 222 181
0 221 181
0 222 181
0 220 180
0 222 181
0 221 181
0 222 181
0 222 181
0 221 180
0 221 181
0 222 180
0 221 181
0 221 181
0 222 181
0 222 181
0 222 181
0 221 181
0 221 181
0 221 181
0 222 181
0 219 180
0 221 181
0 221 181
0 221 181
0 221 180
0 222 181
0 222 181
0 221 180
0 222 181
0 222 181
0 221 181
0 223 181
0 221 181
0 222 181
0 220 181
0 222 181
0 221 181
0 222 181
0 222 181
0 221 181
0 222 181
0 221 181
0 221 181
0 221 181
0 221 181
0 222 181
0 220 181
0 220 181
0 221 181
0 221 181
0 221 181
0 221 181
0 222 181
0 221 181
0 222 181
0 222 181
0 221 181
0 221 181
0 222 181
0 222 181
0 221 181
0 221 181
0 221 181
0 221 181
0 222 181
0 221 181
0 221 181
0 221 181
0 220 181
0 222 181
0 222 181
0 221 181
0 222 181
0 221 181
0 222 181
0 221 181
0 221 181
0 222 181
0 222 181
0 221 181
0 222 181
0 221 181
0 222 181
0 220 181
0 221 181
0 221 181
0 221 181
0 222 181
0 223 181
0 222 181
0 221 181
0 221 181
0 221 181
0 222 181
0 220 181
0 221 181
0 222 181
0 221 181
0 221 181
0 222 181
0 221 181
0 221 181
0 221 181
0 221 181
0 221 181
0 221 181
0 221 181
0 222 181
0 221 181
0 223 181
0 222 181
0 221 181
0 221 181
0 221 181
0 220 181
0 222 181
88 224 194
123 227 205
165 231 223
204 236 242
224 239 253
229 240 255
229 240 255
229 240 255
229 240 255
228 240 255
228 240 255
228 240 255
228 240 255
228 240 255
228 240 255
228 240 255
228 240 255
228 240 255
228 240 255
228 239 255
228 239 255
228 239 255
228 239 255
228 239 255
228 239 255
228 239 255
228 239 255
228 239 255
228 239 255
228 239 255
228 239 255
228 239 255
228 239 255
228 239 255
228 239 255
228 239 255
228 239 255
228 239 255
228 239 255
228 239 255
228 239 255
228 239 255
228 239 255
228 239 255
227 239 255
227 239 255
227 239 255
228 239 255
228 239 255
228 239 255
228 239 255
228 239 255
228 239 255
228 239 255
228 239 255
228 239 255
228 239 255
228 239 255
228 239 255
228 239 255
228 239 255
228 239 255
228 239 255
228 239 255
228 239 255
228 239 255
228 239 255
228 239 255
228 239 255
228 239 255
228 239 255
228 239 255
228 239 255
228 239 255
228 239 255
228 240 255
228 240 255
228 240 255
228 240 255
228 240 255
228 240 255
228 240 255
228 240 255
228 240 255
228 240 255
229 240 255
229 240 255
229 240 255
219 238 250
190 235 235
160 230 220
116 227 203
51 222 185
0 222 181
0 221 181
0 221 181
0 222 181
0 221 181
0 221 181
0 222 181
0 221 181
0 220 181
0 222 181
0 221 181
0 221 181
0 221 181
0 221 181
0 222 181
0 221 181
0 222 181
0 221 181
0 222 181
0 221 181
0 221 181
0 223 181
0 222 181
0 221 181
0 221 181
0 222 181
0 222 181
0 221 181
0 221 181
0 223 181
0 221 181
0 221 181
0 222 181
0 221 181
0 221 181
0 222 181
0 221 181
0 221 181
0 221 181
0 222 181
0 221 181
0 221 181
0 222 181
0 222 181
0 222 181
0 222 181
0 222 181
0 222 181
0 221 181
0 221 181
0 221 181
0 222 181
0 221 181
0 221 181
0 221 181
0 221 181
0 222 181
0 222 181
0 221 181
0 221 181
0 221 181
0 220 181
0 221 181
0 221 181
0 222 181
0 221 181
0 221 181
0 221 181
0 222 181
0 222 181
0 222 181
0 222 181
0 221 181
0 221 181
0 221 181
0 222 181
0 222 181
0 221 181
0 222 181
0 221 181
0 222 181
0 222 181
0 221 181
0 221 181
0 221 181
0 222 181
0 222 181
0 222 181
0 220 181
0 221 181
0 222 181
0 222 181
0 221 181
0 222 181
0 222 181
0 221 181
0 221 180
0 221 181
0 220 181
0 221 181
0 221 181
0 221 181
0 221 181
0 222 181
0 221 180
0 222 181
0 222 181
0 221 181
0 221 181
0 221 181
0 221 181
0 220 181
0 221 181
0 222 181
0 221 181
0 221 181
0 221 180
0 222 181
0 221 181
0 221 181
0 222 181
0 221 181
0 221 180
0 221 181
0 221 180
0 221 181
0 222 181
0 221 181
0 220 180
0 221 181
0 222 181
0 221 181
0 220 180
0 222 181
0 220 181
0 221 181
0 221 181
0 220 180
0 221 181
0 222 181
0 222 181
0 221 181
0 221 181
0 221 181
0 220 181
0 221 181
0 221 181
0 220 179
0 221 181
0 221 181
0 222 181
0 221 181
0 221 181
0 222 181
0 222 181
0 222 181
0 222 181
0 222 181
0 221 180
0 221 181
0 221 181
0 222 181
0 219 178
0 222 180
0 221 181
0 221 181
0 221 180
0 221 180
0 221 181
0 220 180
0 221 181
0 220 180
0 220 180
0 221 181
0 221 180
0 222 181
0 221 180
0 221 181
0 221 181
0 221 181
0 221 181
0 222 181
0 221 181
0 220 180
0 221 181
0 220 180
0 222 181
0 221 181
0 221 181
0 221 181
0 222 180
0 221 181
0 221 181
0 222 181
0 220 181
0 221 181
0 221 181
0 222 181
0 221 180
0 220 181
0 221 181
0 222 181
0 221 181
0 222 181
0 222 181
0 222 181
0 221 181
0 221 181
0 221 181
0 221 181
0 222 181
0 220 181
0 220 180
0 221 181
0 222 181
0 221 181
0 221 181
0 221 181
0 221 181
0 223 181
0 221 181
0 221 181
0 222 181
0 221 181
0 221 181
0 222 181
0 222 181
0 222 181
0 221 181
0 221 181
0 221 180
0 222 181
0 221 181
0 221 181
0 222 181
0 222 181
0 221 181
0 222 181
0 221 181
0 221 180
0 220 181
0 222 181
0 221 181
0 222 181
0 222 181
0 221 181
0 220 181
0 221 181
0 221 181
0 222 181
0 221 181
0 221 181
0 221 181
0 221 181
0 221 181
0 222 181
0 221 181
0 222 181
0 220 181
0 221 181
0 221 181
0 222 181
0 221 181
0 221 181
0 221 181
0 222 181
0 221 181
0 222 181
0 221 181
0 221 181
0 221 181
0 221 181
0 220 181
0 222 181
0 222 181
0 221 181
0 221 181
0 221 181
0 222 181
0 221 181
0 221 181
0 221 181
0 221 181
0 221 181
0 221 181
0 221 181
0 220 181
0 221 181
0 221 181
0 221 181
0 221 181
0 221 181
0 222 181
0 222 181
0 223 181
0 221 181
0 222 181
0 222 181
0 222 181
0 221 181
0 221 181
0 222 181
51 223 185
139 229 211
135 228 210
190 235 235
219 238 250
229 240 255
229 240 255
229 240 255
228 240 255
228 240 255
228 240 255
228 240 255
228 240 255
228 240 255
228 240 255
228 240 255
228 240 255
228 240 255
228 239 255
228 239 255
228 239 255
228 239 255
228 239 255
228 239 255
228 239 255
228 239 255
228 239 255
228 239 255
228 239 255
228 239 255
228 239 255
228 239 255
228 239 255
228 239 255
228 239 255
228 239 255
228 239 255
228 239 255
228 239 255
228 239 255
228 239 255
228 239 255
228 239 255
228 239 255
228 239 255
228 239 255
227 239 255
227 239 255
227 239 255
227 239 255
227 239 255
227 239 255
227 239 255
227 239 255
227 239 255
227 239 255
227 239 255
228 239 255
228 239 255
228 239 255
228 239 255
228 239 255
228 239 255
228 239 255
228 239 255
228 239 255
228 239 255
228 239 255
228 239 255
228 239 255
228 239 255
228 239 255
228 239 255
228 239 255
228 239 255
228 239 255
228 239 255
228 239 255
228 239 255
228 239 255
228 239 255
228 239 255
228 239 255
228 239 255
228 239 255
228 240 255
228 240 255
228 240 255
228 240 255
228 240 255
228 240 255
228 240 255
228 240 255
228 240 255
228 240 255
229 240 255
229 240 255
229 240 255
208 237 244
184 233 232
150 230 216
105 225 199
32 222 182
0 221 181
0 221 181
0 222 181
0 221 181
0 221 181
0 222 181
0 221 181
0 222 181
0 222 181
0 221 181
0 222 181
0 222 181
0 221 181
0 222 181
0 222 181
0 221 181
0 221 181
0 221 181
0 221 181
0 222 181
0 222 181
0 221 181
0 221 181
0 221 181
0 222 181
0 221 181
0 221 181
0 221 181
0 222 181
0 220 181
0 220 181
0 222 181
0 221 181
0 220 181
0 221 181
0 221 181
0 222 181
0 221 181
0 221 181
0 222 181
0 221 181
0 222 181
0 221 181
0 221 181
0 222 181
0 220 181
0 221 181
0 222 181
0 221 181
0 221 181
0 220 181
0 222 181
0 220 180
0 222 181
0 222 181
0 221 181
0 221 181
0 221 181
0 221 181
0 221 181
0 222 181
0 221 181
0 221 181
0 221 181
0 221 181
0 222 181
0 221 181
0 221 181
0 221 181
0 221 181
0 220 181
0 221 181
0 221 180
0 221 181
0 221 181
0 221 180
0 221 181
0 221 181
0 222 181
0 221 181
0 222 181
0 220 180
0 221 181
0 222 181
0 221 181
0 221 181
0 222 181
0 221 181
0 221 181
0 221 181
0 221 181
0 221 181
0 221 181
0 221 181
0 221 181
0 220 181
0 221 181
0 221 181
0 222 181
0 220 181
0 222 181
0 221 181
0 220 181
0 219 180
0 220 181
0 220 181
0 220 180
0 221 181
0 222 181
0 220 180
0 221 180
0 221 181
0 222 181
0 221 181
0 222 181
0 220 179
0 222 181
0 221 181
0 222 181
0 222 181
0 221 181
0 221 181
0 220 180
0 223 181
0 221 181
0 222 181
0 222 181
0 220 179
0 219 180
0 221 181
0 221 181
0 221 181
0 221 181
0 222 181
0 221 181
0 221 181
0 220 181
0 220 181
0 221 181
0 221 180
0 222 181
0 220 179
0 220 180
0 222 181
0 221 181
0 222 181
0 220 180
0 222 181
0 221 181
0 220 181
0 222 181
0 220 181
0 221 181
0 221 181
0 220 180
0 222 180
0 221 181
0 221 180
0 221 180
0 222 181
0 221 181
0 221 180
0 221 181
0 220 180
0 221 181
0 221 181
0 221 181
0 222 181
0 221 180
0 220 180
0 222 181
0 220 181
0 220 181
0 222 181
0 220 181
0 222 181
0 220 180
0 221 181
0 222 181
0 221 180
0 221 181
0 221 181
0 220 180
0 222 181
0 221 181
0 221 181
0 221 181
0 222 181
0 221 181
0 220 181
0 221 181
0 222 181
0 221 181
0 221 181
0 221 181
0 221 181
0 221 181
0 221 181
0 221 181
0 222 181
0 221 181
0 221 181
0 222 181
0 221 181
0 222 181
0 221 181
0 221 181
0 220 180
0 222 181
0 221 181
0 222 181
0 220 181
0 221 181
0 222 181
0 221 181
0 221 181
0 221 181
0 221 181
0 221 181
0 221 181
0 221 181
0 221 181
0 222 181
0 221 181
0 221 181
0 222 181
0 220 181
0 221 181
0 221 181
0 221 181
0 222 181
0 221 181
0 222 181
0 221 181
0 221 181
0 221 181
0 221 181
0 222 181
0 221 181
0 221 181
0 221 181
0 221 181
0 221 181
0 221 181
0 221 181
0 221 181
0 222 181
0 221 181
0 221 181
0 221 181
0 222 181
0 222 181
0 221 181
0 221 181
0 221 181
0 221 181
0 221 181
0 221 181
0 222 181
0 221 181
0 222 181
0 222 181
0 221 181
0 222 181
0 221 181
0 221 181
0 221 181
0 221 181
0 222 181
0 221 181
0 222 181
0 221 181
0 221 181
0 222 181
0 221 181
0 221 181
0 222 181
0 221 181
0 223 181
0 221 181
0 221 181
0 222 181
0 222 181
0 221 181
0 222 181
0 222 181
0 222 181
0 221 181
0 222 181
0 222 181
0 222 181
0 222 181
51 222 185
105 226 199
141 229 212
171 232 226
213 238 247
227 239 255
229 240 255
229 240 255
228 240 255
228 240 255
228 240 255
228 240 255
228 240 255
228 240 255
228 240 255
228 240 255
228 240 255
228 240 255
228 239 255
228 239 255
228 239 255
228 239 255
228 239 255
228 239 255
228 239 255
228 239 255
228 239 255
228 239 255
228 239 255
228 239 255
228 239 255
228 239 255
228 239 255
228 239 255
228 239 255
228 239 255
228 239 255
228 239 255
228 239 255
228 239 255
228 239 255
228 239 255
228 239 255
228 239 255
228 239 255
228 239 255
227 239 255
227 239 255
227 239 255
227 239 255
227 239 255
227 239 255
227 239 255
227 239 255
227 239 255
227 239 255
227 239 255
227 239 255
227 239 255
227 239 255
227 239 255
227 239 255
227 239 255
227 239 255
227 239 255
227 239 255
227 239 255
227 239 255
228 239 255
228 239 255
228 239 255
228 239 255
228 239 255
228 239 255
228 239 255
228 239 255
228 239 255
228 239 255
228 239 255
228 239 255
228 239 255
228 239 255
228 239 255
228 239 255
228 239 255
228 239 255
228 239 255
228 239 255
228 239 255
228 239 255
228 239 255
228 239 255
228 239 255
228 239 255
228 239 255
228 240 255
228 240 255
228 240 255
228 240 255
228 240 255
228 240 255
228 240 255
228 240 255
228 240 255
228 240 255
229 240 255
229 240 255
225 239 254
208 236 244
169 232 225
150 230 216
127 229 207
45 222 184
0 221 181
0 222 181
0 222 181
0 221 181
0 222 181
0 221 181
0 222 181
0 221 181
0 222 181
0 221 181
0 220 181
0 222 181
0 221 181
0 220 181
0 221 181
0 222 181
0 220 181
0 221 181
0 221 181
0 221 181
0 221 181
0 221 181
0 220 181
0 222 181
0 220 181
0 222 181
0 222 181
0 221 181
0 221 181
0 221 181
0 221 181
0 222 181
0 221 181
0 222 181
0 221 181
0 221 181
0 221 181
0 221 181
0 221 181
0 222 181
0 222 181
0 221 181
0 221 181
0 221 181
0 221 181
0 221 181
0 221 181
0 221 181
0 221 181
0 222 181
0 222 181
0 221 181
0 221 181
0 220 181
0 221 181
0 222 181
0 222 181
0 221 181
0 222 181
0 221 181
0 221 181
0 221 181
0 222 181
0 221 181
0 221 181
0 219 180
0 221 181
0 221 181
0 220 181
0 222 181
0 220 181
0 221 181
0 222 181
0 222 181
0 221 181
0 222 181
0 220 181
0 222 181
0 221 181
0 221 181
0 221 181
0 220 181
0 221 181
0 221 181
0 220 180
0 221 181
0 222 181
0 221 181
0 221 181
0 221 181
0 221 181
0 221 181
0 221 181
0 222 181
0 221 181
0 222 181
0 222 181
0 222 181
0 222 181
0 222 181
0 221 181
0 222 181
0 222 181
0 221 181
0 222 181
0 221 180
0 221 181
0 220 180
0 221 181
0 221 181
0 221 180
0 221 181
0 221 181
0 221 181
0 222 181
0 221 180
0 220 181
0 222 181
0 222 181
0 221 181
0 220 180
0 221 181
0 220 181
0 222 181
0 221 180
0 221 181
0 222 181
0 221 181
0 221 180
0 222 181
0 221 181
0 222 181
0 221 181
0 220 180
0 221 181
0 220 181
0 221 180
0 221 181
0 221 181
0 222 181
0 222 181
0 219 179
0 222 181
0 221 181
0 221 181
0 221 181
0 220 181
0 222 181
0 220 181
0 221 181
0 221 181
0 222 181
0 221 180
0 221 181
0 222 181
0 221 181
0 222 181
0 221 181
0 220 180
0 222 181
0 221 181
0 221 181
0 221 181
0 222 181
0 221 181
0 221 181
0 222 181
0 221 181
0 221 181
0 221 181
0 221 180
0 221 181
0 221 180
0 221 181
0 220 180
0 221 181
0 221 181
0 221 180
0 221 181
0 221 181
0 220 181
0 222 181
0 222 181
0 221 180
0 221 181
0 221 181
0 221 181
0 221 181
0 220 181
0 222 181
0 220 181
0 221 181
0 222 181
0 222 181
0 221 181
0 221 181
0 221 181
0 222 181
0 220 180
0 221 181
0 220 181
0 222 181
0 222 181
0 221 181
0 220 181
0 221 181
0 222 181
0 221 181
0 221 181
0 222 181
0 221 181
0 220 181
0 221 181
0 222 181
0 222 181
0 221 181
0 221 181
0 220 181
0 221 181
0 222 181
0 221 181
0 221 181
0 220 181
0 221 181
0 220 180
0 222 181
0 221 181
0 221 181
0 220 181
0 221 181
0 222 181
0 222 181
0 221 181
0 221 181
0 221 181
0 222 181
0 221 181
0 222 181
0 221 181
0 222 181
0 222 181
0 222 181
0 222 181
0 222 181
0 222 181
0 221 181
0 222 181
0 222 181
0 222 181
0 221 181
0 221 181
0 221 181
0 221 181
0 221 181
0 221 181
0 220 181
0 222 181
0 221 181
0 222 181
0 222 181
0 221 181
0 221 181
0 221 181
0 221 181
0 222 181
0 221 181
0 221 181
0 222 181
0 220 181
0 222 181
0 221 181
0 222 181
0 221 181
0 222 181
0 221 181
0 221 181
0 221 181
0 221 181
0 221 181
0 222 181
0 222 181
0 222 181
32 222 182
119 226 203
137 229 211
181 233 231
211 237 246
224 239 253
229 240 255
229 240 255
228 240 255
228 240 255
228 240 255
228 240 255
228 240 255
228 240 255
228 240 255
228 240 255
228 240 255
228 240 255
228 239 255
228 239 255
228 239 255
228 239 255
228 239 255
228 239 255
228 239 255
228 239 255
228 239 255
228 239 255
228 239 255
228 239 255
228 239 255
228 239 255
228 239 255
228 239 255
228 239 255
228 239 255
228 239 255
228 239 255
228 239 255
228 239 255
228 239 255
228 239 255
228 239 255
228 239 255
228 239 255
227 239 255
227 239 255
227 239 255
227 239 255
227 239 255
227 239 255
227 239 255
227 239 255
227 239 255
227 239 255
227 239 255
227 239 255
227 239 255
227 239 255
227 239 255
227 239 255
227 239 255
227 239 255
227 239 255
227 239 255
227 239 255
227 239 255
227 239 255
227 239 255
227 239 255
227 239 255
227 239 255
227 239 255
227 239 255
227 239 255
227 239 255
227 239 255
227 239 255
227 239 255
228 239 255
228 239 255
228 239 255
228 239 255
228 239 255
228 239 255
228 239 255
228 239 255
228 239 255
228 239 255
228 239 255
228 239 255
228 239 255
228 239 255
228 239 255
228 239 255
228 239 255
228 239 255
228 239 255
228 239 255
228 239 255
228 239 255
228 239 255
228 239 255
228 239 255
228 239 255
228 239 255
228 240 255
228 240 255
228 240 255
228 240 255
228 240 255
228 240 255
228 240 255
228 240 255
228 240 255
228 240 255
229 240 255
225 239 254
206 236 243
161 231 221
151 230 217
99 225 197
51 223 185
0 222 181
0 221 181
0 222 181
0 222 181
0 221 181
0 223 181
0 221 181
0 221 181
0 220 181
0 221 181
0 222 181
0 221 181
0 221 181
0 222 181
0 221 181
0 220 181
0 222 181
0 222 181
0 223 181
0 221 181
0 222 181
0 221 181
0 221 181
0 221 181
0 221 181
0 221 181
0 221 181
0 221 181
0 221 181
0 221 181
0 221 181
0 221 181
0 223 181
0 221 181
0 222 181
0 221 181
0 222 181
0 221 181
0 221 181
0 221 181
0 222 181
0 221 181
0 221 181
0 222 181
0 221 181
0 221 181
0 221 181
0 221 181
0 222 181
0 221 181
0 221 181
0 221 181
0 222 181
0 221 181
0 221 181
0 221 181
0 221 181
0 221 181
0 221 181
0 221 181
0 221 181
0 221 181
0 220 181
0 221 181
0 221 181
0 221 181
0 220 181
0 220 181
0 221 181
0 220 181
0 222 181
0 221 181
0 221 181
0 221 181
0 221 181
0 221 181
0 222 181
0 221 181
0 220 181
0 221 181
0 221 181
0 222 181
0 220 181
0 222 181
0 221 181
0 221 181
0 221 181
0 221 181
0 220 180
0 221 181
0 221 181
0 221 181
0 221 181
0 221 181
0 221 181
0 221 181
0 221 180
0 220 181
0 221 181
0 220 180
0 220 181
0 221 180
0 221 181
0 220 181
0 221 181
0 221 181
0 221 181
0 220 180
0 221 181
0 221 181
0 221 181
0 221 181
0 221 181
0 221 180
0 221 181
0 221 181
0 221 181
0 221 181
0 221 180
0 221 181
0 222 181
0 222 181
0 222 181
0 220 181
0 221 181
0 221 180
0 222 181
0 221 181
0 221 181
0 222 181
0 221 181
0 221 181
0 222 181
0 221 181
0 221 181
0 223 181
0 222 181
0 221 181
0 221 180
0 220 180
0 221 181
0 220 181
0 221 181
0 222 181
0 221 181
0 222 181
0 221 181
0 221 181
0 221 181
0 221 181
0 221 181
0 221 181
0 221 181
0 222 181
0 220 181
0 221 180
0 221 181
0 221 181
0 222 181
0 221 181
0 221 181
0 220 181
0 222 181
0 221 181
0 220 180
0 221 181
0 221 181
0 222 181
0 222 181
0 221 181
0 221 180
0 222 181
0 220 179
0 222 181
0 221 181
0 221 181
0 221 181
0 222 181
0 221 180
0 221 181
0 222 180
0 221 181
0 221 181
0 221 181
0 221 181
0 220 181
0 220 181
0 220 181
0 220 181
0 221 181
0 221 181
0 221 181
0 221 181
0 222 181
0 221 181
0 221 181
0 221 181
0 221 181
0 221 181
0 221 181
0 223 181
0 221 181
0 221 181
0 222 181
0 220 181
0 221 181
0 222 181
0 222 181
0 223 181
0 221 181
0 222 181
0 221 181
0 222 181
0 222 181
0 221 181
0 222 181
0 221 181
0 222 181
0 221 181
0 221 181
0 223 181
0 221 181
0 221 181
0 221 181
0 221 181
0 221 181
0 221 181
0 220 181
0 221 181
0 222 181
0 221 181
0 221 181
0 222 181
0 220 181
0 222 181
0 221 181
0 221 181
0 222 181
0 222 181
0 221 181
0 222 181
0 221 181
0 220 181
0 220 181
0 221 181
0 221 181
0 221 181
0 223 181
0 221 181
0 222 181
0 221 181
0 221 181
0 221 181
0 221 181
0 222 181
0 221 181
0 222 181
0 221 181
0 221 181
0 222 181
0 221 181
0 220 181
0 221 181
0 221 181
0 221 181
0 221 181
0 221 181
0 221 181
0 222 181
0 221 181
0 222 181
0 221 181
39 222 183
107 226 199
139 228 211
181 233 231
207 236 244
227 240 255
229 240 255
228 240 255
228 240 255
228 240 255
228 240 255
228 240 255
228 240 255
228 240 255
228 240 255
228 240 255
228 240 255
228 239 255
228 239 255
228 239 255
228 239 255
228 239 255
228 239 255
228 239 255
228 239 255
228 239 255
228 239 255
228 239 255
228 239 255
228 239 255
228 239 255
228 239 255
228 239 255
228 239 255
228 239 255
228 239 255
228 239 255
228 239 255
228 239 255
228 239 255
228 239 255
228 239 255
228 239 255
228 239 255
227 239 255
227 239 255
227 239 255
227 239 255
227 239 255
227 239 255
227 239 255
227 239 255
227 239 255
227 239 255
227 239 255
227 239 255
227 239 255
227 239 255
227 239 255
227 239 255
227 239 255
227 239 255
227 239 255
227 239 255
227 239 255
227 239 255
227 239 255
227 239 255
227 239 255
227 239 255
227 239 255
227 239 255
227 239 255
227 239 255
227 239 255
227 239 255
227 239 255
227 239 255
227 239 255
227 239 255
227 239 255
227 239 255
227 239 255
227 239 255
227 239 255
227 239 255
227 239 255
227 239 255
227 239 255
227 239 255
228 239 255
228 239 255
228 239 255
228 239 255
228 239 255
228 239 255
228 239 255
228 239 255
228 239 255
228 239 255
228 239 255
228 239 255
228 239 255
228 239 255
228 239 255
228 239 255
228 239 255
228 239 255
228 239 255
228 239 255
228 239 255
228 239 255
228 239 255
228 239 255
228 239 255
228 239 255
228 240 255
228 240 255
228 240 255
228 240 255
228 240 255
228 240 255
228 240 255
228 240 255
228 240 255
228 240 255
229 240 255
226 239 254
206 236 243
169 232 225
144 230 214
121 227 204
32 222 182
0 222 181
0 222 181
0 221 181
0 221 181
0 222 181
0 221 181
0 220 181
0 222 181
0 222 181
0 221 181
0 221 181
0 222 181
0 222 181
0 222 181
0 221 181
0 221 181
0 221 181
0 222 181
0 222 181
0 221 181
0 221 181
0 220 181
0 222 181
0 221 181
0 221 181
0 222 181
0 221 181
0 221 181
0 222 181
0 221 181
0 221 181
0 222 181
0 222 181
0 222 181
0 221 181
0 221 181
0 221 181
0 222 181
0 221 181
0 221 181
0 221 181
0 221 181
0 221 181
0 221 181
0 221 181
0 221 181
0 221 181
0 221 181
0 222 181
0 221 181
0 222 181
0 221 181
0 222 181
0 222 181
0 221 181
0 222 181
0 222 181
0 222 181
0 221 181
0 222 181
0 222 181
0 221 181
0 222 181
0 222 181
0 221 181
0 222 181
0 221 181
0 221 181
0 221 181
0 221 181
0 221 181
0 220 181
0 220 181
0 221 181
0 220 181
0 221 181
0 221 181
0 221 181
0 221 181
0 222 181
0 221 181
0 221 181
0 222 181
0 221 181
0 221 181
0 221 181
0 221 181
0 221 181
0 222 181
0 221 181
0 221 181
0 221 181
0 221 181
0 220 181
0 222 181
0 221 180
0 222 181
0 220 181
0 221 181
0 221 181
0 221 181
0 221 181
0 222 181
0 221 181
0 221 181
0 220 180
0 220 180
0 221 181
0 221 181
0 222 181
0 222 181
0 221 181
0 221 181
0 222 181
0 221 181
0 221 181
0 221 181
0 220 180
0 222 181
0 221 181
0 222 181
0 221 181
0 221 181
0 221 181
0 222 181
0 222 181
0 222 181
0 221 181
0 220 181
0 221 181
0 221 180
0 221 181
0 221 181
0 221 181
0 221 181
0 222 180
0 222 181
0 221 181
0 221 181
0 222 181
0 222 181
0 221 180
0 221 181
0 221 181
0 222 181
0 221 181
0 221 180
0 222 181
0 221 181
0 221 181
0 221 181
0 221 181
0 222 181
0 221 181
0 222 181
0 221 181
0 221 180
0 221 181
0 221 181
0 221 181
0 222 181
0 220 181
0 221 181
0 221 181
0 220 181
0 222 181
0 221 181
0 220 181
0 221 181
0 222 181
0 221 181
0 221 181
0 220 181
0 221 181
0 221 181
0 222 181
0 221 181
0 222 181
0 221 181
0 222 181
0 221 181
0 222 181
0 222 181
0 220 180
0 221 181
0 220 181
0 222 181
0 222 181
0 221 181
0 221 181
0 222 181
0 220 181
0 221 181
0 222 181
0 221 181
0 221 181
0 222 181
0 222 181
0 220 181
0 221 181
0 222 181
0 221 181
0 220 181
0 221 181
0 221 181
0 221 181
0 222 181
0 221 181
0 221 181
0 221 181
0 221 181
0 221 181
0 221 181
0 221 181
0 222 181
0 221 181
0 221 181
0 221 181
0 222 181
0 221 181
0 222 181
0 222 181
0 221 181
0 222 181
0 220 181
0 222 181
0 221 181
0 222 181
0 221 181
0 222 181
0 221 181
0 222 181
0 221 181
0 222 181
0 221 181
0 221 181
0 221 181
0 221 181
0 222 181
0 221 181
0 221 181
0 221 181
0 221 181
0 221 181
0 221 181
0 221 181
0 220 181
0 221 181
0 221 181
0 221 181
0 222 181
0 221 181
0 222 181
0 222 181
0 222 181
0 221 181
0 221 181
0 221 181
0 221 181
0 222 181
0 222 181
0 221 181
32 221 182
112 226 201
160 231 220
188 234 234
207 237 244
224 239 253
229 240 255
228 240 255
228 240 255
228 240 255
228 240 255
228 240 255
228 240 255
228 240 255
228 240 255
228 240 255
228 239 255
228 239 255
228 239 255
228 239 255
228 239 255
228 239 255
228 239 255
228 239 255
228 239 255
228 239 255
228 239 255
228 239 255
228 239 255
228 239 255
228 239 255
228 239 255
228 239 255
228 239 255
228 239 255
228 239 255
228 239 255
228 239 255
228 239 255
228 239 255
228 239 255
228 239 255
228 239 255
227 239 255
227 239 255
227 239 255
227 239 255
227 239 255
227 239 255
227 239 255
227 239 255
227 239 255
227 239 255
227 239 255
227 239 255
227 239 255
227 239 255
227 239 255
227 239 255
227 239 255
227 239 255
227 239 255
227 239 255
227 239 255
227 239 255
227 239 255
227 239 255
227 239 255
227 239 255
227 239 255
227 239 255
227 239 255
227 239 255
227 239 255
227 239 255
227 239 255
227 239 255
227 239 255
227 239 255
227 239 255
227 239 255
227 239 255
227 239 255
227 239 255
227 239 255
227 239 255
227 239 255
227 239 255
227 239 255
227 239 255
227 239 255
227 239 255
227 239 255
227 239 255
227 239 255
227 239 255
227 239 255
227 239 255
227 239 255
227 239 255
227 239 255
228 239 255
228 239 255
228 239 255
228 239 255
228 239 255
228 239 255
228 239 255
228 239 255
228 239 255
228 239 255
228 239 255
228 239 255
228 239 255
228 239 255
228 239 255
228 239 255
228 239 255
228 239 255
228 239 255
228 239 255
228 239 255
228 239 255
228 239 255
228 239 255
228 239 255
228 239 255
228 240 255
228 240 255
228 240 255
228 240 255
228 240 255
228 240 255
228 240 255
228 240 255
228 240 255
228 240 255
225 239 254
208 237 244
190 234 235
166 232 223
119 226 203
60 222 187
0 223 181
0 221 181
0 222 181
0 221 181
0 221 181
0 221 181
0 222 181
0 222 181
0 221 181
0 221 181
0 221 181
0 222 181
0 221 181
0 221 181
0 221 181
0 221 181
0 221 181
0 222 181
0 222 181
0 221 181
0 221 181
0 221 181
0 221 181
0 221 181
0 222 181
0 221 181
0 221 181
0 221 181
0 222 181
0 222 181
0 220 181
0 221 181
0 221 181
0 221 181
0 221 181
0 221 181
0 221 181
0 222 181
0 222 181
0 222 181
0 221 181
0 221 181
0 222 181
0 222 181
0 221 181
0 221 181
0 221 181
0 220 181
0 222 181
0 220 181
0 221 181
0 221 181
0 222 181
0 222 181
0 222 181
0 222 181
0 220 181
0 222 181
0 222 181
0 221 181
0 221 181
0 222 181
0 221 181
0 222 181
0 221 181
0 222 181
0 221 181
0 220 181
0 221 181
0 223 181
0 222 181
0 221 181
0 222 181
0 222 181
0 221 181
0 221 181
0 219 180
0 221 181
0 221 181
0 221 181
0 222 181
0 222 181
0 221 181
0 221 181
0 222 181
0 220 181
0 222 181
0 221 181
0 221 181
0 222 181
0 222 181
0 221 181
0 222 181
0 221 181
0 221 181
0 221 180
0 221 181
0 222 181
0 222 180
0 220 181
0 221 181
0 221 181
0 221 181
0 221 181
0 221 181
0 221 181
0 220 180
0 221 181
0 222 181
0 221 181
0 221 181
0 221 181
0 222 181
0 220 180
0 221 181
0 221 181
0 221 181
0 220 181
0 221 181
0 221 181
0 220 180
0 221 181
0 221 181
0 222 181
0 221 181
0 222 181
0 220 181
0 221 181
0 222 181
0 221 181
0 221 181
0 221 180
0 223 181
0 220 181
0 221 181
0 221 180
0 220 181
0 220 181
0 221 180
0 221 181
0 220 181
0 220 180
0 222 181
0 222 181
0 221 181
0 222 181
0 221 181
0 221 181
0 221 181
0 222 181
0 221 181
0 222 181
0 221 181
0 221 181
0 221 181
0 221 181
0 221 181
0 221 181
0 222 181
0 221 180
0 222 181
0 221 181
0 221 180
0 222 181
0 221 181
0 221 181
0 221 181
0 222 181
0 221 181
0 221 181
0 221 181
0 221 181
0 221 181
0 222 181
0 221 181
0 221 181
0 221 181
0 222 181
0 220 180
0 221 181
0 222 181
0 222 180
0 221 181
0 222 181
0 221 181
0 221 181
0 222 181
0 222 181
0 221 181
0 222 181
0 222 180
0 221 181
0 220 180
0 221 180
0 221 181
0 221 181
0 222 181
0 222 181
0 221 181
0 221 181
0 220 181
0 222 181
0 221 181
0 221 181
0 221 181
0 221 181
0 220 181
0 222 181
0 221 181
0 222 181
0 221 181
0 222 181
0 221 181
0 222 181
0 222 181
0 221 181
0 221 181
0 220 181
0 222 181
0 221 181
0 221 181
0 222 181
0 221 181
0 222 181
0 221 181
0 221 181
0 222 181
0 220 181
0 222 181
0 221 181
0 221 181
0 222 181
0 222 181
0 220 180
0 221 181
0 220 181
0 220 181
0 221 181
0 221 181
0 222 181
0 221 181
0 221 181
0 222 181
0 221 181
0 221 181
0 222 181
0 221 181
0 221 181
0 222 181
0 222 181
0 221 181
0 221 181
56 221 186
123 227 205
146 230 214
184 234 232
204 236 242
227 240 255
228 240 255
228 240 255
228 240 255
228 240 255
228 240 255
228 240 255
228 240 255
228 240 255
228 240 255
228 240 255
228 239 255
228 239 255
228 239 255
228 239 255
228 239 255
228 239 255
228 239 255
228 239 255
228 239 255
228 239 255
228 239 255
228 239 255
228 239 255
228 239 255
228 239 255
228 239 255
228 239 255
228 239 255
228 239 255
228 239 255
228 239 255
228 239 255
228 239 255
228 239 255
228 239 255
228 239 255
228 239 255
227 239 255
227 239 255
227 239 255
227 239 255
227 239 255
227 239 255
227 239 255
227 239 255
227 239 255
227 239 255
227 239 255
227 239 255
227 239 255
227 239 255
227 239 255
227 239 255
227 239 255
227 239 255
227 239 255
227 239 255
227 239 255
227 239 255
227 239 255
227 239 255
227 239 255
227 239 255
227 239 255
227 239 255
227 239 255
227 239 255
227 239 255
227 239 255
227 239 255
227 239 255
227 239 255
227 239 255
227 239 255
227 239 255
227 239 255
227 239 255
227 239 255
227 239 255
227 239 255
227 239 255
227 239 255
227 239 255
227 239 255
227 239 255
227 239 255
227 239 255
227 239 255
227 239 255
227 239 255
227 239 255
227 239 255
227 239 255
227 239 255
227 239 255
227 239 255
227 239 255
227 239 255
227 239 255
227 239 255
227 239 255
227 239 255
227 239 255
227 239 255
227 239 255
228 239 255
228 239 255
228 239 255
228 239 255
228 239 255
228 239 255
228 239 255
228 239 255
228 239 255
228 239 255
228 239 255
228 239 255
228 239 255
228 239 255
228 239 255
228 239 255
228 239 255
228 239 255
228 239 255
228 239 255
228 239 255
228 239 255
228 239 255
228 239 255
228 239 255
228 239 255
228 239 255
228 240 255
228 240 255
228 240 255
228 240 255
228 240 255
228 240 255
228 240 255
228 240 255
228 240 255
228 240 255
206 236 243
195 235 238
158 231 220
129 228 207
79 223 191
0 222 181
0 221 181
0 222 181
0 221 181
0 222 181
0 221 181
0 221 181
0 222 181
0 222 181
0 222 181
0 221 181
0 221 181
0 220 181
0 221 181
0 222 181
0 221 181
0 222 181
0 223 181
0 221 181
0 221 181
0 221 181
0 221 181
0 221 181
0 221 181
0 221 181
0 221 181
0 221 181
0 222 181
0 221 181
0 221 181
0 221 181
0 222 181
0 222 181
0 220 181
0 220 181
0 222 181
0 221 181
0 221 181
0 221 181
0 221 181
0 222 181
0 221 181
0 221 181
0 220 181
0 220 181
0 221 181
0 221 181
0 222 181
0 221 181
0 221 181
0 221 181
0 222 181
0 221 181
0 222 181
0 221 181
0 220 181
0 221 181
0 222 181
0 221 181
0 221 181
0 221 181
0 221 181
0 221 181
0 222 181
0 222 181
0 222 181
0 222 181
0 221 181
0 222 181
0 221 181
0 221 181
0 222 181
0 221 181
0 219 181
0 222 181
0 221 181
0 221 181
0 221 181
0 221 181
0 221 181
0 221 181
0 222 180
0 221 181
0 222 181
0 221 181
0 222 181
0 221 181
0 222 181
0 221 181
0 221 181
0 220 181
0 221 181
0 222 181
0 222 181
0 223 181
0 222 181
0 222 181
0 222 181
0 221 181
0 221 181
0 221 181
0 221 181
0 220 181
0 221 181
0 221 181
0 222 181
0 221 180
0 222 181
0 222 181
0 220 181
0 221 181
0 221 181
0 221 180
0 221 181
0 222 181
0 221 181
0 221 181
0 221 181
0 221 181
0 222 181
0 222 181
0 221 181
0 222 181
0 222 181
0 221 181
0 221 181
0 222 181
0 221 181
0 221 181
0 222 181
0 221 181
0 221 181
0 221 181
0 222 181
0 222 181
0 222 181
0 221 181
0 222 181
0 221 181
0 221 180
0 221 181
0 221 181
0 221 181
0 222 181
0 221 181
0 221 181
0 221 181
0 222 180
0 221 181
0 220 180
0 221 181
0 222 181
0 220 181
0 221 181
0 222 181
0 221 181
0 222 181
0 221 181
0 221 181
0 222 181
0 221 181
0 222 181
0 221 181
0 222 181
0 221 181
0 221 181
0 220 181
0 221 181
0 222 181
0 222 181
0 221 181
0 221 181
0 222 181
0 222 181
0 222 181
0 221 181
0 221 181
0 221 180
0 221 181
0 221 181
0 222 181
0 222 181
0 221 180
0 222 181
0 221 181
0 221 181
0 221 181
0 221 181
0 222 181
0 221 181
0 221 181
0 221 181
0 221 181
0 221 181
0 222 181
0 221 181
0 221 181
0 222 181
0 221 181
0 221 181
0 222 181
0 220 181
0 221 181
0 222 181
0 221 181
0 222 181
0 222 181
0 221 181
0 221 181
0 221 181
0 222 181
0 221 181
0 221 181
0 221 181
0 222 181
0 221 181
0 221 181
0 221 181
0 221 181
0 222 181
0 221 181
0 221 181
0 222 181
0 221 181
0 220 181
0 221 181
0 222 181
0 221 181
0 222 181
0 221 181
0 221 181
0 222 181
0 221 181
0 222 181
0 222 181
0 222 181
0 221 181
0 221 181
0 221 181
0 221 181
0 222 181
0 221 181
79 224 191
129 228 207
158 230 220
192 235 236
218 238 250
227 239 255
228 240 255
228 240 255
228 240 255
228 240 255
228 240 255
228 240 255
228 240 255
228 240 255
228 240 255
228 239 255
228 239 255
228 239 255
228 239 255
228 239 255
228 239 255
228 239 255
228 239 255
228 239 255
228 239 255
228 239 255
228 239 255
228 239 255
228 239 255
228 239 255
228 239 255
228 239 255
228 239 255
228 239 255
228 239 255
228 239 255
228 239 255
228 239 255
228 239 255
228 239 255
228 239 255
227 239 255
227 239 255
227 239 255
227 239 255
227 239 255
227 239 255
227 239 255
227 239 255
227 239 255
227 239 255
227 239 255
227 239 255
227 239 255
227 239 255
227 239 255
227 239 255
227 239 255
227 239 255
227 239 255
227 239 255
227 239 255
227 239 255
227 239 255
227 239 255
227 239 255
227 239 255
227 239 255
227 239 255
227 239 255
227 239 255
227 239 255
227 239 255
227 239 255
227 239 255
227 239 255
227 239 255
227 239 255
227 239 255
227 239 255
227 239 255
227 239 255
227 239 255
227 239 255
227 239 255
227 239 255
227 239 255
227 239 255
227 239 255
227 239 255
227 239 255
227 239 255
227 239 255
227 239 255
227 239 255
227 239 255
227 239 255
227 239 255
227 239 255
227 239 255
227 239 255
227 239 255
227 239 255
227 239 255
227 239 255
227 239 255
227 239 255
227 239 255
227 239 255
227 239 255
227 239 255
227 239 255
227 239 255
227 239 255
227 239 255
227 239 255
227 239 255
227 239 255
227 239 255
227 239 255
227 239 255
227 239 255
227 239 255
228 239 255
228 239 255
228 239 255
228 239 255
228 239 255
228 239 255
228 239 255
228 239 255
228 239 255
228 239 255
228 239 255
228 239 255
228 239 255
228 239 255
228 239 255
228 239 255
228 239 255
228 239 255
228 239 255
228 239 255
228 239 255
228 239 255
228 239 255
228 239 255
228 239 255
228 239 255
228 240 255
228 240 255
228 240 255
228 240 255
228 240 255
228 240 255
228 240 255
228 240 255
228 240 255
218 238 250
211 237 246
178 233 229
146 229 214
109 226 200
45 221 184
0 220 181
0 221 181
0 221 181
0 221 181
0 222 181
0 221 181
0 221 181
0 221 181
0 222 181
0 221 181
0 221 181
0 222 181
0 221 181
0 222 181
0 221 181
0 221 181
0 221 181
0 222 181
0 222 181
0 221 181
0 222 181
0 221 181
0 220 181
0 222 181
0 221 181
0 221 181
0 222 181
0 222 181
0 221 181
0 221 181
0 222 181
0 221 181
0 222 181
0 222 181
0 222 181
0 221 181
0 221 181
0 221 181
0 221 181
0 221 181
0 222 181
0 221 181
0 220 181
0 222 181
0 220 181
0 221 181
0 221 181
0 220 181
0 221 181
0 222 181
0 222 181
0 221 181
0 221 181
0 222 181
0 221 181
0 222 181
0 221 181
0 221 181
0 222 181
0 221 181
0 221 181
0 222 181
0 221 181
0 222 181
0 221 181
0 220 181
0 220 181
0 220 181
0 221 181
0 221 181
0 222 181
0 221 181
0 222 181
0 222 181
0 221 181
0 222 181
0 222 181
0 221 181
0 221 181
0 221 181
0 222 181
0 221 181
0 222 181
0 221 180
0 221 181
0 221 181
0 220 180
0 221 181
0 220 181
0 221 181
0 221 181
0 221 181
0 221 181
0 221 181
0 221 181
0 221 181
0 221 181
0 220 181
0 221 181
0 222 181
0 220 181
0 222 181
0 222 181
0 221 181
0 221 181
0 221 181
0 221 181
0 220 181
0 221 181
0 222 181
0 221 181
0 221 180
0 221 181
0 221 181
0 222 181
0 221 181
0 220 180
0 222 181
0 221 181
0 221 181
0 221 181
0 221 181
0 221 181
0 221 181
0 221 181
0 221 181
0 221 181
0 221 181
0 222 181
0 221 180
0 221 181
0 221 181
0 220 180
0 221 181
0 221 181
0 221 179
0 221 181
0 220 181
0 221 181
0 221 181
0 221 181
0 220 180
0 221 181
0 222 181
0 222 181
0 221 181
0 220 181
0 221 181
0 222 181
0 222 181
0 221 181
0 220 180
0 221 181
0 222 181
0 222 181
0 221 181
0 221 181
0 222 181
0 220 180
0 222 181
0 221 181
0 222 181
0 221 181
0 221 181
0 221 181
0 221 181
0 221 181
0 222 181
0 222 181
0 221 181
0 221 181
0 220 181
0 221 181
0 220 181
0 220 181
0 221 181
0 222 181
0 222 181
0 221 181
0 222 181
0 221 181
0 222 181
0 221 181
0 221 181
0 221 181
0 221 181
0 221 181
0 222 181
0 222 181
0 221 181
0 222 181
0 221 181
0 221 181
0 220 181
0 221 181
0 222 181
0 222 181
0 221 181
0 221 181
0 221 181
0 222 181
0 221 181
0 221 181
0 221 181
0 221 181
0 221 181
0 221 181
0 222 181
0 222 181
0 222 181
0 222 181
0 220 181
0 222 181
0 221 181
0 221 181
0 222 181
0 222 181
0 222 181
0 221 181
0 222 181
0 221 181
0 221 181
0 221 181
0 221 181
0 222 181
0 221 181
0 221 181
0 221 181
0 222 181
0 222 181
51 223 185
82 224 192
141 228 212
175 232 228
207 237 244
219 238 250
228 240 255
228 240 255
228 240 255
228 240 255
228 240 255
228 240 255
228 240 255
228 240 255
228 240 255
228 239 255
228 239 255
228 239 255
228 239 255
228 239 255
228 239 255
228 239 255
228 239 255
228 239 255
228 239 255
228 239 255
228 239 255
228 239 255
228 239 255
228 239 255
228 239 255
228 239 255
228 239 255
228 239 255
228 239 255
228 239 255
228 239 255
228 239 255
228 239 255
228 239 255
228 239 255
228 239 255
227 239 255
227 239 255
227 239 255
227 239 255
227 239 255
227 239 255
227 239 255
227 239 255
227 239 255
227 239 255
227 239 255
227 239 255
227 239 255
227 239 255
227 239 255
227 239 255
227 239 255
227 239 255
227 239 255
227 239 255
227 239 255
227 239 255
227 239 255
227 239 255
227 239 255
227 239 255
227 239 255
227 239 255
227 239 255
227 239 255
227 239 255
227 239 255
227 239 255
227 239 255
227 239 255
227 239 255
227 239 255
227 239 255
227 239 255
227 239 255
227 239 255
227 239 255
227 239 255
226 238 255
226 238 255
226 238 255
226 239 255
226 239 255
226 239 255
227 239 255
227 239 255
227 239 255
227 239 255
227 239 255
227 239 255
227 239 255
227 239 255
227 239 255
227 239 255
227 239 255
227 239 255
227 239 255
227 239 255
227 239 255
227 239 255
227 239 255
227 239 255
227 239 255
227 239 255
227 239 255
227 239 255
227 239 255
227 239 255
227 239 255
227 239 255
227 239 255
227 239 255
227 239 255
227 239 255
227 239 255
227 239 255
227 239 255
227 239 255
227 239 255
227 239 255
227 239 255
227 239 255
227 239 255
227 239 255
227 239 255
227 239 255
227 239 255
227 239 255
228 239 255
228 239 255
228 239 255
228 239 255
228 239 255
228 239 255
228 239 255
228 239 255
228 239 255
228 239 255
228 239 255
228 239 255
228 239 255
228 239 255
228 239 255
228 239 255
228 239 255
228 239 255
228 239 255
228 239 255
228 239 255
228 239 255
228 239 255
228 239 255
228 239 255
228 239 255
228 240 255
228 240 255
228 240 255
228 240 255
228 240 255
228 240 255
228 240 255
228 240 255
227 239 255
214 238 248
184 233 232
160 231 220
112 226 201
75 224 190
0 221 181
0 221 181
0 222 181
0 222 181
0 221 181
0 221 181
0 222 181
0 222 181
0 222 181
0 221 181
0 221 181
0 222 181
0 221 181
0 221 181
0 221 181
0 221 181
0 222 181
0 222 181
0 221 181
0 222 181
0 221 181
0 222 181
0 222 181
0 221 181
0 221 181
0 222 181
0 222 181
0 221 181
0 222 181
0 221 181
0 221 181
0 221 181
0 221 181
0 221 181
0 221 181
0 222 181
0 221 181
0 221 181
0 222 181
0 221 181
0 221 181
0 220 181
0 221 181
0 222 181
0 222 181
0 222 181
0 221 181
0 222 181
0 222 181
0 222 181
0 221 181
0 221 181
0 221 181
0 221 181
0 221 181
0 221 181
0 221 181
0 221 181
0 221 181
0 220 181
0 221 181
0 221 181
0 222 181
0 222 181
0 221 181
0 222 181
0 222 181
0 223 181
0 222 181
0 221 181
0 221 181
0 222 181
0 221 181
0 222 181
0 222 181
0 221 181
0 222 181
0 222 181
0 221 181
0 222 181
0 220 181
0 222 181
0 222 181
0 221 181
0 221 181
0 221 181
0 221 181
0 221 181
0 221 181
0 222 181
0 221 181
0 221 181
0 221 181
0 221 181
0 221 181
0 221 181
0 222 181
0 221 181
0 222 181
0 221 181
0 222 181
0 221 181
0 221 181
0 222 181
0 222 181
0 221 181
0 221 181
0 220 181
0 221 181
0 221 181
0 221 181
0 222 181
0 221 181
0 221 181
0 221 181
0 220 181
0 221 181
0 221 181
0 221 181
0 221 181
0 221 181
0 222 181
0 222 181
0 221 181
0 222 181
0 220 180
0 221 181
0 221 181
0 221 181
0 222 181
0 222 181
0 221 181
0 222 181
0 221 181
0 221 181
0 221 181
0 222 181
0 221 181
0 222 181
0 221 181
0 223 181
0 221 181
0 221 180
0 221 181
0 222 181
0 221 181
0 221 181
0 222 181
0 222 181
0 221 181
0 221 181
0 221 181
0 221 181
0 222 181
0 221 181
0 222 181
0 221 181
0 221 181
0 221 181
0 221 181
0 221 181
0 221 181
0 221 181
0 221 181
0 222 181
0 221 181
0 221 181
0 221 181
0 222 181
0 221 181
0 222 180
0 221 181
0 222 181
0 220 181
0 222 181
0 221 181
0 220 181
0 221 181
0 221 181
0 222 181
0 222 181
0 222 181
0 222 181
0 221 181
0 221 181
0 222 181
0 221 181
0 220 181
0 221 181
0 220 181
0 221 181
0 221 181
0 221 181
0 221 181
0 221 181
0 222 181
0 221 181
0 222 181
0 222 181
0 222 181
0 222 181
0 221 181
0 222 181
0 221 181
0 222 181
0 221 181
0 222 181
0 222 181
0 220 181
0 222 181
0 222 181
0 221 181
0 222 181
0 222 181
0 221 181
0 223 181
0 222 181
0 222 181
0 222 181
32 222 182
79 225 191
143 229 213
143 229 213
186 233 233
213 237 247
226 239 254
228 240 255
228 240 255
228 240 255
228 240 255
228 240 255
228 240 255
228 240 255
228 240 255
228 239 255
228 239 255
228 239 255
228 239 255
228 239 255
228 239 255
228 239 255
228 239 255
228 239 255
228 239 255
228 239 255
228 239 255
228 239 255
228 239 255
228 239 255
228 239 255
228 239 255
228 239 255
228 239 255
228 239 255
228 239 255
228 239 255
228 239 255
228 239 255
228 239 255
228 239 255
227 239 255
227 239 255
227 239 255
227 239 255
227 239 255
227 239 255
227 239 255
227 239 255
227 239 255
227 239 255
227 239 255
227 239 255
227 239 255
227 239 255
227 239 255
227 239 255
227 239 255
227 239 255
227 239 255
227 239 255
227 239 255
227 239 255
227 239 255
227 239 255
227 239 255
227 239 255
227 239 255
227 239 255
227 239 255
227 239 255
227 239 255
227 239 255
227 239 255
227 239 255
227 239 255
227 239 255
227 239 255
227 239 255
227 239 255
227 239 255
227 239 255
227 239 255
227 239 255
227 239 255
226 239 255
226 239 255
226 239 255
226 238 255
226 238 255
226 238 255
226 238 255
226 238 255
226 238 255
226 238 255
226 238 255
226 238 255
226 238 255
226 238 255
226 238 255
226 238 255
226 239 255
226 239 255
227 239 255
227 239 255
227 239 255
227 239 255
227 239 255
227 239 255
227 239 255
227 239 255
227 239 255
227 239 255
227 239 255
227 239 255
227 239 255
227 239 255
227 239 255
227 239 255
227 239 255
227 239 255
227 239 255
227 239 255
227 239 255
227 239 255
227 239 255
227 239 255
227 239 255
227 239 255
227 239 255
227 239 255
227 239 255
227 239 255
227 239 255
227 239 255
227 239 255
227 239 255
227 239 255
227 239 255
227 239 255
227 239 255
227 239 255
227 239 255
227 239 255
227 239 255
227 239 255
227 239 255
228 239 255
228 239 255
228 239 255
228 239 255
228 239 255
228 239 255
228 239 255
228 239 255
228 239 255
228 239 255
228 239 255
228 239 255
228 239 255
228 239 255
228 239 255
228 239 255
228 239 255
228 239 255
228 239 255
228 239 255
228 239 255
228 239 255
228 239 255
228 239 255
228 239 255
228 239 255
228 240 255
228 240 255
228 240 255
228 240 255
228 240 255
228 240 255
228 240 255
228 240 255
223 239 252
199 235 240
180 233 230
155 230 218
107 225 199
51 222 185
0 221 181
0 222 181
0 221 181
0 221 181
0 221 181
0 222 181
0 221 181
0 221 181
0 221 181
0 222 181
0 221 181
0 220 181
0 221 181
0 222 181
0 222 181
0 221 181
0 221 181
0 222 181
0 220 181
0 221 181
0 221 181
0 221 181
0 221 181
0 221 181
0 222 181
0 221 181
0 222 181
0 221 181
0 222 181
0 222 181
0 221 181
0 222 181
0 222 181
0 221 181
0 221 181
0 221 181
0 222 181
0 222 181
0 221 181
0 222 181
0 222 181
0 220 181
0 222 181
0 222 181
0 222 181
0 221 181
0 221 181
0 221 180
0 221 181
0 222 181
0 221 181
0 221 181
0 221 180
0 222 181
0 220 181
0 221 181
0 221 181
0 223 181
0 221 181
0 220 181
0 222 181
0 221 181
0 222 181
0 222 181
0 221 181
0 221 181
0 222 181
0 221 181
0 222 181
0 222 181
0 222 181
0 222 181
0 222 181
0 222 181
0 221 181
0 222 181
0 222 181
0 220 181
0 222 181
0 221 181
0 221 181
0 223 181
0 222 181
0 220 181
0 221 181
0 221 181
0 222 181
0 221 180
0 221 181
0 221 181
0 221 181
0 220 180
0 221 181
0 221 181
0 221 181
0 222 181
0 222 181
0 221 181
0 221 181
0 222 181
0 221 181
0 221 181
0 221 181
0 222 181
0 222 181
0 221 181
0 221 181
0 222 181
0 221 181
0 221 181
0 220 181
0 221 181
0 222 181
0 222 181
0 222 181
0 222 181
0 221 181
0 221 181
0 221 181
0 221 181
0 222 181
0 221 181
0 221 181
0 222 181
0 223 181
0 221 181
0 222 181
0 223 181
0 222 181
0 221 181
0 221 181
0 221 181
0 222 181
0 221 181
0 222 181
0 221 181
0 221 181
0 221 181
0 221 181
0 222 181
0 221 181
0 221 181
0 222 181
0 221 181
0 221 181
0 222 181
0 222 181
0 222 181
0 221 181
0 221 181
0 222 181
0 221 181
0 222 181
0 221 181
0 222 181
0 221 181
0 222 180
0 221 181
0 222 181
0 221 181
0 221 181
0 221 181
0 221 181
0 220 181
0 222 181
0 221 181
0 221 181
0 221 181
0 222 181
0 221 181
0 220 181
0 222 181
0 221 181
0 222 181
0 222 181
0 221 181
0 221 181
0 222 181
0 222 181
0 221 181
0 221 181
0 222 181
0 221 181
0 221 181
0 221 181
0 222 181
0 221 181
0 221 181
0 221 181
0 221 181
0 221 181
0 222 181
0 220 181
0 220 181
0 221 181
0 221 181
0 221 181
0 222 181
0 222 181
0 220 181
0 221 181
0 221 181
0 222 181
0 222 181
0 222 181
0 222 181
0 222 181
0 221 181
68 223 188
109 225 200
156 230 219
168 231 224
208 237 244
221 239 252
228 240 255
228 240 255
228 240 255
228 240 255
228 240 255
228 240 255
228 240 255
228 240 255
228 239 255
228 239 255
228 239 255
228 239 255
228 239 255
228 239 255
228 239 255
228 239 255
228 239 255
228 239 255
228 239 255
228 239 255
228 239 255
228 239 255
228 239 255
228 239 255
228 239 255
228 239 255
228 239 255
228 239 255
228 239 255
228 239 255
228 239 255
228 239 255
228 239 255
227 239 255
227 239 255
227 239 255
227 239 255
227 239 255
227 239 255
227 239 255
227 239 255
227 239 255
227 239 255
227 239 255
227 239 255
227 239 255
227 239 255
227 239 255
227 239 255
227 239 255
227 239 255
227 239 255
227 239 255
227 239 255
227 239 255
227 239 255
227 239 255
227 239 255
227 239 255
227 239 255
227 239 255
227 239 255
227 239 255
227 239 255
227 239 255
227 239 255
227 239 255
227 239 255
227 239 255
227 239 255
227 239 255
227 239 255
227 239 255
227 239 255
227 239 255
227 239 255
227 239 255
227 239 255
226 239 255
226 239 255
226 238 255
226 238 255
226 238 255
226 238 255
226 238 255
226 238 255
226 238 255
226 238 255
226 238 255
226 238 255
226 238 255
226 238 255
226 238 255
226 238 255
226 238 255
226 238 255
226 238 255
226 238 255
226 238 255
226 238 255
226 238 255
226 238 255
226 238 255
226 238 255
226 238 255
226 238 255
226 238 255
226 238 255
226 239 255
227 239 255
227 239 255
227 239 255
227 239 255
227 239 255
227 239 255
227 239 255
227 239 255
227 239 255
227 239 255
227 239 255
227 239 255
227 239 255
227 239 255
227 239 255
227 239 255
227 239 255
227 239 255
227 239 255
227 239 255
227 239 255
227 239 255
227 239 255
227 239 255
227 239 255
227 239 255
227 239 255
227 239 255
227 239 255
227 239 255
227 239 255
227 239 255
227 239 255
227 239 255
227 239 255
227 239 255
227 239 255
227 239 255
227 239 255
227 239 255
227 239 255
227 239 255
227 239 255
227 239 255
228 239 255
228 239 255
228 239 255
228 239 255
228 239 255
228 239 255
228 239 255
228 239 255
228 239 255
228 239 255
228 239 255
228 239 255
228 239 255
228 239 255
228 239 255
228 239 255
228 239 255
228 239 255
228 239 255
228 239 255
228 239 255
228 239 255
228 239 255
228 239 255
228 239 255
228 239 255
228 240 255
228 240 255
228 240 255
228 240 255
228 240 255
228 240 255
228 240 255
214 238 248
199 235 240
161 231 221
137 227 211
112 226 201
45 222 184
0 221 181
0 222 181
0 221 181
0 221 181
0 221 181
0 221 181
0 221 181
0 221 181
0 223 181
0 222 181
0 222 181
0 221 181
0 221 181
0 222 181
0 221 181
0 222 181
0 221 181
0 221 181
0 221 181
0 221 181
0 222 181
0 221 181
0 220 181
0 221 181
0 221 181
0 221 181
0 222 181
0 221 181
0 222 181
0 221 181
0 221 181
0 221 181
0 221 181
0 221 181
0 221 181
0 222 181
0 221 181
0 221 181
0 220 181
0 220 181
0 221 181
0 221 181
0 221 181
0 221 181
0 221 181
0 221 181
0 221 181
0 222 181
0 221 181
0 221 181
0 222 181
0 221 181
0 221 181
0 221 181
0 221 181
0 221 181
0 221 181
0 221 181
0 220 181
0 221 181
0 221 181
0 221 180
0 221 181
0 223 181
0 222 181
0 222 181
0 221 181
0 221 181
0 222 181
0 221 181
0 221 181
0 221 181
0 221 181
0 220 180
0 222 181
0 222 181
0 221 181
0 221 181
0 222 181
0 222 181
0 221 181
0 222 181
0 221 181
0 221 181
0 222 181
0 221 181
0 222 181
0 221 181
0 221 181
0 221 181
0 221 181
0 221 181
0 222 181
0 222 181
0 221 181
0 221 181
0 221 181
0 221 181
0 221 181
0 221 181
0 221 181
0 220 181
0 221 181
0 221 181
0 222 181
0 221 181
0 221 181
0 221 181
0 220 181
0 221 181
0 222 181
0 221 181
0 221 181
0 222 181
0 221 181
0 221 181
0 221 181
0 222 181
0 221 181
0 222 181
0 222 181
0 222 181
0 221 181
0 220 181
0 221 181
0 221 181
0 222 181
0 221 181
0 222 181
0 222 181
0 221 181
0 221 181
0 221 181
0 221 181
0 221 181
0 221 181
0 221 181
0 222 181
0 221 181
0 222 181
0 222 181
0 221 181
0 221 181
0 221 181
0 221 181
0 222 181
0 220 181
0 221 181
0 221 181
0 221 181
0 221 181
0 221 181
0 222 181
0 220 181
0 221 181
0 221 181
0 221 181
0 221 181
0 221 181
0 220 181
0 220 181
0 221 181
0 220 181
0 221 181
0 221 181
0 221 181
0 221 181
0 221 181
0 221 181
0 221 181
0 221 181
0 221 181
0 222 181
0 221 181
0 222 181
0 220 181
0 221 181
0 222 181
0 221 181
0 223 181
0 221 181
0 221 181
0 222 181
0 221 181
0 221 181
0 222 181
0 222 181
0 221 181
0 221 181
0 221 181
0 222 181
0 222 181
0 221 181
0 221 181
0 222 181
0 221 181
72 223 189
109 226 200
129 227 207
174 232 227
208 237 244
220 238 251
228 240 255
228 240 255
228 240 255
228 240 255
228 240 255
228 240 255
228 240 255
228 239 255
228 239 255
228 239 255
228 239 255
228 239 255
228 239 255
228 239 255
228 239 255
228 239 255
228 239 255
228 239 255
228 239 255
228 239 255
228 239 255
228 239 255
228 239 255
228 239 255
228 239 255
228 239 255
228 239 255
228 239 255
228 239 255
228 239 255
228 239 255
228 239 255
228 239 255
227 239 255
227 239 255
227 239 255
227 239 255
227 239 255
227 239 255
227 239 255
227 239 255
227 239 255
227 239 255
227 239 255
227 239 255
227 239 255
227 239 255
227 239 255
227 239 255
227 239 255
227 239 255
227 239 255
227 239 255
227 239 255
227 239 255
227 239 255
227 239 255
227 239 255
227 239 255
227 239 255
227 239 255
227 239 255
227 239 255
227 239 255
227 239 255
227 239 255
227 239 255
227 239 255
227 239 255
227 239 255
227 239 255
227 239 255
227 239 255
227 239 255
227 239 255
227 239 255
227 239 255
226 239 255
226 239 255
226 238 255
226 238 255
226 238 255
226 238 255
226 238 255
226 238 255
226 238 255
226 238 255
226 238 255
226 238 255
226 238 255
226 238 255
226 238 255
226 238 255
226 238 255
226 238 255
226 238 255
226 238 255
226 238 255
226 238 255
226 238 255
226 238 255
226 238 255
226 238 255
226 238 255
226 238 255
226 238 255
226 238 255
226 238 255
226 238 255
226 238 255
226 238 255
226 238 255
226 238 255
226 238 255
226 238 255
226 238 255
226 238 255
226 238 255
226 238 255
226 238 255
226 239 255
226 239 255
227 239 255
227 239 255
227 239 255
227 239 255
227 239 255
227 239 255
227 239 255
227 239 255
227 239 255
227 239 255
227 239 255
227 239 255
227 239 255
227 239 255
227 239 255
227 239 255
227 239 255
227 239 255
227 239 255
227 239 255
227 239 255
227 239 255
227 239 255
227 239 255
227 239 255
227 239 255
227 239 255
227 239 255
227 239 255
227 239 255
227 239 255
227 239 255
227 239 255
227 239 255
227 239 255
227 239 255
227 239 255
227 239 255
227 239 255
227 239 255
227 239 255
227 239 255
227 239 255
228 239 255
228 239 255
228 239 255
228 239 255
228 239 255
228 239 255
228 239 255
228 239 255
228 239 255
228 239 255
228 239 255
228 239 255
228 239 255
228 239 255
228 239 255
228 239 255
228 239 255
228 239 255
228 239 255
228 239 255
228 239 255
228 239 255
228 239 255
228 239 255
228 239 255
228 239 255
228 239 255
228 240 255
228 240 255
228 240 255
228 240 255
228 240 255
228 240 255
221 239 252
207 237 244
175 232 228
151 229 217
137 228 211
68 223 188
0 222 181
0 221 181
0 221 181
0 221 181
0 221 181
0 221 181
0 222 181
0 221 181
0 221 181
0 221 181
0 221 181
0 222 181
0 221 181
0 223 181
0 221 181
0 221 181
0 222 181
0 221 181
0 221 181
0 221 181
0 222 181
0 221 181
0 220 181
0 221 181
0 221 181
0 222 181
0 221 181
0 221 181
0 222 181
0 221 181
0 221 181
0 222 181
0 223 181
0 221 181
0 221 181
0 221 181
0 222 181
0 221 181
0 221 181
0 222 181
0 222 181
0 222 181
0 222 181
0 221 181
0 221 181
0 222 181
0 221 181
0 222 181
0 220 181
0 221 181
0 221 181
0 221 181
0 222 181
0 222 181
0 221 181
0 221 181
0 222 181
0 221 181
0 222 181
0 221 181
0 222 181
0 222 181
0 220 181
0 221 181
0 222 181
0 222 181
0 220 181
0 221 181
0 221 181
0 221 181
0 220 181
0 222 181
0 222 181
0 222 181
0 222 181
0 222 181
0 222 181
0 221 180
0 222 181
0 221 181
0 222 181
0 221 181
0 221 181
0 222 181
0 221 181
0 221 181
0 222 181
0 221 181
0 222 181
0 221 181
0 221 181
0 222 181
0 221 181
0 222 181
0 222 181
0 222 181
0 222 181
0 221 181
0 221 181
0 221 181
0 222 181
0 222 181
0 221 181
0 221 181
0 221 181
0 221 181
0 221 180
0 221 181
0 221 181
0 221 181
0 221 181
0 221 181
0 221 181
0 222 181
0 221 181
0 222 181
0 221 181
0 220 180
0 221 181
0 221 181
0 221 181
0 223 181
0 222 181
0 222 181
0 221 181
0 221 181
0 222 181
0 221 181
0 222 181
0 221 181
0 222 181
0 220 181
0 222 181
0 221 181
0 221 181
0 222 181
0 221 181
0 222 181
0 221 181
0 222 181
0 222 181
0 222 181
0 221 181
0 221 181
0 222 181
0 222 181
0 221 181
0 222 181
0 221 181
0 221 181
0 222 181
0 221 181
0 221 181
0 220 181
0 220 181
0 222 181
0 221 181
0 220 181
0 220 181
0 223 181
0 221 181
0 221 181
0 221 181
0 221 181
0 221 181
0 221 181
0 222 181
0 222 181
0 221 181
0 222 181
0 220 181
0 221 181
0 222 181
0 221 181
0 222 181
0 222 181
0 222 181
0 221 181
0 222 181
0 221 181
0 221 181
0 222 181
0 221 181
0 221 181
72 224 189
118 226 203
146 229 214
175 232 228
208 236 244
223 239 252
228 240 255
228 240 255
228 240 255
228 240 255
228 240 255
228 240 255
228 240 255
228 239 255
228 239 255
228 239 255
228 239 255
228 239 255
228 239 255
228 239 255
228 239 255
228 239 255
228 239 255
228 239 255
228 239 255
228 239 255
228 239 255
228 239 255
228 239 255
228 239 255
228 239 255
228 239 255
228 239 255
228 239 255
228 239 255
228 239 255
228 239 255
228 239 255
227 239 255
227 239 255
227 239 255
227 239 255
227 239 255
227 239 255
227 239 255
227 239 255
227 239 255
227 239 255
227 239 255
227 239 255
227 239 255
227 239 255
227 239 255
227 239 255
227 239 255
227 239 255
227 239 255
227 239 255
227 239 255
227 239 255
227 239 255
227 239 255
227 239 255
227 239 255
227 239 255
227 239 255
227 239 255
227 239 255
227 239 255
227 239 255
227 239 255
227 239 255
227 239 255
227 239 255
227 239 255
227 239 255
227 239 255
227 239 255
227 239 255
227 239 255
227 239 255
227 239 255
226 239 255
226 239 255
226 238 255
226 238 255
226 238 255
226 238 255
226 238 255
226 238 255
226 238 255
226 238 255
226 238 255
226 238 255
226 238 255
226 238 255
226 238 255
226 238 255
226 238 255
226 238 255
226 238 255
226 238 255
226 238 255
226 238 255
226 238 255
226 238 255
226 238 255
226 238 255
226 238 255
226 238 255
226 238 255
226 238 255
226 238 255
226 238 255
226 238 255
226 238 255
226 238 255
226 238 255
226 238 255
226 238 255
226 238 255
226 238 255
226 238 255
226 238 255
226 238 255
226 238 255
226 238 255
226 238 255
226 238 255
226 238 255
226 238 255
226 238 255
226 238 255
226 238 255
226 238 255
226 238 255
226 238 255
226 238 255
226 238 255
226 239 255
226 239 255
227 239 255
227 239 255
227 239 255
227 239 255
227 239 255
227 239 255
227 239 255
227 239 255
227 239 255
227 239 255
227 239 255
227 239 255
227 239 255
227 239 255
227 239 255
227 239 255
227 239 255
227 239 255
227 239 255
227 239 255
227 239 255
227 239 255
227 239 255
227 239 255
227 239 255
227 239 255
227 239 255
227 239 255
227 239 255
227 239 255
227 239 255
227 239 255
227 239 255
227 239 255
227 239 255
227 239 255
227 239 255
227 239 255
227 239 255
227 239 255
227 239 255
227 239 255
227 239 255
228 239 255
228 239 255
228 239 255
228 239 255
228 239 255
228 239 255
228 239 255
228 239 255
228 239 255
228 239 255
228 239 255
228 239 255
228 239 255
228 239 255
228 239 255
228 239 255
228 239 255
228 239 255
228 239 255
228 239 255
228 239 255
228 239 255
228 239 255
228 239 255
228 239 255
228 239 255
228 239 255
228 240 255
228 240 255
228 240 255
228 240 255
228 240 255
221 239 252
209 237 245
191 234 236
151 229 217
121 227 204
85 224 193
32 222 182
0 221 181
0 222 181
0 221 181
0 221 181
0 221 181
0 222 181
0 221 181
0 221 181
0 220 181
0 221 181
0 222 181
0 221 181
0 221 181
0 221 181
0 220 181
0 222 181
0 222 181
0 222 181
0 222 181
0 221 181
0 222 181
0 222 181
0 221 181
0 222 181
0 221 181
0 221 181
0 221 181
0 221 181
0 222 181
0 222 181
0 222 181
0 223 181
0 222 181
0 221 181
0 221 181
0 221 181
0 221 181
0 222 181
0 221 181
0 222 181
0 221 181
0 222 181
0 220 181
0 222 181
0 222 181
0 221 181
0 221 181
0 222 181
0 221 181
0 222 181
0 222 181
0 221 181
0 221 181
0 221 181
0 221 181
0 221 181
0 222 181
0 221 181
0 221 181
0 221 181
0 221 181
0 221 181
0 221 181
0 221 181
0 222 181
0 221 181
0 222 181
0 221 181
0 221 181
0 220 181
0 221 181
0 221 181
0 222 181
0 222 181
0 221 181
0 222 181
0 222 181
0 221 181
0 221 181
0 221 181
0 221 181
0 220 181
0 220 181
0 220 181
0 221 181
0 221 181
0 222 181
0 221 181
0 222 181
0 221 181
0 221 181
0 222 181
0 221 181
0 221 181
0 221 181
0 222 181
0 221 181
0 222 181
0 222 181
0 221 181
0 221 181
0 221 181
0 221 181
0 222 181
0 221 181
0 221 181
0 221 181
0 221 181
0 221 181
0 221 181
0 221 181
0 222 181
0 221 181
0 222 181
0 222 181
0 222 181
0 221 181
0 222 181
0 221 181
0 221 181
0 221 181
0 221 181
0 221 181
0 222 181
0 222 181
0 222 181
0 221 181
0 221 181
0 222 181
0 221 181
0 222 181
0 222 181
0 220 181
0 221 181
0 222 181
0 221 181
0 222 181
0 221 181
0 221 181
0 220 181
0 221 181
0 221 181
0 220 181
0 221 181
0 221 181
0 221 181
0 221 181
0 222 181
0 221 181
0 221 181
0 222 181
0 222 181
0 221 181
0 222 181
0 222 181
0 221 181
0 221 181
0 221 181
0 221 181
0 221 181
0 222 181
0 221 181
0 221 181
0 220 181
0 221 181
0 222 181
0 222 181
0 220 181
0 222 181
0 222 181
72 223 189
104 225 199
142 228 213
161 230 221
180 233 230
202 236 241
221 238 252
228 240 255
228 240 255
228 240 255
228 240 255
228 240 255
228 239 255
228 239 255
228 239 255
228 239 255
228 239 255
228 239 255
228 239 255
228 239 255
228 239 255
228 239 255
228 239 255
228 239 255
228 239 255
228 239 255
228 239 255
228 239 255
228 239 255
228 239 255
228 239 255
228 239 255
228 239 255
228 239 255
228 239 255
228 239 255
228 239 255
228 239 255
228 239 255
227 239 255
227 239 255
227 239 255
227 239 255
227 239 255
227 239 255
227 239 255
227 239 255
227 239 255
227 239 255
227 239 255
227 239 255
227 239 255
227 239 255
227 239 255
227 239 255
227 239 255
227 239 255
227 239 255
227 239 255
227 239 255
227 239 255
227 239 255
227 239 255
227 239 255
227 239 255
227 239 255
227 239 255
227 239 255
227 239 255
227 239 255
227 239 255
227 239 255
227 239 255
227 239 255
227 239 255
227 239 255
227 239 255
227 239 255
227 239 255
227 239 255
227 239 255
227 239 255
226 239 255
226 239 255
226 238 255
226 238 255
226 238 255
226 238 255
226 238 255
226 238 255
226 238 255
226 238 255
226 238 255
226 238 255
226 238 255
226 238 255
226 238 255
226 238 255
226 238 255
226 238 255
226 238 255
226 238 255
226 238 255
226 238 255
226 238 255
226 238 255
226 238 255
226 238 255
226 238 255
226 238 255
226 238 255
226 238 255
226 238 255
226 238 255
226 238 255
226 238 255
226 238 255
226 238 255
226 238 255
226 238 255
226 238 255
226 238 255
226 238 255
226 238 255
226 238 255
226 238 255
226 238 255
226 238 255
226 238 255
226 238 255
226 238 255
226 238 255
226 238 255
226 238 255
226 238 255
226 238 255
226 238 255
226 238 255
226 238 255
226 238 255
226 238 255
226 238 255
226 238 255
226 238 255
226 238 255
226 238 255
226 238 255
226 238 255
226 238 255
226 238 255
226 238 255
226 238 255
226 238 255
226 239 255
226 239 255
226 239 255
227 239 255
227 239 255
227 239 255
227 239 255
227 239 255
227 239 255
227 239 255
227 239 255
227 239 255
227 239 255
227 239 255
227 239 255
227 239 255
227 239 255
227 239 255
227 239 255
227 239 255
227 239 255
227 239 255
227 239 255
227 239 255
227 239 255
227 239 255
227 239 255
227 239 255
227 239 255
227 239 255
227 239 255
227 239 255
227 239 255
227 239 255
227 239 255
227 239 255
227 239 255
227 239 255
227 239 255
227 239 255
227 239 255
227 239 255
227 239 255
227 239 255
227 239 255
228 239 255
228 239 255
228 239 255
228 239 255
228 239 255
228 239 255
228 239 255
228 239 255
228 239 255
228 239 255
228 239 255
228 239 255
228 239 255
228 239 255
228 239 255
228 239 255
228 239 255
228 239 255
228 239 255
228 239 255
228 239 255
228 239 255
228 239 255
228 239 255
228 239 255
228 239 255
228 239 255
228 240 255
228 240 255
228 240 255
228 240 255
228 240 255
214 237 248
202 235 241
181 233 231
153 230 217
135 228 210
91 225 194
51 223 185
0 222 181
0 221 181
0 221 181
0 222 181
0 221 181
0 221 181
0 221 181
0 221 181
0 222 181
0 222 181
0 221 181
0 221 181
0 222 181
0 222 181
0 221 181
0 222 181
0 221 181
0 221 181
0 223 181
0 221 181
0 222 181
0 222 181
0 221 181
0 222 181
0 222 181
0 222 181
0 221 181
0 221 181
0 222 181
0 222 181
0 221 181
0 221 181
0 221 181
0 221 181
0 220 181
0 222 181
0 221 181
0 221 181
0 221 181
0 221 181
0 222 181
0 221 181
0 222 181
0 221 181
0 221 181
0 222 181
0 222 181
0 220 181
0 221 181
0 222 181
0 221 181
0 222 181
0 221 181
0 221 180
0 221 181
0 221 181
0 221 181
0 222 181
0 221 181
0 221 181
0 221 181
0 222 181
0 222 181
0 222 181
0 222 181
0 221 181
0 221 181
0 221 181
0 221 181
0 221 181
0 222 181
0 221 181
0 222 181
0 221 181
0 221 181
0 221 181
0 221 181
0 222 181
0 221 181
0 221 181
0 221 181
0 221 181
0 221 181
0 222 181
0 222 181
0 220 180
0 221 181
0 221 181
0 222 181
0 221 181
0 222 181
0 221 181
0 221 181
0 220 180
0 221 181
0 221 181
0 221 181
0 222 181
0 221 181
0 221 181
0 222 181
0 222 181
0 221 181
0 222 181
0 221 181
0 222 181
0 221 181
0 222 181
0 222 181
0 222 181
0 221 181
0 221 181
0 222 181
0 221 181
0 222 181
0 223 181
0 220 181
0 222 181
0 221 181
0 222 181
0 222 181
0 221 181
0 220 181
0 221 181
0 221 181
0 222 181
0 221 181
0 221 181
0 222 181
0 222 181
0 221 181
0 221 181
0 222 181
0 222 181
0 220 181
0 222 181
0 222 181
0 222 181
0 221 181
0 221 181
0 221 181
0 221 181
0 221 181
0 220 181
0 221 181
0 222 181
0 221 181
0 223 181
0 221 181
0 220 181
0 222 181
0 221 181
0 221 181
0 222 181
0 221 181
0 222 181
79 223 191
85 224 193
137 228 211
158 230 220
184 233 232
200 235 240
219 238 250
228 240 255
228 240 255
228 240 255
228 240 255
228 239 255
228 239 255
228 239 255
228 239 255
228 239 255
228 239 255
228 239 255
228 239 255
228 239 255
228 239 255
228 239 255
228 239 255
228 239 255
228 239 255
228 239 255
228 239 255
228 239 255
228 239 255
228 239 255
228 239 255
228 239 255
228 239 255
228 239 255
228 239 255
228 239 255
228 239 255
228 239 255
228 239 255
227 239 255
227 239 255
227 239 255
227 239 255
227 239 255
227 239 255
227 239 255
227 239 255
227 239 255
227 239 255
227 239 255
227 239 255
227 239 255
227 239 255
227 239 255
227 239 255
227 239 255
227 239 255
227 239 255
227 239 255
227 239 255
227 239 255
227 239 255
227 239 255
227 239 255
227 239 255
227 239 255
227 239 255
227 239 255
227 239 255
227 239 255
227 239 255
227 239 255
227 239 255
227 239 255
227 239 255
227 239 255
227 239 255
227 239 255
227 239 255
227 239 255
227 239 255
226 239 255
226 239 255
226 238 255
226 238 255
226 238 255
226 238 255
226 238 255
226 238 255
226 238 255
226 238 255
226 238 255
226 238 255
226 238 255
226 238 255
226 238 255
226 238 255
226 238 255
226 238 255
226 238 255
226 238 255
226 238 255
226 238 255
226 238 255
226 238 255
226 238 255
226 238 255
226 238 255
226 238 255
226 238 255
226 238 255
226 238 255
226 238 255
226 238 255
226 238 255
226 238 255
226 238 255
226 238 255
226 238 255
226 238 255
226 238 255
226 238 255
226 238 255
226 238 255
226 238 255
226 238 255
226 238 255
226 238 255
226 238 255
226 238 255
226 238 255
226 238 255
226 238 255
226 238 255
226 238 255
226 238 255
226 238 255
226 238 255
226 238 255
226 238 255
226 238 255
226 238 255
226 238 255
226 238 255
226 238 255
226 238 255
226 238 255
226 238 255
226 238 255
226 238 255
226 238 255
226 238 255
226 238 255
226 238 255
226 238 255
226 238 255
226 238 255
226 238 255
226 238 255
226 238 255
226 238 255
226 238 255
226 238 255
226 238 255
226 238 255
226 238 255
226 238 255
226 238 255
226 239 255
226 239 255
227 239 255
227 239 255
227 239 255
227 239 255
227 239 255
227 239 255
227 239 255
227 239 255
227 239 255
227 239 255
227 239 255
227 239 255
227 239 255
227 239 255
227 239 255
227 239 255
227 239 255
227 239 255
227 239 255
227 239 255
227 239 255
227 239 255
227 239 255
227 239 255
227 239 255
227 239 255
227 239 255
227 239 255
227 239 255
227 239 255
227 239 255
227 239 255
227 239 255
227 239 255
227 239 255
227 239 255
227 239 255
227 239 255
227 239 255
227 239 255
227 239 255
227 239 255
227 239 255
228 239 255
228 239 255
228 239 255
228 239 255
228 239 255
228 239 255
228 239 255
228 239 255
228 239 255
228 239 255
228 239 255
228 239 255
228 239 255
228 239 255
228 239 255
228 239 255
228 239 255
228 239 255
228 239 255
228 239 255
228 239 255
228 239 255
228 239 255
228 239 255
228 239 255
228 239 255
228 239 255
228 240 255
228 240 255
228 240 255
228 240 255
214 238 248
187 234 233
184 233 232
156 231 219
141 229 212
123 227 205
79 224 191
22 221 181
0 221 181
0 220 181
0 221 181
0 221 181
0 221 181
0 222 181
0 222 181
0 221 181
0 221 181
0 221 181
0 221 181
0 221 181
0 221 181
0 220 181
0 221 181
0 221 181
0 222 181
0 221 181
0 221 181
0 220 181
0 223 181
0 221 181
0 221 181
0 221 181
0 221 181
0 221 181
0 221 181
0 222 181
0 221 181
0 221 181
0 222 181
0 221 181
0 221 181
0 222 181
0 221 181
0 221 181
0 222 181
0 221 181
0 221 181
0 221 181
0 221 181
0 221 181
0 221 181
0 221 181
0 221 181
0 221 181
0 221 181
0 221 181
0 222 181
0 222 181
0 220 181
0 221 181
0 221 181
0 221 181
0 222 181
0 222 181
0 222 181
0 222 181
0 221 181
0 221 181
0 221 181
0 220 181
0 221 181
0 221 181
0 221 181
0 221 181
0 221 181
0 222 181
0 221 181
0 222 181
0 221 181
0 221 181
0 221 181
0 221 181
0 221 181
0 221 181
0 221 181
0 221 181
0 221 181
0 221 181
0 222 181
0 222 181
0 221 181
0 222 181
0 222 181
0 222 181
0 221 181
0 221 181
0 222 181
0 220 181
0 221 181
0 221 181
0 220 181
0 221 181
0 221 181
0 223 181
0 222 181
0 220 181
0 220 181
0 221 181
0 221 181
0 222 181
0 221 181
0 222 181
0 221 181
0 221 181
0 220 181
0 221 181
0 221 181
0 221 181
0 222 181
0 222 181
0 221 181
0 221 181
0 221 181
0 222 181
0 222 181
0 222 181
0 222 181
0 221 181
0 221 181
0 222 181
0 221 181
0 222 181
0 222 181
0 222 181
0 221 181
0 221 181
0 222 181
0 221 181
0 221 181
0 221 181
0 222 181
0 222 181
0 220 181
0 222 181
0 222 181
0 221 181
0 222 181
0 222 181
0 221 181
51 222 185
118 226 203
135 227 210
160 230 220
185 234 233
200 236 240
217 238 249
228 240 255
228 240 255
228 240 255
228 240 255
228 239 255
228 239 255
228 239 255
228 239 255
228 239 255
228 239 255
228 239 255
228 239 255
228 239 255
228 239 255
228 239 255
228 239 255
228 239 255
228 239 255
228 239 255
228 239 255
228 239 255
228 239 255
228 239 255
228 239 255
228 239 255
228 239 255
228 239 255
228 239 255
228 239 255
228 239 255
228 239 255
228 239 255
227 239 255
227 239 255
227 239 255
227 239 255
227 239 255
227 239 255
227 239 255
227 239 255
227 239 255
227 239 255
227 239 255
227 239 255
227 239 255
227 239 255
227 239 255
227 239 255
227 239 255
227 239 255
227 239 255
227 239 255
227 239 255
227 239 255
227 239 255
227 239 255
227 239 255
227 239 255
227 239 255
227 239 255
227 239 255
227 239 255
227 239 255
227 239 255
227 239 255
227 239 255
227 239 255
227 239 255
227 239 255
227 239 255
227 239 255
227 239 255
227 239 255
227 239 255
226 239 255
226 239 255
226 238 255
226 238 255
226 238 255
226 238 255
226 238 255
226 238 255
226 238 255
226 238 255
226 238 255
226 238 255
226 238 255
226 238 255
226 238 255
226 238 255
226 238 255
226 238 255
226 238 255
226 238 255
226 238 255
226 238 255
226 238 255
226 238 255
226 238 255
226 238 255
226 238 255
226 238 255
226 238 255
226 238 255
226 238 255
226 238 255
226 238 255
226 238 255
226 238 255
226 238 255
226 238 255
226 238 255
226 238 255
226 238 255
226 238 255
226 238 255
226 238 255
226 238 255
226 238 255
226 238 255
226 238 255
226 238 255
225 238 255
226 238 255
226 238 255
226 238 255
226 238 255
226 238 255
226 238 255
226 238 255
226 238 255
226 238 255
226 238 255
226 238 255
226 238 255
226 238 255
226 238 255
226 238 255
226 238 255
226 238 255
226 238 255
226 238 255
226 238 255
226 238 255
226 238 255
226 238 255
226 238 255
226 238 255
226 238 255
226 238 255
226 238 255
226 238 255
226 238 255
226 238 255
226 238 255
226 238 255
226 238 255
226 238 255
226 238 255
226 238 255
226 238 255
226 238 255
226 238 255
226 238 255
226 238 255
226 238 255
226 238 255
226 238 255
226 238 255
226 238 255
226 238 255
226 238 255
226 238 255
226 238 255
226 238 255
226 239 255
226 239 255
226 239 255
227 239 255
227 239 255
227 239 255
227 239 255
227 239 255
227 239 255
227 239 255
227 239 255
227 239 255
227 239 255
227 239 255
227 239 255
227 239 255
227 239 255
227 239 255
227 239 255
227 239 255
227 239 255
227 239 255
227 239 255
227 239 255
227 239 255
227 239 255
227 239 255
227 239 255
227 239 255
227 239 255
227 239 255
227 239 255
227 239 255
227 239 255
227 239 255
227 239 255
227 239 255
227 239 255
227 239 255
227 239 255
227 239 255
227 239 255
227 239 255
227 239 255
227 239 255
228 239 255
228 239 255
228 239 255
228 239 255
228 239 255
228 239 255
228 239 255
228 239 255
228 239 255
228 239 255
228 239 255
228 239 255
228 239 255
228 239 255
228 239 255
228 239 255
228 239 255
228 239 255
228 239 255
228 239 255
228 239 255
228 239 255
228 239 255
228 239 255
228 239 255
228 239 255
228 239 255
228 239 255
228 240 255
228 240 255
228 240 255
226 239 254
205 236 243
191 234 236
177 233 228
166 231 223
153 230 217
99 225 197
88 224 194
51 222 185
0 221 181
0 222 181
0 222 181
0 221 181
0 221 181
0 221 181
0 222 181
0 222 181
0 221 181
0 222 181
0 221 181
0 221 181
0 221 181
0 221 181
0 221 181
0 222 181
0 221 181
0 222 181
0 222 181
0 221 181
0 222 181
0 221 181
0 220 181
0 221 181
0 222 181
0 221 181
0 220 181
0 221 181
0 222 181
0 222 181
0 222 181
0 222 181
0 221 181
0 220 181
0 221 181
0 222 181
0 222 181
0 221 181
0 221 181
0 221 181
0 222 181
0 222 181
0 222 181
0 221 181
0 221 181
0 221 181
0 222 181
0 223 181
0 221 181
0 221 181
0 221 181
0 221 181
0 221 181
0 221 181
0 221 181
0 221 181
0 222 181
0 222 181
0 221 181
0 222 181
0 221 181
0 221 181
0 221 181
0 221 181
0 222 181
0 221 181
0 222 181
0 220 181
0 221 181
0 222 181
0 221 181
0 221 181
0 222 181
0 221 181
0 221 181
0 221 181
0 223 181
0 222 181
0 221 181
0 221 181
0 221 181
0 221 181
0 221 181
0 219 180
0 221 181
0 221 181
0 222 181
0 222 181
0 221 181
0 222 181
0 221 181
0 221 181
0 221 181
0 222 181
0 220 181
0 222 181
0 222 181
0 221 181
0 222 181
0 222 181
0 220 181
0 221 181
0 221 181
0 221 181
0 221 181
0 220 181
0 221 181
0 222 181
0 221 181
0 222 181
0 221 181
0 222 181
0 222 181
0 222 181
0 222 181
0 222 181
0 222 181
0 221 181
0 221 181
0 222 181
0 221 181
0 221 181
0 221 181
0 222 181
22 222 181
88 224 194
112 226 201
155 230 218
156 230 219
178 233 229
188 235 234
217 238 249
225 239 254
228 240 255
228 240 255
228 240 255
228 239 255
228 239 255
228 239 255
228 239 255
228 239 255
228 239 255
228 239 255
228 239 255
228 239 255
228 239 255
228 239 255
228 239 255
228 239 255
228 239 255
228 239 255
228 239 255
228 239 255
228 239 255
228 239 255
228 239 255
228 239 255
228 239 255
228 239 255
228 239 255
228 239 255
228 239 255
228 239 255
227 239 255
227 239 255
227 239 255
227 239 255
227 239 255
227 239 255
227 239 255
227 239 255
227 239 255
227 239 255
227 239 255
227 239 255
227 239 255
227 239 255
227 239 255
227 239 255
227 239 255
227 239 255
227 239 255
227 239 255
227 239 255
227 239 255
227 239 255
227 239 255
227 239 255
227 239 255
227 239 255
227 239 255
227 239 255
227 239 255
227 239 255
227 239 255
227 239 255
227 239 255
227 239 255
227 239 255
227 239 255
227 239 255
227 239 255
227 239 255
227 239 255
227 239 255
227 239 255
227 239 255
226 239 255
226 238 255
226 238 255
226 238 255
226 238 255
226 238 255
226 238 255
226 238 255
226 238 255
226 238 255
226 238 255
226 238 255
226 238 255
226 238 255
226 238 255
226 238 255
226 238 255
226 238 255
226 238 255
226 238 255
226 238 255
226 238 255
226 238 255
226 238 255
226 238 255
226 238 255
226 238 255
226 238 255
226 238 255
226 238 255
226 238 255
226 238 255
226 238 255
226 238 255
226 238 255
226 238 255
226 238 255
226 238 255
226 238 255
226 238 255
226 238 255
226 238 255
226 238 255
226 238 255
226 238 255
226 238 255
226 238 255
226 238 255
226 238 255
226 238 255
226 238 255
226 238 255
226 238 255
226 238 255
225 238 255
225 238 255
225 238 255
225 238 255
225 238 255
225 238 255
225 238 255
225 238 255
225 238 255
225 238 255
226 238 255
226 238 255
226 238 255
226 238 255
226 238 255
226 238 255
226 238 255
226 238 255
226 238 255
226 238 255
226 238 255
226 238 255
226 238 255
226 238 255
226 238 255
226 238 255
226 238 255
226 238 255
226 238 255
226 238 255
226 238 255
226 238 255
226 238 255
226 238 255
226 238 255
226 238 255
226 238 255
226 238 255
226 238 255
226 238 255
226 238 255
226 238 255
226 238 255
226 238 255
226 238 255
226 238 255
226 238 255
226 238 255
226 238 255
226 238 255
226 238 255
226 238 255
226 238 255
226 238 255
226 238 255
226 238 255
226 238 255
226 238 255
226 238 255
226 238 255
226 238 255
226 238 255
226 238 255
226 239 255
227 239 255
227 239 255
227 239 255
227 239 255
227 239 255
227 239 255
227 239 255
227 239 255
227 239 255
227 239 255
227 239 255
227 239 255
227 239 255
227 239 255
227 239 255
227 239 255
227 239 255
227 239 255
227 239 255
227 239 255
227 239 255
227 239 255
227 239 255
227 239 255
227 239 255
227 239 255
227 239 255
227 239 255
227 239 255
227 239 255
227 239 255
227 239 255
227 239 255
227 239 255
227 239 255
227 239 255
227 239 255
227 239 255
227 239 255
227 239 255
227 239 255
227 239 255
227 239 255
228 239 255
228 239 255
228 239 255
228 239 255
228 239 255
228 239 255
228 239 255
228 239 255
228 239 255
228 239 255
228 239 255
228 239 255
228 239 255
228 239 255
228 239 255
228 239 255
228 239 255
228 239 255
228 239 255
228 239 255
228 239 255
228 239 255
228 239 255
228 239 255
228 239 255
228 239 255
228 239 255
228 239 255
228 239 255
228 239 255
228 240 255
227 239 255
210 237 246
208 236 244
191 234 236
171 232 226
142 229 213
114 226 202
123 226 205
72 224 189
32 223 182
0 222 181
0 221 181
0 220 181
0 222 181
0 222 181
0 222 181
0 221 181
0 221 181
0 222 181
0 220 181
0 221 181
0 221 181
0 222 181
0 222 181
0 221 181
0 221 181
0 221 181
0 222 181
0 221 181
0 221 181
0 222 181
0 221 181
0 221 181
0 222 181
0 220 181
0 222 181
0 223 181
0 220 181
0 221 181
0 221 181
0 222 181
0 223 181
0 222 181
0 223 181
0 221 181
0 221 181
0 221 181
0 221 181
0 221 181
0 221 181
0 220 181
0 221 181
0 222 181
0 221 181
0 221 181
0 221 181
0 222 181
0 221 181
0 222 181
0 222 181
0 221 181
0 221 181
0 221 181
0 221 181
0 221 181
0 220 181
0 221 181
0 222 181
0 221 181
0 221 181
0 221 181
0 221 181
0 221 181
0 222 181
0 221 181
0 221 181
0 221 181
0 221 181
0 221 181
0 222 181
0 222 181
0 222 181
0 221 181
0 221 181
0 220 181
0 221 181
0 222 181
0 221 181
0 221 181
0 221 181
0 220 181
0 222 181
0 221 181
0 221 181
0 222 181
0 222 181
0 221 181
0 221 181
0 221 181
0 221 181
0 221 181
0 222 181
0 222 181
0 222 181
0 221 181
0 222 181
0 221 181
0 221 181
0 221 181
0 221 181
0 221 181
0 221 181
0 222 181
0 221 181
0 222 181
0 222 181
51 222 185
79 224 191
118 227 203
135 228 210
139 228 211
174 232 227
187 234 233
208 237 244
219 238 250
228 240 255
228 240 255
228 240 255
228 239 255
228 239 255
228 239 255
228 239 255
228 239 255
228 239 255
228 239 255
228 239 255
228 239 255
228 239 255
228 239 255
228 239 255
228 239 255
228 239 255
228 239 255
228 239 255
228 239 255
228 239 255
228 239 255
228 239 255
228 239 255
228 239 255
228 239 255
228 239 255
228 239 255
228 239 255
228 239 255
228 239 255
228 239 255
227 239 255
227 239 255
227 239 255
227 239 255
227 239 255
227 239 255
227 239 255
227 239 255
227 239 255
227 239 255
227 239 255
227 239 255
227 239 255
227 239 255
227 239 255
227 239 255
227 239 255
227 239 255
227 239 255
227 239 255
227 239 255
227 239 255
227 239 255
227 239 255
227 239 255
227 239 255
227 239 255
227 239 255
227 239 255
227 239 255
227 239 255
227 239 255
227 239 255
227 239 255
227 239 255
227 239 255
227 239 255
227 239 255
227 239 255
227 239 255
227 239 255
227 239 255
227 239 255
226 239 255
226 239 255
226 238 255
226 238 255
226 238 255
226 238 255
226 238 255
226 238 255
226 238 255
226 238 255
226 238 255
226 238 255
226 238 255
226 238 255
226 238 255
226 238 255
226 238 255
226 238 255
226 238 255
226 238 255
226 238 255
226 238 255
226 238 255
226 238 255
226 238 255
226 238 255
226 238 255
226 238 255
226 238 255
226 238 255
226 238 255
226 238 255
226 238 255
226 238 255
226 238 255
226 238 255
226 238 255
226 238 255
226 238 255
226 238 255
226 238 255
226 238 255
226 238 255
226 238 255
226 238 255
226 238 255
226 238 255
226 238 255
226 238 255
226 238 255
226 238 255
226 238 255
226 238 255
226 238 255
225 238 255
225 238 255
225 238 255
225 238 255
225 238 255
225 238 255
225 238 255
225 238 255
225 238 255
225 238 255
225 238 255
225 238 255
225 238 255
225 238 255
225 238 255
225 238 255
225 238 255
225 238 255
225 238 255
225 238 255
225 238 255
225 238 255
225 238 255
225 238 255
225 238 255
225 238 255
225 238 255
226 238 255
226 238 255
226 238 255
226 238 255
226 238 255
226 238 255
226 238 255
226 238 255
226 238 255
226 238 255
226 238 255
226 238 255
226 238 255
226 238 255
226 238 255
226 238 255
226 238 255
226 238 255
226 238 255
226 238 255
226 238 255
226 238 255
226 238 255
226 238 255
226 238 255
226 238 255
226 238 255
226 238 255
226 238 255
226 238 255
226 238 255
226 238 255
226 238 255
226 238 255
226 238 255
226 238 255
226 238 255
226 238 255
226 238 255
226 238 255
226 238 255
226 238 255
226 238 255
226 238 255
226 238 255
226 238 255
226 238 255
226 238 255
226 238 255
226 238 255
226 238 255
226 239 255
226 239 255
226 239 255
227 239 255
227 239 255
227 239 255
227 239 255
227 239 255
227 239 255
227 239 255
227 239 255
227 239 255
227 239 255
227 239 255
227 239 255
227 239 255
227 239 255
227 239 255
227 239 255
227 239 255
227 239 255
227 239 255
227 239 255
227 239 255
227 239 255
227 239 255
227 239 255
227 239 255
227 239 255
227 239 255
227 239 255
227 239 255
227 239 255
227 239 255
227 239 255
227 239 255
227 239 255
227 239 255
227 239 255
227 239 255
227 239 255
227 239 255
227 239 255
227 239 255
227 239 255
227 239 255
228 239 255
228 239 255
228 239 255
228 239 255
228 239 255
228 239 255
228 239 255
228 239 255
228 239 255
228 239 255
228 239 255
228 239 255
228 239 255
228 239 255
228 239 255
228 239 255
228 239 255
228 239 255
228 239 255
228 239 255
228 239 255
228 239 255
228 239 255
228 239 255
228 239 255
228 239 255
228 239 255
228 239 255
228 239 255
228 239 255
228 239 255
228 240 255
221 239 252
215 237 248
198 235 239
187 234 233
184 234 232
150 230 216
141 228 212
123 226 205
102 224 198
91 224 194
32 222 182
0 220 181
0 222 181
0 221 181
0 220 181
0 221 181
0 221 181
0 221 181
0 222 181
0 222 181
0 221 181
0 221 181
0 221 181
0 222 181
0 221 181
0 222 181
0 220 181
0 221 181
0 221 181
0 223 181
0 221 181
0 221 181
0 222 181
0 222 181
0 221 181
0 221 181
0 222 181
0 221 181
0 221 181
0 222 181
0 222 181
0 221 181
0 221 181
0 221 181
0 221 181
0 222 181
0 221 181
0 221 181
0 221 181
0 221 181
0 222 181
0 221 181
0 221 181
0 221 181
0 220 181
0 221 181
0 222 181
0 221 181
0 221 181
0 221 181
0 221 181
0 222 181
0 221 181
0 221 181
0 221 181
0 222 181
0 221 181
0 222 181
0 222 181
0 222 181
0 221 181
0 221 181
0 221 181
0 221 181
0 222 181
0 221 181
0 222 181
0 221 181
0 221 181
0 220 181
0 221 181
0 220 181
0 222 181
0 221 181
0 222 181
0 221 181
0 222 181
0 221 181
0 221 181
0 220 181
0 221 181
0 222 181
0 222 181
0 220 181
0 221 181
45 223 184
79 223 191
114 226 202
118 226 203
131 228 208
144 229 214
166 231 223
188 234 234
202 235 241
200 236 240
224 239 253
228 240 255
228 239 255
228 239 255
228 239 255
228 239 255
228 239 255
228 239 255
228 239 255
228 239 255
228 239 255
228 239 255
228 239 255
228 239 255
228 239 255
228 239 255
228 239 255
228 239 255
228 239 255
228 239 255
228 239 255
228 239 255
228 239 255
228 239 255
228 239 255
228 239 255
228 239 255
228 239 255
228 239 255
228 239 255
228 239 255
228 239 255
228 239 255
227 239 255
227 239 255
227 239 255
227 239 255
227 239 255
227 239 255
227 239 255
227 239 255
227 239 255
227 239 255
227 239 255
227 239 255
227 239 255
227 239 255
227 239 255
227 239 255
227 239 255
227 239 255
227 239 255
227 239 255
227 239 255
227 239 255
227 239 255
227 239 255
227 239 255
227 239 255
227 239 255
227 239 255
227 239 255
227 239 255
227 239 255
227 239 255
227 239 255
227 239 255
227 239 255
227 239 255
227 239 255
227 239 255
227 239 255
227 239 255
227 239 255
227 239 255
227 239 255
227 239 255
226 239 255
226 239 255
226 238 255
226 238 255
226 238 255
226 238 255
226 238 255
226 238 255
226 238 255
226 238 255
226 238 255
226 238 255
226 238 255
226 238 255
226 238 255
226 238 255
226 238 255
226 238 255
226 238 255
226 238 255
226 238 255
226 238 255
226 238 255
226 238 255
226 238 255
226 238 255
226 238 255
226 238 255
226 238 255
226 238 255
226 238 255
226 238 255
226 238 255
226 238 255
226 238 255
226 238 255
226 238 255
226 238 255
226 238 255
226 238 255
226 238 255
226 238 255
226 238 255
226 238 255
226 238 255
226 238 255
226 238 255
226 238 255
226 238 255
226 238 255
226 238 255
226 238 255
226 238 255
225 238 255
225 238 255
225 238 255
225 238 255
225 238 255
225 238 255
225 238 255
225 238 255
225 238 255
225 238 255
225 238 255
225 238 255
225 238 255
225 238 255
225 238 255
225 238 255
225 238 255
225 238 255
225 238 255
225 238 255
225 238 255
225 238 255
225 238 255
225 238 255
225 238 255
225 238 255
225 238 255
225 238 255
225 238 255
225 238 255
225 238 255
225 238 255
225 238 255
225 238 255
225 238 255
225 238 255
225 238 255
225 238 255
225 238 255
225 238 255
225 238 255
225 238 255
225 238 255
225 238 255
226 238 255
226 238 255
226 238 255
226 238 255
226 238 255
226 238 255
226 238 255
226 238 255
226 238 255
226 238 255
226 238 255
226 238 255
226 238 255
226 238 255
226 238 255
226 238 255
226 238 255
226 238 255
226 238 255
226 238 255
226 238 255
226 238 255
226 238 255
226 238 255
226 238 255
226 238 255
226 238 255
226 238 255
226 238 255
226 238 255
226 238 255
226 238 255
226 238 255
226 238 255
226 238 255
226 238 255
226 238 255
226 238 255
226 238 255
226 238 255
226 238 255
226 238 255
226 238 255
226 238 255
226 238 255
226 238 255
226 238 255
226 238 255
226 238 255
226 238 255
226 238 255
226 239 255
226 239 255
227 239 255
227 239 255
227 239 255
227 239 255
227 239 255
227 239 255
227 239 255
227 239 255
227 239 255
227 239 255
227 239 255
227 239 255
227 239 255
227 239 255
227 239 255
227 239 255
227 239 255
227 239 255
227 239 255
227 239 255
227 239 255
227 239 255
227 239 255
227 239 255
227 239 255
227 239 255
227 239 255
227 239 255
227 239 255
227 239 255
227 239 255
227 239 255
227 239 255
227 239 255
227 239 255
227 239 255
227 239 255
227 239 255
227 239 255
227 239 255
227 239 255
227 239 255
227 239 255
227 239 255
227 239 255
227 239 255
228 239 255
228 239 255
228 239 255
228 239 255
228 239 255
228 239 255
228 239 255
228 239 255
228 239 255
228 239 255
228 239 255
228 239 255
228 239 255
228 239 255
228 239 255
228 239 255
228 239 255
228 239 255
228 239 255
228 239 255
228 239 255
228 239 255
228 239 255
228 239 255
228 239 255
228 239 255
228 239 255
228 239 255
228 239 255
228 239 255
228 239 255
228 239 255
228 239 255
220 238 251
220 238 251
204 236 242
196 234 238
194 235 237
164 231 223
166 231 223
153 229 217
141 229 212
127 227 207
109 225 200
91 224 194
75 224 190
60 223 187
39 223 183
0 222 181
0 221 181
0 220 181
0 220 181
0 221 181
0 222 181
0 220 181
0 222 181
0 220 181
0 221 181
0 221 181
0 221 181
0 222 181
0 222 181
0 221 181
0 221 181
0 222 181
0 222 181
0 220 181
0 222 181
0 221 181
0 221 181
0 222 181
0 220 181
0 221 181
0 222 181
0 222 181
0 222 181
0 222 181
0 222 181
0 221 181
0 222 181
0 221 181
0 222 181
0 222 181
0 222 181
0 221 181
0 221 181
0 221 181
0 222 181
0 222 181
0 222 181
0 222 181
0 221 181
0 221 181
0 222 181
0 222 181
0 220 181
0 221 181
0 221 181
0 221 181
0 221 181
0 221 181
0 221 181
22 221 181
60 223 187
79 224 191
94 225 195
104 225 199
131 228 208
131 227 208
156 230 219
172 232 226
172 232 226
181 233 231
196 235 238
196 235 238
216 237 249
225 239 254
228 239 255
228 239 255
228 239 255
228 239 255
228 239 255
228 239 255
228 239 255
228 239 255
228 239 255
228 239 255
228 239 255
228 239 255
228 239 255
228 239 255
228 239 255
228 239 255
228 239 255
228 239 255
228 239 255
228 239 255
228 239 255
228 239 255
228 239 255
228 239 255
228 239 255
228 239 255
228 239 255
228 239 255
228 239 255
228 239 255
228 239 255
228 239 255
228 239 255
228 239 255
227 239 255
227 239 255
227 239 255
227 239 255
227 239 255
227 239 255
227 239 255
227 239 255
227 239 255
227 239 255
227 239 255
227 239 255
227 239 255
227 239 255
227 239 255
227 239 255
227 239 255
227 239 255
227 239 255
227 239 255
227 239 255
227 239 255
227 239 255
227 239 255
227 239 255
227 239 255
227 239 255
227 239 255
227 239 255
227 239 255
227 239 255
227 239 255
227 239 255
227 239 255
227 239 255
227 239 255
227 239 255
227 239 255
227 239 255
227 239 255
227 239 255
227 239 255
227 239 255
227 239 255
227 239 255
226 239 255
226 238 255
226 238 255
226 238 255
226 238 255
226 238 255
226 238 255
226 238 255
226 238 255
226 238 255
226 238 255
226 238 255
226 238 255
226 238 255
226 238 255
226 238 255
226 238 255
226 238 255
226 238 255
226 238 255
226 238 255
226 238 255
226 238 255
226 238 255
226 238 255
226 238 255
226 238 255
226 238 255
226 238 255
226 238 255
226 238 255
226 238 255
226 238 255
226 238 255
226 238 255
226 238 255
226 238 255
226 238 255
226 238 255
226 238 255
226 238 255
226 238 255
226 238 255
226 238 255
226 238 255
226 238 255
226 238 255
226 238 255
226 238 255
226 238 255
226 238 255
226 238 255
225 238 255
225 238 255
225 238 255
225 238 255
225 238 255
225 238 255
225 238 255
225 238 255
225 238 255
225 238 255
225 238 255
225 238 255
225 238 255
225 238 255
225 238 255
225 238 255
225 238 255
225 238 255
225 238 255
225 238 255
225 238 255
225 238 255
225 238 255
225 238 255
225 238 255
225 238 255
225 238 255
225 238 255
225 238 255
225 238 255
225 238 255
225 238 255
225 238 255
225 238 255
225 238 255
225 238 255
225 238 255
225 238 255
225 238 255
225 238 255
225 238 255
225 238 255
225 238 255
225 238 255
225 238 255
225 238 255
225 238 255
225 238 255
225 238 255
225 238 255
225 238 255
225 238 255
225 238 255
225 238 255
225 238 255
225 238 255
225 238 255
225 238 255
225 238 255
225 238 255
225 238 255
225 238 255
226 238 255
226 238 255
226 238 255
226 238 255
226 238 255
226 238 255
226 238 255
226 238 255
226 238 255
226 238 255
226 238 255
226 238 255
226 238 255
226 238 255
226 238 255
226 238 255
226 238 255
226 238 255
226 238 255
226 238 255
226 238 255
226 238 255
226 238 255
226 238 255
226 238 255
226 238 255
226 238 255
226 238 255
226 238 255
226 238 255
226 238 255
226 238 255
226 238 255
226 238 255
226 238 255
226 238 255
226 238 255
226 238 255
226 238 255
226 238 255
226 238 255
226 238 255
226 238 255
226 238 255
226 238 255
226 238 255
226 238 255
226 238 255
226 238 255
226 238 255
226 238 255
226 239 255
226 239 255
227 239 255
227 239 255
227 239 255
227 239 255
227 239 255
227 239 255
227 239 255
227 239 255
227 239 255
227 239 255
227 239 255
227 239 255
227 239 255
227 239 255
227 239 255
227 239 255
227 239 255
227 239 255
227 239 255
227 239 255
227 239 255
227 239 255
227 239 255
227 239 255
227 239 255
227 239 255
227 239 255
227 239 255
227 239 255
227 239 255
227 239 255
227 239 255
227 239 255
227 239 255
227 239 255
227 239 255
227 239 255
227 239 255
227 239 255
227 239 255
227 239 255
227 239 255
227 239 255
227 239 255
227 239 255
227 239 255
228 239 255
228 239 255
228 239 255
228 239 255
228 239 255
228 239 255
228 239 255
228 239 255
228 239 255
228 239 255
228 239 255
228 239 255
228 239 255
228 239 255
228 239 255
228 239 255
228 239 255
228 239 255
228 239 255
228 239 255
228 239 255
228 239 255
228 239 255
228 239 255
228 239 255
228 239 255
228 239 255
228 239 255
228 239 255
228 239 255
228 239 255
228 239 255
228 239 255
228 239 255
228 239 255
228 239 255
228 239 255
228 239 255
228 239 255
221 238 252
215 237 248
209 236 245
199 235 240
194 234 237
188 234 234
191 234 236
180 233 230
180 233 230
158 231 220
175 233 228
161 231 221
149 229 216
160 230 220
163 231 222
166 231 223
137 229 211
125 228 206
142 228 213
116 226 203
133 228 209
116 226 203
121 227 204
102 225 198
102 226 198
102 225 198
123 227 205
121 227 204
123 226 205
125 227 206
107 225 199
118 227 203
133 228 209
125 227 206
114 226 202
123 227 205
129 228 207
137 228 211
137 228 211
144 229 214
135 228 210
146 228 214
140 229 212
163 231 222
177 232 228
175 232 228
171 232 226
174 232 227
178 233 229
188 234 234
203 236 242
208 237 244
210 236 246
222 239 252
228 239 255
228 239 255
228 239 255
228 239 255
228 239 255
228 239 255
228 239 255
228 239 255
228 239 255
228 239 255
228 239 255
228 239 255
228 239 255
228 239 255
228 239 255
228 239 255
228 239 255
228 239 255
228 239 255
228 239 255
228 239 255
228 239 255
228 239 255
228 239 255
228 239 255
228 239 255
228 239 255
228 239 255
228 239 255
228 239 255
228 239 255
228 239 255
228 239 255
228 239 255
228 239 255
228 239 255
228 239 255
228 239 255
228 239 255
227 239 255
227 239 255
227 239 255
227 239 255
227 239 255
227 239 255
227 239 255
227 239 255
227 239 255
227 239 255
227 239 255
227 239 255
227 239 255
227 239 255
227 239 255
227 239 255
227 239 255
227 239 255
227 239 255
227 239 255
227 239 255
227 239 255
227 239 255
227 239 255
227 239 255
227 239 255
227 239 255
227 239 255
227 239 255
227 239 255
227 239 255
227 239 255
227 239 255
227 239 255
227 239 255
227 239 255
227 239 255
227 239 255
227 239 255
227 239 255
227 239 255
227 239 255
227 239 255
227 239 255
227 239 255
227 239 255
226 239 255
226 238 255
226 238 255
226 238 255
226 238 255
226 238 255
226 238 255
226 238 255
226 238 255
226 238 255
226 238 255
226 238 255
226 238 255
226 238 255
226 238 255
226 238 255
226 238 255
226 238 255
226 238 255
226 238 255
226 238 255
226 238 255
226 238 255
226 238 255
226 238 255
226 238 255
226 238 255
226 238 255
226 238 255
226 238 255
226 238 255
226 238 255
226 238 255
226 238 255
226 238 255
226 238 255
226 238 255
226 238 255
226 238 255
226 238 255
226 238 255
226 238 255
226 238 255
226 238 255
226 238 255
226 238 255
226 238 255
226 238 255
226 238 255
226 238 255
226 238 255
226 238 255
225 238 255
225 238 255
225 238 255
225 238 255
225 238 255
225 238 255
225 238 255
225 238 255
225 238 255
225 238 255
225 238 255
225 238 255
225 238 255
225 238 255
225 238 255
225 238 255
225 238 255
225 238 255
225 238 255
225 238 255
225 238 255
225 238 255
225 238 255
225 238 255
225 238 255
225 238 255
225 238 255
225 238 255
225 238 255
225 238 255
225 238 255
225 238 255
225 238 255
225 238 255
225 238 255
225 238 255
225 238 255
225 238 255
225 238 255
225 238 255
225 238 255
225 238 255
225 238 255
225 238 255
225 238 255
225 238 255
225 238 255
225 238 255
225 238 255
225 238 255
225 238 255
225 238 255
225 238 255
225 238 255
225 238 255
225 238 255
225 238 255
225 238 255
225 238 255
225 238 255
225 238 255
225 238 255
225 238 255
225 238 255
225 238 255
225 238 255
225 238 255
225 238 255
225 238 255
225 238 255
225 238 255
225 238 255
225 238 255
225 238 255
225 238 255
225 238 255
225 238 255
225 238 255
225 238 255
225 238 255
225 238 255
226 238 255
226 238 255
226 238 255
226 238 255
226 238 255
226 238 255
226 238 255
226 238 255
226 238 255
226 238 255
226 238 255
226 238 255
226 238 255
226 238 255
226 238 255
226 238 255
226 238 255
226 238 255
226 238 255
226 238 255
226 238 255
226 238 255
226 238 255
226 238 255
226 238 255
226 238 255
226 238 255
226 238 255
226 238 255
226 238 255
226 238 255
226 238 255
226 238 255
226 238 255
226 238 255
226 238 255
226 238 255
226 238 255
226 238 255
226 238 255
226 238 255
226 238 255
226 238 255
226 238 255
226 238 255
226 238 255
226 238 255
226 238 255
226 238 255
226 238 255
226 238 255
226 239 255
227 239 255
227 239 255
227 239 255
227 239 255
227 239 255
227 239 255
227 239 255
227 239 255
227 239 255
227 239 255
227 239 255
227 239 255
227 239 255
227 239 255
227 239 255
227 239 255
227 239 255
227 239 255
227 239 255
227 239 255
227 239 255
227 239 255
227 239 255
227 239 255
227 239 255
227 239 255
227 239 255
227 239 255
227 239 255
227 239 255
227 239 255
227 239 255
227 239 255
227 239 255
227 239 255
227 239 255
227 239 255
227 239 255
227 239 255
227 239 255
227 239 255
227 239 255
227 239 255
227 239 255
227 239 255
227 239 255
227 239 255
227 239 255
227 239 255
228 239 255
228 239 255
228 239 255
228 239 255
228 239 255
228 239 255
228 239 255
228 239 255
228 239 255
228 239 255
228 239 255
228 239 255
228 239 255
228 239 255
228 239 255
228 239 255
228 239 255
228 239 255
228 239 255
228 239 255
228 239 255
228 239 255
228 239 255
228 239 255
228 239 255
228 239 255
228 239 255
228 239 255
228 239 255
228 239 255
228 239 255
228 239 255
228 239 255
228 239 255
228 239 255
228 239 255
228 239 255
228 239 255
228 239 255
228 239 255
228 239 255
228 239 255
228 239 255
228 239 255
228 239 255
228 239 255
228 239 255
228 239 255
228 239 255
228 239 255
228 239 255
228 239 255
228 239 255
228 239 255
228 239 255
228 239 255
228 239 255
228 239 255
228 239 255
228 239 255
228 239 255
228 239 255
228 239 255
228 239 255
228 239 255
228 239 255
228 239 255
228 239 255
228 239 255
228 239 255
228 239 255
228 239 255
228 239 255
228 239 255
228 239 255
228 239 255
228 239 255
228 239 255
228 239 255
228 239 255
228 239 255
228 239 255
228 239 255
228 239 255
228 239 255
228 239 255
228 239 255
228 239 255
228 239 255
228 239 255
228 239 255
228 239 255
228 239 255
228 239 255
228 239 255
228 239 255
228 239 255
228 239 255
228 239 255
228 239 255
228 239 255
228 239 255
228 239 255
228 239 255
228 239 255
228 239 255
228 239 255
228 239 255
227 239 255
227 239 255
227 239 255
227 239 255
227 239 255
227 239 255
227 239 255
227 239 255
227 239 255
227 239 255
227 239 255
227 239 255
227 239 255
227 239 255
227 239 255
227 239 255
227 239 255
227 239 255
227 239 255
227 239 255
227 239 255
227 239 255
227 239 255
227 239 255
227 239 255
227 239 255
227 239 255
227 239 255
227 239 255
227 239 255
227 239 255
227 239 255
227 239 255
227 239 255
227 239 255
227 239 255
227 239 255
227 239 255
227 239 255
227 239 255
227 239 255
227 239 255
227 239 255
227 239 255
227 239 255
227 239 255
227 239 255
227 239 255
227 239 255
226 239 255
226 239 255
226 238 255
226 238 255
226 238 255
226 238 255
226 238 255
226 238 255
226 238 255
226 238 255
226 238 255
226 238 255
226 238 255
226 238 255
226 238 255
226 238 255
226 238 255
226 238 255
226 238 255
226 238 255
226 238 255
226 238 255
226 238 255
226 238 255
226 238 255
226 238 255
226 238 255
226 238 255
226 238 255
226 238 255
226 238 255
226 238 255
226 238 255
226 238 255
226 238 255
226 238 255
226 238 255
226 238 255
226 238 255
226 238 255
226 238 255
226 238 255
226 238 255
226 238 255
226 238 255
226 238 255
226 238 255
226 238 255
226 238 255
226 238 255
226 238 255
226 238 255
225 238 255
225 238 255
225 238 255
225 238 255
225 238 255
225 238 255
225 238 255
225 238 255
225 238 255
225 238 255
225 238 255
225 238 255
225 238 255
225 238 255
225 238 255
225 238 255
225 238 255
225 238 255
225 238 255
225 238 255
225 238 255
225 238 255
225 238 255
225 238 255
225 238 255
225 238 255
225 238 255
225 238 255
225 238 255
225 238 255
225 238 255
225 238 255
225 238 255
225 238 255
225 238 255
225 238 255
225 238 255
225 238 255
225 238 255
225 238 255
225 238 255
225 238 255
225 238 255
225 238 255
225 238 255
225 238 255
225 238 255
225 238 255
225 238 255
225 238 255
225 238 255
225 238 255
225 238 255
225 238 255
225 238 255
225 238 255
225 238 255
225 238 255
225 238 255
225 238 255
225 238 255
225 238 255
225 238 255
225 238 255
225 238 255
225 238 255
225 238 255
225 238 255
225 238 255
225 238 255
225 238 255
225 238 255
225 238 255
225 238 255
225 238 255
225 238 255
225 238 255
225 238 255
225 238 255
225 238 255
225 238 255
225 238 255
225 238 255
225 238 255
225 238 255
225 238 255
225 238 255
225 238 255
225 238 255
225 238 255
225 238 255
225 238 255
225 238 255
225 238 255
225 238 255
225 238 255
225 238 255
225 238 255
225 238 255
226 238 255
226 238 255
226 238 255
226 238 255
226 238 255
226 238 255
226 238 255
226 238 255
226 238 255
226 238 255
226 238 255
226 238 255
226 238 255
226 238 255
226 238 255
226 238 255
226 238 255
226 238 255
226 238 255
226 238 255
226 238 255
226 238 255
226 238 255
226 238 255
226 238 255
226 238 255
226 238 255
226 238 255
226 238 255
226 238 255
226 238 255
226 238 255
226 238 255
226 238 255
226 238 255
226 238 255
226 238 255
226 238 255
226 238 255
226 238 255
226 238 255
226 238 255
226 238 255
226 238 255
226 238 255
226 238 255
226 238 255
226 238 255
226 238 255
226 238 255
226 238 255
226 238 255
226 239 255
227 239 255
227 239 255
227 239 255
227 239 255
227 239 255
227 239 255
227 239 255
227 239 255
227 239 255
227 239 255
227 239 255
227 239 255
227 239 255
227 239 255
227 239 255
227 239 255
227 239 255
227 239 255
227 239 255
227 239 255
227 239 255
227 239 255
227 239 255
227 239 255
227 239 255
227 239 255
227 239 255
227 239 255
227 239 255
227 239 255
227 239 255
227 239 255
227 239 255
227 239 255
227 239 255
227 239 255
227 239 255
227 239 255
227 239 255
227 239 255
227 239 255
227 239 255
227 239 255
227 239 255
227 239 255
227 239 255
227 239 255
227 239 255
227 239 255
227 239 255
227 239 255
227 239 255
227 239 255
227 239 255
228 239 255
228 239 255
228 239 255
228 239 255
228 239 255
228 239 255
228 239 255
228 239 255
228 239 255
228 239 255
228 239 255
228 239 255
228 239 255
228 239 255
228 239 255
228 239 255
228 239 255
228 239 255
228 239 255
228 239 255
228 239 255
228 239 255
228 239 255
228 239 255
228 239 255
228 239 255
228 239 255
228 239 255
228 239 255
228 239 255
228 239 255
228 239 255
228 239 255
228 239 255
228 239 255
228 239 255
228 239 255
228 239 255
228 239 255
228 239 255
228 239 255
228 239 255
228 239 255
228 239 255
228 239 255
228 239 255
228 239 255
228 239 255
228 239 255
228 239 255
228 239 255
228 239 255
228 239 255
228 239 255
228 239 255
228 239 255
228 239 255
228 239 255
228 239 255
228 239 255
228 239 255
228 239 255
228 239 255
228 239 255
228 239 255
228 239 255
228 239 255
228 239 255
228 239 255
228 239 255
228 239 255
228 239 255
228 239 255
228 239 255
228 239 255
228 239 255
228 239 255
228 239 255
228 239 255
228 239 255
227 239 255
227 239 255
227 239 255
227 239 255
227 239 255
227 239 255
227 239 255
227 239 255
227 239 255
227 239 255
227 239 255
227 239 255
227 239 255
227 239 255
227 239 255
227 239 255
227 239 255
227 239 255
227 239 255
227 239 255
227 239 255
227 239 255
227 239 255
227 239 255
227 239 255
227 239 255
227 239 255
227 239 255
227 239 255
227 239 255
227 239 255
227 239 255
227 239 255
227 239 255
227 239 255
227 239 255
227 239 255
227 239 255
227 239 255
227 239 255
227 239 255
227 239 255
227 239 255
227 239 255
227 239 255
227 239 255
227 239 255
227 239 255
227 239 255
227 239 255
227 239 255
227 239 255
226 239 255
226 239 255
226 238 255
226 238 255
226 238 255
226 238 255
226 238 255
226 238 255
226 238 255
226 238 255
226 238 255
226 238 255
226 238 255
226 238 255
226 238 255
226 238 255
226 238 255
226 238 255
226 238 255
226 238 255
226 238 255
226 238 255
226 238 255
226 238 255
226 238 255
226 238 255
226 238 255
226 238 255
226 238 255
226 238 255
226 238 255
226 238 255
226 238 255
226 238 255
226 238 255
226 238 255
226 238 255
226 238 255
226 238 255
226 238 255
226 238 255
226 238 255
226 238 255
226 238 255
226 238 255
226 238 255
226 238 255
226 238 255
226 238 255
226 238 255
226 238 255
226 238 255
226 238 255
225 238 255
225 238 255
225 238 255
225 238 255
225 238 255
225 238 255
225 238 255
225 238 255
225 238 255
225 238 255
225 238 255
225 238 255
225 238 255
225 238 255
225 238 255
225 238 255
225 238 255
225 238 255
225 238 255
225 238 255
225 238 255
225 238 255
225 238 255
225 238 255
225 238 255
225 238 255
225 238 255
225 238 255
225 238 255
225 238 255
225 238 255
225 238 255
225 238 255
225 238 255
225 238 255
225 238 255
225 238 255
225 238 255
225 238 255
225 238 255
225 238 255
225 238 255
225 238 255
225 238 255
225 238 255
225 238 255
225 238 255
225 238 255
225 238 255
225 238 255
225 238 255
225 238 255
225 238 255
225 238 255
225 237 255
225 237 255
225 237 255
225 237 255
225 237 255
225 237 255
225 237 255
225 237 255
225 237 255
225 237 255
225 238 255
225 238 255
225 238 255
225 238 255
225 238 255
225 238 255
225 238 255
225 238 255
225 238 255
225 238 255
225 238 255
225 238 255
225 238 255
225 238 255
225 238 255
225 238 255
225 238 255
225 238 255
225 238 255
225 238 255
225 238 255
225 238 255
225 238 255
225 238 255
225 238 255
225 238 255
225 238 255
225 238 255
225 238 255
225 238 255
225 238 255
225 238 255
225 238 255
225 238 255
225 238 255
225 238 255
225 238 255
225 238 255
225 238 255
225 238 255
225 238 255
225 238 255
225 238 255
225 238 255
225 238 255
225 238 255
225 238 255
225 238 255
225 238 255
225 238 255
225 238 255
225 238 255
225 238 255
226 238 255
226 238 255
226 238 255
226 238 255
226 238 255
226 238 255
226 238 255
226 238 255
226 238 255
226 238 255
226 238 255
226 238 255
226 238 255
226 238 255
226 238 255
226 238 255
226 238 255
226 238 255
226 238 255
226 238 255
226 238 255
226 238 255
226 238 255
226 238 255
226 238 255
226 238 255
226 238 255
226 238 255
226 238 255
226 238 255
226 238 255
226 238 255
226 238 255
226 238 255
226 238 255
226 238 255
226 238 255
226 238 255
226 238 255
226 238 255
226 238 255
226 238 255
226 238 255
226 238 255
226 238 255
226 238 255
226 238 255
226 238 255
226 238 255
226 238 255
226 238 255
226 238 255
226 239 255
226 239 255
227 239 255
227 239 255
227 239 255
227 239 255
227 239 255
227 239 255
227 239 255
227 239 255
227 239 255
227 239 255
227 239 255
227 239 255
227 239 255
227 239 255
227 239 255
227 239 255
227 239 255
227 239 255
227 239 255
227 239 255
227 239 255
227 239 255
227 239 255
227 239 255
227 239 255
227 239 255
227 239 255
227 239 255
227 239 255
227 239 255
227 239 255
227 239 255
227 239 255
227 239 255
227 239 255
227 239 255
227 239 255
227 239 255
227 239 255
227 239 255
227 239 255
227 239 255
227 239 255
227 239 255
227 239 255
227 239 255
227 239 255
227 239 255
227 239 255
227 239 255
227 239 255
227 239 255
227 239 255
227 239 255
227 239 255
227 239 255
227 239 255
227 239 255
227 239 255
227 239 255
227 239 255
227 239 255
227 239 255
227 239 255
227 239 255
227 239 255
228 239 255
227 239 255
228 239 255
228 239 255
228 239 255
228 239 255
228 239 255
228 239 255
228 239 255
228 239 255
228 239 255
228 239 255
228 239 255
228 239 255
228 239 255
228 239 255
228 239 255
228 239 255
228 239 255
228 239 255
228 239 255
228 239 255
228 239 255
228 239 255
228 239 255
228 239 255
228 239 255
228 239 255
228 239 255
228 239 255
228 239 255
228 239 255
228 239 255
227 239 255
227 239 255
227 239 255
227 239 255
227 239 255
227 239 255
227 239 255
227 239 255
227 239 255
227 239 255
227 239 255
227 239 255
227 239 255
227 239 255
227 239 255
227 239 255
227 239 255
227 239 255
227 239 255
227 239 255
227 239 255
227 239 255
227 239 255
227 239 255
227 239 255
227 239 255
227 239 255
227 239 255
227 239 255
227 239 255
227 239 255
227 239 255
227 239 255
227 239 255
227 239 255
227 239 255
227 239 255
227 239 255
227 239 255
227 239 255
227 239 255
227 239 255
227 239 255
227 239 255
227 239 255
227 239 255
227 239 255
227 239 255
227 239 255
227 239 255
227 239 255
227 239 255
227 239 255
227 239 255
227 239 255
227 239 255
227 239 255
227 239 255
227 239 255
227 239 255
227 239 255
227 239 255
227 239 255
227 239 255
227 239 255
227 239 255
227 239 255
226 239 255
226 239 255
226 238 255
226 238 255
226 238 255
226 238 255
226 238 255
226 238 255
226 238 255
226 238 255
226 238 255
226 238 255
226 238 255
226 238 255
226 238 255
226 238 255
226 238 255
226 238 255
226 238 255
226 238 255
226 238 255
226 238 255
226 238 255
226 238 255
226 238 255
226 238 255
226 238 255
226 238 255
226 238 255
226 238 255
226 238 255
226 238 255
226 238 255
226 238 255
226 238 255
226 238 255
226 238 255
226 238 255
226 238 255
226 238 255
226 238 255
226 238 255
226 238 255
226 238 255
226 238 255
226 238 255
226 238 255
226 238 255
226 238 255
226 238 255
226 238 255
226 238 255
226 238 255
225 238 255
225 238 255
225 238 255
225 238 255
225 238 255
225 238 255
225 238 255
225 238 255
225 238 255
225 238 255
225 238 255
225 238 255
225 238 255
225 238 255
225 238 255
225 238 255
225 238 255
225 238 255
225 238 255
225 238 255
225 238 255
225 238 255
225 238 255
225 238 255
225 238 255
225 238 255
225 238 255
225 238 255
225 238 255
225 238 255
225 238 255
225 238 255
225 238 255
225 238 255
225 238 255
225 238 255
225 238 255
225 238 255
225 238 255
225 238 255
225 238 255
225 238 255
225 238 255
225 238 255
225 238 255
225 238 255
225 238 255
225 238 255
225 238 255
225 238 255
225 238 255
225 238 255
225 238 255
225 238 255
225 237 255
225 237 255
225 237 255
225 237 255
225 237 255
225 237 255
225 237 255
225 237 255
225 237 255
225 237 255
224 237 255
224 237 255
224 237 255
224 237 255
225 237 255
225 237 255
225 237 255
225 237 255
225 237 255
225 237 255
225 237 255
225 237 255
225 237 255
225 237 255
225 237 255
225 237 255
225 237 255
225 237 255
225 237 255
225 237 255
225 237 255
225 238 255
225 238 255
225 238 255
225 238 255
225 238 255
225 238 255
225 238 255
225 238 255
225 238 255
225 238 255
225 238 255
225 238 255
225 238 255
225 238 255
225 238 255
225 238 255
225 238 255
225 238 255
225 238 255
225 238 255
225 238 255
225 238 255
225 238 255
225 238 255
225 238 255
225 238 255
225 238 255
225 238 255
225 238 255
225 238 255
225 238 255
225 238 255
225 238 255
225 238 255
225 238 255
225 238 255
225 238 255
225 238 255
225 238 255
225 238 255
225 238 255
225 238 255
225 238 255
225 238 255
225 238 255
225 238 255
225 238 255
225 238 255
225 238 255
225 238 255
225 238 255
225 238 255
225 238 255
226 238 255
226 238 255
226 238 255
226 238 255
226 238 255
226 238 255
226 238 255
226 238 255
226 238 255
226 238 255
226 238 255
226 238 255
226 238 255
226 238 255
226 238 255
226 238 255
226 238 255
226 238 255
226 238 255
226 238 255
226 238 255
226 238 255
226 238 255
226 238 255
226 238 255
226 238 255
226 238 255
226 238 255
226 238 255
226 238 255
226 238 255
226 238 255
226 238 255
226 238 255
226 238 255
226 238 255
226 238 255
226 238 255
226 238 255
226 238 255
226 238 255
226 238 255
226 238 255
226 238 255
226 238 255
226 238 255
226 238 255
226 238 255
226 238 255
226 238 255
226 238 255
226 238 255
226 238 255
226 239 255
226 239 255
227 239 255
227 239 255
227 239 255
227 239 255
227 239 255
227 239 255
227 239 255
227 239 255
227 239 255
227 239 255
227 239 255
227 239 255
227 239 255
227 239 255
227 239 255
227 239 255
227 239 255
227 239 255
227 239 255
227 239 255
227 239 255
227 239 255
227 239 255
227 239 255
227 239 255
227 239 255
227 239 255
227 239 255
227 239 255
227 239 255
227 239 255
227 239 255
227 239 255
227 239 255
227 239 255
227 239 255
227 239 255
227 239 255
227 239 255
227 239 255
227 239 255
227 239 255
227 239 255
227 239 255
227 239 255
227 239 255
227 239 255
227 239 255
227 239 255
227 239 255
227 239 255
227 239 255
227 239 255
227 239 255
227 239 255
227 239 255
227 239 255
227 239 255
227 239 255
227 239 255
227 239 255
227 239 255
227 239 255
227 239 255
227 239 255
227 239 255
227 239 255
227 239 255
227 239 255
227 239 255
227 239 255
227 239 255
227 239 255
227 239 255
227 239 255
227 239 255
227 239 255
227 239 255
227 239 255
227 239 255
227 239 255
227 239 255
227 239 255
227 239 255
227 239 255
227 239 255
227 239 255
227 239 255
227 239 255
227 239 255
227 239 255
227 239 255
227 239 255
227 239 255
227 239 255
227 239 255
227 239 255
227 239 255
227 239 255
227 239 255
227 239 255
227 239 255
227 239 255
227 239 255
227 239 255
227 239 255
227 239 255
227 239 255
227 239 255
227 239 255
227 239 255
227 239 255
227 239 255
227 239 255
227 239 255
227 239 255
227 239 255
227 239 255
227 239 255
227 239 255
227 239 255
227 239 255
227 239 255
227 239 255
227 239 255
227 239 255
227 239 255
227 239 255
227 239 255
227 239 255
227 239 255
227 239 255
227 239 255
227 239 255
227 239 255
227 239 255
227 239 255
227 239 255
227 239 255
227 239 255
227 239 255
227 239 255
226 239 255
226 239 255
226 238 255
226 238 255
226 238 255
226 238 255
226 238 255
226 238 255
226 238 255
226 238 255
226 238 255
226 238 255
226 238 255
226 238 255
226 238 255
226 238 255
226 238 255
226 238 255
226 238 255
226 238 255
226 238 255
226 238 255
226 238 255
226 238 255
226 238 255
226 238 255
226 238 255
226 238 255
226 238 255
226 238 255
226 238 255
226 238 255
226 238 255
226 238 255
226 238 255
226 238 255
226 238 255
226 238 255
226 238 255
226 238 255
226 238 255
226 238 255
226 238 255
226 238 255
226 238 255
226 238 255
226 238 255
226 238 255
226 238 255
226 238 255
226 238 255
226 238 255
226 238 255
226 238 255
226 238 255
225 238 255
225 238 255
225 238 255
225 238 255
225 238 255
225 238 255
225 238 255
225 238 255
225 238 255
225 238 255
225 238 255
225 238 255
225 238 255
225 238 255
225 238 255
225 238 255
225 238 255
225 238 255
225 238 255
225 238 255
225 238 255
225 238 255
225 238 255
225 238 255
225 238 255
225 238 255
225 238 255
225 238 255
225 238 255
225 238 255
225 238 255
225 238 255
225 238 255
225 238 255
225 238 255
225 238 255
225 238 255
225 238 255
225 238 255
225 238 255
225 238 255
225 238 255
225 238 255
225 238 255
225 238 255
225 238 255
225 238 255
225 238 255
225 238 255
225 238 255
225 238 255
225 238 255
225 238 255
225 238 255
225 237 255
225 237 255
225 237 255
225 237 255
225 237 255
225 237 255
225 237 255
225 237 255
225 237 255
225 237 255
225 237 255
225 237 255
225 237 255
225 237 255
225 237 255
225 237 255
224 237 255
224 237 255
224 237 255
224 237 255
224 237 255
224 237 255
224 237 255
224 237 255
224 237 255
224 237 255
224 237 255
224 237 255
224 237 255
224 237 255
224 237 255
224 237 255
224 237 255
224 237 255
224 237 255
225 237 255
225 237 255
225 237 255
225 237 255
225 237 255
225 237 255
225 237 255
225 237 255
225 237 255
225 237 255
225 237 255
225 237 255
225 237 255
225 237 255
225 237 255
225 237 255
225 237 255
225 238 255
225 238 255
225 238 255
225 238 255
225 238 255
225 238 255
225 238 255
225 238 255
225 238 255
225 238 255
225 238 255
225 238 255
225 238 255
225 238 255
225 238 255
225 238 255
225 238 255
225 238 255
225 238 255
225 238 255
225 238 255
225 238 255
225 238 255
225 238 255
225 238 255
225 238 255
225 238 255
225 238 255
225 238 255
225 238 255
225 238 255
225 238 255
225 238 255
225 238 255
225 238 255
225 238 255
225 238 255
225 238 255
225 238 255
225 238 255
225 238 255
225 238 255
225 238 255
225 238 255
225 238 255
225 238 255
225 238 255
225 238 255
225 238 255
225 238 255
225 238 255
225 238 255
226 238 255
226 238 255
226 238 255
226 238 255
226 238 255
226 238 255
226 238 255
226 238 255
226 238 255
226 238 255
226 238 255
226 238 255
226 238 255
226 238 255
226 238 255
226 238 255
226 238 255
226 238 255
226 238 255
226 238 255
226 238 255
226 238 255
226 238 255
226 238 255
226 238 255
226 238 255
226 238 255
226 238 255
226 238 255
226 238 255
226 238 255
226 238 255
226 238 255
226 238 255
226 238 255
226 238 255
226 238 255
226 238 255
226 238 255
226 238 255
226 238 255
226 238 255
226 238 255
226 238 255
226 238 255
226 238 255
226 238 255
226 238 255
226 238 255
226 238 255
226 238 255
226 238 255
226 238 255
226 238 255
226 238 255
226 239 255
226 239 255
226 239 255
227 239 255
227 239 255
227 239 255
227 239 255
227 239 255
227 239 255
227 239 255
227 239 255
227 239 255
227 239 255
227 239 255
227 239 255
227 239 255
227 239 255
227 239 255
227 239 255
227 239 255
227 239 255
227 239 255
227 239 255
227 239 255
227 239 255
227 239 255
227 239 255
227 239 255
227 239 255
227 239 255
227 239 255
227 239 255
227 239 255
227 239 255
227 239 255
227 239 255
227 239 255
227 239 255
227 239 255
227 239 255
227 239 255
227 239 255
227 239 255
227 239 255
227 239 255
227 239 255
227 239 255
227 239 255
227 239 255
227 239 255
227 239 255
227 239 255
227 239 255
227 239 255
227 239 255
227 239 255
227 239 255
227 239 255
227 239 255
227 239 255
227 239 255
227 239 255
227 239 255
227 239 255
227 239 255
227 239 255
227 239 255
227 239 255
227 239 255
227 239 255
227 239 255
227 239 255
227 239 255
227 239 255
227 239 255
227 239 255
227 239 255
227 239 255
227 239 255
227 239 255
227 239 255
227 239 255
227 239 255
227 239 255
227 239 255
227 239 255
227 239 255
227 239 255
227 239 255
227 239 255
227 239 255
227 239 255
227 239 255
227 239 255
227 239 255
227 239 255
227 239 255
227 239 255
227 239 255
227 239 255
227 239 255
227 239 255
227 239 255
227 239 255
227 239 255
227 239 255
227 239 255
227 239 255
227 239 255
227 239 255
227 239 255
227 239 255
227 239 255
227 239 255
227 239 255
227 239 255
227 239 255
227 239 255
227 239 255
226 239 255
226 239 255
226 239 255
226 238 255
226 238 255
226 238 255
226 238 255
226 238 255
226 238 255
226 238 255
226 238 255
226 238 255
226 238 255
226 238 255
226 238 255
226 238 255
226 238 255
226 238 255
226 238 255
226 238 255
226 238 255
226 238 255
226 238 255
226 238 255
226 238 255
226 238 255
226 238 255
226 238 255
226 238 255
226 238 255
226 238 255
226 238 255
226 238 255
226 238 255
226 238 255
226 238 255
226 238 255
226 238 255
226 238 255
226 238 255
226 238 255
226 238 255
226 238 255
226 238 255
226 238 255
226 238 255
226 238 255
226 238 255
226 238 255
226 238 255
226 238 255
226 238 255
226 238 255
226 238 255
226 238 255
226 238 255
226 238 255
226 238 255
225 238 255
225 238 255
225 238 255
225 238 255
225 238 255
225 238 255
225 238 255
225 238 255
225 238 255
225 238 255
225 238 255
225 238 255
225 238 255
225 238 255
225 238 255
225 238 255
225 238 255
225 238 255
225 238 255
225 238 255
225 238 255
225 238 255
225 238 255
225 238 255
225 238 255
225 238 255
225 238 255
225 238 255
225 238 255
225 238 255
225 238 255
225 238 255
225 238 255
225 238 255
225 238 255
225 238 255
225 238 255
225 238 255
225 238 255
225 238 255
225 238 255
225 238 255
225 238 255
225 238 255
225 238 255
225 238 255
225 238 255
225 238 255
225 238 255
225 238 255
225 238 255
225 238 255
225 237 255
225 237 255
225 237 255
225 237 255
225 237 255
225 237 255
225 237 255
225 237 255
225 237 255
225 237 255
225 237 255
225 237 255
225 237 255
225 237 255
225 237 255
225 237 255
224 237 255
224 237 255
224 237 255
224 237 255
224 237 255
224 237 255
224 237 255
224 237 255
224 237 255
224 237 255
224 237 255
224 237 255
224 237 255
224 237 255
224 237 255
224 237 255
224 237 255
224 237 255
224 237 255
224 237 255
224 237 255
224 237 255
224 237 255
224 237 255
224 237 255
224 237 255
224 237 255
224 237 255
224 237 255
224 237 255
224 237 255
224 237 255
224 237 255
224 237 255
224 237 255
224 237 255
224 237 255
224 237 255
224 237 255
224 237 255
224 237 255
224 237 255
224 237 255
225 237 255
225 237 255
225 237 255
225 237 255
225 237 255
225 237 255
225 237 255
225 237 255
225 237 255
225 237 255
225 237 255
225 237 255
225 237 255
225 237 255
225 237 255
225 237 255
225 238 255
225 238 255
225 238 255
225 238 255
225 238 255
225 238 255
225 238 255
225 238 255
225 238 255
225 238 255
225 238 255
225 238 255
225 238 255
225 238 255
225 238 255
225 238 255
225 238 255
225 238 255
225 238 255
225 238 255
225 238 255
225 238 255
225 238 255
225 238 255
225 238 255
225 238 255
225 238 255
225 238 255
225 238 255
225 238 255
225 238 255
225 238 255
225 238 255
225 238 255
225 238 255
225 238 255
225 238 255
225 238 255
225 238 255
225 238 255
225 238 255
225 238 255
225 238 255
225 238 255
225 238 255
225 238 255
225 238 255
225 238 255
225 238 255
225 238 255
225 238 255
225 238 255
226 238 255
226 238 255
226 238 255
226 238 255
226 238 255
226 238 255
226 238 255
226 238 255
226 238 255
226 238 255
226 238 255
226 238 255
226 238 255
226 238 255
226 238 255
226 238 255
226 238 255
226 238 255
226 238 255
226 238 255
226 238 255
226 238 255
226 238 255
226 238 255
226 238 255
226 238 255
226 238 255
226 238 255
226 238 255
226 238 255
226 238 255
226 238 255
226 238 255
226 238 255
226 238 255
226 238 255
226 238 255
226 238 255
226 238 255
226 238 255
226 238 255
226 238 255
226 238 255
226 238 255
226 238 255
226 238 255
226 238 255
226 238 255
226 238 255
226 238 255
226 238 255
226 238 255
226 238 255
226 238 255
226 238 255
226 238 255
226 238 255
226 238 255
226 238 255
226 239 255
226 239 255
226 239 255
226 239 255
226 239 255
227 239 255
227 239 255
227 239 255
227 239 255
227 239 255
227 239 255
227 239 255
227 239 255
227 239 255
227 239 255
227 239 255
227 239 255
227 239 255
227 239 255
227 239 255
227 239 255
227 239 255
227 239 255
227 239 255
227 239 255
227 239 255
227 239 255
227 239 255
227 239 255
227 239 255
227 239 255
227 239 255
227 239 255
227 239 255
227 239 255
227 239 255
227 239 255
227 239 255
227 239 255
227 239 255
227 239 255
227 239 255
227 239 255
227 239 255
227 239 255
227 239 255
227 239 255
227 239 255
227 239 255
227 239 255
227 239 255
227 239 255
227 239 255
227 239 255
227 239 255
227 239 255
227 239 255
227 239 255
227 239 255
227 239 255
227 239 255
227 239 255
227 239 255
227 239 255
227 239 255
227 239 255
227 239 255
227 239 255
227 239 255
227 239 255
227 239 255
227 239 255
227 239 255
227 239 255
227 239 255
227 239 255
227 239 255
227 239 255
227 239 255
227 239 255
227 239 255
227 239 255
227 239 255
227 239 255
227 239 255
227 239 255
227 239 255
227 239 255
226 239 255
226 239 255
226 239 255
226 238 255
226 238 255
226 238 255
226 238 255
226 238 255
226 238 255
226 238 255
226 238 255
226 238 255
226 238 255
226 238 255
226 238 255
226 238 255
226 238 255
226 238 255
226 238 255
226 238 255
226 238 255
226 238 255
226 238 255
226 238 255
226 238 255
226 238 255
226 238 255
226 238 255
226 238 255
226 238 255
226 238 255
226 238 255
226 238 255
226 238 255
226 238 255
226 238 255
226 238 255
226 238 255
226 238 255
226 238 255
226 238 255
226 238 255
226 238 255
226 238 255
226 238 255
226 238 255
226 238 255
226 238 255
226 238 255
226 238 255
226 238 255
226 238 255
226 238 255
226 238 255
226 238 255
226 238 255
226 238 255
226 238 255
226 238 255
226 238 255
226 238 255
226 238 255
226 238 255
225 238 255
225 238 255
225 238 255
225 238 255
225 238 255
225 238 255
225 238 255
225 238 255
225 238 255
225 238 255
225 238 255
225 238 255
225 238 255
225 238 255
225 238 255
225 238 255
225 238 255
225 238 255
225 238 255
225 238 255
225 238 255
225 238 255
225 238 255
225 238 255
225 238 255
225 238 255
225 238 255
225 238 255
225 238 255
225 238 255
225 238 255
225 238 255
225 238 255
225 238 255
225 238 255
225 238 255
225 238 255
225 238 255
225 238 255
225 238 255
225 238 255
225 238 255
225 238 255
225 238 255
225 238 255
225 238 255
225 238 255
225 238 255
225 238 255
225 238 255
225 238 255
225 238 255
225 237 255
225 237 255
225 237 255
225 237 255
225 237 255
225 237 255
225 237 255
225 237 255
225 237 255
225 237 255
225 237 255
225 237 255
225 237 255
225 237 255
225 237 255
225 237 255
224 237 255
224 237 255
224 237 255
224 237 255
224 237 255
224 237 255
224 237 255
224 237 255
224 237 255
224 237 255
224 237 255
224 237 255
224 237 255
224 237 255
224 237 255
224 237 255
224 237 255
224 237 255
224 237 255
224 237 255
224 237 255
224 237 255
224 237 255
224 237 255
224 237 255
224 237 255
224 237 255
224 237 255
224 237 255
224 237 255
224 237 255
224 237 255
224 237 255
224 237 255
224 237 255
224 237 255
224 237 255
224 237 255
224 237 255
224 237 255
224 237 255
224 237 255
224 237 255
224 237 255
224 237 255
224 237 255
224 237 255
224 237 255
224 237 255
224 237 255
224 237 255
224 237 255
224 237 255
224 237 255
224 237 255
224 237 255
224 237 255
224 237 255
224 237 255
224 237 255
224 237 255
224 237 255
224 237 255
224 237 255
224 237 255
224 237 255
225 237 255
225 237 255
225 237 255
225 237 255
225 237 255
225 237 255
225 237 255
225 237 255
225 237 255
225 237 255
225 237 255
225 237 255
225 237 255
225 237 255
225 237 255
225 238 255
225 238 255
225 238 255
225 238 255
225 238 255
225 238 255
225 238 255
225 238 255
225 238 255
225 238 255
225 238 255
225 238 255
225 238 255
225 238 255
225 238 255
225 238 255
225 238 255
225 238 255
225 238 255
225 238 255
225 238 255
225 238 255
225 238 255
225 238 255
225 238 255
225 238 255
225 238 255
225 238 255
225 238 255
225 238 255
225 238 255
225 238 255
225 238 255
225 238 255
225 238 255
225 238 255
225 238 255
225 238 255
225 238 255
225 238 255
225 238 255
225 238 255
225 238 255
225 238 255
225 238 255
225 238 255
225 238 255
225 238 255
225 238 255
225 238 255
225 238 255
225 238 255
225 238 255
226 238 255
226 238 255
226 238 255
226 238 255
226 238 255
226 238 255
226 238 255
226 238 255
226 238 255
226 238 255
226 238 255
226 238 255
226 238 255
226 238 255
226 238 255
226 238 255
226 238 255
226 238 255
226 238 255
226 238 255
226 238 255
226 238 255
226 238 255
226 238 255
226 238 255
226 238 255
226 238 255
226 238 255
226 238 255
226 238 255
226 238 255
226 238 255
226 238 255
226 238 255
226 238 255
226 238 255
226 238 255
226 238 255
226 238 255
226 238 255
226 238 255
226 238 255
226 238 255
226 238 255
226 238 255
226 238 255
226 238 255
226 238 255
226 238 255
226 238 255
226 238 255
226 238 255
226 238 255
226 238 255
226 238 255
226 238 255
226 238 255
226 238 255
226 238 255
226 238 255
226 238 255
226 238 255
226 238 255
226 238 255
226 238 255
226 238 255
226 238 255
226 238 255
226 238 255
226 238 255
226 239 255
226 239 255
226 239 255
226 239 255
226 239 255
226 239 255
226 239 255
226 239 255
226 239 255
227 239 255
227 239 255
227 239 255
227 239 255
227 239 255
227 239 255
227 239 255
227 239 255
227 239 255
227 239 255
227 239 255
227 239 255
227 239 255
227 239 255
227 239 255
227 239 255
227 239 255
227 239 255
227 239 255
227 239 255
227 239 255
227 239 255
227 239 255
227 239 255
227 239 255
226 239 255
227 239 255
227 239 255
227 239 255
227 239 255
226 239 255
226 239 255
226 239 255
226 239 255
226 239 255
226 238 255
226 238 255
226 238 255
226 238 255
226 238 255
226 238 255
226 238 255
226 238 255
226 238 255
226 238 255
226 238 255
226 238 255
226 238 255
226 238 255
226 238 255
226 238 255
226 238 255
226 238 255
226 238 255
226 238 255
226 238 255
226 238 255
226 238 255
226 238 255
226 238 255
226 238 255
226 238 255
226 238 255
226 238 255
226 238 255
226 238 255
226 238 255
226 238 255
226 238 255
226 238 255
226 238 255
226 238 255
226 238 255
226 238 255
226 238 255
226 238 255
226 238 255
226 238 255
226 238 255
226 238 255
226 238 255
226 238 255
226 238 255
226 238 255
226 238 255
226 238 255
226 238 255
226 238 255
226 238 255
226 238 255
226 238 255
226 238 255
226 238 255
226 238 255
226 238 255
226 238 255
226 238 255
226 238 255
226 238 255
226 238 255
226 238 255
226 238 255
226 238 255
226 238 255
226 238 255
226 238 255
226 238 255
225 238 255
225 238 255
225 238 255
225 238 255
225 238 255
225 238 255
225 238 255
225 238 255
225 238 255
225 238 255
225 238 255
225 238 255
225 238 255
225 238 255
225 238 255
225 238 255
225 238 255
225 238 255
225 238 255
225 238 255
225 238 255
225 238 255
225 238 255
225 238 255
225 238 255
225 238 255
225 238 255
225 238 255
225 238 255
225 238 255
225 238 255
225 238 255
225 238 255
225 238 255
225 238 255
225 238 255
225 238 255
225 238 255
225 238 255
225 238 255
225 238 255
225 238 255
225 238 255
225 238 255
225 238 255
225 238 255
225 238 255
225 238 255
225 238 255
225 238 255
225 238 255
225 238 255
225 238 255
225 237 255
225 237 255
225 237 255
225 237 255
225 237 255
225 237 255
225 237 255
225 237 255
225 237 255
225 237 255
225 237 255
225 237 255
225 237 255
225 237 255
225 237 255
225 237 255
224 237 255
224 237 255
224 237 255
224 237 255
224 237 255
224 237 255
224 237 255
224 237 255
224 237 255
224 237 255
224 237 255
224 237 255
224 237 255
224 237 255
224 237 255
224 237 255
224 237 255
224 237 255
224 237 255
224 237 255
224 237 255
224 237 255
224 237 255
224 237 255
224 237 255
224 237 255
224 237 255
224 237 255
224 237 255
224 237 255
224 237 255
224 237 255
224 237 255
224 237 255
224 237 255
224 237 255
224 237 255
224 237 255
224 237 255
224 237 255
224 237 255
224 237 255
224 237 255
224 237 255
224 237 255
224 237 255
224 237 255
224 237 255
224 237 255
224 237 255
224 237 255
224 237 255
224 237 255
224 237 255
224 237 255
224 237 255
224 237 255
224 237 255
224 237 255
224 237 255
224 237 255
224 237 255
224 237 255
224 237 255
224 237 255
224 237 255
224 237 255
224 237 255
224 237 255
224 237 255
224 237 255
224 237 255
224 237 255
224 237 255
224 237 255
224 237 255
224 237 255
224 237 255
224 237 255
224 237 255
224 237 255
224 237 255
224 237 255
224 237 255
224 237 255
224 237 255
224 237 255
224 237 255
224 237 255
225 237 255
225 237 255
225 237 255
225 237 255
225 237 255
225 237 255
225 237 255
225 237 255
225 237 255
225 237 255
225 237 255
225 237 255
225 237 255
225 237 255
225 238 255
225 238 255
225 238 255
225 238 255
225 238 255
225 238 255
225 238 255
225 238 255
225 238 255
225 238 255
225 238 255
225 238 255
225 238 255
225 238 255
225 238 255
225 238 255
225 238 255
225 238 255
225 238 255
225 238 255
225 238 255
225 238 255
225 238 255
225 238 255
225 238 255
225 238 255
225 238 255
225 238 255
225 238 255
225 238 255
225 238 255
225 238 255
225 238 255
225 238 255
225 238 255
225 238 255
225 238 255
225 238 255
225 238 255
225 238 255
225 238 255
225 238 255
225 238 255
225 238 255
225 238 255
225 238 255
225 238 255
225 238 255
225 238 255
225 238 255
225 238 255
225 238 255
225 238 255
225 238 255
225 238 255
226 238 255
226 238 255
226 238 255
226 238 255
226 238 255
226 238 255
226 238 255
226 238 255
226 238 255
226 238 255
226 238 255
226 238 255
226 238 255
226 238 255
226 238 255
226 238 255
226 238 255
226 238 255
226 238 255
226 238 255
226 238 255
226 238 255
226 238 255
226 238 255
226 238 255
226 238 255
226 238 255
226 238 255
226 238 255
226 238 255
226 238 255
226 238 255
226 238 255
226 238 255
226 238 255
226 238 255
226 238 255
226 238 255
226 238 255
226 238 255
226 238 255
226 238 255
226 238 255
226 238 255
226 238 255
226 238 255
226 238 255
226 238 255
226 238 255
226 238 255
226 238 255
226 238 255
226 238 255
226 238 255
226 238 255
226 238 255
226 238 255
226 238 255
226 238 255
226 238 255
226 238 255
226 238 255
226 238 255
226 238 255
226 238 255
226 238 255
226 238 255
226 238 255
226 238 255
226 238 255
226 238 255
226 238 255
226 238 255
226 238 255
226 238 255
226 238 255
226 238 255
226 238 255
226 238 255
226 238 255
226 238 255
226 238 255
226 238 255
226 238 255
226 238 255
226 238 255
226 238 255
226 238 255
226 238 255
226 238 255
226 238 255
226 238 255
226 238 255
226 238 255
226 238 255
226 238 255
226 238 255
226 238 255
226 238 255
226 238 255
226 238 255
226 238 255
226 238 255
226 238 255
226 238 255
226 238 255
226 238 255
226 238 255
226 238 255
226 238 255
226 238 255
226 238 255
226 238 255
226 238 255
226 238 255
226 238 255
226 238 255
226 238 255
226 238 255
226 238 255
226 238 255
226 238 255
226 238 255
226 238 255
226 238 255
226 238 255
226 238 255
226 238 255
226 238 255
226 238 255
226 238 255
226 238 255
226 238 255
226 238 255
226 238 255
226 238 255
226 238 255
226 238 255
226 238 255
226 238 255
226 238 255
226 238 255
226 238 255
226 238 255
226 238 255
226 238 255
226 238 255
226 238 255
226 238 255
226 238 255
226 238 255
226 238 255
226 238 255
226 238 255
226 238 255
226 238 255
226 238 255
226 238 255
226 238 255
226 238 255
226 238 255
225 238 255
225 238 255
225 238 255
225 238 255
225 238 255
225 238 255
225 238 255
225 238 255
225 238 255
225 238 255
225 238 255
225 238 255
225 238 255
225 238 255
225 238 255
225 238 255
225 238 255
225 238 255
225 238 255
225 238 255
225 238 255
225 238 255
225 238 255
225 238 255
225 238 255
225 238 255
225 238 255
225 238 255
225 238 255
225 238 255
225 238 255
225 238 255
225 238 255
225 238 255
225 238 255
225 238 255
225 238 255
225 238 255
225 238 255
225 238 255
225 238 255
225 238 255
225 238 255
225 238 255
225 238 255
225 238 255
225 238 255
225 238 255
225 238 255
225 238 255
225 238 255
225 238 255
225 238 255
225 237 255
225 237 255
225 237 255
225 237 255
225 237 255
225 237 255
225 237 255
225 237 255
225 237 255
225 237 255
225 237 255
225 237 255
225 237 255
225 237 255
225 237 255
224 237 255
224 237 255
224 237 255
224 237 255
224 237 255
224 237 255
224 237 255
224 237 255
224 237 255
224 237 255
224 237 255
224 237 255
224 237 255
224 237 255
224 237 255
224 237 255
224 237 255
224 237 255
224 237 255
224 237 255
224 237 255
224 237 255
224 237 255
224 237 255
224 237 255
224 237 255
224 237 255
224 237 255
224 237 255
224 237 255
224 237 255
224 237 255
224 237 255
224 237 255
224 237 255
224 237 255
224 237 255
224 237 255
224 237 255
224 237 255
224 237 255
224 237 255
224 237 255
224 237 255
224 237 255
224 237 255
224 237 255
224 237 255
224 237 255
224 237 255
224 237 255
224 237 255
224 237 255
224 237 255
224 237 255
224 237 255
224 237 255
224 237 255
224 237 255
224 237 255
224 237 255
224 237 255
224 237 255
224 237 255
224 237 255
224 237 255
224 237 255
224 237 255
224 237 255
224 237 255
224 237 255
224 237 255
224 237 255
224 237 255
224 237 255
224 237 255
224 237 255
224 237 255
224 237 255
224 237 255
224 237 255
224 237 255
224 237 255
224 237 255
224 237 255
224 237 255
224 237 255
224 237 255
224 237 255
224 237 255
224 237 255
224 237 255
224 237 255
224 237 255
224 237 255
224 237 255
224 237 255
224 237 255
224 237 255
224 237 255
224 237 255
224 237 255
224 237 255
224 237 255
224 237 255
224 237 255
224 237 255
224 237 255
224 237 255
224 237 255
224 237 255
224 237 255
224 237 255
224 237 255
224 237 255
225 237 255
225 237 255
225 237 255
225 237 255
225 237 255
225 237 255
225 237 255
225 237 255
225 237 255
225 237 255
225 237 255
225 237 255
225 237 255
225 237 255
225 237 255
225 238 255
225 238 255
225 238 255
225 238 255
225 238 255
225 238 255
225 238 255
225 238 255
225 238 255
225 238 255
225 238 255
225 238 255
225 238 255
225 238 255
225 238 255
225 238 255
225 238 255
225 238 255
225 238 255
225 238 255
225 238 255
225 238 255
225 238 255
225 238 255
225 238 255
225 238 255
225 238 255
225 238 255
225 238 255
225 238 255
225 238 255
225 238 255
225 238 255
225 238 255
225 238 255
225 238 255
225 238 255
225 238 255
225 238 255
225 238 255
225 238 255
225 238 255
225 238 255
225 238 255
225 238 255
225 238 255
225 238 255
225 238 255
225 238 255
225 238 255
225 238 255
225 238 255
225 238 255
225 238 255
225 238 255
225 238 255
226 238 255
226 238 255
226 238 255
226 238 255
226 238 255
226 238 255
226 238 255
226 238 255
226 238 255
226 238 255
226 238 255
226 238 255
226 238 255
226 238 255
226 238 255
226 238 255
226 238 255
226 238 255
226 238 255
226 238 255
226 238 255
226 238 255
226 238 255
226 238 255
226 238 255
226 238 255
226 238 255
226 238 255
226 238 255
226 238 255
226 238 255
226 238 255
226 238 255
226 238 255
226 238 255
226 238 255
226 238 255
226 238 255
226 238 255
226 238 255
226 238 255
226 238 255
226 238 255
226 238 255
226 238 255
226 238 255
226 238 255
226 238 255
226 238 255
226 238 255
226 238 255
226 238 255
226 238 255
226 238 255
226 238 255
226 238 255
226 238 255
226 238 255
226 238 255
226 238 255
226 238 255
226 238 255
226 238 255
226 238 255
226 238 255
226 238 255
226 238 255
226 238 255
226 238 255
226 238 255
226 238 255
226 238 255
226 238 255
226 238 255
226 238 255
226 238 255
226 238 255
226 238 255
226 238 255
226 238 255
226 238 255
226 238 255
226 238 255
226 238 255
226 238 255
226 238 255
226 238 255
226 238 255
226 238 255
226 238 255
226 238 255
226 238 255
226 238 255
226 238 255
226 238 255
226 238 255
226 238 255
226 238 255
226 238 255
226 238 255
226 238 255
226 238 255
226 238 255
226 238 255
226 238 255
226 238 255
226 238 255
226 238 255
226 238 255
226 238 255
226 238 255
226 238 255
226 238 255
226 238 255
226 238 255
226 238 255
226 238 255
226 238 255
226 238 255
226 238 255
226 238 255
226 238 255
226 238 255
226 238 255
226 238 255
226 238 255
226 238 255
226 238 255
226 238 255
226 238 255
226 238 255
225 238 255
225 238 255
225 238 255
225 238 255
225 238 255
225 238 255
225 238 255
225 238 255
225 238 255
225 238 255
225 238 255
225 238 255
225 238 255
225 238 255
225 238 255
225 238 255
225 238 255
225 238 255
225 238 255
225 238 255
225 238 255
225 238 255
225 238 255
225 238 255
225 238 255
225 238 255
225 238 255
225 238 255
225 238 255
225 238 255
225 238 255
225 238 255
225 238 255
225 238 255
225 238 255
225 238 255
225 238 255
225 238 255
225 238 255
225 238 255
225 238 255
225 238 255
225 238 255
225 238 255
225 238 255
225 238 255
225 238 255
225 238 255
225 238 255
225 238 255
225 238 255
225 238 255
225 238 255
225 238 255
225 238 255
225 238 255
225 237 255
225 237 255
225 237 255
225 237 255
225 237 255
225 237 255
225 237 255
225 237 255
225 237 255
225 237 255
225 237 255
225 237 255
225 237 255
225 237 255
225 237 255
224 237 255
224 237 255
224 237 255
224 237 255
224 237 255
224 237 255
224 237 255
224 237 255
224 237 255
224 237 255
224 237 255
224 237 255
224 237 255
224 237 255
224 237 255
224 237 255
224 237 255
224 237 255
224 237 255
224 237 255
224 237 255
224 237 255
224 237 255
224 237 255
224 237 255
224 237 255
224 237 255
224 237 255
224 237 255
224 237 255
224 237 255
224 237 255
224 237 255
224 237 255
224 237 255
224 237 255
224 237 255
224 237 255
224 237 255
224 237 255
224 237 255
224 237 255
224 237 255
224 237 255
224 237 255
224 237 255
224 237 255
224 237 255
224 237 255
224 237 255
224 237 255
224 237 255
224 237 255
224 237 255
224 237 255
224 237 255
224 237 255
224 237 255
224 237 255
224 237 255
224 237 255
224 237 255
224 237 255
224 237 255
224 237 255
224 237 255
224 237 255
224 237 255
224 237 255
224 237 255
224 237 255
224 237 255
224 237 255
224 237 255
224 237 255
224 237 255
224 237 255
224 237 255
224 237 255
224 237 255
224 237 255
224 237 255
224 237 255
224 237 255
224 237 255
224 237 255
224 237 255
224 237 255
224 237 255
224 237 255
224 237 255
224 237 255
224 237 255
224 237 255
224 237 255
224 237 255
224 237 255
224 237 255
224 237 255
224 237 255
224 237 255
224 237 255
224 237 255
224 237 255
224 237 255
224 237 255
224 237 255
224 237 255
224 237 255
224 237 255
224 237 255
224 237 255
224 237 255
224 237 255
224 237 255
224 237 255
224 237 255
224 237 255
224 237 255
224 237 255
224 237 255
224 237 255
224 237 255
224 237 255
224 237 255
224 237 255
224 237 255
224 237 255
224 237 255
224 237 255
224 237 255
224 237 255
224 237 255
224 237 255
224 237 255
224 237 255
224 237 255
224 237 255
224 237 255
225 237 255
225 237 255
225 237 255
225 237 255
225 237 255
225 237 255
225 237 255
225 237 255
225 237 255
225 237 255
225 237 255
225 237 255
225 237 255
225 237 255
225 237 255
225 237 255
225 238 255
225 238 255
225 238 255
225 238 255
225 238 255
225 238 255
225 238 255
225 238 255
225 238 255
225 238 255
225 238 255
225 238 255
225 238 255
225 238 255
225 238 255
225 238 255
225 238 255
225 238 255
225 238 255
225 238 255
225 238 255
225 238 255
225 238 255
225 238 255
225 238 255
225 238 255
225 238 255
225 238 255
225 238 255
225 238 255
225 238 255
225 238 255
225 238 255
225 238 255
225 238 255
225 238 255
225 238 255
225 238 255
225 238 255
225 238 255
225 238 255
225 238 255
225 238 255
225 238 255
225 238 255
225 238 255
225 238 255
225 238 255
225 238 255
225 238 255
225 238 255
225 238 255
225 238 255
225 238 255
225 238 255
225 238 255
225 238 255
225 238 255
225 238 255
225 238 255
225 238 255
226 238 255
226 238 255
226 238 255
226 238 255
226 238 255
226 238 255
226 238 255
226 238 255
226 238 255
226 238 255
226 238 255
226 238 255
226 238 255
226 238 255
226 238 255
226 238 255
226 238 255
226 238 255
226 238 255
226 238 255
226 238 255
226 238 255
226 238 255
226 238 255
226 238 255
226 238 255
226 238 255
226 238 255
226 238 255
226 238 255
226 238 255
226 238 255
226 238 255
226 238 255
226 238 255
226 238 255
226 238 255
226 238 255
226 238 255
226 238 255
226 238 255
226 238 255
226 238 255
226 238 255
226 238 255
226 238 255
226 238 255
226 238 255
226 238 255
226 238 255
226 238 255
226 238 255
226 238 255
226 238 255
226 238 255
226 238 255
226 238 255
226 238 255
226 238 255
226 238 255
226 238 255
226 238 255
226 238 255
226 238 255
226 238 255
226 238 255
226 238 255
226 238 255
226 238 255
226 238 255
226 238 255
226 238 255
226 238 255
226 238 255
226 238 255
226 238 255
226 238 255
226 238 255
226 238 255
226 238 255
226 238 255
226 238 255
226 238 255
226 238 255
226 238 255
226 238 255
226 238 255
226 238 255
226 238 255
226 238 255
226 238 255
226 238 255
226 238 255
226 238 255
225 238 255
226 238 255
225 238 255
225 238 255
225 238 255
225 238 255
225 238 255
225 238 255
225 238 255
225 238 255
225 238 255
225 238 255
225 238 255
225 238 255
225 238 255
225 238 255
225 238 255
225 238 255
225 238 255
225 238 255
225 238 255
225 238 255
225 238 255
225 238 255
225 238 255
225 238 255
225 238 255
225 238 255
225 238 255
225 238 255
225 238 255
225 238 255
225 238 255
225 238 255
225 238 255
225 238 255
225 238 255
225 238 255
225 238 255
225 238 255
225 238 255
225 238 255
225 238 255
225 238 255
225 238 255
225 238 255
225 238 255
225 238 255
225 238 255
225 238 255
225 238 255
225 238 255
225 238 255
225 238 255
225 238 255
225 238 255
225 238 255
225 238 255
225 238 255
225 238 255
225 238 255
225 237 255
225 237 255
225 237 255
225 237 255
225 237 255
225 237 255
225 237 255
225 237 255
225 237 255
225 237 255
225 237 255
225 237 255
225 237 255
225 237 255
225 237 255
224 237 255
224 237 255
224 237 255
224 237 255
224 237 255
224 237 255
224 237 255
224 237 255
224 237 255
224 237 255
224 237 255
224 237 255
224 237 255
224 237 255
224 237 255
224 237 255
224 237 255
224 237 255
224 237 255
224 237 255
224 237 255
224 237 255
224 237 255
224 237 255
224 237 255
224 237 255
224 237 255
224 237 255
224 237 255
224 237 255
224 237 255
224 237 255
224 237 255
224 237 255
224 237 255
224 237 255
224 237 255
224 237 255
224 237 255
224 237 255
224 237 255
224 237 255
224 237 255
224 237 255
224 237 255
224 237 255
224 237 255
224 237 255
224 237 255
224 237 255
224 237 255
224 237 255
224 237 255
224 237 255
224 237 255
224 237 255
224 237 255
224 237 255
224 237 255
224 237 255
224 237 255
224 237 255
224 237 255
224 237 255
224 237 255
224 237 255
224 237 255
224 237 255
224 237 255
224 237 255
224 237 255
224 237 255
224 237 255
224 237 255
224 237 255
224 237 255
224 237 255
224 237 255
224 237 255
224 237 255
224 237 255
224 237 255
224 237 255
224 237 255
224 237 255
224 237 255
224 237 255
224 237 255
224 237 255
224 237 255
224 237 255
224 237 255
224 237 255
224 237 255
224 237 255
224 237 255
224 237 255
224 237 255
224 237 255
224 237 255
224 237 255
224 237 255
224 237 255
224 237 255
224 237 255
224 237 255
224 237 255
224 237 255
224 237 255
224 237 255
224 237 255
224 237 255
224 237 255
224 237 255
224 237 255
224 237 255
224 237 255
224 237 255
224 237 255
224 237 255
224 237 255
224 237 255
224 237 255
224 237 255
224 237 255
224 237 255
224 237 255
224 237 255
224 237 255
224 237 255
224 237 255
224 237 255
224 237 255
224 237 255
224 237 255
224 237 255
224 237 255
224 237 255
224 237 255
224 237 255
224 237 255
224 237 255
224 237 255
224 237 255
224 237 255
224 237 255
224 237 255
224 237 255
224 237 255
224 237 255
224 237 255
224 237 255
224 237 255
224 237 255
224 237 255
224 237 255
224 237 255
224 237 255
224 237 255
224 237 255
224 237 255
224 237 255
224 237 255
224 237 255
224 237 255
224 237 255
224 237 255
224 237 255
225 237 255
225 237 255
225 237 255
225 237 255
225 237 255
225 237 255
225 237 255
225 237 255
225 237 255
225 237 255
225 237 255
225 237 255
225 237 255
225 237 255
225 238 255
225 238 255
225 238 255
225 238 255
225 238 255
225 238 255
225 238 255
225 238 255
225 238 255
225 238 255
225 238 255
225 238 255
225 238 255
225 238 255
225 238 255
225 238 255
225 238 255
225 238 255
225 238 255
225 238 255
225 238 255
225 238 255
225 238 255
225 238 255
225 238 255
225 238 255
225 238 255
225 238 255
225 238 255
225 238 255
225 238 255
225 238 255
225 238 255
225 238 255
225 238 255
225 238 255
225 238 255
225 238 255
225 238 255
225 238 255
225 238 255
225 238 255
225 238 255
225 238 255
225 238 255
225 238 255
225 238 255
225 238 255
225 238 255
225 238 255
225 238 255
225 238 255
225 238 255
225 238 255
225 238 255
225 238 255
225 238 255
225 238 255
225 238 255
225 238 255
225 238 255
225 238 255
225 238 255
225 238 255
225 238 255
225 238 255
225 238 255
225 238 255
225 238 255
225 238 255
225 238 255
225 238 255
225 238 255
225 238 255
225 238 255
225 238 255
225 238 255
225 238 255
225 238 255
225 238 255
226 238 255
225 238 255
226 238 255
226 238 255
226 238 255
226 238 255
226 238 255
226 238 255
226 238 255
226 238 255
226 238 255
226 238 255
226 238 255
226 238 255
226 238 255
226 238 255
226 238 255
226 238 255
226 238 255
226 238 255
226 238 255
226 238 255
226 238 255
226 238 255
226 238 255
226 238 255
226 238 255
226 238 255
226 238 255
226 238 255
225 238 255
225 238 255
226 238 255
225 238 255
225 238 255
225 238 255
225 238 255
225 238 255
225 238 255
225 238 255
225 238 255
225 238 255
225 238 255
225 238 255
225 238 255
225 238 255
225 238 255
225 238 255
225 238 255
225 238 255
225 238 255
225 238 255
225 238 255
225 238 255
225 238 255
225 238 255
225 238 255
225 238 255
225 238 255
225 238 255
225 238 255
225 238 255
225 238 255
225 238 255
225 238 255
225 238 255
225 238 255
225 238 255
225 238 255
225 238 255
225 238 255
225 238 255
225 238 255
225 238 255
225 238 255
225 238 255
225 238 255
225 238 255
225 238 255
225 238 255
225 238 255
225 238 255
225 238 255
225 238 255
225 238 255
225 238 255
225 238 255
225 238 255
225 238 255
225 238 255
225 238 255
225 238 255
225 238 255
225 238 255
225 238 255
225 238 255
225 238 255
225 238 255
225 238 255
225 238 255
225 238 255
225 238 255
225 238 255
225 238 255
225 238 255
225 238 255
225 238 255
225 238 255
225 238 255
225 237 255
225 237 255
225 237 255
225 237 255
225 237 255
225 237 255
225 237 255
225 237 255
225 237 255
225 237 255
225 237 255
225 237 255
225 237 255
225 237 255
225 237 255
224 237 255
224 237 255
224 237 255
224 237 255
224 237 255
224 237 255
224 237 255
224 237 255
224 237 255
224 237 255
224 237 255
224 237 255
224 237 255
224 237 255
224 237 255
224 237 255
224 237 255
224 237 255
224 237 255
224 237 255
224 237 255
224 237 255
224 237 255
224 237 255
224 237 255
224 237 255
224 237 255
224 237 255
224 237 255
224 237 255
224 237 255
224 237 255
224 237 255
224 237 255
224 237 255
224 237 255
224 237 255
224 237 255
224 237 255
224 237 255
224 237 255
224 237 255
224 237 255
224 237 255
224 237 255
224 237 255
224 237 255
224 237 255
224 237 255
224 237 255
224 237 255
224 237 255
224 237 255
224 237 255
224 237 255
224 237 255
224 237 255
224 237 255
224 237 255
224 237 255
224 237 255
224 237 255
224 237 255
224 237 255
224 237 255
224 237 255
224 237 255
224 237 255
224 237 255
224 237 255
224 237 255
224 237 255
224 237 255
224 237 255
224 237 255
224 237 255
224 237 255
224 237 255
224 237 255
224 237 255
224 237 255
224 237 255
224 237 255
224 237 255
224 237 255
224 237 255
224 237 255
224 237 255
224 237 255
224 237 255
224 237 255
223 237 255
223 237 255
223 237 255
223 237 255
223 237 255
223 237 255
223 237 255
223 237 255
223 237 255
223 237 255
224 237 255
224 237 255
224 237 255
224 237 255
224 237 255
224 237 255
224 237 255
224 237 255
224 237 255
224 237 255
224 237 255
224 237 255
224 237 255
224 237 255
224 237 255
224 237 255
224 237 255
224 237 255
224 237 255
224 237 255
224 237 255
224 237 255
224 237 255
224 237 255
224 237 255
224 237 255
224 237 255
224 237 255
224 237 255
224 237 255
224 237 255
224 237 255
224 237 255
224 237 255
224 237 255
224 237 255
224 237 255
224 237 255
224 237 255
224 237 255
224 237 255
224 237 255
224 237 255
224 237 255
224 237 255
224 237 255
224 237 255
224 237 255
224 237 255
224 237 255
224 237 255
224 237 255
224 237 255
224 237 255
224 237 255
224 237 255
224 237 255
224 237 255
224 237 255
224 237 255
224 237 255
224 237 255
224 237 255
224 237 255
224 237 255
224 237 255
224 237 255
224 237 255
224 237 255
224 237 255
224 237 255
224 237 255
224 237 255
224 237 255
224 237 255
224 237 255
224 237 255
224 237 255
224 237 255
224 237 255
224 237 255
224 237 255
224 237 255
224 237 255
224 237 255
224 237 255
224 237 255
224 237 255
224 237 255
224 237 255
224 237 255
224 237 255
224 237 255
224 237 255
224 237 255
224 237 255
225 237 255
225 237 255
225 237 255
225 237 255
225 237 255
225 237 255
225 237 255
225 237 255
225 237 255
225 237 255
225 237 255
225 237 255
225 237 255
225 237 255
225 237 255
225 237 255
225 237 255
225 238 255
225 238 255
225 238 255
225 238 255
225 238 255
225 238 255
225 238 255
225 238 255
225 238 255
225 238 255
225 238 255
225 238 255
225 238 255
225 238 255
225 238 255
225 238 255
225 238 255
225 238 255
225 238 255
225 238 255
225 238 255
225 238 255
225 238 255
225 238 255
225 238 255
225 238 255
225 238 255
225 238 255
225 238 255
225 238 255
225 238 255
225 238 255
225 238 255
225 238 255
225 238 255
225 238 255
225 238 255
225 238 255
225 238 255
225 238 255
225 238 255
225 238 255
225 238 255
225 238 255
225 238 255
225 238 255
225 238 255
225 238 255
225 238 255
225 238 255
225 238 255
225 238 255
225 238 255
225 238 255
225 238 255
225 238 255
225 238 255
225 238 255
225 238 255
225 238 255
225 238 255
225 238 255
225 238 255
225 238 255
225 238 255
225 238 255
225 238 255
225 238 255
225 238 255
225 238 255
225 238 255
225 238 255
225 238 255
225 238 255
225 238 255
225 238 255
225 238 255
225 238 255
225 238 255
225 238 255
225 238 255
225 238 255
225 238 255
225 238 255
225 238 255
225 238 255
225 238 255
225 238 255
225 238 255
225 238 255
225 238 255
225 238 255
225 238 255
225 238 255
225 238 255
225 238 255
225 238 255
225 238 255
225 238 255
225 238 255
225 238 255
225 238 255
225 238 255
225 238 255
225 238 255
225 238 255
225 238 255
225 238 255
225 238 255
225 238 255
225 238 255
225 238 255
225 238 255
225 238 255
225 238 255
225 238 255
225 238 255
225 238 255
225 238 255
225 238 255
225 238 255
225 238 255
225 238 255
225 238 255
225 238 255
225 238 255
225 238 255
225 238 255
225 238 255
225 238 255
225 238 255
225 238 255
225 238 255
225 238 255
225 238 255
225 238 255
225 238 255
225 238 255
225 238 255
225 238 255
225 238 255
225 238 255
225 238 255
225 238 255
225 238 255
225 238 255
225 238 255
225 238 255
225 238 255
225 238 255
225 238 255
225 238 255
225 238 255
225 238 255
225 238 255
225 237 255
225 237 255
225 237 255
225 237 255
225 237 255
225 237 255
225 237 255
225 237 255
225 237 255
225 237 255
225 237 255
225 237 255
225 237 255
225 237 255
225 237 255
225 237 255
224 237 255
224 237 255
224 237 255
224 237 255
224 237 255
224 237 255
224 237 255
224 237 255
224 237 255
224 237 255
224 237 255
224 237 255
224 237 255
224 237 255
224 237 255
224 237 255
224 237 255
224 237 255
224 237 255
224 237 255
224 237 255
224 237 255
224 237 255
224 237 255
224 237 255
224 237 255
224 237 255
224 237 255
224 237 255
224 237 255
224 237 255
224 237 255
224 237 255
224 237 255
224 237 255
224 237 255
224 237 255
224 237 255
224 237 255
224 237 255
224 237 255
224 237 255
224 237 255
224 237 255
224 237 255
224 237 255
224 237 255
224 237 255
224 237 255
224 237 255
224 237 255
224 237 255
224 237 255
224 237 255
224 237 255
224 237 255
224 237 255
224 237 255
224 237 255
224 237 255
224 237 255
224 237 255
224 237 255
224 237 255
224 237 255
224 237 255
224 237 255
224 237 255
224 237 255
224 237 255
224 237 255
224 237 255
224 237 255
224 237 255
224 237 255
224 237 255
224 237 255
224 237 255
224 237 255
224 237 255
224 237 255
224 237 255
224 237 255
224 237 255
224 237 255
224 237 255
224 237 255
224 237 255
224 237 255
224 237 255
224 237 255
224 237 255
224 237 255
224 237 255
224 237 255
224 237 255
223 237 255
223 237 255
223 237 255
223 237 255
223 237 255
223 237 255
223 237 255
223 237 255
223 237 255
223 237 255
223 237 255
223 237 255
223 237 255
223 237 255
223 237 255
223 237 255
223 237 255
223 237 255
223 237 255
223 237 255
223 237 255
223 237 255
223 237 255
223 237 255
223 237 255
223 237 255
223 237 255
223 237 255
223 237 255
223 237 255
223 237 255
223 237 255
223 237 255
223 237 255
223 237 255
223 237 255
224 237 255
224 237 255
224 237 255
224 237 255
224 237 255
224 237 255
224 237 255
224 237 255
224 237 255
224 237 255
224 237 255
224 237 255
224 237 255
224 237 255
224 237 255
224 237 255
224 237 255
224 237 255
224 237 255
224 237 255
224 237 255
224 237 255
224 237 255
224 237 255
224 237 255
224 237 255
224 237 255
224 237 255
224 237 255
224 237 255
224 237 255
224 237 255
224 237 255
224 237 255
224 237 255
224 237 255
224 237 255
224 237 255
224 237 255
224 237 255
224 237 255
224 237 255
224 237 255
224 237 255
224 237 255
224 237 255
224 237 255
224 237 255
224 237 255
224 237 255
224 237 255
224 237 255
224 237 255
224 237 255
224 237 255
224 237 255
224 237 255
224 237 255
224 237 255
224 237 255
224 237 255
224 237 255
224 237 255
224 237 255
224 237 255
224 237 255
224 237 255
224 237 255
224 237 255
224 237 255
224 237 255
224 237 255
224 237 255
224 237 255
224 237 255
224 237 255
224 237 255
224 237 255
224 237 255
224 237 255
224 237 255
224 237 255
224 237 255
224 237 255
224 237 255
224 237 255
224 237 255
224 237 255
224 237 255
224 237 255
224 237 255
224 237 255
224 237 255
224 237 255
224 237 255
224 237 255
224 237 255
225 237 255
225 237 255
225 237 255
225 237 255
225 237 255
225 237 255
225 237 255
225 237 255
225 237 255
225 237 255
225 237 255
225 237 255
225 237 255
225 237 255
225 237 255
225 237 255
225 237 255
225 237 255
225 237 255
225 238 255
225 238 255
225 238 255
225 238 255
225 238 255
225 238 255
225 238 255
225 238 255
225 238 255
225 238 255
225 238 255
225 238 255
225 238 255
225 238 255
225 238 255
225 238 255
225 238 255
225 238 255
225 238 255
225 238 255
225 238 255
225 238 255
225 238 255
225 238 255
225 238 255
225 238 255
225 238 255
225 238 255
225 238 255
225 238 255
225 238 255
225 238 255
225 238 255
225 238 255
225 238 255
225 238 255
225 238 255
225 238 255
225 238 255
225 238 255
225 238 255
225 238 255
225 238 255
225 238 255
225 238 255
225 238 255
225 238 255
225 238 255
225 238 255
225 238 255
225 238 255
225 238 255
225 238 255
225 238 255
225 238 255
225 238 255
225 238 255
225 238 255
225 238 255
225 238 255
225 238 255
225 238 255
225 238 255
225 238 255
225 238 255
225 238 255
225 238 255
225 238 255
225 238 255
225 238 255
225 238 255
225 238 255
225 238 255
225 238 255
225 238 255
225 238 255
225 238 255
225 238 255
225 238 255
225 238 255
225 238 255
225 238 255
225 238 255
225 238 255
225 238 255
225 238 255
225 238 255
225 238 255
225 238 255
225 238 255
225 238 255
225 238 255
225 238 255
225 238 255
225 238 255
225 238 255
225 238 255
225 238 255
225 238 255
225 238 255
225 238 255
225 238 255
225 238 255
225 238 255
225 238 255
225 238 255
225 238 255
225 238 255
225 238 255
225 238 255
225 238 255
225 238 255
225 238 255
225 238 255
225 238 255
225 238 255
225 237 255
225 237 255
225 237 255
225 237 255
225 237 255
225 237 255
225 237 255
225 237 255
225 237 255
225 237 255
225 237 255
225 237 255
225 237 255
225 237 255
225 237 255
225 237 255
225 237 255
225 237 255
225 237 255
224 237 255
224 237 255
224 237 255
224 237 255
224 237 255
224 237 255
224 237 255
224 237 255
224 237 255
224 237 255
224 237 255
224 237 255
224 237 255
224 237 255
224 237 255
224 237 255
224 237 255
224 237 255
224 237 255
224 237 255
224 237 255
224 237 255
224 237 255
224 237 255
224 237 255
224 237 255
224 237 255
224 237 255
224 237 255
224 237 255
224 237 255
224 237 255
224 237 255
224 237 255
224 237 255
224 237 255
224 237 255
224 237 255
224 237 255
224 237 255
224 237 255
224 237 255
224 237 255
224 237 255
224 237 255
224 237 255
224 237 255
224 237 255
224 237 255
224 237 255
224 237 255
224 237 255
224 237 255
224 237 255
224 237 255
224 237 255
224 237 255
224 237 255
224 237 255
224 237 255
224 237 255
224 237 255
224 237 255
224 237 255
224 237 255
224 237 255
224 237 255
224 237 255
224 237 255
224 237 255
224 237 255
224 237 255
224 237 255
224 237 255
224 237 255
224 237 255
224 237 255
224 237 255
224 237 255
224 237 255
224 237 255
224 237 255
224 237 255
224 237 255
224 237 255
224 237 255
224 237 255
224 237 255
224 237 255
224 237 255
224 237 255
224 237 255
224 237 255
224 237 255
224 237 255
224 237 255
224 237 255
223 237 255
223 237 255
223 237 255
223 237 255
223 237 255
223 237 255
223 237 255
223 237 255
223 237 255
223 237 255
223 237 255
223 237 255
223 237 255
223 237 255
223 237 255
223 237 255
223 237 255
223 237 255
223 237 255
223 237 255
223 237 255
223 237 255
223 237 255
223 237 255
223 237 255
223 237 255
223 237 255
223 237 255
223 237 255
223 237 255
223 237 255
223 237 255
223 237 255
223 237 255
223 237 255
223 237 255
223 237 255
223 237 255
223 237 255
223 237 255
223 237 255
223 237 255
223 237 255
223 237 255
223 237 255
223 237 255
223 237 255
223 237 255
223 237 255
223 237 255
223 237 255
223 237 255
223 237 255
223 237 255
223 237 255
223 237 255
223 237 255
223 237 255
223 237 255
223 237 255
223 237 255
223 237 255
223 237 255
223 237 255
223 237 255
223 237 255
223 237 255
223 237 255
223 237 255
224 237 255
224 237 255
224 237 255
224 237 255
224 237 255
224 237 255
224 237 255
224 237 255
224 237 255
224 237 255
224 237 255
224 237 255
224 237 255
224 237 255
224 237 255
224 237 255
224 237 255
224 237 255
224 237 255
224 237 255
224 237 255
224 237 255
224 237 255
224 237 255
224 237 255
224 237 255
224 237 255
224 237 255
224 237 255
224 237 255
224 237 255
224 237 255
224 237 255
224 237 255
224 237 255
224 237 255
224 237 255
224 237 255
224 237 255
224 237 255
224 237 255
224 237 255
224 237 255
224 237 255
224 237 255
224 237 255
224 237 255
224 237 255
224 237 255
224 237 255
224 237 255
224 237 255
224 237 255
224 237 255
224 237 255
224 237 255
224 237 255
224 237 255
224 237 255
224 237 255
224 237 255
224 237 255
224 237 255
224 237 255
224 237 255
224 237 255
224 237 255
224 237 255
224 237 255
224 237 255
224 237 255
224 237 255
224 237 255
224 237 255
224 237 255
224 237 255
224 237 255
224 237 255
224 237 255
224 237 255
224 237 255
224 237 255
224 237 255
224 237 255
224 237 255
224 237 255
224 237 255
224 237 255
224 237 255
224 237 255
224 237 255
224 237 255
224 237 255
224 237 255
224 237 255
224 237 255
224 237 255
224 237 255
224 237 255
224 237 255
224 237 255
225 237 255
225 237 255
225 237 255
225 237 255
225 237 255
225 237 255
225 237 255
225 237 255
225 237 255
225 237 255
225 237 255
225 237 255
225 237 255
225 237 255
225 237 255
225 237 255
225 237 255
225 237 255
225 237 255
225 237 255
225 237 255
225 237 255
225 237 255
225 237 255
225 237 255
225 238 255
225 237 255
225 238 255
225 238 255
225 238 255
225 238 255
225 238 255
225 238 255
225 238 255
225 238 255
225 238 255
225 238 255
225 238 255
225 238 255
225 238 255
225 238 255
225 238 255
225 238 255
225 238 255
225 238 255
225 238 255
225 238 255
225 238 255
225 238 255
225 238 255
225 238 255
225 238 255
225 238 255
225 238 255
225 238 255
225 238 255
225 238 255
225 238 255
225 238 255
225 238 255
225 238 255
225 238 255
225 238 255
225 238 255
225 238 255
225 238 255
225 238 255
225 238 255
225 238 255
225 238 255
225 238 255
225 238 255
225 238 255
225 238 255
225 238 255
225 238 255
225 238 255
225 238 255
225 238 255
225 238 255
225 238 255
225 238 255
225 238 255
225 238 255
225 237 255
225 238 255
225 237 255
225 237 255
225 237 255
225 237 255
225 237 255
225 237 255
225 237 255
225 237 255
225 237 255
225 237 255
225 237 255
225 237 255
225 237 255
225 237 255
225 237 255
225 237 255
225 237 255
225 237 255
225 237 255
225 237 255
225 237 255
225 237 255
225 237 255
225 237 255
225 237 255
225 237 255
224 237 255
224 237 255
224 237 255
224 237 255
224 237 255
224 237 255
224 237 255
224 237 255
224 237 255
224 237 255
224 237 255
224 237 255
224 237 255
224 237 255
224 237 255
224 237 255
224 237 255
224 237 255
224 237 255
224 237 255
224 237 255
224 237 255
224 237 255
224 237 255
224 237 255
224 237 255
224 237 255
224 237 255
224 237 255
224 237 255
224 237 255
224 237 255
224 237 255
224 237 255
224 237 255
224 237 255
224 237 255
224 237 255
224 237 255
224 237 255
224 237 255
224 237 255
224 237 255
224 237 255
224 237 255
224 237 255
224 237 255
224 237 255
224 237 255
224 237 255
224 237 255
224 237 255
224 237 255
224 237 255
224 237 255
224 237 255
224 237 255
224 237 255
224 237 255
224 237 255
224 237 255
224 237 255
224 237 255
224 237 255
224 237 255
224 237 255
224 237 255
224 237 255
224 237 255
224 237 255
224 237 255
224 237 255
224 237 255
224 237 255
224 237 255
224 237 255
224 237 255
224 237 255
224 237 255
224 237 255
224 237 255
224 237 255
224 237 255
224 237 255
224 237 255
224 237 255
224 237 255
224 237 255
224 237 255
224 237 255
224 237 255
224 237 255
224 237 255
224 237 255
224 237 255
224 237 255
224 237 255
224 237 255
224 237 255
224 237 255
224 237 255
223 237 255
223 237 255
223 237 255
223 237 255
223 237 255
223 237 255
223 237 255
223 237 255
223 237 255
223 237 255
223 237 255
223 237 255
223 237 255
223 237 255
223 237 255
223 237 255
223 237 255
223 237 255
223 237 255
223 237 255
223 237 255
223 237 255
223 237 255
223 237 255
223 237 255
223 237 255
223 237 255
223 237 255
223 237 255
223 237 255
223 237 255
223 237 255
223 237 255
223 237 255
223 237 255
223 237 255
223 237 255
223 237 255
223 237 255
223 237 255
223 237 255
223 237 255
223 237 255
223 237 255
223 237 255
223 237 255
223 237 255
223 237 255
223 237 255
223 237 255
223 237 255
223 237 255
223 237 255
223 237 255
223 237 255
223 237 255
223 237 255
223 237 255
223 237 255
223 237 255
223 237 255
223 237 255
223 237 255
223 237 255
223 237 255
223 237 255
223 237 255
223 237 255
223 237 255
223 237 255
223 237 255
223 237 255
223 237 255
223 237 255
223 237 255
223 237 255
223 237 255
223 237 255
223 237 255
223 237 255
223 237 255
223 237 255
223 237 255
223 237 255
223 237 255
223 237 255
223 237 255
223 237 255
223 237 255
223 237 255
223 237 255
223 237 255
223 237 255
223 237 255
223 237 255
223 237 255
223 237 255
223 237 255
223 237 255
223 237 255
223 237 255
223 237 255
223 237 255
223 237 255
223 237 255
224 237 255
224 237 255
224 237 255
224 237 255
224 237 255
224 237 255
224 237 255
224 237 255
224 237 255
224 237 255
224 237 255
224 237 255
224 237 255
224 237 255
224 237 255
224 237 255
224 237 255
224 237 255
224 237 255
224 237 255
224 237 255
224 237 255
224 237 255
224 237 255
224 237 255
224 237 255
224 237 255
224 237 255
224 237 255
224 237 255
224 237 255
224 237 255
224 237 255
224 237 255
224 237 255
224 237 255
224 237 255
224 237 255
224 237 255
224 237 255
224 237 255
224 237 255
224 237 255
224 237 255
224 237 255
224 237 255
224 237 255
224 237 255
224 237 255
224 237 255
224 237 255
224 237 255
224 237 255
224 237 255
224 237 255
224 237 255
224 237 255
224 237 255
224 237 255
224 237 255
224 237 255
224 237 255
224 237 255
224 237 255
224 237 255
224 237 255
224 237 255
224 237 255
224 237 255
224 237 255
224 237 255
224 237 255
224 237 255
224 237 255
224 237 255
224 237 255
224 237 255
224 237 255
224 237 255
224 237 255
224 237 255
224 237 255
224 237 255
224 237 255
224 237 255
224 237 255
224 237 255
224 237 255
224 237 255
224 237 255
224 237 255
224 237 255
224 237 255
224 237 255
224 237 255
224 237 255
224 237 255
224 237 255
224 237 255
224 237 255
224 237 255
224 237 255
224 237 255
224 237 255
224 237 255
224 237 255
224 237 255
224 237 255
224 237 255
224 237 255
224 237 255
224 237 255
224 237 255
224 237 255
224 237 255
225 237 255
225 237 255
225 237 255
225 237 255
225 237 255
225 237 255
225 237 255
225 237 255
225 237 255
225 237 255
225 237 255
225 237 255
225 237 255
225 237 255
225 237 255
225 237 255
225 237 255
225 237 255
225 237 255
225 237 255
225 237 255
225 237 255
225 237 255
225 237 255
225 237 255
225 237 255
225 237 255
225 237 255
225 237 255
225 237 255
225 237 255
225 237 255
225 237 255
225 237 255
225 237 255
225 237 255
225 237 255
225 237 255
225 237 255
225 237 255
225 237 255
225 237 255
225 237 255
225 237 255
225 237 255
225 237 255
224 237 255
225 237 255
224 237 255
224 237 255
224 237 255
224 237 255
224 237 255
224 237 255
224 237 255
224 237 255
224 237 255
224 237 255
224 237 255
224 237 255
224 237 255
224 237 255
224 237 255
224 237 255
224 237 255
224 237 255
224 237 255
224 237 255
224 237 255
224 237 255
224 237 255
224 237 255
224 237 255
224 237 255
224 237 255
224 237 255
224 237 255
224 237 255
224 237 255
224 237 255
224 237 255
224 237 255
224 237 255
224 237 255
224 237 255
224 237 255
224 237 255
224 237 255
224 237 255
224 237 255
224 237 255
224 237 255
224 237 255
224 237 255
224 237 255
224 237 255
224 237 255
224 237 255
224 237 255
224 237 255
224 237 255
224 237 255
224 237 255
224 237 255
224 237 255
224 237 255
224 237 255
224 237 255
224 237 255
224 237 255
224 237 255
224 237 255
224 237 255
224 237 255
224 237 255
224 237 255
224 237 255
224 237 255
224 237 255
224 237 255
224 237 255
224 237 255
224 237 255
224 237 255
224 237 255
224 237 255
224 237 255
224 237 255
224 237 255
224 237 255
224 237 255
224 237 255
224 237 255
224 237 255
224 237 255
224 237 255
224 237 255
224 237 255
224 237 255
224 237 255
224 237 255
224 237 255
224 237 255
224 237 255
224 237 255
224 237 255
224 237 255
224 237 255
224 237 255
224 237 255
224 237 255
224 237 255
224 237 255
224 237 255
224 237 255
224 237 255
224 237 255
224 237 255
224 237 255
224 237 255
224 237 255
224 237 255
223 237 255
223 237 255
223 237 255
223 237 255
223 237 255
223 237 255
223 237 255
223 237 255
223 237 255
223 237 255
223 237 255
223 237 255
223 237 255
223 237 255
223 237 255
223 237 255
223 237 255
223 237 255
223 237 255
223 237 255
223 237 255
223 237 255
223 237 255
223 237 255
223 237 255
223 237 255
223 237 255
223 237 255
223 237 255
223 237 255
223 237 255
223 237 255
223 237 255
223 237 255
223 237 255
223 237 255
223 237 255
223 237 255
223 237 255
223 237 255
223 237 255
223 237 255
223 237 255
223 237 255
223 237 255
223 237 255
223 237 255
223 237 255
223 237 255
223 237 255
223 237 255
223 237 255
223 237 255
223 237 255
223 237 255
223 237 255
223 237 255
223 237 255
223 237 255
223 237 255
223 237 255
223 236 255
223 236 255
223 236 255
223 236 255
223 236 255
223 237 255
223 237 255
223 237 255
223 237 255
223 237 255
223 237 255
223 237 255
223 237 255
223 237 255
223 237 255
223 237 255
223 237 255
223 237 255
223 237 255
223 237 255
223 237 255
223 237 255
223 237 255
223 237 255
223 237 255
223 237 255
223 237 255
223 237 255
223 237 255
223 237 255
223 237 255
223 237 255
223 237 255
223 237 255
223 237 255
223 237 255
223 237 255
223 237 255
223 237 255
223 237 255
223 237 255
223 237 255
223 237 255
223 237 255
223 237 255
223 237 255
223 237 255
223 237 255
223 237 255
223 237 255
223 237 255
223 237 255
223 237 255
223 237 255
223 237 255
223 237 255
223 237 255
223 237 255
223 237 255
223 237 255
223 237 255
223 237 255
223 237 255
223 237 255
223 237 255
223 237 255
223 237 255
223 237 255
223 237 255
223 237 255
223 237 255
223 237 255
223 237 255
223 237 255
223 237 255
223 237 255
223 237 255
223 237 255
223 237 255
223 237 255
224 237 255
224 237 255
224 237 255
224 237 255
224 237 255
224 237 255
224 237 255
224 237 255
224 237 255
224 237 255
224 237 255
224 237 255
224 237 255
224 237 255
224 237 255
224 237 255
224 237 255
224 237 255
224 237 255
224 237 255
224 237 255
224 237 255
224 237 255
224 237 255
224 237 255
224 237 255
224 237 255
224 237 255
224 237 255
224 237 255
224 237 255
224 237 255
224 237 255
224 237 255
224 237 255
224 237 255
224 237 255
224 237 255
224 237 255
224 237 255
224 237 255
224 237 255
224 237 255
224 237 255
224 237 255
224 237 255
224 237 255
224 237 255
224 237 255
224 237 255
224 237 255
224 237 255
224 237 255
224 237 255
224 237 255
224 237 255
224 237 255
224 237 255
224 237 255
224 237 255
224 237 255
224 237 255
224 237 255
224 237 255
224 237 255
224 237 255
224 237 255
224 237 255
224 237 255
224 237 255
224 237 255
224 237 255
224 237 255
224 237 255
224 237 255
224 237 255
224 237 255
224 237 255
224 237 255
224 237 255
224 237 255
224 237 255
224 237 255
224 237 255
224 237 255
224 237 255
224 237 255
224 237 255
224 237 255
224 237 255
224 237 255
224 237 255
224 237 255
224 237 255
224 237 255
224 237 255
224 237 255
224 237 255
224 237 255
224 237 255
224 237 255
224 237 255
224 237 255
224 237 255
224 237 255
224 237 255
224 237 255
224 237 255
224 237 255
224 237 255
224 237 255
224 237 255
224 237 255
224 237 255
224 237 255
224 237 255
224 237 255
224 237 255
224 237 255
224 237 255
224 237 255
224 237 255
224 237 255
224 237 255
224 237 255
224 237 255
224 237 255
224 237 255
224 237 255
224 237 255
224 237 255
224 237 255
224 237 255
224 237 255
224 237 255
224 237 255
224 237 255
224 237 255
224 237 255
224 237 255
224 237 255
224 237 255
224 237 255
224 237 255
224 237 255
224 237 255
224 237 255
224 237 255
224 237 255
224 237 255
224 237 255
224 237 255
224 237 255
224 237 255
224 237 255
224 237 255
224 237 255
224 237 255
224 237 255
224 237 255
224 237 255
224 237 255
224 237 255
224 237 255
224 237 255
224 237 255
224 237 255
224 237 255
224 237 255
224 237 255
224 237 255
224 237 255
224 237 255
224 237 255
224 237 255
224 237 255
224 237 255
224 237 255
224 237 255
224 237 255
224 237 255
224 237 255
224 237 255
224 237 255
224 237 255
224 237 255
224 237 255
224 237 255
224 237 255
224 237 255
224 237 255
224 237 255
224 237 255
224 237 255
224 237 255
224 237 255
224 237 255
224 237 255
224 237 255
224 237 255
224 237 255
224 237 255
224 237 255
224 237 255
224 237 255
224 237 255
224 237 255
224 237 255
224 237 255
224 237 255
224 237 255
224 237 255
224 237 255
224 237 255
224 237 255
224 237 255
224 237 255
224 237 255
224 237 255
224 237 255
224 237 255
224 237 255
224 237 255
224 237 255
224 237 255
224 237 255
224 237 255
224 237 255
224 237 255
224 237 255
224 237 255
224 237 255
224 237 255
224 237 255
224 237 255
224 237 255
224 237 255
224 237 255
224 237 255
224 237 255
223 237 255
223 237 255
223 237 255
223 237 255
223 237 255
223 237 255
223 237 255
223 237 255
223 237 255
223 237 255
223 237 255
223 237 255
223 237 255
223 237 255
223 237 255
223 237 255
223 237 255
223 237 255
223 237 255
223 237 255
223 237 255
223 237 255
223 237 255
223 237 255
223 237 255
223 237 255
223 237 255
223 237 255
223 237 255
223 237 255
223 237 255
223 237 255
223 237 255
223 237 255
223 237 255
223 237 255
223 237 255
223 237 255
223 237 255
223 237 255
223 237 255
223 237 255
223 237 255
223 237 255
223 237 255
223 237 255
223 237 255
223 237 255
223 237 255
223 237 255
223 237 255
223 237 255
223 237 255
223 237 255
223 237 255
223 237 255
223 237 255
223 237 255
223 237 255
223 237 255
223 237 255
223 237 255
223 237 255
223 237 255
223 237 255
223 237 255
223 237 255
223 237 255
223 237 255
223 237 255
223 237 255
223 237 255
223 237 255
223 237 255
223 237 255
223 236 255
223 236 255
223 236 255
223 236 255
223 236 255
223 236 255
223 236 255
223 236 255
223 236 255
223 236 255
223 236 255
223 236 255
223 236 255
223 236 255
223 236 255
223 236 255
223 236 255
223 236 255
223 236 255
223 236 255
223 236 255
223 236 255
223 236 255
223 236 255
223 236 255
223 236 255
223 236 255
223 236 255
223 236 255
223 236 255
223 236 255
223 237 255
223 237 255
223 237 255
223 237 255
223 237 255
223 237 255
223 237 255
223 237 255
223 237 255
223 237 255
223 237 255
223 237 255
223 237 255
223 237 255
223 237 255
223 237 255
223 237 255
223 237 255
223 237 255
223 237 255
223 237 255
223 237 255
223 237 255
223 237 255
223 237 255
223 237 255
223 237 255
223 237 255
223 237 255
223 237 255
223 237 255
223 237 255
223 237 255
223 237 255
223 237 255
223 237 255
223 237 255
223 237 255
223 237 255
223 237 255
223 237 255
223 237 255
223 237 255
223 237 255
223 237 255
223 237 255
223 237 255
223 237 255
223 237 255
223 237 255
223 237 255
223 237 255
223 237 255
223 237 255
223 237 255
223 237 255
223 237 255
223 237 255
223 237 255
223 237 255
223 237 255
223 237 255
223 237 255
223 237 255
223 237 255
223 237 255
223 237 255
223 237 255
223 237 255
223 237 255
223 237 255
223 237 255
223 237 255
223 237 255
223 237 255
223 237 255
224 237 255
224 237 255
224 237 255
224 237 255
224 237 255
224 237 255
224 237 255
224 237 255
224 237 255
224 237 255
224 237 255
224 237 255
224 237 255
224 237 255
224 237 255
224 237 255
224 237 255
224 237 255
224 237 255
224 237 255
224 237 255
224 237 255
224 237 255
224 237 255
224 237 255
224 237 255
224 237 255
224 237 255
224 237 255
224 237 255
224 237 255
224 237 255
224 237 255
224 237 255
224 237 255
224 237 255
224 237 255
224 237 255
224 237 255
224 237 255
224 237 255
224 237 255
224 237 255
224 237 255
224 237 255
224 237 255
224 237 255
224 237 255
224 237 255
224 237 255
224 237 255
224 237 255
224 237 255
224 237 255
224 237 255
224 237 255
224 237 255
224 237 255
224 237 255
224 237 255
224 237 255
224 237 255
224 237 255
224 237 255
224 237 255
224 237 255
224 237 255
224 237 255
224 237 255
224 237 255
224 237 255
224 237 255
224 237 255
224 237 255
224 237 255
224 237 255
224 237 255
224 237 255
224 237 255
224 237 255
224 237 255
224 237 255
224 237 255
224 237 255
224 237 255
224 237 255
224 237 255
224 237 255
224 237 255
224 237 255
224 237 255
224 237 255
224 237 255
224 237 255
224 237 255
224 237 255
224 237 255
224 237 255
224 237 255
224 237 255
224 237 255
224 237 255
224 237 255
224 237 255
224 237 255
224 237 255
224 237 255
224 237 255
224 237 255
224 237 255
224 237 255
224 237 255
224 237 255
224 237 255
224 237 255
224 237 255
224 237 255
224 237 255
224 237 255
224 237 255
224 237 255
224 237 255
224 237 255
224 237 255
224 237 255
224 237 255
224 237 255
224 237 255
224 237 255
224 237 255
224 237 255
224 237 255
224 237 255
224 237 255
224 237 255
224 237 255
224 237 255
224 237 255
224 237 255
224 237 255
224 237 255
224 237 255
224 237 255
224 237 255
224 237 255
224 237 255
224 237 255
224 237 255
224 237 255
224 237 255
224 237 255
224 237 255
224 237 255
224 237 255
224 237 255
224 237 255
224 237 255
224 237 255
224 237 255
224 237 255
224 237 255
224 237 255
224 237 255
224 237 255
224 237 255
224 237 255
224 237 255
224 237 255
224 237 255
224 237 255
224 237 255
224 237 255
224 237 255
224 237 255
224 237 255
224 237 255
224 237 255
224 237 255
224 237 255
224 237 255
224 237 255
224 237 255
224 237 255
224 237 255
224 237 255
224 237 255
224 237 255
224 237 255
224 237 255
224 237 255
224 237 255
224 237 255
224 237 255
224 237 255
224 237 255
224 237 255
223 237 255
223 237 255
223 237 255
223 237 255
223 237 255
223 237 255
223 237 255
223 237 255
223 237 255
223 237 255
223 237 255
223 237 255
223 237 255
223 237 255
223 237 255
223 237 255
223 237 255
223 237 255
223 237 255
223 237 255
223 237 255
223 237 255
223 237 255
223 237 255
223 237 255
223 237 255
223 237 255
223 237 255
223 237 255
223 237 255
223 237 255
223 237 255
223 237 255
223 237 255
223 237 255
223 237 255
223 237 255
223 237 255
223 237 255
223 237 255
223 237 255
223 237 255
223 237 255
223 237 255
223 237 255
223 237 255
223 237 255
223 237 255
223 237 255
223 237 255
223 237 255
223 237 255
223 237 255
223 237 255
223 237 255
223 237 255
223 237 255
223 237 255
223 237 255
223 237 255
223 237 255
223 237 255
223 237 255
223 237 255
223 237 255
223 237 255
223 237 255
223 237 255
223 237 255
223 237 255
223 237 255
223 237 255
223 237 255
223 237 255
223 237 255
223 236 255
223 236 255
223 236 255
223 236 255
223 236 255
223 236 255
223 236 255
223 236 255
223 236 255
223 236 255
223 236 255
223 236 255
223 236 255
223 236 255
223 236 255
223 236 255
223 236 255
223 236 255
223 236 255
223 236 255
223 236 255
223 236 255
223 236 255
223 236 255
223 236 255
223 236 255
223 236 255
223 236 255
223 236 255
223 236 255
223 236 255
223 236 255
223 236 255
223 236 255
223 236 255
223 236 255
223 236 255
223 236 255
223 236 255
223 236 255
223 236 255
223 236 255
223 236 255
223 236 255
223 236 255
223 236 255
223 236 255
223 236 255
223 236 255
223 236 255
223 236 255
223 236 255
223 236 255
223 236 255
223 236 255
223 236 255
223 236 255
223 236 255
223 236 255
223 236 255
223 236 255
223 236 255
223 236 255
223 236 255
223 236 255
223 236 255
223 236 255
223 236 255
223 236 255
223 236 255
223 236 255
223 236 255
223 236 255
223 236 255
223 236 255
223 236 255
223 237 255
223 237 255
223 237 255
223 237 255
223 237 255
223 237 255
223 237 255
223 237 255
223 237 255
223 237 255
223 237 255
223 237 255
223 237 255
223 237 255
223 237 255
223 237 255
223 237 255
223 237 255
223 237 255
223 237 255
223 237 255
223 237 255
223 237 255
223 237 255
223 237 255
223 237 255
223 237 255
223 237 255
223 237 255
223 237 255
223 237 255
223 237 255
223 237 255
223 237 255
223 237 255
223 237 255
223 237 255
223 237 255
223 237 255
223 237 255
223 237 255
223 237 255
223 237 255
223 237 255
223 237 255
223 237 255
223 237 255
223 237 255
223 237 255
223 237 255
223 237 255
223 237 255
223 237 255
223 237 255
223 237 255
223 237 255
223 237 255
223 237 255
223 237 255
223 237 255
223 237 255
223 237 255
223 237 255
223 237 255
223 237 255
223 237 255
223 237 255
223 237 255
223 237 255
223 237 255
223 237 255
223 237 255
223 237 255
223 237 255
223 237 255
223 237 255
223 237 255
223 237 255
224 237 255
224 237 255
224 237 255
224 237 255
224 237 255
224 237 255
224 237 255
224 237 255
224 237 255
224 237 255
224 237 255
224 237 255
224 237 255
224 237 255
224 237 255
224 237 255
224 237 255
224 237 255
224 237 255
224 237 255
224 237 255
224 237 255
224 237 255
224 237 255
224 237 255
224 237 255
224 237 255
224 237 255
224 237 255
224 237 255
224 237 255
224 237 255
224 237 255
224 237 255
224 237 255
224 237 255
224 237 255
224 237 255
224 237 255
224 237 255
224 237 255
224 237 255
224 237 255
224 237 255
224 237 255
224 237 255
224 237 255
224 237 255
224 237 255
224 237 255
224 237 255
224 237 255
224 237 255
224 237 255
224 237 255
224 237 255
224 237 255
224 237 255
224 237 255
224 237 255
224 237 255
224 237 255
224 237 255
224 237 255
224 237 255
224 237 255
224 237 255
224 237 255
224 237 255
224 237 255
224 237 255
224 237 255
224 237 255
224 237 255
224 237 255
224 237 255
224 237 255
224 237 255
224 237 255
224 237 255
224 237 255
224 237 255
224 237 255
224 237 255
224 237 255
224 237 255
224 237 255
224 237 255
224 237 255
224 237 255
224 237 255
224 237 255
224 237 255
224 237 255
224 237 255
224 237 255
224 237 255
224 237 255
224 237 255
224 237 255
224 237 255
224 237 255
224 237 255
224 237 255
224 237 255
224 237 255
224 237 255
224 237 255
224 237 255
224 237 255
224 237 255
224 237 255
224 237 255
224 237 255
224 237 255
224 237 255
224 237 255
224 237 255
224 237 255
224 237 255
224 237 255
224 237 255
224 237 255
224 237 255
224 237 255
224 237 255
224 237 255
224 237 255
224 237 255
224 237 255
224 237 255
224 237 255
224 237 255
224 237 255
224 237 255
224 237 255
224 237 255
224 237 255
224 237 255
224 237 255
224 237 255
224 237 255
224 237 255
224 237 255
224 237 255
224 237 255
224 237 255
224 237 255
223 237 255
223 237 255
223 237 255
223 237 255
223 237 255
223 237 255
223 237 255
223 237 255
223 237 255
223 237 255
223 237 255
223 237 255
223 237 255
223 237 255
223 237 255
223 237 255
223 237 255
223 237 255
223 237 255
223 237 255
223 237 255
223 237 255
223 237 255
223 237 255
223 237 255
223 237 255
223 237 255
223 237 255
223 237 255
223 237 255
223 237 255
223 237 255
223 237 255
223 237 255
223 237 255
223 237 255
223 237 255
223 237 255
223 237 255
223 237 255
223 237 255
223 237 255
223 237 255
223 237 255
223 237 255
223 237 255
223 237 255
223 237 255
223 237 255
223 237 255
223 237 255
223 237 255
223 237 255
223 237 255
223 237 255
223 237 255
223 237 255
223 237 255
223 237 255
223 237 255
223 237 255
223 237 255
223 237 255
223 237 255
223 237 255
223 237 255
223 237 255
223 237 255
223 237 255
223 237 255
223 237 255
223 237 255
223 237 255
223 237 255
223 237 255
223 237 255
223 236 255
223 236 255
223 236 255
223 236 255
223 236 255
223 236 255
223 236 255
223 236 255
223 236 255
223 236 255
223 236 255
223 236 255
223 236 255
223 236 255
223 236 255
223 236 255
223 236 255
223 236 255
223 236 255
223 236 255
223 236 255
223 236 255
223 236 255
223 236 255
223 236 255
223 236 255
223 236 255
223 236 255
223 236 255
223 236 255
223 236 255
223 236 255
223 236 255
223 236 255
223 236 255
223 236 255
223 236 255
223 236 255
223 236 255
223 236 255
223 236 255
223 236 255
223 236 255
223 236 255
223 236 255
223 236 255
223 236 255
223 236 255
223 236 255
223 236 255
223 236 255
223 236 255
223 236 255
223 236 255
223 236 255
223 236 255
223 236 255
223 236 255
223 236 255
223 236 255
223 236 255
223 236 255
223 236 255
223 236 255
223 236 255
223 236 255
223 236 255
223 236 255
223 236 255
223 236 255
223 236 255
223 236 255
223 236 255
223 236 255
223 236 255
223 236 255
223 236 255
223 236 255
223 236 255
223 236 255
223 236 255
223 236 255
223 236 255
223 236 255
223 236 255
223 236 255
223 236 255
223 236 255
223 236 255
223 236 255
223 236 255
223 236 255
223 236 255
223 236 255
223 236 255
223 236 255
223 236 255
223 236 255
223 236 255
223 236 255
223 236 255
223 236 255
223 236 255
223 236 255
223 236 255
223 236 255
223 236 255
223 236 255
223 236 255
223 236 255
223 236 255
223 236 255
223 236 255
223 236 255
223 236 255
223 236 255
223 236 255
223 236 255
223 236 255
223 236 255
223 236 255
223 236 255
223 237 255
223 236 255
223 237 255
223 237 255
223 237 255
223 237 255
223 237 255
223 237 255
223 237 255
223 237 255
223 237 255
223 237 255
223 237 255
223 237 255
223 237 255
223 237 255
223 237 255
223 237 255
223 237 255
223 237 255
223 237 255
223 237 255
223 237 255
223 237 255
223 237 255
223 237 255
223 237 255
223 237 255
223 237 255
223 237 255
223 237 255
223 237 255
223 237 255
223 237 255
223 237 255
223 237 255
223 237 255
223 237 255
223 237 255
223 237 255
223 237 255
223 237 255
223 237 255
223 237 255
223 237 255
223 237 255
223 237 255
223 237 255
223 237 255
223 237 255
223 237 255
223 237 255
223 237 255
223 237 255
223 237 255
223 237 255
223 237 255
223 237 255
223 237 255
223 237 255
223 237 255
223 237 255
223 237 255
223 237 255
223 237 255
223 237 255
223 237 255
223 237 255
223 237 255
223 237 255
223 237 255
223 237 255
223 237 255
223 237 255
223 237 255
223 237 255
223 237 255
223 237 255
223 237 255
223 237 255
223 237 255
223 237 255
223 237 255
223 237 255
223 237 255
223 237 255
223 237 255
224 237 255
223 237 255
224 237 255
224 237 255
224 237 255
224 237 255
224 237 255
224 237 255
224 237 255
224 237 255
224 237 255
224 237 255
224 237 255
224 237 255
224 237 255
224 237 255
224 237 255
224 237 255
224 237 255
224 237 255
224 237 255
224 237 255
224 237 255
224 237 255
224 237 255
224 237 255
224 237 255
224 237 255
224 237 255
224 237 255
224 237 255
224 237 255
224 237 255
224 237 255
224 237 255
224 237 255
224 237 255
224 237 255
224 237 255
224 237 255
224 237 255
224 237 255
224 237 255
224 237 255
224 237 255
224 237 255
224 237 255
224 237 255
224 237 255
224 237 255
224 237 255
224 237 255
224 237 255
224 237 255
224 237 255
224 237 255
224 237 255
224 237 255
224 237 255
224 237 255
224 237 255
224 237 255
224 237 255
224 237 255
224 237 255
224 237 255
224 237 255
224 237 255
224 237 255
224 237 255
224 237 255
224 237 255
224 237 255
224 237 255
224 237 255
224 237 255
223 237 255
224 237 255
224 237 255
224 237 255
223 237 255
223 237 255
223 237 255
223 237 255
223 237 255
223 237 255
223 237 255
223 237 255
223 237 255
223 237 255
223 237 255
223 237 255
223 237 255
223 237 255
223 237 255
223 237 255
223 237 255
223 237 255
223 237 255
223 237 255
223 237 255
223 237 255
223 237 255
223 237 255
223 237 255
223 237 255
223 237 255
223 237 255
223 237 255
223 237 255
223 237 255
223 237 255
223 237 255
223 237 255
223 237 255
223 237 255
223 237 255
223 237 255
223 237 255
223 237 255
223 237 255
223 237 255
223 237 255
223 237 255
223 237 255
223 237 255
223 237 255
223 237 255
223 237 255
223 237 255
223 237 255
223 237 255
223 237 255
223 237 255
223 237 255
223 237 255
223 237 255
223 237 255
223 237 255
223 237 255
223 237 255
223 237 255
223 237 255
223 237 255
223 237 255
223 237 255
223 237 255
223 237 255
223 237 255
223 237 255
223 237 255
223 237 255
223 237 255
223 237 255
223 237 255
223 237 255
223 237 255
223 237 255
223 237 255
223 237 255
223 237 255
223 237 255
223 237 255
223 237 255
223 237 255
223 237 255
223 236 255
223 236 255
223 236 255
223 236 255
223 236 255
223 236 255
223 236 255
223 236 255
223 236 255
223 236 255
223 236 255
223 236 255
223 236 255
223 236 255
223 236 255
223 236 255
223 236 255
223 236 255
223 236 255
223 236 255
223 236 255
223 236 255
223 236 255
223 236 255
223 236 255
223 236 255
223 236 255
223 236 255
223 236 255
223 236 255
223 236 255
223 236 255
223 236 255
223 236 255
223 236 255
223 236 255
223 236 255
223 236 255
223 236 255
223 236 255
223 236 255
223 236 255
223 236 255
223 236 255
223 236 255
223 236 255
223 236 255
223 236 255
223 236 255
223 236 255
223 236 255
223 236 255
223 236 255
223 236 255
223 236 255
223 236 255
223 236 255
223 236 255
223 236 255
223 236 255
223 236 255
223 236 255
223 236 255
223 236 255
223 236 255
223 236 255
223 236 255
223 236 255
223 236 255
223 236 255
223 236 255
223 236 255
223 236 255
223 236 255
222 236 255
222 236 255
222 236 255
222 236 255
222 236 255
222 236 255
222 236 255
222 236 255
222 236 255
222 236 255
222 236 255
222 236 255
222 236 255
222 236 255
222 236 255
222 236 255
222 236 255
222 236 255
222 236 255
222 236 255
222 236 255
222 236 255
222 236 255
223 236 255
223 236 255
223 236 255
223 236 255
223 236 255
223 236 255
223 236 255
223 236 255
223 236 255
223 236 255
223 236 255
223 236 255
223 236 255
223 236 255
223 236 255
223 236 255
223 236 255
223 236 255
223 236 255
223 236 255
223 236 255
223 236 255
223 236 255
223 236 255
223 236 255
223 236 255
223 236 255
223 236 255
223 236 255
223 236 255
223 236 255
223 236 255
223 236 255
223 236 255
223 236 255
223 236 255
223 236 255
223 236 255
223 236 255
223 236 255
223 236 255
223 236 255
223 236 255
223 236 255
223 236 255
223 236 255
223 236 255
223 236 255
223 236 255
223 236 255
223 236 255
223 236 255
223 236 255
223 236 255
223 236 255
223 236 255
223 236 255
223 236 255
223 236 255
223 236 255
223 236 255
223 236 255
223 236 255
223 236 255
223 236 255
223 236 255
223 236 255
223 236 255
223 236 255
223 236 255
223 236 255
223 236 255
223 236 255
223 236 255
223 236 255
223 236 255
223 236 255
223 236 255
223 237 255
223 237 255
223 237 255
223 237 255
223 237 255
223 237 255
223 237 255
223 237 255
223 237 255
223 237 255
223 237 255
223 237 255
223 237 255
223 237 255
223 237 255
223 237 255
223 237 255
223 237 255
223 237 255
223 237 255
223 237 255
223 237 255
223 237 255
223 237 255
223 237 255
223 237 255
223 237 255
223 237 255
223 237 255
223 237 255
223 237 255
223 237 255
223 237 255
223 237 255
223 237 255
223 237 255
223 237 255
223 237 255
223 237 255
223 237 255
223 237 255
223 237 255
223 237 255
223 237 255
223 237 255
223 237 255
223 237 255
223 237 255
223 237 255
223 237 255
223 237 255
223 237 255
223 237 255
223 237 255
223 237 255
223 237 255
223 237 255
223 237 255
223 237 255
223 237 255
223 237 255
223 237 255
223 237 255
223 237 255
223 237 255
223 237 255
223 237 255
223 237 255
223 237 255
223 237 255
223 237 255
223 237 255
223 237 255
223 237 255
223 237 255
223 237 255
223 237 255
223 237 255
223 237 255
223 237 255
223 237 255
223 237 255
223 237 255
223 237 255
223 237 255
223 237 255
223 237 255
223 237 255
223 237 255
223 237 255
223 237 255
223 237 255
223 237 255
223 237 255
223 237 255
223 237 255
223 237 255
223 237 255
223 237 255
223 237 255
223 237 255
223 237 255
223 237 255
223 237 255
223 237 255
223 237 255
223 237 255
223 237 255
223 237 255
223 237 255
223 237 255
223 237 255
223 237 255
223 237 255
223 237 255
223 237 255
223 237 255
223 237 255
223 237 255
223 237 255
223 237 255
223 237 255
223 237 255
223 237 255
223 237 255
223 237 255
223 237 255
223 237 255
223 237 255
223 237 255
223 237 255
223 237 255
223 237 255
223 237 255
223 237 255
223 237 255
223 237 255
223 237 255
223 237 255
223 237 255
223 237 255
223 237 255
223 237 255
223 237 255
223 237 255
223 237 255
223 237 255
223 237 255
223 237 255
223 237 255
223 237 255
223 237 255
223 237 255
223 237 255
223 237 255
223 237 255
223 237 255
223 237 255
223 237 255
223 237 255
223 237 255
223 237 255
223 237 255
223 237 255
223 237 255
223 237 255
223 237 255
223 237 255
223 237 255
223 237 255
223 237 255
223 237 255
223 237 255
223 237 255
223 237 255
223 237 255
223 237 255
223 237 255
223 237 255
223 237 255
223 237 255
223 237 255
223 237 255
223 237 255
223 237 255
223 237 255
223 237 255
223 237 255
223 237 255
223 237 255
223 237 255
223 237 255
223 237 255
223 237 255
223 237 255
223 237 255
223 237 255
223 236 255
223 237 255
223 236 255
223 236 255
223 236 255
223 236 255
223 236 255
223 236 255
223 236 255
223 236 255
223 236 255
223 236 255
223 236 255
223 236 255
223 236 255
223 236 255
223 236 255
223 236 255
223 236 255
223 236 255
223 236 255
223 236 255
223 236 255
223 236 255
223 236 255
223 236 255
223 236 255
223 236 255
223 236 255
223 236 255
223 236 255
223 236 255
223 236 255
223 236 255
223 236 255
223 236 255
223 236 255
223 236 255
223 236 255
223 236 255
223 236 255
223 236 255
223 236 255
223 236 255
223 236 255
223 236 255
223 236 255
223 236 255
223 236 255
223 236 255
223 236 255
223 236 255
223 236 255
223 236 255
223 236 255
223 236 255
223 236 255
223 236 255
223 236 255
223 236 255
223 236 255
223 236 255
223 236 255
223 236 255
223 236 255
223 236 255
223 236 255
223 236 255
223 236 255
223 236 255
223 236 255
223 236 255
223 236 255
223 236 255
223 236 255
223 236 255
223 236 255
223 236 255
223 236 255
222 236 255
223 236 255
222 236 255
222 236 255
222 236 255
222 236 255
222 236 255
222 236 255
222 236 255
222 236 255
222 236 255
222 236 255
222 236 255
222 236 255
222 236 255
222 236 255
222 236 255
222 236 255
222 236 255
222 236 255
222 236 255
222 236 255
222 236 255
222 236 255
222 236 255
222 236 255
222 236 255
222 236 255
222 236 255
222 236 255
222 236 255
222 236 255
222 236 255
222 236 255
222 236 255
222 236 255
222 236 255
222 236 255
222 236 255
222 236 255
222 236 255
222 236 255
222 236 255
222 236 255
222 236 255
222 236 255
222 236 255
222 236 255
222 236 255
222 236 255
222 236 255
222 236 255
222 236 255
222 236 255
222 236 255
222 236 255
222 236 255
222 236 255
222 236 255
222 236 255
222 236 255
222 236 255
222 236 255
222 236 255
222 236 255
222 236 255
222 236 255
222 236 255
222 236 255
222 236 255
222 236 255
222 236 255
222 236 255
222 236 255
222 236 255
223 236 255
223 236 255
223 236 255
223 236 255
223 236 255
223 236 255
223 236 255
223 236 255
223 236 255
223 236 255
223 236 255
223 236 255
223 236 255
223 236 255
223 236 255
223 236 255
223 236 255
223 236 255
223 236 255
223 236 255
223 236 255
223 236 255
223 236 255
223 236 255
223 236 255
223 236 255
223 236 255
223 236 255
223 236 255
223 236 255
223 236 255
223 236 255
223 236 255
223 236 255
223 236 255
223 236 255
223 236 255
223 236 255
223 236 255
223 236 255
223 236 255
223 236 255
223 236 255
223 236 255
223 236 255
223 236 255
223 236 255
223 236 255
223 236 255
223 236 255
223 236 255
223 236 255
223 236 255
223 236 255
223 236 255
223 236 255
223 236 255
223 236 255
223 236 255
223 236 255
223 236 255
223 236 255
223 236 255
223 236 255
223 236 255
223 236 255
223 236 255
223 236 255
223 236 255
223 236 255
223 236 255
223 236 255
223 236 255
223 236 255
223 236 255
223 236 255
223 236 255
223 236 255
223 236 255
223 236 255
223 236 255
223 237 255
223 236 255
223 237 255
223 237 255
223 237 255
223 237 255
223 237 255
223 237 255
223 237 255
223 237 255
223 237 255
223 237 255
223 237 255
223 237 255
223 237 255
223 237 255
223 237 255
223 237 255
223 237 255
223 237 255
223 237 255
223 237 255
223 237 255
223 237 255
223 237 255
223 237 255
223 237 255
223 237 255
223 237 255
223 237 255
223 237 255
223 237 255
223 237 255
223 237 255
223 237 255
223 237 255
223 237 255
223 237 255
223 237 255
223 237 255
223 237 255
223 237 255
223 237 255
223 237 255
223 237 255
223 237 255
223 237 255
223 237 255
223 237 255
223 237 255
223 237 255
223 237 255
223 237 255
223 237 255
223 237 255
223 237 255
223 237 255
223 237 255
223 237 255
223 237 255
223 237 255
223 237 255
223 237 255
223 237 255
223 237 255
223 237 255
223 237 255
223 237 255
223 237 255
223 237 255
223 237 255
223 237 255
223 237 255
223 237 255
223 237 255
223 237 255
223 237 255
223 237 255
223 237 255
223 237 255
223 237 255
223 237 255
223 237 255
223 237 255
223 237 255
223 237 255
223 237 255
223 237 255
223 237 255
223 237 255
223 237 255
223 237 255
223 237 255
223 237 255
223 237 255
223 237 255
223 237 255
223 237 255
223 237 255
223 237 255
223 237 255
223 237 255
223 237 255
223 237 255
223 237 255
223 237 255
223 237 255
223 237 255
223 237 255
223 237 255
223 237 255
223 237 255
223 237 255
223 237 255
223 237 255
223 237 255
223 237 255
223 237 255
223 237 255
223 237 255
223 237 255
223 237 255
223 237 255
223 237 255
223 237 255
223 237 255
223 237 255
223 237 255
223 237 255
223 237 255
223 237 255
223 236 255
223 236 255
223 236 255
223 236 255
223 236 255
223 236 255
223 236 255
223 236 255
223 236 255
223 236 255
223 236 255
223 236 255
223 236 255
223 236 255
223 236 255
223 236 255
223 236 255
223 236 255
223 236 255
223 236 255
223 236 255
223 236 255
223 236 255
223 236 255
223 236 255
223 236 255
223 236 255
223 236 255
223 236 255
223 236 255
223 236 255
223 236 255
223 236 255
223 236 255
223 236 255
223 236 255
223 236 255
223 236 255
223 236 255
223 236 255
223 236 255
223 236 255
223 236 255
223 236 255
223 236 255
223 236 255
223 236 255
223 236 255
223 236 255
223 236 255
223 236 255
223 236 255
223 236 255
223 236 255
223 236 255
223 236 255
223 236 255
223 236 255
223 236 255
223 236 255
223 236 255
223 236 255
223 236 255
223 236 255
223 236 255
223 236 255
223 236 255
223 236 255
223 236 255
223 236 255
223 236 255
223 236 255
223 236 255
223 236 255
223 236 255
223 236 255
223 236 255
223 236 255
223 236 255
223 236 255
223 236 255
223 236 255
223 236 255
223 236 255
222 236 255
222 236 255
222 236 255
222 236 255
222 236 255
222 236 255
222 236 255
222 236 255
222 236 255
222 236 255
222 236 255
222 236 255
222 236 255
222 236 255
222 236 255
222 236 255
222 236 255
222 236 255
222 236 255
222 236 255
222 236 255
222 236 255
222 236 255
222 236 255
222 236 255
222 236 255
222 236 255
222 236 255
222 236 255
222 236 255
222 236 255
222 236 255
222 236 255
222 236 255
222 236 255
222 236 255
222 236 255
222 236 255
222 236 255
222 236 255
222 236 255
222 236 255
222 236 255
222 236 255
222 236 255
222 236 255
222 236 255
222 236 255
222 236 255
222 236 255
222 236 255
222 236 255
222 236 255
222 236 255
222 236 255
222 236 255
222 236 255
222 236 255
222 236 255
222 236 255
222 236 255
222 236 255
222 236 255
222 236 255
222 236 255
222 236 255
222 236 255
222 236 255
222 236 255
222 236 255
222 236 255
222 236 255
222 236 255
222 236 255
222 236 255
222 236 255
222 236 255
222 236 255
222 236 255
222 236 255
222 236 255
222 236 255
222 236 255
222 236 255
222 236 255
222 236 255
222 236 255
222 236 255
222 236 255
222 236 255
222 236 255
222 236 255
222 236 255
222 236 255
222 236 255
222 236 255
222 236 255
222 236 255
222 236 255
222 236 255
222 236 255
222 236 255
222 236 255
222 236 255
222 236 255
222 236 255
222 236 255
222 236 255
222 236 255
222 236 255
222 236 255
222 236 255
222 236 255
222 236 255
222 236 255
222 236 255
222 236 255
222 236 255
222 236 255
222 236 255
222 236 255
222 236 255
222 236 255
222 236 255
222 236 255
222 236 255
222 236 255
222 236 255
222 236 255
222 236 255
222 236 255
222 236 255
222 236 255
222 236 255
222 236 255
222 236 255
222 236 255
222 236 255
223 236 255
222 236 255
223 236 255
223 236 255
223 236 255
223 236 255
223 236 255
223 236 255
223 236 255
223 236 255
223 236 255
223 236 255
223 236 255
223 236 255
223 236 255
223 236 255
223 236 255
223 236 255
223 236 255
223 236 255
223 236 255
223 236 255
223 236 255
223 236 255
223 236 255
223 236 255
223 236 255
223 236 255
223 236 255
223 236 255
223 236 255
223 236 255
223 236 255
223 236 255
223 236 255
223 236 255
223 236 255
223 236 255
223 236 255
223 236 255
223 236 255
223 236 255
223 236 255
223 236 255
223 236 255
223 236 255
223 236 255
223 236 255
223 236 255
223 236 255
223 236 255
223 236 255
223 236 255
223 236 255
223 236 255
223 236 255
223 236 255
223 236 255
223 236 255
223 236 255
223 236 255
223 236 255
223 236 255
223 236 255
223 236 255
223 236 255
223 236 255
223 236 255
223 236 255
223 236 255
223 236 255
223 236 255
223 236 255
223 236 255
223 236 255
223 236 255
223 236 255
223 236 255
223 236 255
223 236 255
223 236 255
223 236 255
223 236 255
223 236 255
223 236 255
223 236 255
223 236 255
223 236 255
223 236 255
223 236 255
223 236 255
223 236 255
223 236 255
223 236 255
223 236 255
223 236 255
223 236 255
223 236 255
223 236 255
223 236 255
223 236 255
223 236 255
223 236 255
223 236 255
223 236 255
223 236 255
223 236 255
223 236 255
223 236 255
223 236 255
223 236 255
223 236 255
223 236 255
223 236 255
223 236 255
223 236 255
223 236 255
223 236 255
223 236 255
223 236 255
223 236 255
223 236 255
223 236 255
223 236 255
223 236 255
223 236 255
223 236 255
223 236 255
223 236 255
223 236 255
223 236 255
223 236 255
223 236 255
223 236 255
223 236 255
223 236 255
223 236 255
223 236 255
223 236 255
223 236 255
223 236 255
223 236 255
223 236 255
223 236 255
223 236 255
223 236 255
223 236 255
223 236 255
223 236 255
223 236 255
223 236 255
223 236 255
223 236 255
223 236 255
223 236 255
223 236 255
223 236 255
223 236 255
223 236 255
223 236 255
223 236 255
223 236 255
223 236 255
223 236 255
223 236 255
223 236 255
223 236 255
223 236 255
223 236 255
223 236 255
223 236 255
223 236 255
223 236 255
223 236 255
223 236 255
223 236 255
223 236 255
223 236 255
223 236 255
223 236 255
223 236 255
223 236 255
223 236 255
223 236 255
223 236 255
223 236 255
223 236 255
223 236 255
223 236 255
223 236 255
223 236 255
223 236 255
223 236 255
223 236 255
223 236 255
223 236 255
223 236 255
223 236 255
223 236 255
223 236 255
223 236 255
223 236 255
223 236 255
223 236 255
223 236 255
223 236 255
223 236 255
223 236 255
223 236 255
223 236 255
223 236 255
223 236 255
223 236 255
223 236 255
223 236 255
223 236 255
223 236 255
223 236 255
223 236 255
223 236 255
223 236 255
223 236 255
223 236 255
223 236 255
223 236 255
223 236 255
222 236 255
223 236 255
222 236 255
222 236 255
222 236 255
222 236 255
222 236 255
222 236 255
222 236 255
222 236 255
222 236 255
222 236 255
222 236 255
222 236 255
222 236 255
222 236 255
222 236 255
222 236 255
222 236 255
222 236 255
222 236 255
222 236 255
222 236 255
222 236 255
222 236 255
222 236 255
222 236 255
222 236 255
222 236 255
222 236 255
222 236 255
222 236 255
222 236 255
222 236 255
222 236 255
222 236 255
222 236 255
222 236 255
222 236 255
222 236 255
222 236 255
222 236 255
222 236 255
222 236 255
222 236 255
222 236 255
222 236 255
222 236 255
222 236 255
222 236 255
222 236 255
222 236 255
222 236 255
222 236 255
222 236 255
222 236 255
222 236 255
222 236 255
222 236 255
222 236 255
222 236 255
222 236 255
222 236 255
222 236 255
222 236 255
222 236 255
222 236 255
222 236 255
222 236 255
222 236 255
222 236 255
222 236 255
222 236 255
222 236 255
222 236 255
222 236 255
222 236 255
222 236 255
222 236 255
222 236 255
222 236 255
222 236 255
222 236 255
222 236 255
222 236 255
222 236 255
222 236 255
222 236 255
222 236 255
222 236 255
222 236 255
222 236 255
222 236 255
222 236 255
222 236 255
222 236 255
222 236 255
222 236 255
222 236 255
222 236 255
222 236 255
222 236 255
222 236 255
222 236 255
222 236 255
222 236 255
222 236 255
222 236 255
222 236 255
222 236 255
222 236 255
222 236 255
222 236 255
222 236 255
222 236 255
222 236 255
222 236 255
222 236 255
222 236 255
222 236 255
222 236 255
222 236 255
222 236 255
222 236 255
222 236 255
222 236 255
222 236 255
222 236 255
222 236 255
222 236 255
222 236 255
222 236 255
222 236 255
222 236 255
222 236 255
222 236 255
222 236 255
222 236 255
222 236 255
222 236 255
222 236 255
222 236 255
222 236 255
222 236 255
222 236 255
222 236 255
222 236 255
222 236 255
222 236 255
222 236 255
222 236 255
222 236 255
222 236 255
222 236 255
222 236 255
222 236 255
222 236 255
222 236 255
222 236 255
222 236 255
222 236 255
222 236 255
222 236 255
222 236 255
222 236 255
222 236 255
222 236 255
222 236 255
222 236 255
222 236 255
222 236 255
222 236 255
222 236 255
222 236 255
222 236 255
222 236 255
222 236 255
222 236 255
222 236 255
222 236 255
222 236 255
222 236 255
222 236 255
222 236 255
222 236 255
222 236 255
222 236 255
222 236 255
222 236 255
222 236 255
222 236 255
222 236 255
222 236 255
222 236 255
222 236 255
222 236 255
222 236 255
222 236 255
222 236 255
222 236 255
222 236 255
222 236 255
222 236 255
222 236 255
222 236 255
222 236 255
222 236 255
222 236 255
222 236 255
222 236 255
222 236 255
222 236 255
222 236 255
222 236 255
223 236 255
222 236 255
222 236 255
223 236 255
223 236 255
223 236 255
223 236 255
223 236 255
223 236 255
223 236 255
223 236 255
223 236 255
223 236 255
223 236 255
223 236 255
223 236 255
223 236 255
223 236 255
223 236 255
223 236 255
223 236 255
223 236 255
223 236 255
223 236 255
223 236 255
223 236 255
223 236 255
223 236 255
223 236 255
223 236 255
223 236 255
223 236 255
223 236 255
223 236 255
223 236 255
223 236 255
223 236 255
223 236 255
223 236 255
223 236 255
223 236 255
223 236 255
223 236 255
223 236 255
223 236 255
223 236 255
223 236 255
223 236 255
223 236 255
223 236 255
223 236 255
223 236 255
223 236 255
223 236 255
223 236 255
223 236 255
223 236 255
223 236 255
223 236 255
223 236 255
223 236 255
223 236 255
223 236 255
223 236 255
223 236 255
223 236 255
223 236 255
223 236 255
223 236 255
223 236 255
223 236 255
223 236 255
223 236 255
223 236 255
223 236 255
223 236 255
223 236 255
223 236 255
223 236 255
223 236 255
223 236 255
223 236 255
223 236 255
223 236 255
223 236 255
223 236 255
223 236 255
223 236 255
223 236 255
223 236 255
223 236 255
223 236 255
223 236 255
223 236 255
223 236 255
223 236 255
223 236 255
223 236 255
223 236 255
223 236 255
223 236 255
223 236 255
223 236 255
223 236 255
223 236 255
223 236 255
223 236 255
223 236 255
223 236 255
223 236 255
223 236 255
223 236 255
223 236 255
223 236 255
223 236 255
223 236 255
223 236 255
223 236 255
223 236 255
223 236 255
223 236 255
223 236 255
223 236 255
223 236 255
223 236 255
223 236 255
223 236 255
223 236 255
223 236 255
223 236 255
223 236 255
223 236 255
223 236 255
223 236 255
223 236 255
223 236 255
223 236 255
223 236 255
223 236 255
223 236 255
223 236 255
223 236 255
223 236 255
222 236 255
223 236 255
222 236 255
222 236 255
222 236 255
222 236 255
222 236 255
222 236 255
222 236 255
222 236 255
222 236 255
222 236 255
222 236 255
222 236 255
222 236 255
222 236 255
222 236 255
222 236 255
222 236 255
222 236 255
222 236 255
222 236 255
222 236 255
222 236 255
222 236 255
222 236 255
222 236 255
222 236 255
222 236 255
222 236 255
222 236 255
222 236 255
222 236 255
222 236 255
222 236 255
222 236 255
222 236 255
222 236 255
222 236 255
222 236 255
222 236 255
222 236 255
222 236 255
222 236 255
222 236 255
222 236 255
222 236 255
222 236 255
222 236 255
222 236 255
222 236 255
222 236 255
222 236 255
222 236 255
222 236 255
222 236 255
222 236 255
222 236 255
222 236 255
222 236 255
222 236 255
222 236 255
222 236 255
222 236 255
222 236 255
222 236 255
222 236 255
222 236 255
222 236 255
222 236 255
222 236 255
222 236 255
222 236 255
222 236 255
222 236 255
222 236 255
222 236 255
222 236 255
222 236 255
222 236 255
222 236 255
222 236 255
222 236 255
222 236 255
222 236 255
222 236 255
222 236 255
222 236 255
222 236 255
222 236 255
222 236 255
222 236 255
222 236 255
222 236 255
222 236 255
222 236 255
222 236 255
222 236 255
222 236 255
222 236 255
222 236 255
222 236 255
222 236 255
222 236 255
222 236 255
222 236 255
222 236 255
222 236 255
222 236 255
222 236 255
222 236 255
222 236 255
222 236 255
222 236 255
222 236 255
222 236 255
222 236 255
222 236 255
222 236 255
222 236 255
222 236 255
222 236 255
222 236 255
222 236 255
222 236 255
222 236 255
222 236 255
222 236 255
222 236 255
222 236 255
222 236 255
222 236 255
222 236 255
222 236 255
222 236 255
222 236 255
222 236 255
222 236 255
222 236 255
222 236 255
222 236 255
222 236 255
222 236 255
222 236 255
222 236 255
222 236 255
222 236 255
222 236 255
222 236 255
222 236 255
222 236 255
222 236 255
222 236 255
222 236 255
222 236 255
222 236 255
222 236 255
222 236 255
222 236 255
222 236 255
222 236 255
222 236 255
222 236 255
222 236 255
222 236 255
222 236 255
222 236 255
222 236 255
222 236 255
222 236 255
222 236 255
222 236 255
222 236 255
222 236 255
222 236 255
222 236 255
222 236 255
222 236 255
222 236 255
222 236 255
222 236 255
222 236 255
222 236 255
222 236 255
222 236 255
222 236 255
222 236 255
222 236 255
222 236 255
222 236 255
222 236 255
222 236 255
222 236 255
222 236 255
222 236 255
222 236 255
222 236 255
222 236 255
222 236 255
222 236 255
222 236 255
222 236 255
222 236 255
222 236 255
222 236 255
222 236 255
222 236 255
222 236 255
222 236 255
222 236 255
222 236 255
222 236 255
222 236 255
222 236 255
222 236 255
222 236 255
222 236 255
222 236 255
222 236 255
222 236 255
222 236 255
222 236 255
222 236 255
222 236 255
222 236 255
222 236 255
222 236 255
222 236 255
222 236 255
222 236 255
222 236 255
222 236 255
222 236 255
222 236 255
222 236 255
222 236 255
222 236 255
222 236 255
222 236 255
222 236 255
222 236 255
222 236 255
222 236 255
222 236 255
222 236 255
222 236 255
222 236 255
222 236 255
222 236 255
222 236 255
222 236 255
222 236 255
222 236 255
222 236 255
222 236 255
222 236 255
222 236 255
222 236 255
222 236 255
222 236 255
222 236 255
222 236 255
222 236 255
222 236 255
222 236 255
222 236 255
222 236 255
222 236 255
222 236 255
222 236 255
222 236 255
222 236 255
222 236 255
222 236 255
222 236 255
222 236 255
222 236 255
222 236 255
222 236 255
222 236 255
222 236 255
222 236 255
222 236 255
222 236 255
222 236 255
222 236 255
222 236 255
222 236 255
222 236 255
222 236 255
222 236 255
222 236 255
222 236 255
222 236 255
222 236 255
222 236 255
222 236 255
222 236 255
222 236 255
222 236 255
222 236 255
222 236 255
222 236 255
222 236 255
222 236 255
222 236 255
222 236 255
222 236 255
222 236 255
222 236 255
222 236 255
222 236 255
222 236 255
222 236 255
222 236 255
222 236 255
222 236 255
222 236 255
222 236 255
222 236 255
222 236 255
222 236 255
222 236 255
222 236 255
222 236 255
222 236 255
222 236 255
222 236 255
222 236 255
222 236 255
222 236 255
222 236 255
222 236 255
222 236 255
222 236 255
222 236 255
222 236 255
222 236 255
222 236 255
222 236 255
222 236 255
222 236 255
222 236 255
222 236 255
222 236 255
222 236 255
222 236 255
222 236 255
222 236 255
222 236 255
222 236 255
222 236 255
222 236 255
222 236 255
222 236 255
222 236 255
222 236 255
222 236 255
222 236 255
222 236 255
222 236 255
222 236 255
222 236 255
222 236 255
222 236 255
222 236 255
222 236 255
222 236 255
222 236 255
222 236 255
222 236 255
222 236 255
222 236 255
222 236 255
222 236 255
222 236 255
222 236 255
222 236 255
222 236 255
222 236 255
222 236 255
222 236 255
222 236 255
222 236 255
222 236 255
222 236 255
222 236 255
222 236 255
222 236 255
222 236 255
222 236 255
222 236 255
222 236 255
222 236 255
222 236 255
222 236 255
222 236 255
222 236 255
222 236 255
222 236 255
222 236 255
222 236 255
222 236 255
222 236 255
222 236 255
222 236 255
222 236 255
222 236 255
222 236 255
222 236 255
222 236 255
222 236 255
222 236 255
222 236 255
222 236 255
222 236 255
222 236 255
222 236 255
222 236 255
222 236 255
222 236 255
222 236 255
222 236 255
222 236 255
222 236 255
222 236 255
222 236 255
222 236 255
222 236 255
222 236 255
222 236 255
222 236 255
222 236 255
222 236 255
222 236 255
222 236 255
222 236 255
222 236 255
222 236 255
222 236 255
222 236 255
222 236 255
222 236 255
222 236 255
222 236 255
222 236 255
222 236 255
222 236 255
222 236 255
222 236 255
222 236 255
222 236 255
222 236 255
222 236 255
222 236 255
222 236 255
222 236 255
222 236 255
222 236 255
222 236 255
222 236 255
222 236 255
222 236 255
222 236 255
222 236 255
222 236 255
222 236 255
222 236 255
222 236 255
222 236 255
222 236 255
222 236 255
222 236 255
222 236 255
222 236 255
222 236 255
222 236 255
222 236 255
222 236 255
222 236 255
222 236 255
222 236 255
222 236 255
222 236 255
222 236 255
222 236 255
222 236 255
222 236 255
222 236 255
222 236 255
222 236 255
222 236 255
222 236 255
222 236 255
222 236 255
222 236 255
222 236 255
222 236 255
222 236 255
222 236 255
222 236 255
222 236 255
222 236 255
222 236 255
222 236 255
222 236 255
222 236 255
222 236 255
222 236 255
222 236 255
222 236 255
222 236 255
222 236 255
222 236 255
222 236 255
222 236 255
222 236 255
222 236 255
222 236 255
222 236 255
222 236 255
222 236 255
222 236 255
222 236 255
222 236 255
222 236 255
222 236 255
222 236 255
222 236 255
222 236 255
222 236 255
222 236 255
222 236 255
222 236 255
222 236 255
222 236 255
222 236 255
222 236 255
222 236 255
222 236 255
222 236 255
222 236 255
222 236 255
222 236 255
222 236 255
222 236 255
222 236 255
222 236 255
222 236 255
222 236 255
222 236 255
222 236 255
222 236 255
222 236 255
222 236 255
222 236 255
222 236 255
222 236 255
222 236 255
222 236 255
222 236 255
222 236 255
222 236 255
222 236 255
222 236 255
222 236 255
222 236 255
222 236 255
222 236 255
222 236 255
222 236 255
222 236 255
222 236 255
222 236 255
222 236 255
222 236 255
222 236 255
222 236 255
222 236 255
222 236 255
222 236 255
222 236 255
222 236 255
222 236 255
222 236 255
222 236 255
222 236 255
222 236 255
222 236 255
222 236 255
222 236 255
222 236 255
222 236 255
222 236 255
222 236 255
222 236 255
222 236 255
222 236 255
222 236 255
222 236 255
222 236 255
222 236 255
222 236 255
222 236 255
222 236 255
222 236 255
222 236 255
222 236 255
222 236 255
222 236 255
222 236 255
222 236 255
222 236 255
222 236 255
222 236 255
222 236 255
222 236 255
222 236 255
222 236 255
222 236 255
222 236 255
222 236 255
222 236 255
222 236 255
222 236 255
222 236 255
222 236 255
222 236 255
222 236 255
222 236 255
222 236 255
222 236 255
222 236 255
222 236 255
222 236 255
222 236 255
222 236 255
222 236 255
222 236 255
222 236 255
222 236 255
222 236 255
222 236 255
222 236 255
222 236 255
222 236 255
222 236 255
222 236 255
222 236 255
222 236 255
222 236 255
222 236 255
222 236 255
222 236 255
222 236 255
222 236 255
222 236 255
222 236 255
222 236 255
222 236 255
222 236 255
222 236 255
222 236 255
222 236 255
222 236 255
222 236 255
222 236 255
222 236 255
222 236 255
222 236 255
222 236 255
222 236 255
222 236 255
222 236 255
222 236 255
222 236 255
222 236 255
222 236 255
222 236 255
222 236 255
222 236 255
222 236 255
222 236 255
222 236 255
222 236 255
222 236 255
222 236 255
222 236 255
222 236 255
222 236 255
222 236 255
222 236 255
222 236 255
222 236 255
222 236 255
222 236 255
222 236 255
222 236 255
222 236 255
222 236 255
222 236 255
222 236 255
222 236 255
222 236 255
222 236 255
222 236 255
222 236 255
222 236 255
222 236 255
222 236 255
222 236 255
222 236 255
222 236 255
222 236 255
222 236 255
222 236 255
222 236 255
222 236 255
222 236 255
222 236 255
222 236 255
222 236 255
222 236 255
222 236 255
222 236 255
222 236 255
222 236 255
222 236 255
222 236 255
222 236 255
222 236 255
222 236 255
222 236 255
222 236 255
222 236 255
222 236 255
222 236 255
222 236 255
222 236 255
222 236 255
222 236 255
222 236 255
222 236 255
222 236 255
222 236 255
222 236 255
222 236 255
222 236 255
222 236 255
222 236 255
222 236 255
222 236 255
222 236 255
222 236 255
222 236 255
222 236 255
222 236 255
222 236 255
222 236 255
222 236 255
222 236 255
222 236 255
222 236 255
222 236 255
222 236 255
222 236 255
222 236 255
222 236 255
222 236 255
222 236 255
222 236 255
222 236 255
222 236 255
222 236 255
222 236 255
222 236 255
222 236 255
222 236 255
222 236 255
222 236 255
222 236 255
222 236 255
222 236 255
222 236 255
222 236 255
222 236 255
222 236 255
222 236 255
222 236 255
222 236 255
222 236 255
222 236 255
222 236 255
222 236 255
222 236 255
222 236 255
222 236 255
222 236 255
222 236 255
222 236 255
222 236 255
222 236 255
222 236 255
222 236 255
222 236 255
222 236 255
222 236 255
222 236 255
222 236 255
222 236 255
222 236 255
222 236 255
222 236 255
222 236 255
222 236 255
222 236 255
222 236 255
222 236 255
222 236 255
222 236 255
222 236 255
222 236 255
222 236 255
222 236 255
222 236 255
222 236 255
222 236 255
222 236 255
222 236 255
222 236 255
222 236 255
222 236 255
222 236 255
222 236 255
222 236 255
222 236 255
222 236 255
222 236 255
222 236 255
222 236 255
222 236 255
222 236 255
222 236 255
222 236 255
222 236 255
222 236 255
222 236 255
222 236 255
222 236 255
222 236 255
222 236 255
222 236 255
222 236 255
222 236 255
222 236 255
222 236 255
222 236 255
222 236 255
222 236 255
222 236 255
222 236 255
222 236 255
222 236 255
222 236 255
222 236 255
222 236 255
222 236 255
222 236 255
222 236 255
222 236 255
222 236 255
222 236 255
222 236 255
222 236 255
222 236 255
222 236 255
222 236 255
222 236 255
222 236 255
222 236 255
222 236 255
222 236 255
222 236 255
222 236 255
222 236 255
222 236 255
222 236 255
222 236 255
222 236 255
222 236 255
222 236 255
222 236 255
222 236 255
222 236 255
222 236 255
222 236 255
222 236 255
222 236 255
222 236 255
222 236 255
222 236 255
222 236 255
222 236 255
222 236 255
222 236 255
222 236 255
222 236 255
222 236 255
222 236 255
222 236 255
222 236 255
222 236 255
222 236 255
222 236 255
222 236 255
222 236 255
222 236 255
222 236 255
222 236 255
222 236 255
222 236 255
222 236 255
222 236 255
222 236 255
222 236 255
222 236 255
222 236 255
222 236 255
222 236 255
222 236 255
222 236 255
222 236 255
222 236 255
222 236 255
222 236 255
222 236 255
222 236 255
222 236 255
222 236 255
222 236 255
222 236 255
222 236 255
222 236 255
222 236 255
222 236 255
222 236 255
222 236 255
222 236 255
222 236 255
222 236 255
222 236 255
222 236 255
222 236 255
222 236 255
222 236 255
222 236 255
222 236 255
222 236 255
222 236 255
222 236 255
222 236 255
222 236 255
222 236 255
222 236 255
222 236 255
222 236 255
222 236 255
222 236 255
222 236 255
222 236 255
222 236 255
222 236 255
222 236 255
222 236 255
222 236 255
222 236 255
222 236 255
222 236 255
222 236 255
222 236 255
222 236 255
222 236 255
222 236 255
222 236 255
222 236 255
222 236 255
222 236 255
222 236 255
222 236 255
222 236 255
222 236 255
222 236 255
222 236 255
222 236 255
222 236 255
222 236 255
222 236 255
222 236 255
222 236 255
222 236 255
222 236 255
222 236 255
222 236 255
222 236 255
222 236 255
222 236 255
222 236 255
222 236 255
222 236 255
222 236 255
222 236 255
222 236 255
222 236 255
222 236 255
222 236 255
222 236 255
222 236 255
222 236 255
222 236 255
222 236 255
222 236 255
222 236 255
222 236 255
222 236 255
222 236 255
222 236 255
222 236 255
222 236 255
222 236 255
222 236 255
222 236 255
222 236 255
222 236 255
222 236 255
222 236 255
222 236 255
222 236 255
222 236 255
222 236 255
222 236 255
222 236 255
222 236 255
222 236 255
222 236 255
222 236 255
222 236 255
222 236 255
222 236 255
222 236 255
222 236 255
222 236 255
222 236 255
222 236 255
222 236 255
222 236 255
222 236 255
222 236 255
222 236 255
222 236 255
222 236 255
222 236 255
222 236 255
222 236 255
222 236 255
222 236 255
222 236 255
222 236 255
222 236 255
222 236 255
222 236 255
222 236 255
222 236 255
222 236 255
222 236 255
222 236 255
222 236 255
222 236 255
222 236 255
222 236 255
222 236 255
222 236 255
222 236 255
222 236 255
222 236 255
222 236 255
222 236 255
222 236 255
222 236 255
222 236 255
222 236 255
222 236 255
222 236 255
222 236 255
222 236 255
222 236 255
222 236 255
222 236 255
222 236 255
222 236 255
222 236 255
222 236 255
222 236 255
222 236 255
222 236 255
222 236 255
222 236 255
222 236 255
222 236 255
222 236 255
222 236 255
222 236 255
222 236 255
222 236 255
222 236 255
222 236 255
222 236 255
222 236 255
222 236 255
222 236 255
222 236 255
222 236 255
222 236 255
222 236 255
222 236 255
222 236 255
222 236 255
222 236 255
222 236 255
222 236 255
222 236 255
222 236 255
222 236 255
222 236 255
222 236 255
222 236 255
222 236 255
222 236 255
222 236 255
222 236 255
222 236 255
222 236 255
222 236 255
222 236 255
222 236 255
222 236 255
222 236 255
222 236 255
222 236 255
222 236 255
222 236 255
222 236 255
222 236 255
222 236 255
222 236 255
222 236 255
222 236 255
222 236 255
222 236 255
222 236 255
222 236 255
222 236 255
222 236 255
222 236 255
222 236 255
222 236 255
222 236 255
222 236 255
222 236 255
222 236 255
222 236 255
222 236 255
222 236 255
222 236 255
222 236 255
222 236 255
222 236 255
222 236 255
222 236 255
222 236 255
222 236 255
222 236 255
222 236 255
222 236 255
222 236 255
222 236 255
222 236 255
222 236 255
222 236 255
222 236 255
222 236 255
222 236 255
222 236 255
222 236 255
222 236 255
222 236 255
222 236 255
222 236 255
222 236 255
222 236 255
222 236 255
222 236 255
222 236 255
222 236 255
222 236 255
222 236 255
222 236 255
222 236 255
222 236 255
222 236 255
222 236 255
222 236 255
222 236 255
222 236 255
222 236 255
222 236 255
222 236 255
222 236 255
222 236 255
222 236 255
222 236 255
222 236 255
222 236 255
222 236 255
222 236 255
222 236 255
222 236 255
222 236 255
222 236 255
222 236 255
222 236 255
222 236 255
222 236 255
222 236 255
222 236 255
222 236 255
222 236 255
222 236 255
222 236 255
222 236 255
222 236 255
222 236 255
222 236 255
222 236 255
222 236 255
222 236 255
222 236 255
222 236 255
222 236 255
222 236 255
222 236 255
222 236 255
222 236 255
222 236 255
222 236 255
222 236 255
222 236 255
222 236 255
222 236 255
222 236 255
222 236 255
222 236 255
222 236 255
222 236 255
222 236 255
222 236 255
222 236 255
222 236 255
222 236 255
222 236 255
222 236 255
222 236 255
222 236 255
222 236 255
222 236 255
222 236 255
222 236 255
222 236 255
222 236 255
222 236 255
222 236 255
222 236 255
222 236 255
222 236 255
222 236 255
222 236 255
222 236 255
222 236 255
222 236 255
222 236 255
222 236 255
222 236 255
222 236 255
222 236 255
222 236 255
222 236 255
222 236 255
222 236 255
222 236 255
222 236 255
222 236 255
222 236 255
222 236 255
222 236 255
222 236 255
222 236 255
222 236 255
222 236 255
222 236 255
222 236 255
222 236 255
222 236 255
222 236 255
222 236 255
222 236 255
222 236 255
222 236 255
222 236 255
222 236 255
222 236 255
222 236 255
222 236 255
222 236 255
222 236 255
222 236 255
222 236 255
222 236 255
222 236 255
222 236 255
222 236 255
222 236 255
222 236 255
222 236 255
222 236 255
222 236 255
222 236 255
222 236 255
222 236 255
222 236 255
222 236 255
222 236 255
222 236 255
222 236 255
222 236 255
222 236 255
222 236 255
222 236 255
222 236 255
222 236 255
222 236 255
222 236 255
222 236 255
222 236 255
222 236 255
222 236 255
222 236 255
222 236 255
222 236 255
222 236 255
222 236 255
222 236 255
222 236 255
222 236 255
222 236 255
222 236 255
222 236 255
222 236 255
222 236 255
222 236 255
222 236 255
222 236 255
222 236 255
222 236 255
222 236 255
222 236 255
222 236 255
222 236 255
222 236 255
222 236 255
222 236 255
222 236 255
222 236 255
222 236 255
222 236 255
222 236 255
222 236 255
222 236 255
222 236 255
222 236 255
222 236 255
222 236 255
222 236 255
222 236 255
222 236 255
222 236 255
222 236 255
222 236 255
222 236 255
222 236 255
222 236 255
222 236 255
222 236 255
222 236 255
222 236 255
222 236 255
222 236 255
222 236 255
222 236 255
222 236 255
222 236 255
222 236 255
222 236 255
222 236 255
222 236 255
222 236 255
222 236 255
222 236 255
222 236 255
222 236 255
222 236 255
222 236 255
222 236 255
222 236 255
222 236 255
222 236 255
222 236 255
222 236 255
222 236 255
222 236 255
222 236 255
222 236 255
222 236 255
222 236 255
222 236 255
222 236 255
222 236 255
222 236 255
222 236 255
222 236 255
222 236 255
222 236 255
222 236 255
222 236 255
222 236 255
222 236 255
222 236 255
222 236 255
222 236 255
222 236 255
222 236 255
222 236 255
222 236 255
222 236 255
222 236 255
222 236 255
222 236 255
222 236 255
222 236 255
222 236 255
222 236 255
222 236 255
222 236 255
222 236 255
222 236 255
222 236 255
222 236 255
222 236 255
222 236 255
222 236 255
222 236 255
222 236 255
222 236 255
222 236 255
222 236 255
222 236 255
222 236 255
222 236 255
222 236 255
222 236 255
222 236 255
222 236 255
222 236 255
222 236 255
222 236 255
222 236 255
222 236 255
222 236 255
222 236 255
222 236 255
222 236 255
222 236 255
222 236 255
222 236 255
222 236 255
222 236 255
222 236 255
222 236 255
222 236 255
222 236 255
222 236 255
222 236 255
222 236 255
222 236 255
222 236 255
222 236 255
222 236 255
222 236 255
222 236 255
222 236 255
222 236 255
222 236 255
222 236 255
222 236 255
222 236 255
222 236 255
222 236 255
222 236 255
222 236 255
222 236 255
222 236 255
222 236 255
222 236 255
222 236 255
222 236 255
222 236 255
222 236 255
222 236 255
222 236 255
222 236 255
222 236 255
222 236 255
222 236 255
222 236 255
222 236 255
222 236 255
222 236 255
222 236 255
222 236 255
222 236 255
222 236 255
222 236 255
222 236 255
222 236 255
222 236 255
222 236 255
222 236 255
222 236 255
222 236 255
222 236 255
222 236 255
222 236 255
222 236 255
222 236 255
222 236 255
222 236 255
222 236 255
222 236 255
222 236 255
222 236 255
222 236 255
222 236 255
222 236 255
222 236 255
222 236 255
222 236 255
222 236 255
222 236 255
222 236 255
222 236 255
222 236 255
222 236 255
222 236 255
222 236 255
222 236 255
222 236 255
222 236 255
222 236 255
222 236 255
222 236 255
222 236 255
222 236 255
222 236 255
222 236 255
222 236 255
222 236 255
222 236 255
222 236 255
222 236 255
222 236 255
222 236 255
222 236 255
222 236 255
222 236 255
222 236 255
222 236 255
222 236 255
222 236 255
222 236 255
222 236 255
222 236 255
222 236 255
222 236 255
222 236 255
222 236 255
222 236 255
222 236 255
222 236 255
222 236 255
222 236 255
222 236 255
222 236 255
222 236 255
222 236 255
222 236 255
222 236 255
222 236 255
222 236 255
222 236 255
222 236 255
222 236 255
222 236 255
222 236 255
222 236 255
222 236 255
222 236 255
222 236 255
222 236 255
222 236 255
222 236 255
222 236 255
222 236 255
222 236 255
222 236 255
222 236 255
222 236 255
222 236 255
222 236 255
222 236 255
222 236 255
222 236 255
222 236 255
222 236 255
222 236 255
222 236 255
222 236 255
222 236 255
222 236 255
222 236 255
222 236 255
222 236 255
222 236 255
222 236 255
222 236 255
222 236 255
222 236 255
222 236 255
222 236 255
222 236 255
222 236 255
222 236 255
222 236 255
222 236 255
222 236 255
222 236 255
222 236 255
222 236 255
222 236 255
222 236 255
222 236 255
222 236 255
222 236 255
222 236 255
222 236 255
222 236 255
222 236 255
222 236 255
222 236 255
222 236 255
222 236 255
222 236 255
222 236 255
222 236 255
222 236 255
222 236 255
222 236 255
222 236 255
222 236 255
222 236 255
222 236 255
222 236 255
222 236 255
222 236 255
222 236 255
222 236 255
222 236 255
222 236 255
222 236 255
222 236 255
222 236 255
222 236 255
222 236 255
222 236 255
222 236 255
222 236 255
222 236 255
222 236 255
222 236 255
222 236 255
222 236 255
222 236 255
222 236 255
222 236 255
222 236 255
222 236 255
222 236 255
222 236 255
222 236 255
222 236 255
222 236 255
222 236 255
222 236 255
222 236 255
222 236 255
222 236 255
222 236 255
222 236 255
222 236 255
222 236 255
222 236 255
222 236 255
222 236 255
222 236 255
221 236 255
221 236 255
221 236 255
221 236 255
221 236 255
221 236 255
221 236 255
221 236 255
221 236 255
221 236 255
221 236 255
221 236 255
221 236 255
221 236 255
221 236 255
221 236 255
221 236 255
221 236 255
221 236 255
221 236 255
221 236 255
221 236 255
221 236 255
221 236 255
221 236 255
221 236 255
221 236 255
221 236 255
221 236 255
221 236 255
221 236 255
221 236 255
221 236 255
221 236 255
221 236 255
221 236 255
221 236 255
221 236 255
221 236 255
221 236 255
221 236 255
221 236 255
221 236 255
221 236 255
221 236 255
221 236 255
221 236 255
221 236 255
221 236 255
221 236 255
221 236 255
221 236 255
221 236 255
221 236 255
221 236 255
221 236 255
221 236 255
221 236 255
221 236 255
221 236 255
221 236 255
221 236 255
221 236 255
221 236 255
221 236 255
221 236 255
221 236 255
221 236 255
221 236 255
221 236 255
221 236 255
221 236 255
221 236 255
221 236 255
221 236 255
221 236 255
221 236 255
221 236 255
221 236 255
221 236 255
221 236 255
221 236 255
221 236 255
221 236 255
221 236 255
221 236 255
221 236 255
221 236 255
221 236 255
221 236 255
221 236 255
221 236 255
221 236 255
221 236 255
221 236 255
221 236 255
221 236 255
221 236 255
221 236 255
221 236 255
221 236 255
221 236 255
221 236 255
221 236 255
221 236 255
221 236 255
221 236 255
221 236 255
221 236 255
221 236 255
221 236 255
221 236 255
221 236 255
221 236 255
221 236 255
221 236 255
221 236 255
222 236 255
221 236 255
222 236 255
222 236 255
222 236 255
221 236 255
222 236 255
221 236 255
222 236 255
221 236 255
222 236 255
222 236 255
222 236 255
222 236 255
222 236 255
222 236 255
222 236 255
222 236 255
222 236 255
222 236 255
222 236 255
222 236 255
222 236 255
222 236 255
222 236 255
222 236 255
222 236 255
222 236 255
222 236 255
222 236 255
222 236 255
222 236 255
222 236 255
222 236 255
222 236 255
222 236 255
222 236 255
222 236 255
222 236 255
222 236 255
222 236 255
222 236 255
222 236 255
222 236 255
222 236 255
222 236 255
222 236 255
222 236 255
222 236 255
222 236 255
222 236 255
222 236 255
222 236 255
222 236 255
222 236 255
222 236 255
222 236 255
222 236 255
222 236 255
222 236 255
222 236 255
222 236 255
222 236 255
222 236 255
222 236 255
222 236 255
222 236 255
222 236 255
222 236 255
222 236 255
222 236 255
222 236 255
222 236 255
222 236 255
222 236 255
222 236 255
222 236 255
222 236 255
222 236 255
222 236 255
222 236 255
222 236 255
222 236 255
222 236 255
222 236 255
222 236 255
222 236 255
222 236 255
222 236 255
222 236 255
222 236 255
222 236 255
222 236 255
222 236 255
222 236 255
222 236 255
222 236 255
222 236 255
222 236 255
222 236 255
222 236 255
222 236 255
222 236 255
222 236 255
222 236 255
222 236 255
222 236 255
222 236 255
222 236 255
222 236 255
222 236 255
222 236 255
222 236 255
222 236 255
222 236 255
222 236 255
222 236 255
222 236 255
222 236 255
222 236 255
222 236 255
222 236 255
222 236 255
222 236 255
222 236 255
222 236 255
222 236 255
222 236 255
222 236 255
222 236 255
222 236 255
222 236 255
222 236 255
222 236 255
222 236 255
222 236 255
222 236 255
222 236 255
222 236 255
222 236 255
222 236 255
222 236 255
222 236 255
222 236 255
222 236 255
222 236 255
222 236 255
222 236 255
222 236 255
222 236 255
222 236 255
222 236 255
222 236 255
222 236 255
222 236 255
222 236 255
222 236 255
222 236 255
222 236 255
221 236 255
222 236 255
221 236 255
221 236 255
221 236 255
221 236 255
221 236 255
221 236 255
221 236 255
221 236 255
221 236 255
221 236 255
221 236 255
221 236 255
221 236 255
221 236 255
221 236 255
221 236 255
221 236 255
221 236 255
221 236 255
221 236 255
221 236 255
221 236 255
221 236 255
221 236 255
221 236 255
221 236 255
221 236 255
221 236 255
221 236 255
221 236 255
221 236 255
221 236 255
221 236 255
221 236 255
221 236 255
221 236 255
221 236 255
221 236 255
221 236 255
221 236 255
221 236 255
221 236 255
221 236 255
221 236 255
221 236 255
221 236 255
221 236 255
221 236 255
221 236 255
221 236 255
221 236 255
221 236 255
221 236 255
221 236 255
221 236 255
221 236 255
221 236 255
221 236 255
221 236 255
221 236 255
221 236 255
221 236 255
221 236 255
221 236 255
221 236 255
221 236 255
221 236 255
221 236 255
221 236 255
221 236 255
221 236 255
221 236 255
221 236 255
221 236 255
221 236 255
221 236 255
221 236 255
221 236 255
221 236 255
221 236 255
221 236 255
221 236 255
221 236 255
221 236 255
221 236 255
221 236 255
221 236 255
221 236 255
221 236 255
221 236 255
221 236 255
221 236 255
221 236 255
221 236 255
221 236 255
221 236 255
221 236 255
221 236 255
221 236 255
221 236 255
221 236 255
221 236 255
221 236 255
221 236 255
221 236 255
221 236 255
221 236 255
221 236 255
221 236 255
221 236 255
221 236 255
221 236 255
221 236 255
221 236 255
221 236 255
221 236 255
221 236 255
221 236 255
221 236 255
221 236 255
221 236 255
221 236 255
221 236 255
221 236 255
221 236 255
221 236 255
221 236 255
221 236 255
221 236 255
221 236 255
221 236 255
221 236 255
221 236 255
221 236 255
221 236 255
221 236 255
221 236 255
221 236 255
221 236 255
221 236 255
221 236 255
221 236 255
221 236 255
221 236 255
221 236 255
221 236 255
221 236 255
221 236 255
221 236 255
221 236 255
221 236 255
221 236 255
221 236 255
221 236 255
221 236 255
221 236 255
221 236 255
221 236 255
221 236 255
221 236 255
221 236 255
221 236 255
221 236 255
221 236 255
221 236 255
221 236 255
221 236 255
221 236 255
221 236 255
221 236 255
221 236 255
221 236 255
221 236 255
221 236 255
221 236 255
221 236 255
221 236 255
221 236 255
221 236 255
221 236 255
221 236 255
221 236 255
221 236 255
221 236 255
221 236 255
221 236 255
221 236 255
221 236 255
221 236 255
221 236 255
221 236 255
221 236 255
221 236 255
221 236 255
221 236 255
221 236 255
221 236 255
221 236 255
221 236 255
221 236 255
221 236 255
221 236 255
221 236 255
221 236 255
221 236 255
221 236 255
221 236 255
221 236 255
221 236 255
221 236 255
221 236 255
221 236 255
221 236 255
221 236 255
221 236 255
221 236 255
221 236 255
221 236 255
221 236 255
221 236 255
221 236 255
221 236 255
221 236 255
221 236 255
221 236 255
221 236 255
221 236 255
221 236 255
221 236 255
221 236 255
221 236 255
221 236 255
221 236 255
221 236 255
221 236 255
221 236 255
221 236 255
221 236 255
221 236 255
221 236 255
221 236 255
221 236 255
221 236 255
221 236 255
221 236 255
221 236 255
221 236 255
221 236 255
221 236 255
221 236 255
221 236 255
221 236 255
221 236 255
221 236 255
221 236 255
221 236 255
221 236 255
221 236 255
221 236 255
221 236 255
221 236 255
221 236 255
221 236 255
221 236 255
221 236 255
221 236 255
221 236 255
221 236 255
221 236 255
221 236 255
221 236 255
221 236 255
221 236 255
221 236 255
221 236 255
221 236 255
221 236 255
221 236 255
221 236 255
221 236 255
221 236 255
221 236 255
221 236 255
221 236 255
221 236 255
221 236 255
221 236 255
221 236 255
221 236 255
221 236 255
221 236 255
221 236 255
221 236 255
221 236 255
221 236 255
221 236 255
221 236 255
221 236 255
221 236 255
221 236 255
221 236 255
221 236 255
221 236 255
221 236 255
221 236 255
221 236 255
221 236 255
221 236 255
221 236 255
221 236 255
221 236 255
221 236 255
221 236 255
221 236 255
221 236 255
221 236 255
221 236 255
221 236 255
221 236 255
221 236 255
221 236 255
221 236 255
221 236 255
221 236 255
221 236 255
221 236 255
221 236 255
221 236 255
221 236 255
221 236 255
221 236 255
221 236 255
221 236 255
221 236 255
221 236 255
221 236 255
221 236 255
221 236 255
221 236 255
221 236 255
221 236 255
221 236 255
221 236 255
221 236 255
221 236 255
221 236 255
221 236 255
221 236 255
221 236 255
221 236 255
221 236 255
221 236 255
221 236 255
221 236 255
221 236 255
221 236 255
221 236 255
221 236 255
221 236 255
221 236 255
221 236 255
221 236 255
221 236 255
221 236 255
221 236 255
221 236 255
221 236 255
221 236 255
221 236 255
221 236 255
221 236 255
221 236 255
221 236 255
221 236 255
221 236 255
221 236 255
221 236 255
221 236 255
221 236 255
221 236 255
221 236 255
221 236 255
221 236 255
221 236 255
221 236 255
221 236 255
221 236 255
221 236 255
221 236 255
221 236 255
221 236 255
221 236 255
221 236 255
221 236 255
221 236 255
221 236 255
221 236 255
221 236 255
221 236 255
221 236 255
221 236 255
221 236 255
221 236 255
221 236 255
221 236 255
221 236 255
221 236 255
221 236 255
221 236 255
221 236 255
221 236 255
221 236 255
221 236 255
221 236 255
221 236 255
221 236 255
221 236 255
221 236 255
221 236 255
221 236 255
221 236 255
221 236 255
221 236 255
221 236 255
221 236 255
221 236 255
221 236 255
221 236 255
221 236 255
221 236 255
221 236 255
221 236 255
221 236 255
221 236 255
221 236 255
221 236 255
221 236 255
221 236 255
221 236 255
221 236 255
221 236 255
221 236 255
221 236 255
221 236 255
221 236 255
221 236 255
221 236 255
221 236 255
221 236 255
221 236 255
221 236 255
221 236 255
221 236 255
221 236 255
221 236 255
221 236 255
221 236 255
221 236 255
221 236 255
221 236 255
221 236 255
221 236 255
221 236 255
221 236 255
221 236 255
221 236 255
221 236 255
221 236 255
221 236 255
221 236 255
221 236 255
221 236 255
221 236 255
221 236 255
221 236 255
221 236 255
221 236 255
221 236 255
221 236 255
221 236 255
221 236 255
221 236 255
221 236 255
221 236 255
221 236 255
221 236 255
221 236 255
221 236 255
221 236 255
221 236 255
221 236 255
221 236 255
221 236 255
221 236 255
221 236 255
221 236 255
221 236 255
221 236 255
221 236 255
221 236 255
221 236 255
221 236 255
221 236 255
221 236 255
221 236 255
221 236 255
221 236 255
221 236 255
221 236 255
221 236 255
221 236 255
221 236 255
221 236 255
221 236 255
221 236 255
221 236 255
221 236 255
221 236 255
221 236 255
221 236 255
221 236 255
221 236 255
221 235 255
221 235 255
221 235 255
221 235 255
221 235 255
221 235 255
221 235 255
221 235 255
221 235 255
221 235 255
221 235 255
221 235 255
221 235 255
221 235 255
221 235 255
221 235 255
221 235 255
221 235 255
221 235 255
221 235 255
221 235 255
221 235 255
221 235 255
221 235 255
221 235 255
221 235 255
221 235 255
221 235 255
221 235 255
221 235 255
221 235 255
221 235 255
221 235 255
221 235 255
221 235 255
221 235 255
221 235 255
221 235 255
221 235 255
221 235 255
221 235 255
221 235 255
221 235 255
221 235 255
221 235 255
221 235 255
221 235 255
221 235 255
221 235 255
221 235 255
221 235 255
221 235 255
221 235 255
221 235 255
221 235 255
221 235 255
221 235 255
221 235 255
221 235 255
221 235 255
221 235 255
221 235 255
221 235 255
221 235 255
221 235 255
221 235 255
221 235 255
221 235 255
221 235 255
221 235 255
221 235 255
221 235 255
221 235 255
221 235 255
221 235 255
221 235 255
221 235 255
221 235 255
221 235 255
221 235 255
221 235 255
221 235 255
221 235 255
221 235 255
221 235 255
221 235 255
221 235 255
221 235 255
221 235 255
221 235 255
221 235 255
221 235 255
221 235 255
221 235 255
221 235 255
221 235 255
221 235 255
221 235 255
221 235 255
221 235 255
221 235 255
221 235 255
221 235 255
221 235 255
221 235 255
221 235 255
221 235 255
221 235 255
221 235 255
221 235 255
221 235 255
221 235 255
221 235 255
221 235 255
221 235 255
221 235 255
221 235 255
221 235 255
221 235 255
221 235 255
221 235 255
221 235 255
221 235 255
221 235 255
221 235 255
221 235 255
221 235 255
221 235 255
221 235 255
221 235 255
221 235 255
221 235 255
221 235 255
221 235 255
221 235 255
221 235 255
221 235 255
221 235 255
221 235 255
221 235 255
221 235 255
221 235 255
221 235 255
221 235 255
221 235 255
221 235 255
221 235 255
221 235 255
221 235 255
221 235 255
221 235 255
221 235 255
221 235 255
221 235 255
221 235 255
221 235 255
221 235 255
221 235 255
221 235 255
221 235 255
221 235 255
221 235 255
221 235 255
221 235 255
221 235 255
221 235 255
221 235 255
221 235 255
221 235 255
221 235 255
221 235 255
221 235 255
221 235 255
221 235 255
221 235 255
221 235 255
221 235 255
221 235 255
221 235 255
221 235 255
221 235 255
221 235 255
221 235 255
221 235 255
221 235 255
221 235 255
221 235 255
221 235 255
221 235 255
221 235 255
221 235 255
221 235 255
221 235 255
221 235 255
221 235 255
221 235 255
221 235 255
221 235 255
221 235 255
221 235 255
221 235 255
221 235 255
221 235 255
221 235 255
221 235 255
221 235 255
221 235 255
221 235 255
221 235 255
221 235 255
221 235 255
221 235 255
221 235 255
221 235 255
221 235 255
221 235 255
221 235 255
221 235 255
221 235 255
221 235 255
221 235 255
221 235 255
221 235 255
221 235 255
221 235 255
221 235 255
221 235 255
221 235 255
221 235 255
221 235 255
221 235 255
221 235 255
221 235 255
221 235 255
221 235 255
221 235 255
221 235 255
221 235 255
221 235 255
221 235 255
221 235 255
221 235 255
221 235 255
221 235 255
221 235 255
221 235 255
221 235 255
221 235 255
221 235 255
221 235 255
221 235 255
221 235 255
221 235 255
221 235 255
221 235 255
221 235 255
221 235 255
221 235 255
221 235 255
221 235 255
221 235 255
221 235 255
221 235 255
221 235 255
221 235 255
221 235 255
221 235 255
221 235 255
221 235 255
221 235 255
221 235 255
221 235 255
221 235 255
221 235 255
221 235 255
221 235 255
221 235 255
221 235 255
221 235 255
221 235 255
221 235 255
221 235 255
221 235 255
221 235 255
221 235 255
221 235 255
221 235 255
221 235 255
221 235 255
221 235 255
221 235 255
221 235 255
221 235 255
221 235 255
221 235 255
221 235 255
221 235 255
221 235 255
221 235 255
221 235 255
221 235 255
221 235 255
221 235 255
221 235 255
221 235 255
221 235 255
221 235 255
221 235 255
221 235 255
221 235 255
221 235 255
221 235 255
221 235 255
221 235 255
221 235 255
221 235 255
221 235 255
221 235 255
221 235 255
221 235 255
221 235 255
221 235 255
221 235 255
221 235 255
221 235 255
221 235 255
221 235 255
221 235 255
221 235 255
221 235 255
221 235 255
221 235 255
221 235 255
221 235 255
221 235 255
221 235 255
221 235 255
221 235 255
221 235 255
221 235 255
221 235 255
221 235 255
221 235 255
221 235 255
221 235 255
221 235 255
221 235 255
221 235 255
221 235 255
221 235 255
221 235 255
221 235 255
221 235 255
221 235 255
221 235 255
221 235 255
221 235 255
221 235 255
221 235 255
221 235 255
221 235 255
221 235 255
221 235 255
221 235 255
221 235 255
221 235 255
221 235 255
221 235 255
221 235 255
221 235 255
221 235 255
221 235 255
221 235 255
221 235 255
221 235 255
221 235 255
221 235 255
221 235 255
221 235 255
221 235 255
221 235 255
221 235 255
221 235 255
221 235 255
221 235 255
221 235 255
221 235 255
221 235 255
221 235 255
221 235 255
221 235 255
221 235 255
221 235 255
221 235 255
221 235 255
221 235 255
221 235 255
221 235 255
221 235 255
221 235 255
221 235 255
221 235 255
221 235 255
221 235 255
221 235 255
221 235 255
221 235 255
221 235 255
221 235 255
221 235 255
221 235 255
221 235 255
221 235 255
221 235 255
221 235 255
221 235 255
221 235 255
221 235 255
221 235 255
221 235 255
221 235 255
221 235 255
221 235 255
221 235 255
221 235 255
221 235 255
221 235 255
221 235 255
221 235 255
221 235 255
221 235 255
221 235 255
221 235 255
221 235 255
221 235 255
221 235 255
221 235 255
221 235 255
221 235 255
221 235 255
221 235 255
221 235 255
221 235 255
221 235 255
221 235 255
221 235 255
221 235 255
221 235 255
221 235 255
221 235 255
221 235 255
221 235 255
221 235 255
221 235 255
221 235 255
221 235 255
221 235 255
221 235 255
221 235 255
221 235 255
221 235 255
221 235 255
221 235 255
221 235 255
221 235 255
221 235 255
221 235 255
221 235 255
221 235 255
221 235 255
221 235 255
221 235 255
221 235 255
221 235 255
221 235 255
221 235 255
221 235 255
221 235 255
221 235 255
221 235 255
221 235 255
221 235 255
221 235 255
221 235 255
221 235 255
221 235 255
221 235 255
221 235 255
221 235 255
221 235 255
221 235 255
221 235 255
221 235 255
221 235 255
221 235 255
221 235 255
221 235 255
221 235 255
221 235 255
221 235 255
221 235 255
221 235 255
221 235 255
221 235 255
221 235 255
221 235 255
221 235 255
221 235 255
221 235 255
221 235 255
221 235 255
221 235 255
221 235 255
221 235 255
221 235 255
221 235 255
221 235 255
221 235 255
221 235 255
221 235 255
221 235 255
221 235 255
221 235 255
221 235 255
221 235 255
221 235 255
221 235 255
221 235 255
221 235 255
221 235 255
221 235 255
221 235 255
221 235 255
221 235 255
221 235 255
221 235 255
221 235 255
221 235 255
221 235 255
221 235 255
221 235 255
221 235 255
221 235 255
221 235 255
221 235 255
221 235 255
221 235 255
221 235 255
221 235 255
221 235 255
221 235 255
221 235 255
221 235 255
221 235 255
221 235 255
221 235 255
221 235 255
221 235 255
221 235 255
221 235 255
221 235 255
221 235 255
221 235 255
221 235 255
221 235 255
221 235 255
221 235 255
221 235 255
221 235 255
221 235 255
221 235 255
221 235 255
221 235 255
221 235 255
221 235 255
221 235 255
221 235 255
221 235 255
221 235 255
221 235 255
221 235 255
221 235 255
221 235 255
221 235 255
221 235 255
221 235 255
221 235 255
221 235 255
221 235 255
221 235 255
221 235 255
221 235 255
221 235 255
221 235 255
221 235 255
221 235 255
221 235 255
221 235 255
221 235 255
221 235 255
221 235 255
221 235 255
221 235 255
221 235 255
221 235 255
221 235 255
221 235 255
221 235 255
221 235 255
221 235 255
221 235 255
221 235 255
221 235 255
221 235 255
221 235 255
221 235 255
221 235 255
221 235 255
221 235 255
221 235 255
221 235 255
221 235 255
221 235 255
221 235 255
221 235 255
221 235 255
221 235 255
221 235 255
221 235 255
221 235 255
221 235 255
221 235 255
221 235 255
221 235 255
221 235 255
221 235 255
221 235 255
221 235 255
221 235 255
221 235 255
221 235 255
221 235 255
221 235 255
221 235 255
221 235 255
221 235 255
221 235 255
221 235 255
221 235 255
221 235 255
221 235 255
221 235 255
221 235 255
221 235 255
221 235 255
221 235 255
221 235 255
221 235 255
221 235 255
221 235 255
221 235 255
221 235 255
221 235 255
221 235 255
221 235 255
221 235 255
221 235 255
221 235 255
221 235 255
221 235 255
221 235 255
221 235 255
221 235 255
221 235 255
221 235 255
221 235 255
221 235 255
221 235 255
221 235 255
221 235 255
221 235 255
221 235 255
221 235 255
221 235 255
221 235 255
221 235 255
221 235 255
221 235 255
221 235 255
221 235 255
221 235 255
221 235 255
221 235 255
221 235 255
221 235 255
221 235 255
221 235 255
221 235 255
221 235 255
221 235 255
221 235 255
221 235 255
221 235 255
221 235 255
221 235 255
221 235 255
221 235 255
221 235 255
221 235 255
221 235 255
221 235 255
221 235 255
221 235 255
221 235 255
221 235 255
221 235 255
221 235 255
221 235 255
221 235 255
221 235 255
221 235 255
221 235 255
221 235 255
221 235 255
221 235 255
221 235 255
221 235 255
221 235 255
221 235 255
221 235 255
221 235 255
221 235 255
221 235 255
221 235 255
221 235 255
221 235 255
221 235 255
221 235 255
221 235 255
221 235 255
221 235 255
221 235 255
221 235 255
221 235 255
221 235 255
221 235 255
221 235 255
221 235 255
221 235 255
221 235 255
221 235 255
221 235 255
221 235 255
221 235 255
221 235 255
221 235 255
221 235 255
221 235 255
221 235 255
221 235 255
221 235 255
221 235 255
221 235 255
221 235 255
221 235 255
221 235 255
221 235 255
221 235 255
221 235 255
221 235 255
221 235 255
221 235 255
221 235 255
221 235 255
221 235 255
221 235 255
221 235 255
221 235 255
221 235 255
221 235 255
221 235 255
221 235 255
221 235 255
221 235 255
221 235 255
221 235 255
221 235 255
221 235 255
221 235 255
221 235 255
221 235 255
221 235 255
221 235 255
221 235 255
221 235 255
221 235 255
221 235 255
221 235 255
221 235 255
221 235 255
221 235 255
221 235 255
221 235 255
221 235 255
221 235 255
221 235 255
221 235 255
221 235 255
221 235 255
221 235 255
221 235 255
221 235 255
221 235 255
221 235 255
221 235 255
221 235 255
221 235 255
221 235 255
221 235 255
221 235 255
221 235 255
221 235 255
221 235 255
221 235 255
221 235 255
221 235 255
221 235 255
221 235 255
221 235 255
221 235 255
221 235 255
221 235 255
221 235 255
221 235 255
221 235 255
221 235 255
221 235 255
221 235 255
221 235 255
221 235 255
221 235 255
221 235 255
221 235 255
221 235 255
221 235 255
221 235 255
221 235 255
221 235 255
221 235 255
221 235 255
221 235 255
221 235 255
221 235 255
221 235 255
221 235 255
221 235 255
221 235 255
221 235 255
221 235 255
221 235 255
221 235 255
221 235 255
221 235 255
221 235 255
221 235 255
221 235 255
221 235 255
221 235 255
221 235 255
221 235 255
221 235 255
221 235 255
221 235 255
221 235 255
221 235 255
221 235 255
221 235 255
221 235 255
221 235 255
221 235 255
221 235 255
221 235 255
221 235 255
221 235 255
221 235 255
221 235 255
221 235 255
221 235 255
221 235 255
221 235 255
221 235 255
221 235 255
221 235 255
221 235 255
221 235 255
221 235 255
221 235 255
221 235 255
221 235 255
221 235 255
221 235 255
221 235 255
221 235 255
221 235 255
221 235 255
221 235 255
221 235 255
221 235 255
221 235 255
221 235 255
221 235 255
221 235 255
221 235 255
221 235 255
221 235 255
221 235 255
221 235 255
221 235 255
221 235 255
221 235 255
221 235 255
221 235 255
221 235 255
221 235 255
221 235 255
221 235 255
221 235 255
221 235 255
221 235 255
221 235 255
221 235 255
221 235 255
221 235 255
221 235 255
221 235 255
221 235 255
221 235 255
221 235 255
221 235 255
221 235 255
221 235 255
221 235 255
221 235 255
221 235 255
221 235 255
221 235 255
221 235 255
221 235 255
221 235 255
221 235 255
221 235 255
221 235 255
221 235 255
221 235 255
221 235 255
221 235 255
221 235 255
221 235 255
221 235 255
221 235 255
221 235 255
221 235 255
221 235 255
221 235 255
221 235 255
221 235 255
221 235 255
221 235 255
221 235 255
221 235 255
221 235 255
221 235 255
221 235 255
221 235 255
221 235 255
221 235 255
221 235 255
221 235 255
221 235 255
221 235 255
221 235 255
221 235 255
221 235 255
221 235 255
221 235 255
221 235 255
221 235 255
221 235 255
221 235 255
221 235 255
221 235 255
221 235 255
221 235 255
221 235 255
221 235 255
221 235 255
221 235 255
221 235 255
221 235 255
221 235 255
221 235 255
221 235 255
221 235 255
221 235 255
221 235 255
221 235 255
221 235 255
221 235 255
221 235 255
221 235 255
221 235 255
221 235 255
221 235 255
221 235 255
221 235 255
221 235 255
221 235 255
221 235 255
221 235 255
221 235 255
221 235 255
221 235 255
221 235 255
221 235 255
221 235 255
221 235 255
221 235 255
221 235 255
221 235 255
221 235 255
221 235 255
221 235 255
221 235 255
221 235 255
221 235 255
221 235 255
221 235 255
221 235 255
221 235 255
221 235 255
221 235 255
221 235 255
221 235 255
221 235 255
221 235 255
221 235 255
221 235 255
221 235 255
221 235 255
221 235 255
221 235 255
221 235 255
221 235 255
221 235 255
221 235 255
221 235 255
221 235 255
221 235 255
221 235 255
221 235 255
221 235 255
221 235 255
221 235 255
221 235 255
221 235 255
221 235 255
221 235 255
221 235 255
221 235 255
221 235 255
221 235 255
221 235 255
221 235 255
221 235 255
221 235 255
221 235 255
221 235 255
221 235 255
221 235 255
221 235 255
221 235 255
221 235 255
221 235 255
221 235 255
221 235 255
221 235 255
221 235 255
221 235 255
221 235 255
221 235 255
221 235 255
221 235 255
221 235 255
221 235 255
221 235 255
221 235 255
221 235 255
221 235 255
221 235 255
221 235 255
221 235 255
221 235 255
221 235 255
221 235 255
221 235 255
221 235 255
221 235 255
221 235 255
221 235 255
221 235 255
221 235 255
221 235 255
221 235 255
221 235 255
221 235 255
221 235 255
221 235 255
221 235 255
221 235 255
221 235 255
221 235 255
221 235 255
221 235 255
221 235 255
221 235 255
221 235 255
221 235 255
221 235 255
221 235 255
221 235 255
221 235 255
221 235 255
221 235 255
221 235 255
221 235 255
221 235 255
221 235 255
221 235 255
221 235 255
221 235 255
221 235 255
221 235 255
221 235 255
221 235 255
221 235 255
221 235 255
221 235 255
221 235 255
221 235 255
221 235 255
221 235 255
221 235 255
221 235 255
221 235 255
221 235 255
221 235 255
221 235 255
221 235 255
221 235 255
221 235 255
221 235 255
221 235 255
221 235 255
221 235 255
221 235 255
221 235 255
221 235 255
221 235 255
221 235 255
221 235 255
221 235 255
221 235 255
221 235 255
221 235 255
221 235 255
221 235 255
221 235 255
221 235 255
221 235 255
221 235 255
221 235 255
221 235 255
221 235 255
221 235 255
221 235 255
221 235 255
221 235 255
221 235 255
221 235 255
221 235 255
221 235 255
221 235 255
221 235 255
221 235 255
221 235 255
221 235 255
221 235 255
221 235 255
221 235 255
221 235 255
221 235 255
221 235 255
221 235 255
221 235 255
221 235 255
221 235 255
221 235 255
221 235 255
221 235 255
221 235 255
221 235 255
221 235 255
221 235 255
221 235 255
221 235 255
221 235 255
221 235 255
221 235 255
221 235 255
221 235 255
221 235 255
221 235 255
221 235 255
221 235 255
221 235 255
221 235 255
221 235 255
221 235 255
221 235 255
221 235 255
221 235 255
221 235 255
221 235 255
221 235 255
221 235 255
221 235 255
221 235 255
221 235 255
221 235 255
221 235 255
221 235 255
221 235 255
221 235 255
221 235 255
221 235 255
221 235 255
221 235 255
221 235 255
221 235 255
221 235 255
221 235 255
221 235 255
221 235 255
221 235 255
221 235 255
221 235 255
221 235 255
221 235 255
221 235 255
221 235 255
221 235 255
221 235 255
221 235 255
221 235 255
221 235 255
221 235 255
221 235 255
221 235 255
221 235 255
221 235 255
221 235 255
221 235 255
221 235 255
221 235 255
221 235 255
221 235 255
221 235 255
221 235 255
221 235 255
221 235 255
221 235 255
221 235 255
221 235 255
221 235 255
221 235 255
221 235 255
221 235 255
221 235 255
221 235 255
221 235 255
221 235 255
221 235 255
221 235 255
221 235 255
221 235 255
221 235 255
221 235 255
221 235 255
221 235 255
221 235 255
221 235 255
221 235 255
221 235 255
221 235 255
221 235 255
221 235 255
221 235 255
221 235 255
221 235 255
221 235 255
221 235 255
221 235 255
221 235 255
221 235 255
221 235 255
221 235 255
221 235 255
221 235 255
221 235 255
221 235 255
221 235 255
221 235 255
221 235 255
221 235 255
221 235 255
221 235 255
221 235 255
221 235 255
221 235 255
221 235 255
221 235 255
221 235 255
221 235 255
221 235 255
221 235 255
221 235 255
221 235 255
221 235 255
221 235 255
221 235 255
221 235 255
221 235 255
221 235 255
221 235 255
221 235 255
221 235 255
221 235 255
221 235 255
220 235 255
220 235 255
220 235 255
220 235 255
221 235 255
220 235 255
220 235 255
220 235 255
220 235 255
220 235 255
220 235 255
220 235 255
220 235 255
220 235 255
220 235 255
220 235 255
220 235 255
220 235 255
220 235 255
220 235 255
220 235 255
220 235 255
220 235 255
220 235 255
220 235 255
220 235 255
220 235 255
220 235 255
220 235 255
220 235 255
220 235 255
220 235 255
220 235 255
220 235 255
220 235 255
220 235 255
220 235 255
220 235 255
220 235 255
220 235 255
220 235 255
220 235 255
220 235 255
220 235 255
220 235 255
220 235 255
220 235 255
220 235 255
220 235 255
220 235 255
220 235 255
220 235 255
220 235 255
220 235 255
220 235 255
220 235 255
220 235 255
220 235 255
220 235 255
220 235 255
220 235 255
220 235 255
220 235 255
220 235 255
220 235 255
220 235 255
220 235 255
220 235 255
220 235 255
220 235 255
220 235 255
220 235 255
220 235 255
220 235 255
220 235 255
220 235 255
220 235 255
220 235 255
220 235 255
220 235 255
220 235 255
220 235 255
220 235 255
220 235 255
220 235 255
220 235 255
220 235 255
220 235 255
220 235 255
220 235 255
220 235 255
220 235 255
220 235 255
220 235 255
220 235 255
220 235 255
220 235 255
220 235 255
220 235 255
221 235 255
220 235 255
221 235 255
221 235 255
220 235 255
221 235 255
221 235 255
221 235 255
221 235 255
221 235 255
221 235 255
221 235 255
221 235 255
221 235 255
221 235 255
221 235 255
221 235 255
221 235 255
221 235 255
221 235 255
221 235 255
221 235 255
221 235 255
221 235 255
221 235 255
221 235 255
221 235 255
221 235 255
221 235 255
221 235 255
221 235 255
221 235 255
221 235 255
221 235 255
221 235 255
221 235 255
221 235 255
221 235 255
221 235 255
221 235 255
221 235 255
221 235 255
221 235 255
221 235 255
221 235 255
221 235 255
221 235 255
221 235 255
221 235 255
221 235 255
221 235 255
221 235 255
221 235 255
221 235 255
221 235 255
221 235 255
221 235 255
221 235 255
221 235 255
221 235 255
221 235 255
221 235 255
221 235 255
221 235 255
221 235 255
221 235 255
221 235 255
221 235 255
221 235 255
221 235 255
221 235 255
221 235 255
221 235 255
221 235 255
221 235 255
221 235 255
221 235 255
221 235 255
221 235 255
221 235 255
221 235 255
221 235 255
221 235 255
221 235 255
221 235 255
221 235 255
221 235 255
221 235 255
221 235 255
221 235 255
221 235 255
221 235 255
221 235 255
221 235 255
221 235 255
221 235 255
221 235 255
221 235 255
221 235 255
221 235 255
221 235 255
221 235 255
221 235 255
221 235 255
221 235 255
221 235 255
221 235 255
221 235 255
221 235 255
221 235 255
221 235 255
221 235 255
221 235 255
221 235 255
221 235 255
221 235 255
221 235 255
221 235 255
221 235 255
221 235 255
221 235 255
221 235 255
221 235 255
221 235 255
221 235 255
221 235 255
221 235 255
221 235 255
221 235 255
221 235 255
221 235 255
221 235 255
221 235 255
221 235 255
221 235 255
221 235 255
221 235 255
221 235 255
221 235 255
221 235 255
221 235 255
221 235 255
221 235 255
221 235 255
221 235 255
221 235 255
221 235 255
221 235 255
221 235 255
221 235 255
221 235 255
221 235 255
221 235 255
221 235 255
221 235 255
221 235 255
221 235 255
221 235 255
221 235 255
221 235 255
221 235 255
221 235 255
221 235 255
221 235 255
221 235 255
221 235 255
221 235 255
221 235 255
221 235 255
221 235 255
221 235 255
221 235 255
221 235 255
221 235 255
221 235 255
221 235 255
221 235 255
221 235 255
221 235 255
221 235 255
221 235 255
221 235 255
221 235 255
221 235 255
221 235 255
221 235 255
221 235 255
221 235 255
221 235 255
221 235 255
221 235 255
221 235 255
221 235 255
221 235 255
221 235 255
221 235 255
221 235 255
221 235 255
221 235 255
221 235 255
221 235 255
221 235 255
221 235 255
221 235 255
221 235 255
221 235 255
221 235 255
221 235 255
221 235 255
221 235 255
221 235 255
221 235 255
221 235 255
221 235 255
221 235 255
221 235 255
221 235 255
221 235 255
221 235 255
221 235 255
221 235 255
221 235 255
221 235 255
221 235 255
220 235 255
221 235 255
220 235 255
220 235 255
220 235 255
220 235 255
220 235 255
220 235 255
220 235 255
220 235 255
220 235 255
220 235 255
220 235 255
220 235 255
220 235 255
220 235 255
220 235 255
220 235 255
220 235 255
220 235 255
220 235 255
220 235 255
220 235 255
220 235 255
220 235 255
220 235 255
220 235 255
220 235 255
220 235 255
220 235 255
220 235 255
220 235 255
220 235 255
220 235 255
220 235 255
220 235 255
220 235 255
220 235 255
220 235 255
220 235 255
220 235 255
220 235 255
220 235 255
220 235 255
220 235 255
220 235 255
220 235 255
220 235 255
220 235 255
220 235 255
220 235 255
220 235 255
220 235 255
220 235 255
220 235 255
220 235 255
220 235 255
220 235 255
220 235 255
220 235 255
220 235 255
220 235 255
220 235 255
220 235 255
220 235 255
220 235 255
220 235 255
220 235 255
220 235 255
220 235 255
220 235 255
220 235 255
220 235 255
220 235 255
220 235 255
220 235 255
220 235 255
220 235 255
220 235 255
220 235 255
220 235 255
220 235 255
220 235 255
220 235 255
220 235 255
220 235 255
220 235 255
220 235 255
220 235 255
220 235 255
220 235 255
220 235 255
220 235 255
220 235 255
220 235 255
220 235 255
220 235 255
220 235 255
220 235 255
220 235 255
220 235 255
220 235 255
220 235 255
220 235 255
220 235 255
220 235 255
220 235 255
220 235 255
220 235 255
220 235 255
220 235 255
220 235 255
220 235 255
220 235 255
220 235 255
220 235 255
220 235 255
220 235 255
220 235 255
220 235 255
220 235 255
220 235 255
220 235 255
220 235 255
220 235 255
220 235 255
220 235 255
220 235 255
220 235 255
220 235 255
220 235 255
220 235 255
220 235 255
220 235 255
220 235 255
220 235 255
220 235 255
220 235 255
220 235 255
220 235 255
220 235 255
220 235 255
220 235 255
220 235 255
220 235 255
220 235 255
220 235 255
220 235 255
220 235 255
220 235 255
220 235 255
220 235 255
220 235 255
220 235 255
220 235 255
220 235 255
220 235 255
220 235 255
220 235 255
220 235 255
220 235 255
220 235 255
220 235 255
220 235 255
220 235 255
220 235 255
220 235 255
220 235 255
220 235 255
220 235 255
220 235 255
220 235 255
220 235 255
220 235 255
220 235 255
220 235 255
220 235 255
220 235 255
220 235 255
220 235 255
220 235 255
220 235 255
220 235 255
220 235 255
220 235 255
220 235 255
220 235 255
220 235 255
220 235 255
220 235 255
220 235 255
220 235 255
220 235 255
220 235 255
220 235 255
220 235 255
220 235 255
220 235 255
220 235 255
220 235 255
220 235 255
220 235 255
220 235 255
220 235 255
220 235 255
220 235 255
220 235 255
220 235 255
220 235 255
220 235 255
220 235 255
220 235 255
220 235 255
220 235 255
220 235 255
220 235 255
220 235 255
220 235 255
220 235 255
220 235 255
220 235 255
220 235 255
220 235 255
220 235 255
220 235 255
220 235 255
220 235 255
220 235 255
220 235 255
220 235 255
220 235 255
220 235 255
220 235 255
220 235 255
220 235 255
220 235 255
220 235 255
220 235 255
220 235 255
220 235 255
220 235 255
220 235 255
220 235 255
220 235 255
220 235 255
220 235 255
220 235 255
220 235 255
220 235 255
220 235 255
220 235 255
220 235 255
220 235 255
220 235 255
220 235 255
220 235 255
220 235 255
220 235 255
220 235 255
220 235 255
221 235 255
221 235 255
221 235 255
221 235 255
221 235 255
221 235 255
221 235 255
221 235 255
221 235 255
221 235 255
221 235 255
221 235 255
221 235 255
221 235 255
221 235 255
221 235 255
221 235 255
221 235 255
221 235 255
221 235 255
221 235 255
221 235 255
221 235 255
221 235 255
221 235 255
221 235 255
221 235 255
221 235 255
221 235 255
221 235 255
221 235 255
221 235 255
221 235 255
221 235 255
221 235 255
221 235 255
221 235 255
221 235 255
221 235 255
221 235 255
221 235 255
221 235 255
221 235 255
221 235 255
221 235 255
221 235 255
221 235 255
221 235 255
221 235 255
221 235 255
221 235 255
221 235 255
221 235 255
221 235 255
221 235 255
221 235 255
221 235 255
221 235 255
221 235 255
221 235 255
221 235 255
221 235 255
221 235 255
221 235 255
221 235 255
221 235 255
221 235 255
221 235 255
221 235 255
221 235 255
221 235 255
221 235 255
221 235 255
221 235 255
221 235 255
221 235 255
221 235 255
221 235 255
221 235 255
221 235 255
221 235 255
220 235 255
221 235 255
220 235 255
220 235 255
220 235 255
220 235 255
220 235 255
220 235 255
220 235 255
220 235 255
220 235 255
220 235 255
220 235 255
220 235 255
220 235 255
220 235 255
220 235 255
220 235 255
220 235 255
220 235 255
220 235 255
220 235 255
220 235 255
220 235 255
220 235 255
220 235 255
220 235 255
220 235 255
220 235 255
220 235 255
220 235 255
220 235 255
220 235 255
220 235 255
220 235 255
220 235 255
220 235 255
220 235 255
220 235 255
220 235 255
220 235 255
220 235 255
220 235 255
220 235 255
220 235 255
220 235 255
220 235 255
220 235 255
220 235 255
220 235 255
220 235 255
220 235 255
220 235 255
220 235 255
220 235 255
220 235 255
220 235 255
220 235 255
220 235 255
220 235 255
220 235 255
220 235 255
220 235 255
220 235 255
220 235 255
220 235 255
220 235 255
220 235 255
220 235 255
220 235 255
220 235 255
220 235 255
220 235 255
220 235 255
220 235 255
220 235 255
220 235 255
220 235 255
220 235 255
220 235 255
220 235 255
220 235 255
220 235 255
220 235 255
220 235 255
220 235 255
220 235 255
220 235 255
220 235 255
220 235 255
220 235 255
220 235 255
220 235 255
220 235 255
220 235 255
220 235 255
220 235 255
220 235 255
220 235 255
220 235 255
220 235 255
220 235 255
220 235 255
220 235 255
220 235 255
220 235 255
220 235 255
220 235 255
220 235 255
220 235 255
220 235 255
220 235 255
220 235 255
220 235 255
220 235 255
220 235 255
220 235 255
220 235 255
220 235 255
220 235 255
220 235 255
220 235 255
220 235 255
220 235 255
220 235 255
220 235 255
220 235 255
220 235 255
220 235 255
220 235 255
220 235 255
220 235 255
220 235 255
220 235 255
220 235 255
220 235 255
220 235 255
220 235 255
220 235 255
220 235 255
220 235 255
220 235 255
220 235 255
220 235 255
220 235 255
220 235 255
220 235 255
220 235 255
220 235 255
220 235 255
220 235 255
220 235 255
220 235 255
220 235 255
220 235 255
220 235 255
220 235 255
220 235 255
220 235 255
220 235 255
220 235 255
220 235 255
220 235 255
220 235 255
220 235 255
220 235 255
220 235 255
220 235 255
220 235 255
220 235 255
220 235 255
220 235 255
220 235 255
220 235 255
220 235 255
220 235 255
220 235 255
220 235 255
220 235 255
220 235 255
220 235 255
220 235 255
220 235 255
220 235 255
220 235 255
220 235 255
220 235 255
220 235 255
220 235 255
220 235 255
220 235 255
220 235 255
220 235 255
220 235 255
220 235 255
220 235 255
220 235 255
220 235 255
220 235 255
220 235 255
220 235 255
220 235 255
220 235 255
220 235 255
220 235 255
220 235 255
220 235 255
220 235 255
220 235 255
220 235 255
220 235 255
220 235 255
220 235 255
220 235 255
220 235 255
220 235 255
220 235 255
220 235 255
220 235 255
220 235 255
220 235 255
220 235 255
220 235 255
220 235 255
220 235 255
220 235 255
220 235 255
220 235 255
220 235 255
220 235 255
220 235 255
220 235 255
220 235 255
220 235 255
220 235 255
220 235 255
220 235 255
220 235 255
220 235 255
220 235 255
220 235 255
220 235 255
220 235 255
220 235 255
220 235 255
220 235 255
220 235 255
220 235 255
220 235 255
220 235 255
220 235 255
220 235 255
220 235 255
220 235 255
220 235 255
220 235 255
220 235 255
220 235 255
220 235 255
220 235 255
220 235 255
220 235 255
220 235 255
220 235 255
220 235 255
220 235 255
220 235 255
220 235 255
220 235 255
220 235 255
220 235 255
220 235 255
220 235 255
220 235 255
220 235 255
220 235 255
220 235 255
220 235 255
220 235 255
220 235 255
220 235 255
220 235 255
220 235 255
220 235 255
220 235 255
220 235 255
220 235 255
220 235 255
220 235 255
220 235 255
220 235 255
220 235 255
220 235 255
220 235 255
220 235 255
220 235 255
220 235 255
220 235 255
220 235 255
220 235 255
220 235 255
220 235 255
220 235 255
220 235 255
220 235 255
220 235 255
220 235 255
220 235 255
220 235 255
220 235 255
220 235 255
220 235 255
220 235 255
220 235 255
220 235 255
220 235 255
220 235 255
220 235 255
220 235 255
220 235 255
220 235 255
220 235 255
220 235 255
220 235 255
220 235 255
220 235 255
220 235 255
220 235 255
220 235 255
220 235 255
220 235 255
220 235 255
220 235 255
220 235 255
220 235 255
220 235 255
220 235 255
220 235 255
220 235 255
220 235 255
220 235 255
220 235 255
220 235 255
220 235 255
220 235 255
220 235 255
220 235 255
220 235 255
220 235 255
220 235 255
220 235 255
220 235 255
220 235 255
220 235 255
220 235 255
220 235 255
220 235 255
220 235 255
220 235 255
220 235 255
220 235 255
220 235 255
220 235 255
220 235 255
220 235 255
220 235 255
220 235 255
220 235 255
220 235 255
220 235 255
220 235 255
220 235 255
220 235 255
221 235 255
220 235 255
220 235 255
221 235 255
221 235 255
221 235 255
221 235 255
221 235 255
221 235 255
221 235 255
221 235 255
221 235 255
221 235 255
221 235 255
221 235 255
220 235 255
220 235 255
220 235 255
220 235 255
220 235 255
220 235 255
220 235 255
220 235 255
220 235 255
220 235 255
220 235 255
220 235 255
220 235 255
220 235 255
220 235 255
220 235 255
220 235 255
220 235 255
220 235 255
220 235 255
220 235 255
220 235 255
220 235 255
220 235 255
220 235 255
220 235 255
220 235 255
220 235 255
220 235 255
220 235 255
220 235 255
220 235 255
220 235 255
220 235 255
220 235 255
220 235 255
220 235 255
220 235 255
220 235 255
220 235 255
220 235 255
220 235 255
220 235 255
220 235 255
220 235 255
220 235 255
220 235 255
220 235 255
220 235 255
220 235 255
220 235 255
220 235 255
220 235 255
220 235 255
220 235 255
220 235 255
220 235 255
220 235 255
220 235 255
220 235 255
220 235 255
220 235 255
220 235 255
220 235 255
220 235 255
220 235 255
220 235 255
220 235 255
220 235 255
220 235 255
220 235 255
220 235 255
220 235 255
220 235 255
220 235 255
220 235 255
220 235 255
220 235 255
220 235 255
220 235 255
220 235 255
220 235 255
220 235 255
220 235 255
220 235 255
220 235 255
220 235 255
220 235 255
220 235 255
220 235 255
220 235 255
220 235 255
220 235 255
220 235 255
220 235 255
220 235 255
220 235 255
220 235 255
220 235 255
220 235 255
220 235 255
220 235 255
220 235 255
220 235 255
220 235 255
220 235 255
220 235 255
220 235 255
220 235 255
220 235 255
220 235 255
220 235 255
220 235 255
220 235 255
220 235 255
220 235 255
220 235 255
220 235 255
220 235 255
220 235 255
220 235 255
220 235 255
220 235 255
220 235 255
220 235 255
220 235 255
220 235 255
220 235 255
220 235 255
220 235 255
220 235 255
220 235 255
220 235 255
220 235 255
220 235 255
220 235 255
220 235 255
220 235 255
220 235 255
220 235 255
220 235 255
220 235 255
220 235 255
220 235 255
220 235 255
220 235 255
220 235 255
220 235 255
220 235 255
220 235 255
220 235 255
220 235 255
220 235 255
220 235 255
220 235 255
220 235 255
220 235 255
220 235 255
220 235 255
220 235 255
220 235 255
220 235 255
220 235 255
220 235 255
220 235 255
220 235 255
220 235 255
220 235 255
220 235 255
220 235 255
220 235 255
220 235 255
220 235 255
220 235 255
220 235 255
220 235 255
220 235 255
220 235 255
220 235 255
220 235 255
220 235 255
220 235 255
220 235 255
220 235 255
220 235 255
220 235 255
220 235 255
220 235 255
220 235 255
220 235 255
220 235 255
220 235 255
220 235 255
220 235 255
220 235 255
220 235 255
220 235 255
220 235 255
220 235 255
220 235 255
220 235 255
220 235 255
220 235 255
220 235 255
220 235 255
220 235 255
220 235 255
220 235 255
220 235 255
220 235 255
220 235 255
220 235 255
220 235 255
220 235 255
220 235 255
220 235 255
220 235 255
220 235 255
220 235 255
220 235 255
220 235 255
220 235 255
220 235 255
220 235 255
220 235 255
220 235 255
220 235 255
220 235 255
220 235 255
220 235 255
220 235 255
220 235 255
220 235 255
220 235 255
220 235 255
220 235 255
220 235 255
220 235 255
220 235 255
220 235 255
220 235 255
220 235 255
220 235 255
220 235 255
220 235 255
220 235 255
220 235 255
220 235 255
220 235 255
220 235 255
220 235 255
220 235 255
220 235 255
220 235 255
220 235 255
220 235 255
220 235 255
220 235 255
220 235 255
220 235 255
220 235 255
220 235 255
220 235 255
220 235 255
220 235 255
220 235 255
220 235 255
220 235 255
220 235 255
220 235 255
220 235 255
220 235 255
220 235 255
220 235 255
220 235 255
220 235 255
220 235 255
220 235 255
220 235 255
220 235 255
220 235 255
220 235 255
220 235 255
220 235 255
220 235 255
220 235 255
220 235 255
220 235 255
220 235 255
220 235 255
220 235 255
220 235 255
220 235 255
220 235 255
220 235 255
220 235 255
220 235 255
220 235 255
220 235 255
220 235 255
220 235 255
220 235 255
220 235 255
220 235 255
220 235 255
220 235 255
220 235 255
220 235 255
220 235 255
220 235 255
220 235 255
220 235 255
220 235 255
220 235 255
220 235 255
220 235 255
220 235 255
220 235 255
220 235 255
220 235 255
220 235 255
220 235 255
220 235 255
220 235 255
220 235 255
220 235 255
220 235 255
220 235 255
220 235 255
220 235 255
220 235 255
220 235 255
220 235 255
220 235 255
220 235 255
220 235 255
220 235 255
220 235 255
220 235 255
220 235 255
220 235 255
220 235 255
220 235 255
220 235 255
220 235 255
220 235 255
220 235 255
220 235 255
220 235 255
220 235 255
220 235 255
220 235 255
220 235 255
220 235 255
220 235 255
220 235 255
220 235 255
220 235 255
220 235 255
220 235 255
220 235 255
220 235 255
220 235 255
220 235 255
220 235 255
220 235 255
220 235 255
220 235 255
220 235 255
220 235 255
220 235 255
220 235 255
220 235 255
220 235 255
220 235 255
220 235 255
220 235 255
220 235 255
220 235 255
220 235 255
220 235 255
220 235 255
220 235 255
220 235 255
220 235 255
220 235 255
220 235 255
220 235 255
220 235 255
220 235 255
220 235 255
220 235 255
220 235 255
220 235 255
220 235 255
220 235 255
220 235 255
220 235 255
220 235 255
220 235 255
220 235 255
220 235 255
220 235 255
220 235 255
220 235 255
220 235 255
220 235 255
220 235 255
220 235 255
220 235 255
220 235 255
220 235 255
220 235 255
220 235 255
220 235 255
220 235 255
220 235 255
220 235 255
220 235 255
220 235 255
220 235 255
220 235 255
220 235 255
220 235 255
220 235 255
220 235 255
220 235 255
220 235 255
220 235 255
220 235 255
220 235 255
220 235 255
220 235 255
220 235 255
220 235 255
220 235 255
220 235 255
220 235 255
220 235 255
220 235 255
220 235 255
220 235 255
220 235 255
220 235 255
220 235 255
220 235 255
220 235 255
220 235 255
220 235 255
220 235 255
220 235 255
220 235 255
220 235 255
220 235 255
220 235 255
220 235 255
220 235 255
220 235 255
220 235 255
220 235 255
220 235 255
220 235 255
220 235 255
220 235 255
220 235 255
220 235 255
220 235 255
220 235 255
220 235 255
220 235 255
220 235 255
220 235 255
220 235 255
220 235 255
220 235 255
220 235 255
220 235 255
220 235 255
220 235 255
220 235 255
220 235 255
220 235 255
220 235 255
220 235 255
220 235 255
220 235 255
220 235 255
220 235 255
220 235 255
220 235 255
220 235 255
220 235 255
220 235 255
220 235 255
220 235 255
220 235 255
220 235 255
220 235 255
220 235 255
220 235 255
220 235 255
220 235 255
220 235 255
220 235 255
220 235 255
220 235 255
220 235 255
220 235 255
220 235 255
220 235 255
220 235 255
220 235 255
220 235 255
220 235 255
220 235 255
220 235 255
220 235 255
220 235 255
220 235 255
220 235 255
220 235 255
220 235 255
220 235 255
220 235 255
220 235 255
220 235 255
220 235 255
220 235 255
220 235 255
220 235 255
220 235 255
220 235 255
220 235 255
220 235 255
220 235 255
220 235 255
220 235 255
220 235 255
220 235 255
220 235 255
220 235 255
220 235 255
220 235 255
220 235 255
220 235 255
220 235 255
220 235 255
220 235 255
220 235 255
220 235 255
220 235 255
220 235 255
220 235 255
220 235 255
220 235 255
220 235 255
220 235 255
220 235 255
220 235 255
220 235 255
220 235 255
220 235 255
220 235 255
220 235 255
220 235 255
220 235 255
220 235 255
220 235 255
220 235 255
220 235 255
220 235 255
220 235 255
220 235 255
220 235 255
220 235 255
220 235 255
220 235 255
220 235 255
220 235 255
220 235 255
220 235 255
220 235 255
220 235 255
220 235 255
220 235 255
220 235 255
220 235 255
220 235 255
220 235 255
220 235 255
220 235 255
220 235 255
220 235 255
220 235 255
220 235 255
220 235 255
220 235 255
220 235 255
220 235 255
220 235 255
220 235 255
220 235 255
220 235 255
220 235 255
220 235 255
220 235 255
220 235 255
220 235 255
220 235 255
220 235 255
220 235 255
220 235 255
220 235 255
220 235 255
220 235 255
220 235 255
220 235 255
220 235 255
220 235 255
220 235 255
220 235 255
220 235 255
220 235 255
220 235 255
220 235 255
220 235 255
220 235 255
220 235 255
220 235 255
220 235 255
220 235 255
220 235 255
220 235 255
220 235 255
220 235 255
220 235 255
220 235 255
220 235 255
220 235 255
220 235 255
220 235 255
220 235 255
220 235 255
220 235 255
220 235 255
220 235 255
220 235 255
220 235 255
220 235 255
220 235 255
220 235 255
220 235 255
220 235 255
220 235 255
220 235 255
220 235 255
220 235 255
220 235 255
220 235 255
220 235 255
220 235 255
220 235 255
220 235 255
220 235 255
220 235 255
220 235 255
220 235 255
220 235 255
220 235 255
220 235 255
220 235 255
220 235 255
220 235 255
220 235 255
220 235 255
220 235 255
220 235 255
220 235 255
220 235 255
220 235 255
220 235 255
220 235 255
220 235 255
220 235 255
220 235 255
220 235 255
220 235 255
220 235 255
220 235 255
220 235 255
220 235 255
220 235 255
220 235 255
220 235 255
220 235 255
220 235 255
220 235 255
220 235 255
220 235 255
220 235 255
220 235 255
220 235 255
220 235 255
220 235 255
220 235 255
220 235 255
220 235 255
220 235 255
220 235 255
220 235 255
220 235 255
220 235 255
220 235 255
220 235 255
220 235 255
220 235 255
220 235 255
220 235 255
220 235 255
220 235 255
220 235 255
220 235 255
220 235 255
220 235 255
220 235 255
220 235 255
220 235 255
220 235 255
220 235 255
220 235 255
220 235 255
220 235 255
220 235 255
220 235 255
220 235 255
220 235 255
220 235 255
220 235 255
220 235 255
220 235 255
220 235 255
220 235 255
220 235 255
220 235 255
220 235 255
220 235 255
220 235 255
220 235 255
220 235 255
220 235 255
220 235 255
220 235 255
220 235 255
220 235 255
220 235 255
220 235 255
220 235 255
220 235 255
220 235 255
220 235 255
220 235 255
220 235 255
220 235 255
220 235 255
220 235 255
220 235 255
220 235 255
220 235 255
220 235 255
220 235 255
220 235 255
220 235 255
220 235 255
220 235 255
220 235 255
220 235 255
220 235 255
220 235 255
220 235 255
220 235 255
220 235 255
220 235 255
220 235 255
220 235 255
220 235 255
220 235 255
220 235 255
220 235 255
220 235 255
220 235 255
220 235 255
220 235 255
220 235 255
220 235 255
220 235 255
220 235 255
220 235 255
220 235 255
220 235 255
220 235 255
220 235 255
220 235 255
220 235 255
220 235 255
220 235 255
220 235 255
220 235 255
220 235 255
220 235 255
220 235 255
220 235 255
220 235 255
220 235 255
220 235 255
220 235 255
220 235 255
220 235 255
220 235 255
220 235 255
220 235 255
220 235 255
220 235 255
220 235 255
220 235 255
220 235 255
220 235 255
220 235 255
220 235 255
220 235 255
220 235 255
220 235 255
220 235 255
220 235 255
220 235 255
220 235 255
220 235 255
220 235 255
220 235 255
220 235 255
220 235 255
220 235 255
220 235 255
220 235 255
220 235 255
220 235 255
220 235 255
220 235 255
220 235 255
220 235 255
220 235 255
220 235 255
220 235 255
220 235 255
220 235 255
220 235 255
220 235 255
220 235 255
220 235 255
220 235 255
220 235 255
220 235 255
220 235 255
220 235 255
220 235 255
220 235 255
220 235 255
220 235 255
220 235 255
220 235 255
220 235 255
220 235 255
220 235 255
220 235 255
220 235 255
220 235 255
220 235 255
220 235 255
220 235 255
220 235 255
220 235 255
220 235 255
220 235 255
220 235 255
220 235 255
220 235 255
220 235 255
220 235 255
220 235 255
220 235 255
220 235 255
220 235 255
220 235 255
220 235 255
220 235 255
220 235 255
220 235 255
220 235 255
220 235 255
220 235 255
220 235 255
220 235 255
220 235 255
220 235 255
220 235 255
220 235 255
220 235 255
220 235 255
220 235 255
220 235 255
220 235 255
220 235 255
220 235 255
220 235 255
220 235 255
220 235 255
220 235 255
220 235 255
220 235 255
220 235 255
220 235 255
220 235 255
220 235 255
220 235 255
220 235 255
220 235 255
220 235 255
220 235 255
220 235 255
220 235 255
220 235 255
220 235 255
220 235 255
220 235 255
220 235 255
220 235 255
220 235 255
220 235 255
220 235 255
220 235 255
220 235 255
220 235 255
220 235 255
220 235 255
220 235 255
220 235 255
220 235 255
220 235 255
220 235 255
220 235 255
220 235 255
219 235 255
220 235 255
219 235 255
220 235 255
219 235 255
219 235 255
219 235 255
219 235 255
219 235 255
219 235 255
219 235 255
219 235 255
219 235 255
219 235 255
219 235 255
219 235 255
219 235 255
219 235 255
219 235 255
219 235 255
219 235 255
219 235 255
219 235 255
219 235 255
219 235 255
219 235 255
219 235 255
219 235 255
219 235 255
219 235 255
219 235 255
219 235 255
219 235 255
219 235 255
219 235 255
219 235 255
219 235 255
219 235 255
219 235 255
219 235 255
219 235 255
219 235 255
219 235 255
219 235 255
219 235 255
219 235 255
219 235 255
219 235 255
219 235 255
219 235 255
219 235 255
219 235 255
219 235 255
219 235 255
219 235 255
219 235 255
219 235 255
219 235 255
219 235 255
219 235 255
219 235 255
219 235 255
219 235 255
219 235 255
219 235 255
219 235 255
219 235 255
219 235 255
219 235 255
219 235 255
219 235 255
219 235 255
219 235 255
219 235 255
219 235 255
219 235 255
219 235 255
219 235 255
219 235 255
219 235 255
219 235 255
219 235 255
219 235 255
219 235 255
219 235 255
219 235 255
219 235 255
219 235 255
219 235 255
219 235 255
219 235 255
219 235 255
219 235 255
219 235 255
219 235 255
219 235 255
220 235 255
220 235 255
220 235 255
220 235 255
220 235 255
220 235 255
220 235 255
220 235 255
220 235 255
220 235 255
220 235 255
220 235 255
220 235 255
220 235 255
220 235 255
220 235 255
220 235 255
220 235 255
220 235 255
220 235 255
220 235 255
220 235 255
220 235 255
220 235 255
220 235 255
220 235 255
220 235 255
220 235 255
220 235 255
220 235 255
220 235 255
220 235 255
220 235 255
220 235 255
220 235 255
220 235 255
220 235 255
220 235 255
220 235 255
220 235 255
220 235 255
220 235 255
220 235 255
220 235 255
220 235 255
220 235 255
220 235 255
220 235 255
220 235 255
220 235 255
220 235 255
220 235 255
220 235 255
220 235 255
220 235 255
220 235 255
220 235 255
220 235 255
220 235 255
220 235 255
220 235 255
220 235 255
220 235 255
220 235 255
220 235 255
220 235 255
220 235 255
220 235 255
220 235 255
220 235 255
220 235 255
220 235 255
220 235 255
220 235 255
220 235 255
220 235 255
220 235 255
220 235 255
220 235 255
220 235 255
220 235 255
220 235 255
220 235 255
220 235 255
220 235 255
220 235 255
220 235 255
220 235 255
220 235 255
220 235 255
220 235 255
220 235 255
220 235 255
220 235 255
220 235 255
220 235 255
220 235 255
220 235 255
220 235 255
220 235 255
220 235 255
220 235 255
220 235 255
220 235 255
220 235 255
220 235 255
220 235 255
220 235 255
220 235 255
220 235 255
220 235 255
220 235 255
220 235 255
220 235 255
220 235 255
220 235 255
220 235 255
220 235 255
220 235 255
220 235 255
220 235 255
220 235 255
220 235 255
220 235 255
220 235 255
220 235 255
220 235 255
220 235 255
220 235 255
220 235 255
220 235 255
220 235 255
220 235 255
220 235 255
220 235 255
220 235 255
220 235 255
220 235 255
220 235 255
220 235 255
220 235 255
220 235 255
220 235 255
220 235 255
220 235 255
220 235 255
220 235 255
220 235 255
220 235 255
220 235 255
220 235 255
220 235 255
220 235 255
220 235 255
220 235 255
220 235 255
220 235 255
220 235 255
220 235 255
220 235 255
220 235 255
220 235 255
220 235 255
220 235 255
220 235 255
220 235 255
220 235 255
220 235 255
220 235 255
220 235 255
220 235 255
220 235 255
220 235 255
220 235 255
220 235 255
220 235 255
220 235 255
220 235 255
220 235 255
220 235 255
220 235 255
220 235 255
220 235 255
220 235 255
220 235 255
220 235 255
220 235 255
220 235 255
220 235 255
220 235 255
220 235 255
220 235 255
220 235 255
220 235 255
220 235 255
220 235 255
220 235 255
220 235 255
220 235 255
220 235 255
220 235 255
220 235 255
220 235 255
220 235 255
220 235 255
220 235 255
220 235 255
220 235 255
220 235 255
220 235 255
220 235 255
220 235 255
220 235 255
220 235 255
220 235 255
220 235 255
220 235 255
220 235 255
220 235 255
220 235 255
220 235 255
220 235 255
220 235 255
220 235 255
220 235 255
220 235 255
220 235 255
220 235 255
220 235 255
220 235 255
220 235 255
220 235 255
220 235 255
220 235 255
220 235 255
220 235 255
220 235 255
220 235 255
220 235 255
220 235 255
220 235 255
220 235 255
220 235 255
220 235 255
220 235 255
220 235 255
220 235 255
220 235 255
220 235 255
220 235 255
220 235 255
220 235 255
220 235 255
220 235 255
220 235 255
220 235 255
220 235 255
220 235 255
220 235 255
220 235 255
220 235 255
220 235 255
220 235 255
220 235 255
220 235 255
219 235 255
219 235 255
219 235 255
219 235 255
219 235 255
219 235 255
219 235 255
219 235 255
219 235 255
219 235 255
219 235 255
219 235 255
219 235 255
219 235 255
219 235 255
219 235 255
219 235 255
219 235 255
219 235 255
219 235 255
219 235 255
219 235 255
219 235 255
219 235 255
219 234 255
219 234 255
219 234 255
219 234 255
219 234 255
219 234 255
219 234 255
219 234 255
219 234 255
219 234 255
219 234 255
219 234 255
219 234 255
219 234 255
219 234 255
219 234 255
219 234 255
219 234 255
219 234 255
219 234 255
219 234 255
219 234 255
219 234 255
219 234 255
219 234 255
219 234 255
219 234 255
219 234 255
219 234 255
219 234 255
219 234 255
219 234 255
219 234 255
219 234 255
219 234 255
219 234 255
219 234 255
219 234 255
219 234 255
219 234 255
219 234 255
219 234 255
219 234 255
219 234 255
219 234 255
219 234 255
219 234 255
219 234 255
219 234 255
219 234 255
219 234 255
219 234 255
219 234 255
219 234 255
219 234 255
219 234 255
219 234 255
219 234 255
219 234 255
219 234 255
219 234 255
219 234 255
219 234 255
219 234 255
219 234 255
219 234 255
219 234 255
219 234 255
219 234 255
219 234 255
219 234 255
219 234 255
219 234 255
219 234 255
219 234 255
219 234 255
219 234 255
219 234 255
219 234 255
219 234 255
219 234 255
219 234 255
219 234 255
219 234 255
219 234 255
219 234 255
219 234 255
219 234 255
219 234 255
219 234 255
219 234 255
219 234 255
219 234 255
219 234 255
219 234 255
219 234 255
219 234 255
219 234 255
219 234 255
219 234 255
219 234 255
219 234 255
219 234 255
219 234 255
219 234 255
219 234 255
219 234 255
219 234 255
219 234 255
219 234 255
219 234 255
219 234 255
219 234 255
219 234 255
219 234 255
219 234 255
219 234 255
219 234 255
219 234 255
219 234 255
219 234 255
219 234 255
219 234 255
219 234 255
219 234 255
219 234 255
219 234 255
219 234 255
219 234 255
219 234 255
219 235 255
219 234 255
219 235 255
219 235 255
219 235 255
219 235 255
219 235 255
219 235 255
219 235 255
219 235 255
219 235 255
219 235 255
219 235 255
219 235 255
219 235 255
219 235 255
219 235 255
219 235 255
219 235 255
219 235 255
219 235 255
219 235 255
219 235 255
220 235 255
220 235 255
220 235 255
220 235 255
220 235 255
220 235 255
220 235 255
220 235 255
220 235 255
220 235 255
220 235 255
220 235 255
220 235 255
220 235 255
220 235 255
220 235 255
220 235 255
220 235 255
220 235 255
220 235 255
220 235 255
220 235 255
220 235 255
220 235 255
220 235 255
220 235 255
220 235 255
220 235 255
220 235 255
220 235 255
220 235 255
220 235 255
220 235 255
220 235 255
220 235 255
220 235 255
220 235 255
220 235 255
220 235 255
220 235 255
220 235 255
220 235 255
220 235 255
220 235 255
220 235 255
220 235 255
220 235 255
220 235 255
220 235 255
220 235 255
220 235 255
220 235 255
220 235 255
220 235 255
220 235 255
220 235 255
220 235 255
220 235 255
220 235 255
220 235 255
220 235 255
220 235 255
220 235 255
220 235 255
220 235 255
220 235 255
220 235 255
220 235 255
220 235 255
220 235 255
220 235 255
220 235 255
220 235 255
220 235 255
220 235 255
220 235 255
220 235 255
220 235 255
220 235 255
220 235 255
220 235 255
220 235 255
220 235 255
220 235 255
220 235 255
220 235 255
220 235 255
220 235 255
220 235 255
220 235 255
220 235 255
220 235 255
220 235 255
220 235 255
220 235 255
220 235 255
220 235 255
220 235 255
220 235 255
220 235 255
220 235 255
220 235 255
220 235 255
220 235 255
220 235 255
220 235 255
220 235 255
220 235 255
220 235 255
220 235 255
220 235 255
220 235 255
220 235 255
220 235 255
220 235 255
220 235 255
220 235 255
220 235 255
220 235 255
220 235 255
220 235 255
220 235 255
220 235 255
220 235 255
220 235 255
220 235 255
220 235 255
220 235 255
220 235 255
220 235 255
220 235 255
220 235 255
220 235 255
220 235 255
220 235 255
220 235 255
220 235 255
220 235 255
220 235 255
220 235 255
220 235 255
220 235 255
220 235 255
220 235 255
220 235 255
220 235 255
220 235 255
220 235 255
220 235 255
220 235 255
220 235 255
220 235 255
220 235 255
220 235 255
220 235 255
220 235 255
220 235 255
220 235 255
220 235 255
220 235 255
220 235 255
220 235 255
220 235 255
220 235 255
220 235 255
220 235 255
220 235 255
220 235 255
220 235 255
220 235 255
220 235 255
220 235 255
220 235 255
220 235 255
220 235 255
220 235 255
220 235 255
220 235 255
220 235 255
220 235 255
220 235 255
220 235 255
220 235 255
220 235 255
220 235 255
220 235 255
220 235 255
220 235 255
220 235 255
220 235 255
220 235 255
220 235 255
220 235 255
220 235 255
219 235 255
219 235 255
219 235 255
219 235 255
219 235 255
219 235 255
219 235 255
219 235 255
219 235 255
219 235 255
219 235 255
219 235 255
219 235 255
219 235 255
219 235 255
219 235 255
219 235 255
219 235 255
219 235 255
219 234 255
219 234 255
219 234 255
219 234 255
219 234 255
219 234 255
219 234 255
219 234 255
219 234 255
219 234 255
219 234 255
219 234 255
219 234 255
219 234 255
219 234 255
219 234 255
219 234 255
219 234 255
219 234 255
219 234 255
219 234 255
219 234 255
219 234 255
219 234 255
219 234 255
219 234 255
219 234 255
219 234 255
219 234 255
219 234 255
219 234 255
219 234 255
219 234 255
219 234 255
219 234 255
219 234 255
219 234 255
219 234 255
219 234 255
219 234 255
219 234 255
219 234 255
219 234 255
219 234 255
219 234 255
219 234 255
219 234 255
219 234 255
219 234 255
219 234 255
219 234 255
219 234 255
219 234 255
219 234 255
219 234 255
219 234 255
219 234 255
219 234 255
219 234 255
219 234 255
219 234 255
219 234 255
219 234 255
219 234 255
219 234 255
219 234 255
219 234 255
219 234 255
219 234 255
219 234 255
219 234 255
219 234 255
219 234 255
219 234 255
219 234 255
219 234 255
219 234 255
219 234 255
219 234 255
219 234 255
219 234 255
219 234 255
219 234 255
219 234 255
219 234 255
219 234 255
219 234 255
219 234 255
219 234 255
219 234 255
219 234 255
219 234 255
219 234 255
219 234 255
219 234 255
219 234 255
219 234 255
219 234 255
219 234 255
219 234 255
219 234 255
219 234 255
219 234 255
219 234 255
219 234 255
219 234 255
219 234 255
219 234 255
219 234 255
219 234 255
219 234 255
219 234 255
219 234 255
219 234 255
219 234 255
219 234 255
219 234 255
219 234 255
219 234 255
219 234 255
219 234 255
219 234 255
219 234 255
219 234 255
219 234 255
219 234 255
219 234 255
219 234 255
219 234 255
219 234 255
219 234 255
219 234 255
219 234 255
219 234 255
219 234 255
219 234 255
219 234 255
219 234 255
219 234 255
219 234 255
219 234 255
219 234 255
219 234 255
219 234 255
219 234 255
219 234 255
219 234 255
219 234 255
219 234 255
219 234 255
219 234 255
219 234 255
219 234 255
219 234 255
219 234 255
219 234 255
219 234 255
219 234 255
219 234 255
219 234 255
219 234 255
219 234 255
219 234 255
219 234 255
219 234 255
219 234 255
219 234 255
219 234 255
219 234 255
219 234 255
219 234 255
219 234 255
219 234 255
219 234 255
219 234 255
219 234 255
219 234 255
219 234 255
219 234 255
219 234 255
219 234 255
219 234 255
219 234 255
219 234 255
219 234 255
219 234 255
219 234 255
219 234 255
219 234 255
219 234 255
219 234 255
219 234 255
219 234 255
219 234 255
219 234 255
219 234 255
219 235 255
219 235 255
219 235 255
219 235 255
219 235 255
219 235 255
219 235 255
219 235 255
219 235 255
219 235 255
219 235 255
219 235 255
219 235 255
219 235 255
219 235 255
219 235 255
219 235 255
219 235 255
219 235 255
220 235 255
219 235 255
219 235 255
220 235 255
220 235 255
220 235 255
220 235 255
220 235 255
220 235 255
220 235 255
220 235 255
220 235 255
220 235 255
220 235 255
220 235 255
220 235 255
220 235 255
220 235 255
220 235 255
220 235 255
220 235 255
220 235 255
220 235 255
220 235 255
220 235 255
220 235 255
220 235 255
220 235 255
220 235 255
220 235 255
220 235 255
220 235 255
220 235 255
220 235 255
220 235 255
220 235 255
220 235 255
220 235 255
220 235 255
220 235 255
220 235 255
220 235 255
220 235 255
220 235 255
220 235 255
220 235 255
220 235 255
220 235 255
220 235 255
220 235 255
220 235 255
220 235 255
220 235 255
220 235 255
220 235 255
220 235 255
220 235 255
220 235 255
220 235 255
220 235 255
220 235 255
220 235 255
220 235 255
220 235 255
220 235 255
220 235 255
220 235 255
220 235 255
220 235 255
220 235 255
220 235 255
220 235 255
220 235 255
220 235 255
220 235 255
220 235 255
220 235 255
220 235 255
220 235 255
220 235 255
220 235 255
220 235 255
220 235 255
220 235 255
220 235 255
220 235 255
220 235 255
220 235 255
220 235 255
220 235 255
220 235 255
220 235 255
220 235 255
220 235 255
220 235 255
220 235 255
220 235 255
220 235 255
220 235 255
220 235 255
220 235 255
220 235 255
220 235 255
220 235 255
220 235 255
220 235 255
220 235 255
220 235 255
220 235 255
220 235 255
220 235 255
220 235 255
220 235 255
220 235 255
220 235 255
220 235 255
220 235 255
220 235 255
220 235 255
220 235 255
220 235 255
220 235 255
220 235 255
220 235 255
220 235 255
220 235 255
220 235 255
220 235 255
220 235 255
220 235 255
220 235 255
220 235 255
220 235 255
220 235 255
220 235 255
220 235 255
220 235 255
220 235 255
220 235 255
220 235 255
220 235 255
219 235 255
219 235 255
219 235 255
219 235 255
219 235 255
219 235 255
219 235 255
219 235 255
219 235 255
219 235 255
219 235 255
219 235 255
219 235 255
219 235 255
219 235 255
219 235 255
219 235 255
219 235 255
219 234 255
219 234 255
219 234 255
219 234 255
219 234 255
219 234 255
219 234 255
219 234 255
219 234 255
219 234 255
219 234 255
219 234 255
219 234 255
219 234 255
219 234 255
219 234 255
219 234 255
219 234 255
219 234 255
219 234 255
219 234 255
219 234 255
219 234 255
219 234 255
219 234 255
219 234 255
219 234 255
219 234 255
219 234 255
219 234 255
219 234 255
219 234 255
219 234 255
219 234 255
219 234 255
219 234 255
219 234 255
219 234 255
219 234 255
219 234 255
219 234 255
219 234 255
219 234 255
219 234 255
219 234 255
219 234 255
219 234 255
219 234 255
219 234 255
219 234 255
219 234 255
219 234 255
219 234 255
219 234 255
219 234 255
219 234 255
219 234 255
219 234 255
219 234 255
219 234 255
219 234 255
219 234 255
219 234 255
219 234 255
219 234 255
219 234 255
219 234 255
219 234 255
219 234 255
219 234 255
219 234 255
219 234 255
219 234 255
219 234 255
219 234 255
219 234 255
219 234 255
219 234 255
219 234 255
219 234 255
219 234 255
219 234 255
219 234 255
219 234 255
219 234 255
219 234 255
219 234 255
219 234 255
219 234 255
219 234 255
219 234 255
219 234 255
219 234 255
219 234 255
219 234 255
219 234 255
219 234 255
219 234 255
219 234 255
219 234 255
219 234 255
219 234 255
219 234 255
219 234 255
219 234 255
219 234 255
219 234 255
219 234 255
219 234 255
219 234 255
219 234 255
219 234 255
219 234 255
219 234 255
219 234 255
219 234 255
219 234 255
219 234 255
219 234 255
219 234 255
219 234 255
219 234 255
219 234 255
219 234 255
219 234 255
219 234 255
219 234 255
219 234 255
219 234 255
219 234 255
219 234 255
219 234 255
219 234 255
219 234 255
219 234 255
219 234 255
219 234 255
219 234 255
219 234 255
219 234 255
219 234 255
219 234 255
219 234 255
219 234 255
219 234 255
219 234 255
219 234 255
219 234 255
219 234 255
219 234 255
219 234 255
219 234 255
219 234 255
219 234 255
219 234 255
219 234 255
219 234 255
219 234 255
219 234 255
219 234 255
219 234 255
219 234 255
219 234 255
219 234 255
219 234 255
219 234 255
219 234 255
219 234 255
219 234 255
219 234 255
219 234 255
219 234 255
219 234 255
219 234 255
219 234 255
219 234 255
219 234 255
219 234 255
219 234 255
219 234 255
219 234 255
219 234 255
219 234 255
219 234 255
219 234 255
219 234 255
219 234 255
219 234 255
219 234 255
219 234 255
219 234 255
219 234 255
219 234 255
219 234 255
219 234 255
219 234 255
219 234 255
219 234 255
219 234 255
219 234 255
219 234 255
219 234 255
219 234 255
219 234 255
219 234 255
219 234 255
219 234 255
219 234 255
219 234 255
219 234 255
219 234 255
219 234 255
219 234 255
219 234 255
219 234 255
219 234 255
219 234 255
219 234 255
219 234 255
219 234 255
219 234 255
219 234 255
219 234 255
219 234 255
219 234 255
219 234 255
219 234 255
219 234 255
219 234 255
219 234 255
219 234 255
219 234 255
219 234 255
219 234 255
219 234 255
219 234 255
219 234 255
219 234 255
219 234 255
219 234 255
219 234 255
219 234 255
219 234 255
219 234 255
219 234 255
219 234 255
219 234 255
219 234 255
219 234 255
219 234 255
219 235 255
219 235 255
219 235 255
219 235 255
219 235 255
219 235 255
219 235 255
219 235 255
219 235 255
219 235 255
219 235 255
219 235 255
219 235 255
219 235 255
219 235 255
219 235 255
219 235 255
219 235 255
219 235 255
220 235 255
220 235 255
220 235 255
220 235 255
220 235 255
220 235 255
220 235 255
220 235 255
220 235 255
220 235 255
220 235 255
220 235 255
220 235 255
220 235 255
220 235 255
220 235 255
220 235 255
220 235 255
220 235 255
220 235 255
220 235 255
220 235 255
220 235 255
220 235 255
220 235 255
220 235 255
220 235 255
220 235 255
220 235 255
220 235 255
220 235 255
220 235 255
220 235 255
220 235 255
220 235 255
220 235 255
220 235 255
220 235 255
220 235 255
220 235 255
220 235 255
220 235 255
220 235 255
220 235 255
220 235 255
220 235 255
220 235 255
220 235 255
220 235 255
220 235 255
220 235 255
220 235 255
220 235 255
220 235 255
220 235 255
220 235 255
220 235 255
220 235 255
220 235 255
220 235 255
220 235 255
220 235 255
220 235 255
220 235 255
220 235 255
220 235 255
220 235 255
220 235 255
220 235 255
220 235 255
220 235 255
220 235 255
220 235 255
220 235 255
220 235 255
220 235 255
220 235 255
220 235 255
220 235 255
220 235 255
220 235 255
220 235 255
220 235 255
220 235 255
220 235 255
220 235 255
220 235 255
220 235 255
219 235 255
220 235 255
219 235 255
219 235 255
219 235 255
219 235 255
219 235 255
219 235 255
219 235 255
219 235 255
219 235 255
219 235 255
219 235 255
219 235 255
219 235 255
219 235 255
219 235 255
219 235 255
219 235 255
219 234 255
219 234 255
219 234 255
219 234 255
219 234 255
219 234 255
219 234 255
219 234 255
219 234 255
219 234 255
219 234 255
219 234 255
219 234 255
219 234 255
219 234 255
219 234 255
219 234 255
219 234 255
219 234 255
219 234 255
219 234 255
219 234 255
219 234 255
219 234 255
219 234 255
219 234 255
219 234 255
219 234 255
219 234 255
219 234 255
219 234 255
219 234 255
219 234 255
219 234 255
219 234 255
219 234 255
219 234 255
219 234 255
219 234 255
219 234 255
219 234 255
219 234 255
219 234 255
219 234 255
219 234 255
219 234 255
219 234 255
219 234 255
219 234 255
219 234 255
219 234 255
219 234 255
219 234 255
219 234 255
219 234 255
219 234 255
219 234 255
219 234 255
219 234 255
219 234 255
219 234 255
219 234 255
219 234 255
219 234 255
219 234 255
219 234 255
219 234 255
219 234 255
219 234 255
219 234 255
219 234 255
219 234 255
219 234 255
219 234 255
219 234 255
219 234 255
219 234 255
219 234 255
219 234 255
219 234 255
219 234 255
219 234 255
219 234 255
219 234 255
219 234 255
219 234 255
219 234 255
219 234 255
219 234 255
219 234 255
219 234 255
219 234 255
219 234 255
219 234 255
219 234 255
219 234 255
219 234 255
219 234 255
219 234 255
219 234 255
219 234 255
219 234 255
219 234 255
219 234 255
219 234 255
219 234 255
219 234 255
219 234 255
219 234 255
219 234 255
219 234 255
219 234 255
219 234 255
219 234 255
219 234 255
219 234 255
219 234 255
219 234 255
219 234 255
219 234 255
219 234 255
219 234 255
219 234 255
219 234 255
219 234 255
219 234 255
219 234 255
219 234 255
219 234 255
219 234 255
219 234 255
219 234 255
219 234 255
219 234 255
219 234 255
219 234 255
219 234 255
219 234 255
219 234 255
219 234 255
219 234 255
219 234 255
219 234 255
219 234 255
219 234 255
219 234 255
219 234 255
219 234 255
219 234 255
219 234 255
219 234 255
219 234 255
219 234 255
219 234 255
219 234 255
219 234 255
219 234 255
219 234 255
219 234 255
219 234 255
219 234 255
219 234 255
219 234 255
219 234 255
219 234 255
219 234 255
219 234 255
219 234 255
219 234 255
219 234 255
219 234 255
219 234 255
219 234 255
219 234 255
219 234 255
219 234 255
219 234 255
219 234 255
219 234 255
219 234 255
219 234 255
219 234 255
219 234 255
219 234 255
219 234 255
219 234 255
219 234 255
219 234 255
219 234 255
219 234 255
219 234 255
219 234 255
219 234 255
219 234 255
219 234 255
219 234 255
219 234 255
219 234 255
219 234 255
219 234 255
219 234 255
219 234 255
219 234 255
219 234 255
219 234 255
219 234 255
219 234 255
219 234 255
219 234 255
219 234 255
219 234 255
219 234 255
219 234 255
219 234 255
219 234 255
219 234 255
219 234 255
219 234 255
219 234 255
219 234 255
219 234 255
219 234 255
219 234 255
219 234 255
219 234 255
219 234 255
219 234 255
219 234 255
219 234 255
219 234 255
219 234 255
219 234 255
219 234 255
219 234 255
219 234 255
219 234 255
219 234 255
219 234 255
219 234 255
219 234 255
219 234 255
219 234 255
219 234 255
219 234 255
219 234 255
219 234 255
219 234 255
219 234 255
219 234 255
219 234 255
219 234 255
219 234 255
219 234 255
219 234 255
219 234 255
219 234 255
219 234 255
219 234 255
219 234 255
219 234 255
219 234 255
219 234 255
219 234 255
219 234 255
219 234 255
219 234 255
219 234 255
219 234 255
219 234 255
219 234 255
219 234 255
219 234 255
219 234 255
219 234 255
219 234 255
219 234 255
219 234 255
219 234 255
219 234 255
219 234 255
219 234 255
219 234 255
219 234 255
219 234 255
219 234 255
219 234 255
219 234 255
219 234 255
219 234 255
219 234 255
219 234 255
219 234 255
219 234 255
219 234 255
219 234 255
219 234 255
219 234 255
219 235 255
219 235 255
219 235 255
219 235 255
219 235 255
219 235 255
219 235 255
219 235 255
219 235 255
219 235 255
219 235 255
219 235 255
219 235 255
219 235 255
219 235 255
219 235 255
219 235 255
219 235 255
219 235 255
219 235 255
220 235 255
220 235 255
220 235 255
220 235 255
220 235 255
220 235 255
220 235 255
220 235 255
220 235 255
220 235 255
220 235 255
220 235 255
220 235 255
220 235 255
220 235 255
220 235 255
220 235 255
220 235 255
220 235 255
220 235 255
220 235 255
220 235 255
220 235 255
220 235 255
220 235 255
220 235 255
220 235 255
220 235 255
220 235 255
220 235 255
220 235 255
220 235 255
220 235 255
220 235 255
220 235 255
220 235 255
220 235 255
220 235 255
220 235 255
220 235 255
220 235 255
220 235 255
219 235 255
219 235 255
219 235 255
219 235 255
219 235 255
219 235 255
219 235 255
219 235 255
219 235 255
219 235 255
219 235 255
219 235 255
219 235 255
219 235 255
219 235 255
219 235 255
219 235 255
219 235 255
219 235 255
219 234 255
219 234 255
219 234 255
219 234 255
219 234 255
219 234 255
219 234 255
219 234 255
219 234 255
219 234 255
219 234 255
219 234 255
219 234 255
219 234 255
219 234 255
219 234 255
219 234 255
219 234 255
219 234 255
219 234 255
219 234 255
219 234 255
219 234 255
219 234 255
219 234 255
219 234 255
219 234 255
219 234 255
219 234 255
219 234 255
219 234 255
219 234 255
219 234 255
219 234 255
219 234 255
219 234 255
219 234 255
219 234 255
219 234 255
219 234 255
219 234 255
219 234 255
219 234 255
219 234 255
219 234 255
219 234 255
219 234 255
219 234 255
219 234 255
219 234 255
219 234 255
219 234 255
219 234 255
219 234 255
219 234 255
219 234 255
219 234 255
219 234 255
219 234 255
219 234 255
219 234 255
219 234 255
219 234 255
219 234 255
219 234 255
219 234 255
219 234 255
219 234 255
219 234 255
219 234 255
219 234 255
219 234 255
219 234 255
219 234 255
219 234 255
219 234 255
219 234 255
219 234 255
219 234 255
219 234 255
219 234 255
219 234 255
219 234 255
219 234 255
219 234 255
219 234 255
219 234 255
219 234 255
219 234 255
219 234 255
219 234 255
219 234 255
219 234 255
219 234 255
219 234 255
219 234 255
219 234 255
219 234 255
219 234 255
219 234 255
219 234 255
219 234 255
219 234 255
219 234 255
219 234 255
219 234 255
219 234 255
219 234 255
219 234 255
219 234 255
219 234 255
219 234 255
219 234 255
219 234 255
219 234 255
219 234 255
219 234 255
219 234 255
219 234 255
219 234 255
219 234 255
219 234 255
219 234 255
219 234 255
219 234 255
219 234 255
219 234 255
219 234 255
219 234 255
219 234 255
219 234 255
218 234 255
218 234 255
218 234 255
218 234 255
218 234 255
218 234 255
218 234 255
218 234 255
218 234 255
218 234 255
218 234 255
218 234 255
218 234 255
218 234 255
218 234 255
218 234 255
218 234 255
218 234 255
218 234 255
218 234 255
218 234 255
218 234 255
218 234 255
218 234 255
218 234 255
218 234 255
218 234 255
218 234 255
218 234 255
218 234 255
218 234 255
218 234 255
218 234 255
218 234 255
218 234 255
218 234 255
218 234 255
218 234 255
218 234 255
218 234 255
218 234 255
218 234 255
218 234 255
218 234 255
218 234 255
218 234 255
218 234 255
218 234 255
218 234 255
218 234 255
218 234 255
218 234 255
218 234 255
218 234 255
218 234 255
218 234 255
218 234 255
218 234 255
218 234 255
218 234 255
218 234 255
218 234 255
218 234 255
218 234 255
218 234 255
218 234 255
218 234 255
218 234 255
218 234 255
218 234 255
218 234 255
218 234 255
218 234 255
218 234 255
218 234 255
218 234 255
218 234 255
218 234 255
219 234 255
219 234 255
219 234 255
219 234 255
219 234 255
219 234 255
219 234 255
219 234 255
219 234 255
219 234 255
219 234 255
219 234 255
219 234 255
219 234 255
219 234 255
219 234 255
219 234 255
219 234 255
219 234 255
219 234 255
219 234 255
219 234 255
219 234 255
219 234 255
219 234 255
219 234 255
219 234 255
219 234 255
219 234 255
219 234 255
219 234 255
219 234 255
219 234 255
219 234 255
219 234 255
219 234 255
219 234 255
219 234 255
219 234 255
219 234 255
219 234 255
219 234 255
219 234 255
219 234 255
219 234 255
219 234 255
219 234 255
219 234 255
219 234 255
219 234 255
219 234 255
219 234 255
219 234 255
219 234 255
219 234 255
219 234 255
219 234 255
219 234 255
219 234 255
219 234 255
219 234 255
219 234 255
219 234 255
219 234 255
219 234 255
219 234 255
219 234 255
219 234 255
219 234 255
219 234 255
219 234 255
219 234 255
219 234 255
219 234 255
219 234 255
219 234 255
219 234 255
219 234 255
219 234 255
219 234 255
219 234 255
219 234 255
219 234 255
219 234 255
219 234 255
219 234 255
219 234 255
219 234 255
219 234 255
219 234 255
219 234 255
219 234 255
219 234 255
219 234 255
219 234 255
219 234 255
219 234 255
219 234 255
219 234 255
219 234 255
219 234 255
219 234 255
219 234 255
219 234 255
219 234 255
219 234 255
219 234 255
219 234 255
219 234 255
219 234 255
219 234 255
219 234 255
219 234 255
219 234 255
219 234 255
219 234 255
219 234 255
219 234 255
219 234 255
219 234 255
219 234 255
219 234 255
219 234 255
219 234 255
219 234 255
219 234 255
219 234 255
219 234 255
219 234 255
219 234 255
219 234 255
219 234 255
219 234 255
219 235 255
219 235 255
219 235 255
219 235 255
219 235 255
219 235 255
219 235 255
219 235 255
219 235 255
219 235 255
219 235 255
219 235 255
219 235 255
219 235 255
219 235 255
219 235 255
219 235 255
219 235 255
219 235 255
220 235 255
220 235 255
220 235 255
220 235 255
220 235 255
220 235 255
220 235 255
220 235 255
220 235 255
220 235 255
219 235 255
219 235 255
219 235 255
219 235 255
219 235 255
219 235 255
219 235 255
219 235 255
219 235 255
219 234 255
219 234 255
219 234 255
219 234 255
219 234 255
219 234 255
219 234 255
219 234 255
219 234 255
219 234 255
219 234 255
219 234 255
219 234 255
219 234 255
219 234 255
219 234 255
219 234 255
219 234 255
219 234 255
219 234 255
219 234 255
219 234 255
219 234 255
219 234 255
219 234 255
219 234 255
219 234 255
219 234 255
219 234 255
219 234 255
219 234 255
219 234 255
219 234 255
219 234 255
219 234 255
219 234 255
219 234 255
219 234 255
219 234 255
219 234 255
219 234 255
219 234 255
219 234 255
219 234 255
219 234 255
219 234 255
219 234 255
219 234 255
219 234 255
219 234 255
219 234 255
219 234 255
219 234 255
219 234 255
219 234 255
219 234 255
219 234 255
219 234 255
219 234 255
219 234 255
219 234 255
219 234 255
219 234 255
219 234 255
219 234 255
219 234 255
219 234 255
219 234 255
219 234 255
219 234 255
219 234 255
219 234 255
219 234 255
219 234 255
219 234 255
219 234 255
219 234 255
219 234 255
219 234 255
219 234 255
219 234 255
219 234 255
219 234 255
219 234 255
219 234 255
219 234 255
219 234 255
219 234 255
219 234 255
219 234 255
219 234 255
219 234 255
219 234 255
219 234 255
219 234 255
219 234 255
219 234 255
219 234 255
219 234 255
219 234 255
219 234 255
219 234 255
219 234 255
219 234 255
219 234 255
219 234 255
219 234 255
219 234 255
219 234 255
219 234 255
219 234 255
219 234 255
219 234 255
219 234 255
219 234 255
219 234 255
219 234 255
219 234 255
219 234 255
219 234 255
219 234 255
218 234 255
218 234 255
218 234 255
218 234 255
218 234 255
218 234 255
218 234 255
218 234 255
218 234 255
218 234 255
218 234 255
218 234 255
218 234 255
218 234 255
218 234 255
218 234 255
218 234 255
218 234 255
218 234 255
218 234 255
218 234 255
218 234 255
218 234 255
218 234 255
218 234 255
218 234 255
218 234 255
218 234 255
218 234 255
218 234 255
218 234 255
218 234 255
218 234 255
218 234 255
218 234 255
218 234 255
218 234 255
218 234 255
218 234 255
218 234 255
218 234 255
218 234 255
218 234 255
218 234 255
218 234 255
218 234 255
218 234 255
218 234 255
218 234 255
218 234 255
218 234 255
218 234 255
218 234 255
218 234 255
218 234 255
218 234 255
218 234 255
218 234 255
218 234 255
218 234 255
218 234 255
218 234 255
218 234 255
218 234 255
218 234 255
218 234 255
218 234 255
218 234 255
218 234 255
218 234 255
218 234 255
218 234 255
218 234 255
218 234 255
218 234 255
218 234 255
218 234 255
218 234 255
218 234 255
218 234 255
218 234 255
218 234 255
218 234 255
218 234 255
218 234 255
218 234 255
218 234 255
218 234 255
218 234 255
218 234 255
218 234 255
218 234 255
218 234 255
218 234 255
218 234 255
218 234 255
218 234 255
218 234 255
218 234 255
218 234 255
218 234 255
218 234 255
218 234 255
218 234 255
218 234 255
218 234 255
218 234 255
218 234 255
218 234 255
218 234 255
218 234 255
218 234 255
218 234 255
218 234 255
218 234 255
218 234 255
218 234 255
218 234 255
218 234 255
218 234 255
218 234 255
218 234 255
218 234 255
218 234 255
218 234 255
218 234 255
218 234 255
218 234 255
218 234 255
218 234 255
218 234 255
218 234 255
218 234 255
218 234 255
218 234 255
218 234 255
218 234 255
218 234 255
218 234 255
218 234 255
219 234 255
219 234 255
219 234 255
219 234 255
219 234 255
219 234 255
219 234 255
219 234 255
219 234 255
219 234 255
219 234 255
219 234 255
219 234 255
219 234 255
219 234 255
219 234 255
219 234 255
219 234 255
219 234 255
219 234 255
219 234 255
219 234 255
219 234 255
219 234 255
219 234 255
219 234 255
219 234 255
219 234 255
219 234 255
219 234 255
219 234 255
219 234 255
219 234 255
219 234 255
219 234 255
219 234 255
219 234 255
219 234 255
219 234 255
219 234 255
219 234 255
219 234 255
219 234 255
219 234 255
219 234 255
219 234 255
219 234 255
219 234 255
219 234 255
219 234 255
219 234 255
219 234 255
219 234 255
219 234 255
219 234 255
219 234 255
219 234 255
219 234 255
219 234 255
219 234 255
219 234 255
219 234 255
219 234 255
219 234 255
219 234 255
219 234 255
219 234 255
219 234 255
219 234 255
219 234 255
219 234 255
219 234 255
219 234 255
219 234 255
219 234 255
219 234 255
219 234 255
219 234 255
219 234 255
219 234 255
219 234 255
219 234 255
219 234 255
219 234 255
219 234 255
219 234 255
219 234 255
219 234 255
219 234 255
219 234 255
219 234 255
219 234 255
219 234 255
219 234 255
219 234 255
219 234 255
219 234 255
219 234 255
219 234 255
219 234 255
219 234 255
219 234 255
219 234 255
219 234 255
219 234 255
219 234 255
219 234 255
219 234 255
219 234 255
219 234 255
219 234 255
219 234 255
219 234 255
219 234 255
219 234 255
219 234 255
219 234 255
219 234 255
219 234 255
219 234 255
219 234 255
219 234 255
219 235 255
219 235 255
219 235 255
219 235 255
219 235 255
219 235 255
219 235 255
219 235 255
219 234 255
219 234 255
219 234 255
219 234 255
219 234 255
219 234 255
219 234 255
219 234 255
219 234 255
219 234 255
219 234 255
219 234 255
219 234 255
219 234 255
219 234 255
219 234 255
219 234 255
219 234 255
219 234 255
219 234 255
219 234 255
219 234 255
219 234 255
219 234 255
219 234 255
219 234 255
219 234 255
219 234 255
219 234 255
219 234 255
219 234 255
219 234 255
219 234 255
219 234 255
219 234 255
219 234 255
219 234 255
219 234 255
219 234 255
219 234 255
219 234 255
219 234 255
219 234 255
219 234 255
219 234 255
219 234 255
219 234 255
219 234 255
219 234 255
219 234 255
219 234 255
219 234 255
219 234 255
219 234 255
219 234 255
219 234 255
219 234 255
219 234 255
219 234 255
219 234 255
219 234 255
219 234 255
219 234 255
219 234 255
219 234 255
219 234 255
219 234 255
219 234 255
219 234 255
219 234 255
219 234 255
219 234 255
219 234 255
219 234 255
219 234 255
219 234 255
219 234 255
219 234 255
219 234 255
219 234 255
219 234 255
219 234 255
219 234 255
219 234 255
219 234 255
219 234 255
219 234 255
219 234 255
219 234 255
219 234 255
219 234 255
219 234 255
219 234 255
219 234 255
219 234 255
219 234 255
219 234 255
219 234 255
219 234 255
219 234 255
219 234 255
219 234 255
219 234 255
219 234 255
219 234 255
219 234 255
219 234 255
219 234 255
218 234 255
218 234 255
218 234 255
218 234 255
218 234 255
218 234 255
218 234 255
218 234 255
218 234 255
218 234 255
218 234 255
218 234 255
218 234 255
218 234 255
218 234 255
218 234 255
218 234 255
218 234 255
218 234 255
218 234 255
218 234 255
218 234 255
218 234 255
218 234 255
218 234 255
218 234 255
218 234 255
218 234 255
218 234 255
218 234 255
218 234 255
218 234 255
218 234 255
218 234 255
218 234 255
218 234 255
218 234 255
218 234 255
218 234 255
218 234 255
218 234 255
218 234 255
218 234 255
218 234 255
218 234 255
218 234 255
218 234 255
218 234 255
218 234 255
218 234 255
218 234 255
218 234 255
218 234 255
218 234 255
218 234 255
218 234 255
218 234 255
218 234 255
218 234 255
218 234 255
218 234 255
218 234 255
218 234 255
218 234 255
218 234 255
218 234 255
218 234 255
218 234 255
218 234 255
218 234 255
218 234 255
218 234 255
218 234 255
218 234 255
218 234 255
218 234 255
218 234 255
218 234 255
218 234 255
218 234 255
218 234 255
218 234 255
218 234 255
218 234 255
218 234 255
218 234 255
218 234 255
218 234 255
218 234 255
218 234 255
218 234 255
218 234 255
218 234 255
218 234 255
218 234 255
218 234 255
218 234 255
218 234 255
218 234 255
218 234 255
218 234 255
218 234 255
218 234 255
218 234 255
218 234 255
218 234 255
218 234 255
218 234 255
218 234 255
218 234 255
218 234 255
218 234 255
218 234 255
218 234 255
218 234 255
218 234 255
218 234 255
218 234 255
218 234 255
218 234 255
218 234 255
218 234 255
218 234 255
218 234 255
218 234 255
218 234 255
218 234 255
218 234 255
218 234 255
218 234 255
218 234 255
218 234 255
218 234 255
218 234 255
218 234 255
218 234 255
218 234 255
218 234 255
218 234 255
218 234 255
218 234 255
218 234 255
218 234 255
218 234 255
218 234 255
218 234 255
218 234 255
218 234 255
218 234 255
218 234 255
218 234 255
218 234 255
218 234 255
218 234 255
218 234 255
218 234 255
218 234 255
218 234 255
218 234 255
218 234 255
218 234 255
218 234 255
218 234 255
218 234 255
218 234 255
218 234 255
218 234 255
218 234 255
218 234 255
218 234 255
218 234 255
218 234 255
218 234 255
218 234 255
218 234 255
218 234 255
218 234 255
218 234 255
218 234 255
218 234 255
218 234 255
218 234 255
218 234 255
218 234 255
218 234 255
219 234 255
219 234 255
219 234 255
219 234 255
219 234 255
219 234 255
219 234 255
219 234 255
219 234 255
219 234 255
219 234 255
219 234 255
219 234 255
219 234 255
219 234 255
219 234 255
219 234 255
219 234 255
219 234 255
219 234 255
219 234 255
219 234 255
219 234 255
219 234 255
219 234 255
219 234 255
219 234 255
219 234 255
219 234 255
219 234 255
219 234 255
219 234 255
219 234 255
219 234 255
219 234 255
219 234 255
219 234 255
219 234 255
219 234 255
219 234 255
219 234 255
219 234 255
219 234 255
219 234 255
219 234 255
219 234 255
219 234 255
219 234 255
219 234 255
219 234 255
219 234 255
219 234 255
219 234 255
219 234 255
219 234 255
219 234 255
219 234 255
219 234 255
219 234 255
219 234 255
219 234 255
219 234 255
219 234 255
219 234 255
219 234 255
219 234 255
219 234 255
219 234 255
219 234 255
219 234 255
219 234 255
219 234 255
219 234 255
219 234 255
219 234 255
219 234 255
219 234 255
219 234 255
219 234 255
219 234 255
219 234 255
219 234 255
219 234 255
219 234 255
219 234 255
219 234 255
219 234 255
219 234 255
219 234 255
219 234 255
219 234 255
219 234 255
219 234 255
219 234 255
219 234 255
219 234 255
219 234 255
219 234 255
219 234 255
219 234 255
219 234 255
219 234 255
219 234 255
219 234 255
219 234 255
219 234 255
219 234 255
219 234 255
219 234 255
219 234 255
219 234 255
219 234 255
219 234 255
219 234 255
219 234 255
219 234 255
219 234 255
219 234 255
219 234 255
219 234 255
219 234 255
219 234 255
219 234 255
219 234 255
219 234 255
219 234 255
219 234 255
219 234 255
219 234 255
219 234 255
219 234 255
219 234 255
219 234 255
219 234 255
219 234 255
219 234 255
219 234 255
219 234 255
219 234 255
219 234 255
219 234 255
219 234 255
219 234 255
219 234 255
219 234 255
219 234 255
219 234 255
219 234 255
219 234 255
219 234 255
219 234 255
219 234 255
219 234 255
219 234 255
219 234 255
219 234 255
219 234 255
219 234 255
219 234 255
219 234 255
219 234 255
219 234 255
219 234 255
219 234 255
219 234 255
219 234 255
219 234 255
219 234 255
219 234 255
219 234 255
219 234 255
219 234 255
219 234 255
219 234 255
219 234 255
219 234 255
219 234 255
219 234 255
219 234 255
219 234 255
219 234 255
219 234 255
219 234 255
219 234 255
219 234 255
219 234 255
219 234 255
219 234 255
219 234 255
219 234 255
219 234 255
219 234 255
219 234 255
219 234 255
219 234 255
219 234 255
218 234 255
218 234 255
218 234 255
218 234 255
218 234 255
218 234 255
218 234 255
218 234 255
218 234 255
218 234 255
218 234 255
218 234 255
218 234 255
218 234 255
218 234 255
218 234 255
218 234 255
218 234 255
218 234 255
218 234 255
218 234 255
218 234 255
218 234 255
218 234 255
218 234 255
218 234 255
218 234 255
218 234 255
218 234 255
218 234 255
218 234 255
218 234 255
218 234 255
218 234 255
218 234 255
218 234 255
218 234 255
218 234 255
218 234 255
218 234 255
218 234 255
218 234 255
218 234 255
218 234 255
218 234 255
218 234 255
218 234 255
218 234 255
218 234 255
218 234 255
218 234 255
218 234 255
218 234 255
218 234 255
218 234 255
218 234 255
218 234 255
218 234 255
218 234 255
218 234 255
218 234 255
218 234 255
218 234 255
218 234 255
218 234 255
218 234 255
218 234 255
218 234 255
218 234 255
218 234 255
218 234 255
218 234 255
218 234 255
218 234 255
218 234 255
218 234 255
218 234 255
218 234 255
218 234 255
218 234 255
218 234 255
218 234 255
218 234 255
218 234 255
218 234 255
218 234 255
218 234 255
218 234 255
218 234 255
218 234 255
218 234 255
218 234 255
218 234 255
218 234 255
218 234 255
218 234 255
218 234 255
218 234 255
218 234 255
218 234 255
218 234 255
218 234 255
218 234 255
218 234 255
218 234 255
218 234 255
218 234 255
218 234 255
218 234 255
218 234 255
218 234 255
218 234 255
218 234 255
218 234 255
218 234 255
218 234 255
218 234 255
218 234 255
218 234 255
218 234 255
218 234 255
218 234 255
218 234 255
218 234 255
218 234 255
218 234 255
218 234 255
218 234 255
218 234 255
218 234 255
218 234 255
218 234 255
218 234 255
218 234 255
218 234 255
218 234 255
218 234 255
218 234 255
218 234 255
218 234 255
218 234 255
218 234 255
218 234 255
218 234 255
218 234 255
218 234 255
218 234 255
218 234 255
218 234 255
218 234 255
218 234 255
218 234 255
218 234 255
218 234 255
218 234 255
218 234 255
218 234 255
218 234 255
218 234 255
218 234 255
218 234 255
218 234 255
218 234 255
218 234 255
218 234 255
218 234 255
218 234 255
218 234 255
218 234 255
218 234 255
218 234 255
218 234 255
218 234 255
218 234 255
218 234 255
218 234 255
218 234 255
218 234 255
218 234 255
218 234 255
218 234 255
218 234 255
218 234 255
218 234 255
218 234 255
218 234 255
218 234 255
218 234 255
218 234 255
218 234 255
218 234 255
218 234 255
218 234 255
218 234 255
218 234 255
218 234 255
218 234 255
218 234 255
218 234 255
218 234 255
218 234 255
218 234 255
218 234 255
218 234 255
218 234 255
218 234 255
218 234 255
218 234 255
218 234 255
218 234 255
218 234 255
218 234 255
218 234 255
218 234 255
218 234 255
218 234 255
218 234 255
218 234 255
218 234 255
218 234 255
218 234 255
218 234 255
219 234 255
219 234 255
219 234 255
219 234 255
219 234 255
219 234 255
219 234 255
219 234 255
219 234 255
219 234 255
219 234 255
219 234 255
219 234 255
219 234 255
219 234 255
219 234 255
219 234 255
219 234 255
219 234 255
219 234 255
219 234 255
219 234 255
219 234 255
219 234 255
219 234 255
219 234 255
219 234 255
219 234 255
219 234 255
219 234 255
219 234 255
219 234 255
219 234 255
219 234 255
219 234 255
219 234 255
219 234 255
219 234 255
219 234 255
219 234 255
219 234 255
219 234 255
219 234 255
219 234 255
219 234 255
219 234 255
219 234 255
219 234 255
219 234 255
219 234 255
219 234 255
219 234 255
219 234 255
219 234 255
219 234 255
219 234 255
219 234 255
219 234 255
219 234 255
219 234 255
219 234 255
219 234 255
219 234 255
219 234 255
219 234 255
219 234 255
219 234 255
219 234 255
219 234 255
219 234 255
219 234 255
219 234 255
219 234 255
219 234 255
219 234 255
219 234 255
219 234 255
219 234 255
219 234 255
219 234 255
219 234 255
219 234 255
219 234 255
219 234 255
219 234 255
219 234 255
219 234 255
219 234 255
219 234 255
219 234 255
219 234 255
219 234 255
219 234 255
219 234 255
219 234 255
219 234 255
219 234 255
219 234 255
219 234 255
219 234 255
219 234 255
219 234 255
219 234 255
219 234 255
219 234 255
219 234 255
219 234 255
219 234 255
219 234 255
219 234 255
219 234 255
219 234 255
219 234 255
219 234 255
219 234 255
219 234 255
219 234 255
219 234 255
219 234 255
219 234 255
219 234 255
219 234 255
219 234 255
219 234 255
219 234 255
219 234 255
219 234 255
219 234 255
219 234 255
219 234 255
219 234 255
219 234 255
219 234 255
219 234 255
219 234 255
219 234 255
219 234 255
219 234 255
219 234 255
219 234 255
219 234 255
219 234 255
219 234 255
219 234 255
219 234 255
219 234 255
219 234 255
219 234 255
219 234 255
219 234 255
219 234 255
219 234 255
219 234 255
219 234 255
219 234 255
219 234 255
219 234 255
219 234 255
219 234 255
219 234 255
219 234 255
218 234 255
218 234 255
218 234 255
218 234 255
218 234 255
218 234 255
218 234 255
218 234 255
218 234 255
218 234 255
218 234 255
218 234 255
218 234 255
218 234 255
218 234 255
218 234 255
218 234 255
218 234 255
218 234 255
218 234 255
218 234 255
218 234 255
218 234 255
218 234 255
218 234 255
218 234 255
218 234 255
218 234 255
218 234 255
218 234 255
218 234 255
218 234 255
218 234 255
218 234 255
218 234 255
218 234 255
218 234 255
218 234 255
218 234 255
218 234 255
218 234 255
218 234 255
218 234 255
218 234 255
218 234 255
218 234 255
218 234 255
218 234 255
218 234 255
218 234 255
218 234 255
218 234 255
218 234 255
218 234 255
218 234 255
218 234 255
218 234 255
218 234 255
218 234 255
218 234 255
218 234 255
218 234 255
218 234 255
218 234 255
218 234 255
218 234 255
218 234 255
218 234 255
218 234 255
218 234 255
218 234 255
218 234 255
218 234 255
218 234 255
218 234 255
218 234 255
218 234 255
218 234 255
218 234 255
218 234 255
218 234 255
218 234 255
218 234 255
218 234 255
218 234 255
218 234 255
218 234 255
218 234 255
218 234 255
218 234 255
218 234 255
218 234 255
218 234 255
218 234 255
218 234 255
218 234 255
218 234 255
218 234 255
218 234 255
218 234 255
218 234 255
218 234 255
218 234 255
218 234 255
218 234 255
218 234 255
218 234 255
218 234 255
218 234 255
218 234 255
218 234 255
218 234 255
218 234 255
218 234 255
218 234 255
218 234 255
218 234 255
218 234 255
218 234 255
218 234 255
218 234 255
218 234 255
218 234 255
218 234 255
218 234 255
218 234 255
218 234 255
218 234 255
218 234 255
218 234 255
218 234 255
218 234 255
218 234 255
218 234 255
218 234 255
218 234 255
218 234 255
218 234 255
218 234 255
218 234 255
218 234 255
218 234 255
218 234 255
218 234 255
218 234 255
218 234 255
218 234 255
218 234 255
218 234 255
218 234 255
218 234 255
218 234 255
218 234 255
218 234 255
218 234 255
218 234 255
218 234 255
218 234 255
218 234 255
218 234 255
218 234 255
218 234 255
218 234 255
218 234 255
218 234 255
218 234 255
218 234 255
218 234 255
218 234 255
218 234 255
218 234 255
218 234 255
218 234 255
218 234 255
218 234 255
218 234 255
218 234 255
218 234 255
218 234 255
218 234 255
218 234 255
218 234 255
218 234 255
218 234 255
218 234 255
218 234 255
218 234 255
218 234 255
218 234 255
218 234 255
218 234 255
218 234 255
218 234 255
218 234 255
218 234 255
218 234 255
218 234 255
218 234 255
218 234 255
218 234 255
218 234 255
218 234 255
218 234 255
218 234 255
218 234 255
218 234 255
218 234 255
218 234 255
218 234 255
218 234 255
218 234 255
218 234 255
218 234 255
218 234 255
218 234 255
218 234 255
218 234 255
218 234 255
218 234 255
218 234 255
218 234 255
218 234 255
218 234 255
218 234 255
218 234 255
218 234 255
218 234 255
218 234 255
218 234 255
218 234 255
218 234 255
218 234 255
218 234 255
218 234 255
218 234 255
218 234 255
218 234 255
218 234 255
218 234 255
218 234 255
218 234 255
218 234 255
218 234 255
218 234 255
218 234 255
218 234 255
218 234 255
218 234 255
218 234 255
218 234 255
218 234 255
218 234 255
218 234 255
218 234 255
218 234 255
218 234 255
219 234 255
219 234 255
219 234 255
219 234 255
219 234 255
219 234 255
219 234 255
219 234 255
219 234 255
219 234 255
219 234 255
219 234 255
219 234 255
219 234 255
219 234 255
219 234 255
219 234 255
219 234 255
219 234 255
219 234 255
219 234 255
219 234 255
219 234 255
219 234 255
219 234 255
219 234 255
219 234 255
219 234 255
219 234 255
219 234 255
219 234 255
219 234 255
219 234 255
219 234 255
219 234 255
219 234 255
219 234 255
219 234 255
219 234 255
219 234 255
219 234 255
219 234 255
219 234 255
219 234 255
219 234 255
219 234 255
219 234 255
219 234 255
219 234 255
219 234 255
219 234 255
219 234 255
219 234 255
219 234 255
219 234 255
219 234 255
219 234 255
219 234 255
219 234 255
219 234 255
219 234 255
219 234 255
219 234 255
219 234 255
219 234 255
219 234 255
219 234 255
219 234 255
219 234 255
219 234 255
219 234 255
219 234 255
219 234 255
219 234 255
219 234 255
219 234 255
219 234 255
219 234 255
219 234 255
219 234 255
219 234 255
219 234 255
219 234 255
219 234 255
219 234 255
219 234 255
219 234 255
219 234 255
219 234 255
219 234 255
219 234 255
219 234 255
219 234 255
219 234 255
219 234 255
219 234 255
219 234 255
219 234 255
219 234 255
219 234 255
219 234 255
219 234 255
219 234 255
219 234 255
219 234 255
219 234 255
219 234 255
219 234 255
219 234 255
219 234 255
219 234 255
219 234 255
219 234 255
219 234 255
219 234 255
219 234 255
219 234 255
219 234 255
219 234 255
219 234 255
219 234 255
219 234 255
219 234 255
219 234 255
219 234 255
219 234 255
219 234 255
219 234 255
218 234 255
218 234 255
218 234 255
218 234 255
218 234 255
218 234 255
218 234 255
218 234 255
218 234 255
218 234 255
218 234 255
218 234 255
218 234 255
218 234 255
218 234 255
218 234 255
218 234 255
218 234 255
218 234 255
218 234 255
218 234 255
218 234 255
218 234 255
218 234 255
218 234 255
218 234 255
218 234 255
218 234 255
218 234 255
218 234 255
218 234 255
218 234 255
218 234 255
218 234 255
218 234 255
218 234 255
218 234 255
218 234 255
218 234 255
218 234 255
218 234 255
218 234 255
218 234 255
218 234 255
218 234 255
218 234 255
218 234 255
218 234 255
218 234 255
218 234 255
218 234 255
218 234 255
218 234 255
218 234 255
218 234 255
218 234 255
218 234 255
218 234 255
218 234 255
218 234 255
218 234 255
218 234 255
218 234 255
218 234 255
218 234 255
218 234 255
218 234 255
218 234 255
218 234 255
218 234 255
218 234 255
218 234 255
218 234 255
218 234 255
218 234 255
218 234 255
218 234 255
218 234 255
218 234 255
218 234 255
218 234 255
218 234 255
218 234 255
218 234 255
218 234 255
218 234 255
218 234 255
218 234 255
218 234 255
218 234 255
218 234 255
218 234 255
218 234 255
218 234 255
218 234 255
218 234 255
218 234 255
218 234 255
218 234 255
218 233 255
218 233 255
218 233 255
218 233 255
218 233 255
218 233 255
218 233 255
218 233 255
218 233 255
218 233 255
218 233 255
218 233 255
218 233 255
218 233 255
218 233 255
218 233 255
218 233 255
218 233 255
218 233 255
217 233 255
217 233 255
217 233 255
217 233 255
217 233 255
217 233 255
217 233 255
217 233 255
217 233 255
217 233 255
217 233 255
217 233 255
217 233 255
217 233 255
217 233 255
217 233 255
217 233 255
217 233 255
217 233 255
217 233 255
217 233 255
217 233 255
217 233 255
217 233 255
217 233 255
217 233 255
217 233 255
217 233 255
217 233 255
217 233 255
217 233 255
217 233 255
217 233 255
217 233 255
217 233 255
217 233 255
217 233 255
217 233 255
217 233 255
217 233 255
217 233 255
217 233 255
217 233 255
217 233 255
217 233 255
217 233 255
217 233 255
217 233 255
217 233 255
217 233 255
217 233 255
217 233 255
217 233 255
218 233 255
218 233 255
218 233 255
218 233 255
218 233 255
218 233 255
218 233 255
218 233 255
218 233 255
218 233 255
218 233 255
218 233 255
218 233 255
218 233 255
218 233 255
218 233 255
218 233 255
218 233 255
218 234 255
218 234 255
218 234 255
218 234 255
218 234 255
218 234 255
218 234 255
218 234 255
218 234 255
218 234 255
218 234 255
218 234 255
218 234 255
218 234 255
218 234 255
218 234 255
218 234 255
218 234 255
218 234 255
218 234 255
218 234 255
218 234 255
218 234 255
218 234 255
218 234 255
218 234 255
218 234 255
218 234 255
218 234 255
218 234 255
218 234 255
218 234 255
218 234 255
218 234 255
218 234 255
218 234 255
218 234 255
218 234 255
218 234 255
218 234 255
218 234 255
218 234 255
218 234 255
218 234 255
218 234 255
218 234 255
218 234 255
218 234 255
218 234 255
218 234 255
218 234 255
218 234 255
218 234 255
218 234 255
218 234 255
218 234 255
218 234 255
218 234 255
218 234 255
218 234 255
218 234 255
218 234 255
218 234 255
218 234 255
218 234 255
218 234 255
218 234 255
218 234 255
218 234 255
218 234 255
218 234 255
218 234 255
218 234 255
218 234 255
218 234 255
218 234 255
218 234 255
218 234 255
218 234 255
218 234 255
218 234 255
218 234 255
218 234 255
218 234 255
218 234 255
218 234 255
218 234 255
218 234 255
218 234 255
218 234 255
218 234 255
218 234 255
218 234 255
218 234 255
218 234 255
218 234 255
218 234 255
218 234 255
218 234 255
219 234 255
219 234 255
219 234 255
219 234 255
219 234 255
219 234 255
219 234 255
219 234 255
219 234 255
219 234 255
219 234 255
219 234 255
219 234 255
219 234 255
219 234 255
219 234 255
219 234 255
219 234 255
219 234 255
219 234 255
219 234 255
219 234 255
219 234 255
219 234 255
219 234 255
219 234 255
219 234 255
219 234 255
219 234 255
219 234 255
219 234 255
219 234 255
219 234 255
219 234 255
219 234 255
219 234 255
219 234 255
219 234 255
219 234 255
219 234 255
219 234 255
219 234 255
219 234 255
219 234 255
219 234 255
219 234 255
219 234 255
219 234 255
219 234 255
219 234 255
219 234 255
219 234 255
219 234 255
219 234 255
219 234 255
219 234 255
219 234 255
219 234 255
219 234 255
219 234 255
219 234 255
219 234 255
219 234 255
219 234 255
219 234 255
219 234 255
219 234 255
219 234 255
219 234 255
219 234 255
219 234 255
219 234 255
219 234 255
219 234 255
219 234 255
219 234 255
219 234 255
219 234 255
219 234 255
219 234 255
219 234 255
219 234 255
219 234 255
219 234 255
219 234 255
219 234 255
219 234 255
219 234 255
219 234 255
219 234 255
219 234 255
219 234 255
219 234 255
219 234 255
219 234 255
219 234 255
219 234 255
218 234 255
218 234 255
218 234 255
218 234 255
218 234 255
218 234 255
218 234 255
218 234 255
218 234 255
218 234 255
218 234 255
218 234 255
218 234 255
218 234 255
218 234 255
218 234 255
218 234 255
218 234 255
218 234 255
218 234 255
218 234 255
218 234 255
218 234 255
218 234 255
218 234 255
218 234 255
218 234 255
218 234 255
218 234 255
218 234 255
218 234 255
218 234 255
218 234 255
218 234 255
218 234 255
218 234 255
218 234 255
218 234 255
218 234 255
218 234 255
218 234 255
218 234 255
218 234 255
218 234 255
218 234 255
218 234 255
218 234 255
218 234 255
218 234 255
218 234 255
218 234 255
218 234 255
218 234 255
218 234 255
218 234 255
218 234 255
218 234 255
218 234 255
218 234 255
218 234 255
218 234 255
218 234 255
218 234 255
218 234 255
218 234 255
218 234 255
218 234 255
218 234 255
218 234 255
218 234 255
218 234 255
218 234 255
218 234 255
218 234 255
218 234 255
218 234 255
218 234 255
218 234 255
218 234 255
218 234 255
218 234 255
218 234 255
218 234 255
218 234 255
218 234 255
218 234 255
218 234 255
218 234 255
218 234 255
218 234 255
218 234 255
218 234 255
218 233 255
218 233 255
218 233 255
218 233 255
218 233 255
218 233 255
218 233 255
218 233 255
218 233 255
218 233 255
218 233 255
217 233 255
217 233 255
217 233 255
217 233 255
217 233 255
217 233 255
217 233 255
217 233 255
217 233 255
217 233 255
217 233 255
217 233 255
217 233 255
217 233 255
217 233 255
217 233 255
217 233 255
217 233 255
217 233 255
217 233 255
217 233 255
217 233 255
217 233 255
217 233 255
217 233 255
217 233 255
217 233 255
217 233 255
217 233 255
217 233 255
217 233 255
217 233 255
217 233 255
217 233 255
217 233 255
217 233 255
217 233 255
217 233 255
217 233 255
217 233 255
217 233 255
217 233 255
217 233 255
217 233 255
217 233 255
217 233 255
217 233 255
217 233 255
217 233 255
217 233 255
217 233 255
217 233 255
217 233 255
217 233 255
217 233 255
217 233 255
217 233 255
217 233 255
217 233 255
217 233 255
217 233 255
217 233 255
217 233 255
217 233 255
217 233 255
217 233 255
217 233 255
217 233 255
217 233 255
217 233 255
217 233 255
217 233 255
217 233 255
217 233 255
217 233 255
217 233 255
217 233 255
217 233 255
217 233 255
217 233 255
217 233 255
217 233 255
217 233 255
217 233 255
217 233 255
217 233 255
217 233 255
217 233 255
217 233 255
217 233 255
217 233 255
217 233 255
217 233 255
217 233 255
217 233 255
217 233 255
217 233 255
217 233 255
217 233 255
217 233 255
217 233 255
217 233 255
217 233 255
217 233 255
217 233 255
217 233 255
217 233 255
217 233 255
217 233 255
217 233 255
217 233 255
217 233 255
218 233 255
218 233 255
218 233 255
218 233 255
218 233 255
218 233 255
218 233 255
218 233 255
218 233 255
218 233 255
218 234 255
218 233 255
218 234 255
218 234 255
218 234 255
218 234 255
218 234 255
218 234 255
218 234 255
218 234 255
218 234 255
218 234 255
218 234 255
218 234 255
218 234 255
218 234 255
218 234 255
218 234 255
218 234 255
218 234 255
218 234 255
218 234 255
218 234 255
218 234 255
218 234 255
218 234 255
218 234 255
218 234 255
218 234 255
218 234 255
218 234 255
218 234 255
218 234 255
218 234 255
218 234 255
218 234 255
218 234 255
218 234 255
218 234 255
218 234 255
218 234 255
218 234 255
218 234 255
218 234 255
218 234 255
218 234 255
218 234 255
218 234 255
218 234 255
218 234 255
218 234 255
218 234 255
218 234 255
218 234 255
218 234 255
218 234 255
218 234 255
218 234 255
218 234 255
218 234 255
218 234 255
218 234 255
218 234 255
218 234 255
218 234 255
218 234 255
218 234 255
218 234 255
218 234 255
218 234 255
218 234 255
218 234 255
218 234 255
218 234 255
218 234 255
218 234 255
218 234 255
218 234 255
218 234 255
218 234 255
218 234 255
218 234 255
218 234 255
218 234 255
218 234 255
218 234 255
218 234 255
218 234 255
218 234 255
218 234 255
218 234 255
218 234 255
218 234 255
218 234 255
219 234 255
219 234 255
219 234 255
219 234 255
219 234 255
219 234 255
219 234 255
219 234 255
219 234 255
219 234 255
219 234 255
219 234 255
219 234 255
219 234 255
219 234 255
219 234 255
219 234 255
219 234 255
219 234 255
219 234 255
219 234 255
219 234 255
219 234 255
219 234 255
219 234 255
219 234 255
219 234 255
219 234 255
219 234 255
219 234 255
219 234 255
219 234 255
219 234 255
219 234 255
219 234 255
219 234 255
219 234 255
219 234 255
219 234 255
219 234 255
219 234 255
219 234 255
219 234 255
219 234 255
219 234 255
219 234 255
219 234 255
219 234 255
219 234 255
219 234 255
219 234 255
219 234 255
219 234 255
219 234 255
219 234 255
219 234 255
219 234 255
219 234 255
219 234 255
219 234 255
219 234 255
219 234 255
219 234 255
219 234 255
219 234 255
219 234 255
218 234 255
218 234 255
218 234 255
218 234 255
218 234 255
218 234 255
218 234 255
218 234 255
218 234 255
218 234 255
218 234 255
218 234 255
218 234 255
218 234 255
218 234 255
218 234 255
218 234 255
218 234 255
218 234 255
218 234 255
218 234 255
218 234 255
218 234 255
218 234 255
218 234 255
218 234 255
218 234 255
218 234 255
218 234 255
218 234 255
218 234 255
218 234 255
218 234 255
218 234 255
218 234 255
218 234 255
218 234 255
218 234 255
218 234 255
218 234 255
218 234 255
218 234 255
218 234 255
218 234 255
218 234 255
218 234 255
218 234 255
218 234 255
218 234 255
218 234 255
218 234 255
218 234 255
218 234 255
218 234 255
218 234 255
218 234 255
218 234 255
218 234 255
218 234 255
218 234 255
218 234 255
218 234 255
218 234 255
218 234 255
218 234 255
218 234 255
218 234 255
218 234 255
218 234 255
218 234 255
218 234 255
218 234 255
218 234 255
218 234 255
218 234 255
218 234 255
218 234 255
218 234 255
218 234 255
218 234 255
218 234 255
218 234 255
218 234 255
218 234 255
218 234 255
218 234 255
218 234 255
218 234 255
218 234 255
218 233 255
218 233 255
218 233 255
218 233 255
218 233 255
218 233 255
218 233 255
218 233 255
218 233 255
218 233 255
217 233 255
217 233 255
217 233 255
217 233 255
217 233 255
217 233 255
217 233 255
217 233 255
217 233 255
217 233 255
217 233 255
217 233 255
217 233 255
217 233 255
217 233 255
217 233 255
217 233 255
217 233 255
217 233 255
217 233 255
217 233 255
217 233 255
217 233 255
217 233 255
217 233 255
217 233 255
217 233 255
217 233 255
217 233 255
217 233 255
217 233 255
217 233 255
217 233 255
217 233 255
217 233 255
217 233 255
217 233 255
217 233 255
217 233 255
217 233 255
217 233 255
217 233 255
217 233 255
217 233 255
217 233 255
217 233 255
217 233 255
217 233 255
217 233 255
217 233 255
217 233 255
217 233 255
217 233 255
217 233 255
217 233 255
217 233 255
217 233 255
217 233 255
217 233 255
217 233 255
217 233 255
217 233 255
217 233 255
217 233 255
217 233 255
217 233 255
217 233 255
217 233 255
217 233 255
217 233 255
217 233 255
217 233 255
217 233 255
217 233 255
217 233 255
217 233 255
217 233 255
217 233 255
217 233 255
217 233 255
217 233 255
217 233 255
217 233 255
217 233 255
217 233 255
217 233 255
217 233 255
217 233 255
217 233 255
217 233 255
217 233 255
217 233 255
217 233 255
217 233 255
217 233 255
217 233 255
217 233 255
217 233 255
217 233 255
217 233 255
217 233 255
217 233 255
217 233 255
217 233 255
217 233 255
217 233 255
217 233 255
217 233 255
217 233 255
217 233 255
217 233 255
217 233 255
217 233 255
217 233 255
217 233 255
217 233 255
217 233 255
217 233 255
217 233 255
217 233 255
217 233 255
217 233 255
217 233 255
217 233 255
217 233 255
217 233 255
217 233 255
217 233 255
217 233 255
217 233 255
217 233 255
217 233 255
217 233 255
217 233 255
217 233 255
217 233 255
217 233 255
217 233 255
217 233 255
217 233 255
217 233 255
217 233 255
217 233 255
217 233 255
217 233 255
217 233 255
217 233 255
217 233 255
217 233 255
218 233 255
218 233 255
218 233 255
218 233 255
218 233 255
218 233 255
218 233 255
218 233 255
218 233 255
218 233 255
218 233 255
218 233 255
218 234 255
218 234 255
218 234 255
218 234 255
218 234 255
218 234 255
218 234 255
218 234 255
218 234 255
218 234 255
218 234 255
218 234 255
218 234 255
218 234 255
218 234 255
218 234 255
218 234 255
218 234 255
218 234 255
218 234 255
218 234 255
218 234 255
218 234 255
218 234 255
218 234 255
218 234 255
218 234 255
218 234 255
218 234 255
218 234 255
218 234 255
218 234 255
218 234 255
218 234 255
218 234 255
218 234 255
218 234 255
218 234 255
218 234 255
218 234 255
218 234 255
218 234 255
218 234 255
218 234 255
218 234 255
218 234 255
218 234 255
218 234 255
218 234 255
218 234 255
218 234 255
218 234 255
218 234 255
218 234 255
218 234 255
218 234 255
218 234 255
218 234 255
218 234 255
218 234 255
218 234 255
218 234 255
218 234 255
218 234 255
218 234 255
218 234 255
218 234 255
218 234 255
218 234 255
218 234 255
218 234 255
218 234 255
218 234 255
218 234 255
218 234 255
218 234 255
218 234 255
218 234 255
218 234 255
218 234 255
218 234 255
218 234 255
218 234 255
218 234 255
218 234 255
218 234 255
218 234 255
219 234 255
219 234 255
219 234 255
219 234 255
219 234 255
219 234 255
219 234 255
219 234 255
219 234 255
219 234 255
219 234 255
219 234 255
219 234 255
219 234 255
219 234 255
219 234 255
219 234 255
219 234 255
219 234 255
219 234 255
219 234 255
219 234 255
219 234 255
219 234 255
219 234 255
219 234 255
219 234 255
219 234 255
219 234 255
219 234 255
219 234 255
219 234 255
219 234 255
219 234 255
219 234 255
219 234 255
219 234 255
219 234 255
219 234 255
218 234 255
218 234 255
218 234 255
218 234 255
218 234 255
218 234 255
218 234 255
218 234 255
218 234 255
218 234 255
218 234 255
218 234 255
218 234 255
218 234 255
218 234 255
218 234 255
218 234 255
218 234 255
218 234 255
218 234 255
218 234 255
218 234 255
218 234 255
218 234 255
218 234 255
218 234 255
218 234 255
218 234 255
218 234 255
218 234 255
218 234 255
218 234 255
218 234 255
218 234 255
218 234 255
218 234 255
218 234 255
218 234 255
218 234 255
218 234 255
218 234 255
218 234 255
218 234 255
218 234 255
218 234 255
218 234 255
218 234 255
218 234 255
218 234 255
218 234 255
218 234 255
218 234 255
218 234 255
218 234 255
218 234 255
218 234 255
218 234 255
218 234 255
218 234 255
218 234 255
218 234 255
218 234 255
218 234 255
218 234 255
218 234 255
218 234 255
218 234 255
218 234 255
218 234 255
218 234 255
218 234 255
218 234 255
218 234 255
218 234 255
218 234 255
218 234 255
218 234 255
218 234 255
218 234 255
218 234 255
218 234 255
218 234 255
218 234 255
218 234 255
218 234 255
218 234 255
218 234 255
218 233 255
218 233 255
218 233 255
218 233 255
218 233 255
218 233 255
218 233 255
218 233 255
218 233 255
218 233 255
217 233 255
217 233 255
217 233 255
217 233 255
217 233 255
217 233 255
217 233 255
217 233 255
217 233 255
217 233 255
217 233 255
217 233 255
217 233 255
217 233 255
217 233 255
217 233 255
217 233 255
217 233 255
217 233 255
217 233 255
217 233 255
217 233 255
217 233 255
217 233 255
217 233 255
217 233 255
217 233 255
217 233 255
217 233 255
217 233 255
217 233 255
217 233 255
217 233 255
217 233 255
217 233 255
217 233 255
217 233 255
217 233 255
217 233 255
217 233 255
217 233 255
217 233 255
217 233 255
217 233 255
217 233 255
217 233 255
217 233 255
217 233 255
217 233 255
217 233 255
217 233 255
217 233 255
217 233 255
217 233 255
217 233 255
217 233 255
217 233 255
217 233 255
217 233 255
217 233 255
217 233 255
217 233 255
217 233 255
217 233 255
217 233 255
217 233 255
217 233 255
217 233 255
217 233 255
217 233 255
217 233 255
217 233 255
217 233 255
217 233 255
217 233 255
217 233 255
217 233 255
217 233 255
217 233 255
217 233 255
217 233 255
217 233 255
217 233 255
217 233 255
217 233 255
217 233 255
217 233 255
217 233 255
217 233 255
217 233 255
217 233 255
217 233 255
217 233 255
217 233 255
217 233 255
217 233 255
217 233 255
217 233 255
217 233 255
217 233 255
217 233 255
217 233 255
217 233 255
217 233 255
217 233 255
217 233 255
217 233 255
217 233 255
217 233 255
217 233 255
217 233 255
217 233 255
217 233 255
217 233 255
217 233 255
217 233 255
217 233 255
217 233 255
217 233 255
217 233 255
217 233 255
217 233 255
217 233 255
217 233 255
217 233 255
217 233 255
217 233 255
217 233 255
217 233 255
217 233 255
217 233 255
217 233 255
217 233 255
217 233 255
217 233 255
217 233 255
217 233 255
217 233 255
217 233 255
217 233 255
217 233 255
217 233 255
217 233 255
217 233 255
217 233 255
217 233 255
217 233 255
217 233 255
217 233 255
217 233 255
217 233 255
217 233 255
217 233 255
217 233 255
217 233 255
217 233 255
217 233 255
217 233 255
217 233 255
217 233 255
217 233 255
217 233 255
217 233 255
217 233 255
217 233 255
217 233 255
217 233 255
217 233 255
217 233 255
217 233 255
217 233 255
217 233 255
217 233 255
217 233 255
217 233 255
217 233 255
217 233 255
217 233 255
217 233 255
217 233 255
217 233 255
218 233 255
218 233 255
218 233 255
218 233 255
218 233 255
218 233 255
218 233 255
218 233 255
218 233 255
218 233 255
218 233 255
218 234 255
218 234 255
218 234 255
218 234 255
218 234 255
218 234 255
218 234 255
218 234 255
218 234 255
218 234 255
218 234 255
218 234 255
218 234 255
218 234 255
218 234 255
218 234 255
218 234 255
218 234 255
218 234 255
218 234 255
218 234 255
218 234 255
218 234 255
218 234 255
218 234 255
218 234 255
218 234 255
218 234 255
218 234 255
218 234 255
218 234 255
218 234 255
218 234 255
218 234 255
218 234 255
218 234 255
218 234 255
218 234 255
218 234 255
218 234 255
218 234 255
218 234 255
218 234 255
218 234 255
218 234 255
218 234 255
218 234 255
218 234 255
218 234 255
218 234 255
218 234 255
218 234 255
218 234 255
218 234 255
218 234 255
218 234 255
218 234 255
218 234 255
218 234 255
218 234 255
218 234 255
218 234 255
218 234 255
218 234 255
218 234 255
218 234 255
218 234 255
218 234 255
218 234 255
218 234 255
218 234 255
218 234 255
218 234 255
218 234 255
218 234 255
218 234 255
218 234 255
218 234 255
218 234 255
218 234 255
218 234 255
218 234 255
218 234 255
218 234 255
218 234 255
218 234 255
219 234 255
219 234 255
219 234 255
219 234 255
219 234 255
219 234 255
219 234 255
219 234 255
219 234 255
219 234 255
219 234 255
219 234 255
219 234 255
218 234 255
218 234 255
218 234 255
218 234 255
218 234 255
218 234 255
218 234 255
218 234 255
218 234 255
218 234 255
218 234 255
218 234 255
218 234 255
218 234 255
218 234 255
218 234 255
218 234 255
218 234 255
218 234 255
218 234 255
218 234 255
218 234 255
218 234 255
218 234 255
218 234 255
218 234 255
218 234 255
218 234 255
218 234 255
218 234 255
218 234 255
218 234 255
218 234 255
218 234 255
218 234 255
218 234 255
218 234 255
218 234 255
218 234 255
218 234 255
218 234 255
218 234 255
218 234 255
218 234 255
218 234 255
218 234 255
218 234 255
218 234 255
218 234 255
218 234 255
218 234 255
218 234 255
218 234 255
218 234 255
218 234 255
218 234 255
218 234 255
218 234 255
218 234 255
218 234 255
218 234 255
218 234 255
218 234 255
218 234 255
218 234 255
218 234 255
218 234 255
218 234 255
218 234 255
218 234 255
218 234 255
218 234 255
218 234 255
218 234 255
218 234 255
218 234 255
218 234 255
218 234 255
218 234 255
218 234 255
218 234 255
218 234 255
218 234 255
218 234 255
218 234 255
218 234 255
218 233 255
218 233 255
218 233 255
218 233 255
218 233 255
218 233 255
218 233 255
218 233 255
218 233 255
217 233 255
217 233 255
217 233 255
217 233 255
217 233 255
217 233 255
217 233 255
217 233 255
217 233 255
217 233 255
217 233 255
217 233 255
217 233 255
217 233 255
217 233 255
217 233 255
217 233 255
217 233 255
217 233 255
217 233 255
217 233 255
217 233 255
217 233 255
217 233 255
217 233 255
217 233 255
217 233 255
217 233 255
217 233 255
217 233 255
217 233 255
217 233 255
217 233 255
217 233 255
217 233 255
217 233 255
217 233 255
217 233 255
217 233 255
217 233 255
217 233 255
217 233 255
217 233 255
217 233 255
217 233 255
217 233 255
217 233 255
217 233 255
217 233 255
217 233 255
217 233 255
217 233 255
217 233 255
217 233 255
217 233 255
217 233 255
217 233 255
217 233 255
217 233 255
217 233 255
217 233 255
217 233 255
217 233 255
217 233 255
217 233 255
217 233 255
217 233 255
217 233 255
217 233 255
217 233 255
217 233 255
217 233 255
217 233 255
217 233 255
217 233 255
217 233 255
217 233 255
217 233 255
217 233 255
217 233 255
217 233 255
217 233 255
217 233 255
217 233 255
217 233 255
217 233 255
217 233 255
217 233 255
217 233 255
217 233 255
217 233 255
217 233 255
217 233 255
217 233 255
217 233 255
217 233 255
217 233 255
217 233 255
217 233 255
217 233 255
217 233 255
217 233 255
217 233 255
217 233 255
217 233 255
217 233 255
217 233 255
217 233 255
217 233 255
217 233 255
217 233 255
217 233 255
217 233 255
217 233 255
217 233 255
217 233 255
217 233 255
217 233 255
217 233 255
217 233 255
217 233 255
217 233 255
217 233 255
217 233 255
217 233 255
217 233 255
217 233 255
217 233 255
217 233 255
217 233 255
217 233 255
217 233 255
217 233 255
217 233 255
217 233 255
217 233 255
217 233 255
217 233 255
217 233 255
217 233 255
217 233 255
217 233 255
217 233 255
217 233 255
217 233 255
217 233 255
217 233 255
217 233 255
217 233 255
217 233 255
217 233 255
217 233 255
217 233 255
217 233 255
217 233 255
217 233 255
217 233 255
217 233 255
217 233 255
217 233 255
217 233 255
217 233 255
217 233 255
217 233 255
217 233 255
217 233 255
217 233 255
217 233 255
217 233 255
217 233 255
217 233 255
217 233 255
217 233 255
217 233 255
217 233 255
217 233 255
217 233 255
217 233 255
217 233 255
217 233 255
217 233 255
217 233 255
217 233 255
217 233 255
217 233 255
217 233 255
217 233 255
217 233 255
217 233 255
217 233 255
217 233 255
217 233 255
217 233 255
217 233 255
217 233 255
217 233 255
217 233 255
217 233 255
217 233 255
217 233 255
217 233 255
217 233 255
217 233 255
217 233 255
217 233 255
217 233 255
217 233 255
217 233 255
217 233 255
217 233 255
218 233 255
218 233 255
218 233 255
218 233 255
218 233 255
218 233 255
218 233 255
218 233 255
218 234 255
218 234 255
218 234 255
218 234 255
218 234 255
218 234 255
218 234 255
218 234 255
218 234 255
218 234 255
218 234 255
218 234 255
218 234 255
218 234 255
218 234 255
218 234 255
218 234 255
218 234 255
218 234 255
218 234 255
218 234 255
218 234 255
218 234 255
218 234 255
218 234 255
218 234 255
218 234 255
218 234 255
218 234 255
218 234 255
218 234 255
218 234 255
218 234 255
218 234 255
218 234 255
218 234 255
218 234 255
218 234 255
218 234 255
218 234 255
218 234 255
218 234 255
218 234 255
218 234 255
218 234 255
218 234 255
218 234 255
218 234 255
218 234 255
218 234 255
218 234 255
218 234 255
218 234 255
218 234 255
218 234 255
218 234 255
218 234 255
218 234 255
218 234 255
218 234 255
218 234 255
218 234 255
218 234 255
218 234 255
218 234 255
218 234 255
218 234 255
218 234 255
218 234 255
218 234 255
218 234 255
218 234 255
218 234 255
218 234 255
218 234 255
218 234 255
218 234 255
218 234 255
218 234 255
218 234 255
218 234 255
218 234 255
218 234 255
218 234 255
218 234 255
218 234 255
218 234 255
218 234 255
218 234 255
218 234 255
218 234 255
218 234 255
218 234 255
218 234 255
218 234 255
218 234 255
218 234 255
218 234 255
218 234 255
218 234 255
218 234 255
218 234 255
218 234 255
218 234 255
218 234 255
218 234 255
218 234 255
218 234 255
218 234 255
218 234 255
218 234 255
218 234 255
218 234 255
218 234 255
218 234 255
218 234 255
218 234 255
218 234 255
218 234 255
218 234 255
218 234 255
218 234 255
218 234 255
218 234 255
218 234 255
218 234 255
218 234 255
218 234 255
218 234 255
218 234 255
218 234 255
218 234 255
218 234 255
218 234 255
218 234 255
218 234 255
218 234 255
218 234 255
218 234 255
218 234 255
218 234 255
218 234 255
218 234 255
218 234 255
218 234 255
218 234 255
218 234 255
218 234 255
218 234 255
218 234 255
218 234 255
218 234 255
218 234 255
218 234 255
218 234 255
218 234 255
218 234 255
218 234 255
218 234 255
218 234 255
218 234 255
218 233 255
218 233 255
218 233 255
218 233 255
218 233 255
218 233 255
218 233 255
218 233 255
218 233 255
217 233 255
217 233 255
217 233 255
217 233 255
217 233 255
217 233 255
217 233 255
217 233 255
217 233 255
217 233 255
217 233 255
217 233 255
217 233 255
217 233 255
217 233 255
217 233 255
217 233 255
217 233 255
217 233 255
217 233 255
217 233 255
217 233 255
217 233 255
217 233 255
217 233 255
217 233 255
217 233 255
217 233 255
217 233 255
217 233 255
217 233 255
217 233 255
217 233 255
217 233 255
217 233 255
217 233 255
217 233 255
217 233 255
217 233 255
217 233 255
217 233 255
217 233 255
217 233 255
217 233 255
217 233 255
217 233 255
217 233 255
217 233 255
217 233 255
217 233 255
217 233 255
217 233 255
217 233 255
217 233 255
217 233 255
217 233 255
217 233 255
217 233 255
217 233 255
217 233 255
217 233 255
217 233 255
217 233 255
217 233 255
217 233 255
217 233 255
217 233 255
217 233 255
217 233 255
217 233 255
217 233 255
217 233 255
217 233 255
217 233 255
217 233 255
217 233 255
217 233 255
217 233 255
217 233 255
217 233 255
217 233 255
217 233 255
217 233 255
217 233 255
217 233 255
217 233 255
217 233 255
217 233 255
217 233 255
217 233 255
217 233 255
217 233 255
217 233 255
217 233 255
217 233 255
217 233 255
217 233 255
217 233 255
217 233 255
217 233 255
217 233 255
217 233 255
217 233 255
217 233 255
217 233 255
217 233 255
217 233 255
217 233 255
217 233 255
217 233 255
217 233 255
217 233 255
217 233 255
217 233 255
217 233 255
217 233 255
217 233 255
217 233 255
217 233 255
217 233 255
217 233 255
217 233 255
217 233 255
217 233 255
217 233 255
217 233 255
217 233 255
217 233 255
217 233 255
217 233 255
217 233 255
217 233 255
217 233 255
217 233 255
217 233 255
217 233 255
217 233 255
217 233 255
217 233 255
217 233 255
217 233 255
217 233 255
217 233 255
217 233 255
217 233 255
217 233 255
217 233 255
217 233 255
217 233 255
217 233 255
217 233 255
217 233 255
217 233 255
217 233 255
217 233 255
217 233 255
217 233 255
217 233 255
217 233 255
217 233 255
217 233 255
217 233 255
217 233 255
217 233 255
217 233 255
217 233 255
217 233 255
217 233 255
217 233 255
217 233 255
217 233 255
217 233 255
217 233 255
217 233 255
217 233 255
217 233 255
217 233 255
217 233 255
217 233 255
217 233 255
217 233 255
217 233 255
217 233 255
217 233 255
217 233 255
217 233 255
217 233 255
217 233 255
217 233 255
217 233 255
217 233 255
217 233 255
217 233 255
217 233 255
217 233 255
217 233 255
217 233 255
217 233 255
217 233 255
217 233 255
217 233 255
217 233 255
217 233 255
217 233 255
217 233 255
217 233 255
217 233 255
217 233 255
217 233 255
217 233 255
217 233 255
217 233 255
217 233 255
217 233 255
217 233 255
217 233 255
217 233 255
217 233 255
217 233 255
217 233 255
217 233 255
217 233 255
217 233 255
217 233 255
217 233 255
217 233 255
217 233 255
217 233 255
217 233 255
217 233 255
217 233 255
217 233 255
217 233 255
217 233 255
217 233 255
218 233 255
218 233 255
218 233 255
218 233 255
218 233 255
218 233 255
218 233 255
218 233 255
218 234 255
218 234 255
218 234 255
218 234 255
218 234 255
218 234 255
218 234 255
218 234 255
218 234 255
218 234 255
218 234 255
218 234 255
218 234 255
218 234 255
218 234 255
218 234 255
218 234 255
218 234 255
218 234 255
218 234 255
218 234 255
218 234 255
218 234 255
218 234 255
218 234 255
218 234 255
218 234 255
218 234 255
218 234 255
218 234 255
218 234 255
218 234 255
218 234 255
218 234 255
218 234 255
218 234 255
218 234 255
218 234 255
218 234 255
218 234 255
218 234 255
218 234 255
218 234 255
218 234 255
218 234 255
218 234 255
218 234 255
218 234 255
218 234 255
218 234 255
218 234 255
218 234 255
218 234 255
218 234 255
218 234 255
218 234 255
218 234 255
218 234 255
218 234 255
218 234 255
218 234 255
218 234 255
218 234 255
218 234 255
218 234 255
218 234 255
218 234 255
218 234 255
218 234 255
218 234 255
218 234 255
218 234 255
218 234 255
218 234 255
218 234 255
218 234 255
218 234 255
218 234 255
218 234 255
218 234 255
218 234 255
218 234 255
218 234 255
218 234 255
218 234 255
218 234 255
218 234 255
218 234 255
218 234 255
218 234 255
218 234 255
218 234 255
218 234 255
218 234 255
218 234 255
218 234 255
218 234 255
218 234 255
218 234 255
218 234 255
218 234 255
218 234 255
218 234 255
218 234 255
218 234 255
218 234 255
218 234 255
218 234 255
218 234 255
218 234 255
218 234 255
218 234 255
218 234 255
218 234 255
218 234 255
218 234 255
218 234 255
218 234 255
218 234 255
218 234 255
218 234 255
218 234 255
218 234 255
218 234 255
218 234 255
218 234 255
218 234 255
218 234 255
218 234 255
218 234 255
218 234 255
218 234 255
218 234 255
218 234 255
218 234 255
218 233 255
218 233 255
218 233 255
218 233 255
218 233 255
218 233 255
218 233 255
218 233 255
218 233 255
218 233 255
217 233 255
217 233 255
217 233 255
217 233 255
217 233 255
217 233 255
217 233 255
217 233 255
217 233 255
217 233 255
217 233 255
217 233 255
217 233 255
217 233 255
217 233 255
217 233 255
217 233 255
217 233 255
217 233 255
217 233 255
217 233 255
217 233 255
217 233 255
217 233 255
217 233 255
217 233 255
217 233 255
217 233 255
217 233 255
217 233 255
217 233 255
217 233 255
217 233 255
217 233 255
217 233 255
217 233 255
217 233 255
217 233 255
217 233 255
217 233 255
217 233 255
217 233 255
217 233 255
217 233 255
217 233 255
217 233 255
217 233 255
217 233 255
217 233 255
217 233 255
217 233 255
217 233 255
217 233 255
217 233 255
217 233 255
217 233 255
217 233 255
217 233 255
217 233 255
217 233 255
217 233 255
217 233 255
217 233 255
217 233 255
217 233 255
217 233 255
217 233 255
217 233 255
217 233 255
217 233 255
217 233 255
217 233 255
217 233 255
217 233 255
217 233 255
217 233 255
217 233 255
217 233 255
217 233 255
217 233 255
217 233 255
217 233 255
217 233 255
217 233 255
217 233 255
217 233 255
217 233 255
217 233 255
216 233 255
216 233 255
216 233 255
216 233 255
216 233 255
216 233 255
216 233 255
216 233 255
216 233 255
216 233 255
216 233 255
216 233 255
216 233 255
216 233 255
216 233 255
216 233 255
216 233 255
216 233 255
216 233 255
216 233 255
216 233 255
216 233 255
216 233 255
216 233 255
216 233 255
216 233 255
216 233 255
216 233 255
216 233 255
216 233 255
216 233 255
216 233 255
216 233 255
216 233 255
216 233 255
216 233 255
216 233 255
216 233 255
216 233 255
216 233 255
216 233 255
216 233 255
216 233 255
216 233 255
216 233 255
216 233 255
216 233 255
216 233 255
216 233 255
216 233 255
216 233 255
216 233 255
216 233 255
216 233 255
216 233 255
216 233 255
216 233 255
216 233 255
216 233 255
216 233 255
216 233 255
216 233 255
216 233 255
216 233 255
216 233 255
216 233 255
216 233 255
216 233 255
216 233 255
216 233 255
216 233 255
216 233 255
216 233 255
216 233 255
216 233 255
216 233 255
216 233 255
216 233 255
216 233 255
216 233 255
216 233 255
217 233 255
217 233 255
217 233 255
217 233 255
217 233 255
217 233 255
217 233 255
217 233 255
217 233 255
217 233 255
217 233 255
217 233 255
217 233 255
217 233 255
217 233 255
217 233 255
217 233 255
217 233 255
217 233 255
217 233 255
217 233 255
217 233 255
217 233 255
217 233 255
217 233 255
217 233 255
217 233 255
217 233 255
217 233 255
217 233 255
217 233 255
217 233 255
217 233 255
217 233 255
217 233 255
217 233 255
217 233 255
217 233 255
217 233 255
217 233 255
217 233 255
217 233 255
217 233 255
217 233 255
217 233 255
217 233 255
217 233 255
217 233 255
217 233 255
217 233 255
217 233 255
217 233 255
217 233 255
217 233 255
217 233 255
217 233 255
217 233 255
217 233 255
217 233 255
217 233 255
217 233 255
217 233 255
217 233 255
217 233 255
217 233 255
217 233 255
217 233 255
217 233 255
217 233 255
217 233 255
217 233 255
217 233 255
217 233 255
217 233 255
217 233 255
217 233 255
217 233 255
217 233 255
217 233 255
217 233 255
217 233 255
217 233 255
217 233 255
217 233 255
217 233 255
217 233 255
217 233 255
217 233 255
217 233 255
217 233 255
218 233 255
218 233 255
218 233 255
218 233 255
218 233 255
218 233 255
218 233 255
218 233 255
218 233 255
218 234 255
218 234 255
218 234 255
218 234 255
218 234 255
218 234 255
218 234 255
218 234 255
218 234 255
218 234 255
218 234 255
218 234 255
218 234 255
218 234 255
218 234 255
218 234 255
218 234 255
218 234 255
218 234 255
218 234 255
218 234 255
218 234 255
218 234 255
218 234 255
218 234 255
218 234 255
218 234 255
218 234 255
218 234 255
218 234 255
218 234 255
218 234 255
218 234 255
218 234 255
218 234 255
218 234 255
218 234 255
218 234 255
218 234 255
218 234 255
218 234 255
218 234 255
218 234 255
218 234 255
218 234 255
218 234 255
218 234 255
218 234 255
218 234 255
218 234 255
218 234 255
218 234 255
218 234 255
218 234 255
218 234 255
218 234 255
218 234 255
218 234 255
218 234 255
218 234 255
218 234 255
218 234 255
218 234 255
218 234 255
218 234 255
218 234 255
218 234 255
218 234 255
218 234 255
218 234 255
218 234 255
218 234 255
218 234 255
218 234 255
218 234 255
218 234 255
218 234 255
218 234 255
218 234 255
218 234 255
218 234 255
218 234 255
218 234 255
218 234 255
218 234 255
218 234 255
218 234 255
218 234 255
218 234 255
218 234 255
218 234 255
218 234 255
218 234 255
218 234 255
218 234 255
218 234 255
218 234 255
218 234 255
218 234 255
218 234 255
218 234 255
218 234 255
218 234 255
218 234 255
218 234 255
218 234 255
218 234 255
218 234 255
218 234 255
218 234 255
218 234 255
218 233 255
218 233 255
218 233 255
218 233 255
218 233 255
218 233 255
218 233 255
218 233 255
218 233 255
217 233 255
217 233 255
217 233 255
217 233 255
217 233 255
217 233 255
217 233 255
217 233 255
217 233 255
217 233 255
217 233 255
217 233 255
217 233 255
217 233 255
217 233 255
217 233 255
217 233 255
217 233 255
217 233 255
217 233 255
217 233 255
217 233 255
217 233 255
217 233 255
217 233 255
217 233 255
217 233 255
217 233 255
217 233 255
217 233 255
217 233 255
217 233 255
217 233 255
217 233 255
217 233 255
217 233 255
217 233 255
217 233 255
217 233 255
217 233 255
217 233 255
217 233 255
217 233 255
217 233 255
217 233 255
217 233 255
217 233 255
217 233 255
217 233 255
217 233 255
217 233 255
217 233 255
217 233 255
217 233 255
217 233 255
217 233 255
217 233 255
217 233 255
217 233 255
217 233 255
217 233 255
217 233 255
217 233 255
217 233 255
217 233 255
217 233 255
217 233 255
217 233 255
217 233 255
217 233 255
217 233 255
217 233 255
217 233 255
217 233 255
217 233 255
217 233 255
217 233 255
217 233 255
217 233 255
217 233 255
217 233 255
217 233 255
216 233 255
216 233 255
216 233 255
216 233 255
216 233 255
216 233 255
216 233 255
216 233 255
216 233 255
216 233 255
216 233 255
216 233 255
216 233 255
216 233 255
216 233 255
216 233 255
216 233 255
216 233 255
216 233 255
216 233 255
216 233 255
216 233 255
216 233 255
216 233 255
216 233 255
216 233 255
216 233 255
216 233 255
216 233 255
216 233 255
216 233 255
216 233 255
216 233 255
216 233 255
216 233 255
216 233 255
216 233 255
216 233 255
216 233 255
216 233 255
216 233 255
216 233 255
216 233 255
216 233 255
216 233 255
216 233 255
216 233 255
216 233 255
216 233 255
216 233 255
216 233 255
216 233 255
216 233 255
216 233 255
216 233 255
216 233 255
216 233 255
216 233 255
216 233 255
216 233 255
216 233 255
216 233 255
216 233 255
216 233 255
216 233 255
216 233 255
216 233 255
216 233 255
216 233 255
216 233 255
216 233 255
216 233 255
216 233 255
216 233 255
216 233 255
216 233 255
216 233 255
216 233 255
216 233 255
216 233 255
216 233 255
216 233 255
216 233 255
216 233 255
216 233 255
216 233 255
216 233 255
216 233 255
216 233 255
216 233 255
216 233 255
216 233 255
216 233 255
216 233 255
216 233 255
216 233 255
216 233 255
216 233 255
216 233 255
216 233 255
216 233 255
216 233 255
216 233 255
216 233 255
216 233 255
216 233 255
216 233 255
216 233 255
216 233 255
216 233 255
216 233 255
216 233 255
216 233 255
216 233 255
216 233 255
216 233 255
216 233 255
216 233 255
216 233 255
217 233 255
217 233 255
217 233 255
217 233 255
217 233 255
217 233 255
217 233 255
217 233 255
217 233 255
217 233 255
217 233 255
217 233 255
217 233 255
217 233 255
217 233 255
217 233 255
217 233 255
217 233 255
217 233 255
217 233 255
217 233 255
217 233 255
217 233 255
217 233 255
217 233 255
217 233 255
217 233 255
217 233 255
217 233 255
217 233 255
217 233 255
217 233 255
217 233 255
217 233 255
217 233 255
217 233 255
217 233 255
217 233 255
217 233 255
217 233 255
217 233 255
217 233 255
217 233 255
217 233 255
217 233 255
217 233 255
217 233 255
217 233 255
217 233 255
217 233 255
217 233 255
217 233 255
217 233 255
217 233 255
217 233 255
217 233 255
217 233 255
217 233 255
217 233 255
217 233 255
217 233 255
217 233 255
217 233 255
217 233 255
217 233 255
217 233 255
217 233 255
217 233 255
217 233 255
217 233 255
217 233 255
217 233 255
217 233 255
217 233 255
217 233 255
217 233 255
217 233 255
217 233 255
217 233 255
217 233 255
217 233 255
217 233 255
218 233 255
218 233 255
218 233 255
218 233 255
218 233 255
218 233 255
218 233 255
218 233 255
218 234 255
218 234 255
218 234 255
218 234 255
218 234 255
218 234 255
218 234 255
218 234 255
218 234 255
218 234 255
218 234 255
218 234 255
218 234 255
218 234 255
218 234 255
218 234 255
218 234 255
218 234 255
218 234 255
218 234 255
218 234 255
218 234 255
218 234 255
218 234 255
218 234 255
218 234 255
218 234 255
218 234 255
218 234 255
218 234 255
218 234 255
218 234 255
218 234 255
218 234 255
218 234 255
218 234 255
218 234 255
218 234 255
218 234 255
218 234 255
218 234 255
218 234 255
218 234 255
218 234 255
218 234 255
218 234 255
218 234 255
218 234 255
218 234 255
218 234 255
218 234 255
218 234 255
218 234 255
218 234 255
218 234 255
218 234 255
218 234 255
218 234 255
218 234 255
218 234 255
218 234 255
218 234 255
218 234 255
218 234 255
218 234 255
218 234 255
218 234 255
218 234 255
218 234 255
218 234 255
218 234 255
218 234 255
218 234 255
218 234 255
218 234 255
218 234 255
218 234 255
218 234 255
218 234 255
218 234 255
218 234 255
218 234 255
218 234 255
218 234 255
218 234 255
218 234 255
218 234 255
218 234 255
218 233 255
218 233 255
218 233 255
218 233 255
218 233 255
218 233 255
218 233 255
218 233 255
218 233 255
217 233 255
217 233 255
217 233 255
217 233 255
217 233 255
217 233 255
217 233 255
217 233 255
217 233 255
217 233 255
217 233 255
217 233 255
217 233 255
217 233 255
217 233 255
217 233 255
217 233 255
217 233 255
217 233 255
217 233 255
217 233 255
217 233 255
217 233 255
217 233 255
217 233 255
217 233 255
217 233 255
217 233 255
217 233 255
217 233 255
217 233 255
217 233 255
217 233 255
217 233 255
217 233 255
217 233 255
217 233 255
217 233 255
217 233 255
217 233 255
217 233 255
217 233 255
217 233 255
217 233 255
217 233 255
217 233 255
217 233 255
217 233 255
217 233 255
217 233 255
217 233 255
217 233 255
217 233 255
217 233 255
217 233 255
217 233 255
217 233 255
217 233 255
217 233 255
217 233 255
217 233 255
217 233 255
217 233 255
217 233 255
217 233 255
217 233 255
217 233 255
217 233 255
217 233 255
217 233 255
217 233 255
217 233 255
217 233 255
217 233 255
217 233 255
217 233 255
217 233 255
217 233 255
216 233 255
216 233 255
216 233 255
216 233 255
216 233 255
216 233 255
216 233 255
216 233 255
216 233 255
216 233 255
216 233 255
216 233 255
216 233 255
216 233 255
216 233 255
216 233 255
216 233 255
216 233 255
216 233 255
216 233 255
216 233 255
216 233 255
216 233 255
216 233 255
216 233 255
216 233 255
216 233 255
216 233 255
216 233 255
216 233 255
216 233 255
216 233 255
216 233 255
216 233 255
216 233 255
216 233 255
216 233 255
216 233 255
216 233 255
216 233 255
216 233 255
216 233 255
216 233 255
216 233 255
216 233 255
216 233 255
216 233 255
216 233 255
216 233 255
216 233 255
216 233 255
216 233 255
216 233 255
216 233 255
216 233 255
216 233 255
216 233 255
216 233 255
216 233 255
216 233 255
216 233 255
216 233 255
216 233 255
216 233 255
216 233 255
216 233 255
216 233 255
216 233 255
216 233 255
216 233 255
216 233 255
216 233 255
216 233 255
216 233 255
216 233 255
216 233 255
216 233 255
216 233 255
216 233 255
216 233 255
216 233 255
216 233 255
216 233 255
216 233 255
216 233 255
216 233 255
216 233 255
216 233 255
216 233 255
216 233 255
216 233 255
216 233 255
216 233 255
216 233 255
216 233 255
216 233 255
216 233 255
216 233 255
216 233 255
216 233 255
216 233 255
216 233 255
216 233 255
216 233 255
216 233 255
216 233 255
216 233 255
216 233 255
216 233 255
216 233 255
216 233 255
216 233 255
216 233 255
216 233 255
216 233 255
216 233 255
216 233 255
216 233 255
216 233 255
216 233 255
216 233 255
216 233 255
216 233 255
216 233 255
216 233 255
216 233 255
216 233 255
216 233 255
216 233 255
216 233 255
216 233 255
216 233 255
216 233 255
216 233 255
216 233 255
216 233 255
216 233 255
216 233 255
216 233 255
216 233 255
216 233 255
216 233 255
216 233 255
216 233 255
216 233 255
216 233 255
216 233 255
216 233 255
216 233 255
217 233 255
217 233 255
217 233 255
217 233 255
217 233 255
217 233 255
217 233 255
217 233 255
217 233 255
217 233 255
217 233 255
217 233 255
217 233 255
217 233 255
217 233 255
217 233 255
217 233 255
217 233 255
217 233 255
217 233 255
217 233 255
217 233 255
217 233 255
217 233 255
217 233 255
217 233 255
217 233 255
217 233 255
217 233 255
217 233 255
217 233 255
217 233 255
217 233 255
217 233 255
217 233 255
217 233 255
217 233 255
217 233 255
217 233 255
217 233 255
217 233 255
217 233 255
217 233 255
217 233 255
217 233 255
217 233 255
217 233 255
217 233 255
217 233 255
217 233 255
217 233 255
217 233 255
217 233 255
217 233 255
217 233 255
217 233 255
217 233 255
217 233 255
217 233 255
217 233 255
217 233 255
217 233 255
217 233 255
217 233 255
217 233 255
217 233 255
217 233 255
217 233 255
217 233 255
217 233 255
217 233 255
217 233 255
217 233 255
217 233 255
217 233 255
217 233 255
217 233 255
217 233 255
217 233 255
218 233 255
218 233 255
218 233 255
218 233 255
218 233 255
218 233 255
218 233 255
218 233 255
218 234 255
218 234 255
218 234 255
218 234 255
218 234 255
218 234 255
218 234 255
218 234 255
218 234 255
218 234 255
218 234 255
218 234 255
218 234 255
218 234 255
218 234 255
218 234 255
218 234 255
218 234 255
218 234 255
218 234 255
218 234 255
218 234 255
218 234 255
218 234 255
218 234 255
218 234 255
218 234 255
218 234 255
218 234 255
218 234 255
218 234 255
218 234 255
218 234 255
218 234 255
218 234 255
218 234 255
218 234 255
218 234 255
218 234 255
218 234 255
218 234 255
218 234 255
218 234 255
218 234 255
218 234 255
218 234 255
218 234 255
218 234 255
218 234 255
218 234 255
218 234 255
218 234 255
218 234 255
218 234 255
218 234 255
218 234 255
218 234 255
218 234 255
218 234 255
218 234 255
218 234 255
218 234 255
218 234 255
218 234 255
218 234 255
218 234 255
218 234 255
218 233 255
218 233 255
218 233 255
218 233 255
218 233 255
218 233 255
218 233 255
218 233 255
218 233 255
217 233 255
217 233 255
217 233 255
217 233 255
217 233 255
217 233 255
217 233 255
217 233 255
217 233 255
217 233 255
217 233 255
217 233 255
217 233 255
217 233 255
217 233 255
217 233 255
217 233 255
217 233 255
217 233 255
217 233 255
217 233 255
217 233 255
217 233 255
217 233 255
217 233 255
217 233 255
217 233 255
217 233 255
217 233 255
217 233 255
217 233 255
217 233 255
217 233 255
217 233 255
217 233 255
217 233 255
217 233 255
217 233 255
217 233 255
217 233 255
217 233 255
217 233 255
217 233 255
217 233 255
217 233 255
217 233 255
217 233 255
217 233 255
217 233 255
217 233 255
217 233 255
217 233 255
217 233 255
217 233 255
217 233 255
217 233 255
217 233 255
217 233 255
217 233 255
217 233 255
217 233 255
217 233 255
217 233 255
217 233 255
217 233 255
217 233 255
217 233 255
217 233 255
217 233 255
217 233 255
217 233 255
217 233 255
217 233 255
217 233 255
217 233 255
217 233 255
216 233 255
216 233 255
216 233 255
216 233 255
216 233 255
216 233 255
216 233 255
216 233 255
216 233 255
216 233 255
216 233 255
216 233 255
216 233 255
216 233 255
216 233 255
216 233 255
216 233 255
216 233 255
216 233 255
216 233 255
216 233 255
216 233 255
216 233 255
216 233 255
216 233 255
216 233 255
216 233 255
216 233 255
216 233 255
216 233 255
216 233 255
216 233 255
216 233 255
216 233 255
216 233 255
216 233 255
216 233 255
216 233 255
216 233 255
216 233 255
216 233 255
216 233 255
216 233 255
216 233 255
216 233 255
216 233 255
216 233 255
216 233 255
216 233 255
216 233 255
216 233 255
216 233 255
216 233 255
216 233 255
216 233 255
216 233 255
216 233 255
216 233 255
216 233 255
216 233 255
216 233 255
216 233 255
216 233 255
216 233 255
216 233 255
216 233 255
216 233 255
216 233 255
216 233 255
216 233 255
216 233 255
216 233 255
216 233 255
216 233 255
216 233 255
216 233 255
216 233 255
216 233 255
216 232 255
216 232 255
216 232 255
216 232 255
216 233 255
216 232 255
216 232 255
216 232 255
216 232 255
216 232 255
216 232 255
216 232 255
216 232 255
216 232 255
216 232 255
216 233 255
216 233 255
216 232 255
216 233 255
216 233 255
216 233 255
216 233 255
216 233 255
216 233 255
216 233 255
216 233 255
216 233 255
216 233 255
216 233 255
216 233 255
216 233 255
216 233 255
216 233 255
216 233 255
216 233 255
216 233 255
216 233 255
216 233 255
216 233 255
216 233 255
216 233 255
216 233 255
216 233 255
216 233 255
216 233 255
216 233 255
216 233 255
216 233 255
216 233 255
216 233 255
216 233 255
216 233 255
216 233 255
216 233 255
216 233 255
216 233 255
216 233 255
216 233 255
216 233 255
216 233 255
216 233 255
216 233 255
216 233 255
216 233 255
216 233 255
216 233 255
216 233 255
216 233 255
216 233 255
216 233 255
216 233 255
216 233 255
216 233 255
216 233 255
216 233 255
216 233 255
216 233 255
216 233 255
216 233 255
216 233 255
216 233 255
216 233 255
216 233 255
216 233 255
216 233 255
216 233 255
216 233 255
216 233 255
216 233 255
216 233 255
216 233 255
216 233 255
216 233 255
216 233 255
216 233 255
216 233 255
217 233 255
217 233 255
217 233 255
217 233 255
217 233 255
217 233 255
217 233 255
217 233 255
217 233 255
217 233 255
217 233 255
217 233 255
217 233 255
217 233 255
217 233 255
217 233 255
217 233 255
217 233 255
217 233 255
217 233 255
217 233 255
217 233 255
217 233 255
217 233 255
217 233 255
217 233 255
217 233 255
217 233 255
217 233 255
217 233 255
217 233 255
217 233 255
217 233 255
217 233 255
217 233 255
217 233 255
217 233 255
217 233 255
217 233 255
217 233 255
217 233 255
217 233 255
217 233 255
217 233 255
217 233 255
217 233 255
217 233 255
217 233 255
217 233 255
217 233 255
217 233 255
217 233 255
217 233 255
217 233 255
217 233 255
217 233 255
217 233 255
217 233 255
217 233 255
217 233 255
217 233 255
217 233 255
217 233 255
217 233 255
217 233 255
217 233 255
217 233 255
217 233 255
217 233 255
217 233 255
217 233 255
217 233 255
217 233 255
217 233 255
217 233 255
217 233 255
218 233 255
218 233 255
218 233 255
218 233 255
218 233 255
218 233 255
218 233 255
218 233 255
218 233 255
218 234 255
218 234 255
218 234 255
218 234 255
218 234 255
218 234 255
218 234 255
218 234 255
218 234 255
218 234 255
218 234 255
218 234 255
218 234 255
218 234 255
218 234 255
218 234 255
218 234 255
218 234 255
218 234 255
218 234 255
218 234 255
218 234 255
218 234 255
218 234 255
218 234 255
218 234 255
218 234 255
218 234 255
218 234 255
218 234 255
218 234 255
218 234 255
218 234 255
218 234 255
218 234 255
218 234 255
218 234 255
218 234 255
218 234 255
218 234 255
218 234 255
218 234 255
218 234 255
218 234 255
218 234 255
218 233 255
218 233 255
218 233 255
218 233 255
218 233 255
218 233 255
218 233 255
218 233 255
218 233 255
217 233 255
217 233 255
217 233 255
217 233 255
217 233 255
217 233 255
217 233 255
217 233 255
217 233 255
217 233 255
217 233 255
217 233 255
217 233 255
217 233 255
217 233 255
217 233 255
217 233 255
217 233 255
217 233 255
217 233 255
217 233 255
217 233 255
217 233 255
217 233 255
217 233 255
217 233 255
217 233 255
217 233 255
217 233 255
217 233 255
217 233 255
217 233 255
217 233 255
217 233 255
217 233 255
217 233 255
217 233 255
217 233 255
217 233 255
217 233 255
217 233 255
217 233 255
217 233 255
217 233 255
217 233 255
217 233 255
217 233 255
217 233 255
217 233 255
217 233 255
217 233 255
217 233 255
217 233 255
217 233 255
217 233 255
217 233 255
217 233 255
217 233 255
217 233 255
217 233 255
217 233 255
217 233 255
217 233 255
217 233 255
217 233 255
217 233 255
217 233 255
217 233 255
217 233 255
217 233 255
217 233 255
217 233 255
217 233 255
217 233 255
217 233 255
216 233 255
216 233 255
216 233 255
216 233 255
216 233 255
216 233 255
216 233 255
216 233 255
216 233 255
216 233 255
216 233 255
216 233 255
216 233 255
216 233 255
216 233 255
216 233 255
216 233 255
216 233 255
216 233 255
216 233 255
216 233 255
216 233 255
216 233 255
216 233 255
216 233 255
216 233 255
216 233 255
216 233 255
216 233 255
216 233 255
216 233 255
216 233 255
216 233 255
216 233 255
216 233 255
216 233 255
216 233 255
216 233 255
216 233 255
216 233 255
216 233 255
216 233 255
216 233 255
216 233 255
216 233 255
216 233 255
216 233 255
216 233 255
216 233 255
216 233 255
216 233 255
216 233 255
216 233 255
216 233 255
216 233 255
216 233 255
216 233 255
216 233 255
216 232 255
216 232 255
216 232 255
216 232 255
216 232 255
216 232 255
216 232 255
216 232 255
216 232 255
216 232 255
216 232 255
216 232 255
216 232 255
216 232 255
216 232 255
216 232 255
216 232 255
216 232 255
216 232 255
216 232 255
216 232 255
216 232 255
216 232 255
216 232 255
216 232 255
216 232 255
216 232 255
216 232 255
216 232 255
216 232 255
216 232 255
216 232 255
216 232 255
216 232 255
216 232 255
216 232 255
216 232 255
216 232 255
216 232 255
216 232 255
216 232 255
216 232 255
216 232 255
216 232 255
216 232 255
216 232 255
216 232 255
216 232 255
216 232 255
216 232 255
216 232 255
216 232 255
216 232 255
216 232 255
216 232 255
216 232 255
216 232 255
216 232 255
216 232 255
216 232 255
216 232 255
216 232 255
216 232 255
216 232 255
216 232 255
216 232 255
216 232 255
216 232 255
216 232 255
216 232 255
216 232 255
216 232 255
216 232 255
216 232 255
216 232 255
216 232 255
216 232 255
216 232 255
216 232 255
216 232 255
216 232 255
216 233 255
216 233 255
216 233 255
216 233 255
216 233 255
216 233 255
216 233 255
216 233 255
216 233 255
216 233 255
216 233 255
216 233 255
216 233 255
216 233 255
216 233 255
216 233 255
216 233 255
216 233 255
216 233 255
216 233 255
216 233 255
216 233 255
216 233 255
216 233 255
216 233 255
216 233 255
216 233 255
216 233 255
216 233 255
216 233 255
216 233 255
216 233 255
216 233 255
216 233 255
216 233 255
216 233 255
216 233 255
216 233 255
216 233 255
216 233 255
216 233 255
216 233 255
216 233 255
216 233 255
216 233 255
216 233 255
216 233 255
216 233 255
216 233 255
216 233 255
216 233 255
216 233 255
216 233 255
216 233 255
216 233 255
216 233 255
216 233 255
216 233 255
216 233 255
217 233 255
217 233 255
217 233 255
217 233 255
217 233 255
217 233 255
217 233 255
217 233 255
217 233 255
217 233 255
217 233 255
217 233 255
217 233 255
217 233 255
217 233 255
217 233 255
217 233 255
217 233 255
217 233 255
217 233 255
217 233 255
217 233 255
217 233 255
217 233 255
217 233 255
217 233 255
217 233 255
217 233 255
217 233 255
217 233 255
217 233 255
217 233 255
217 233 255
217 233 255
217 233 255
217 233 255
217 233 255
217 233 255
217 233 255
217 233 255
217 233 255
217 233 255
217 233 255
217 233 255
217 233 255
217 233 255
217 233 255
217 233 255
217 233 255
217 233 255
217 233 255
217 233 255
217 233 255
217 233 255
217 233 255
217 233 255
217 233 255
217 233 255
217 233 255
217 233 255
217 233 255
217 233 255
217 233 255
217 233 255
217 233 255
217 233 255
217 233 255
217 233 255
217 233 255
217 233 255
217 233 255
217 233 255
217 233 255
217 233 255
217 233 255
217 233 255
218 233 255
218 233 255
218 233 255
218 233 255
218 233 255
218 233 255
218 233 255
218 233 255
218 234 255
218 234 255
218 234 255
218 234 255
218 234 255
218 234 255
218 234 255
218 234 255
218 234 255
218 234 255
218 234 255
218 234 255
218 234 255
218 234 255
218 234 255
218 234 255
218 234 255
218 234 255
218 234 255
218 234 255
218 234 255
218 234 255
218 234 255
218 233 255
218 233 255
218 233 255
218 233 255
218 233 255
218 233 255
218 233 255
218 233 255
218 233 255
217 233 255
217 233 255
217 233 255
217 233 255
217 233 255
217 233 255
217 233 255
217 233 255
217 233 255
217 233 255
217 233 255
217 233 255
217 233 255
217 233 255
217 233 255
217 233 255
217 233 255
217 233 255
217 233 255
217 233 255
217 233 255
217 233 255
217 233 255
217 233 255
217 233 255
217 233 255
217 233 255
217 233 255
217 233 255
217 233 255
217 233 255
217 233 255
217 233 255
217 233 255
217 233 255
217 233 255
217 233 255
217 233 255
217 233 255
217 233 255
217 233 255
217 233 255
217 233 255
217 233 255
217 233 255
217 233 255
217 233 255
217 233 255
217 233 255
217 233 255
217 233 255
217 233 255
217 233 255
217 233 255
217 233 255
217 233 255
217 233 255
217 233 255
217 233 255
217 233 255
217 233 255
217 233 255
217 233 255
217 233 255
217 233 255
217 233 255
217 233 255
217 233 255
217 233 255
217 233 255
217 233 255
217 233 255
217 233 255
217 233 255
217 233 255
217 233 255
216 233 255
216 233 255
216 233 255
216 233 255
216 233 255
216 233 255
216 233 255
216 233 255
216 233 255
216 233 255
216 233 255
216 233 255
216 233 255
216 233 255
216 233 255
216 233 255
216 233 255
216 233 255
216 233 255
216 233 255
216 233 255
216 233 255
216 233 255
216 233 255
216 233 255
216 233 255
216 233 255
216 233 255
216 233 255
216 233 255
216 233 255
216 233 255
216 233 255
216 233 255
216 233 255
216 233 255
216 233 255
216 233 255
216 233 255
216 233 255
216 233 255
216 233 255
216 233 255
216 233 255
216 233 255
216 233 255
216 233 255
216 233 255
216 233 255
216 233 255
216 233 255
216 232 255
216 232 255
216 232 255
216 232 255
216 232 255
216 232 255
216 232 255
216 232 255
216 232 255
216 232 255
216 232 255
216 232 255
216 232 255
216 232 255
216 232 255
216 232 255
216 232 255
216 232 255
216 232 255
216 232 255
216 232 255
216 232 255
216 232 255
216 232 255
216 232 255
216 232 255
216 232 255
216 232 255
216 232 255
216 232 255
216 232 255
216 232 255
216 232 255
216 232 255
216 232 255
216 232 255
216 232 255
216 232 255
215 232 255
215 232 255
215 232 255
215 232 255
215 232 255
215 232 255
215 232 255
215 232 255
215 232 255
215 232 255
215 232 255
215 232 255
215 232 255
215 232 255
215 232 255
215 232 255
215 232 255
215 232 255
215 232 255
215 232 255
215 232 255
215 232 255
215 232 255
215 232 255
215 232 255
215 232 255
215 232 255
215 232 255
215 232 255
215 232 255
215 232 255
215 232 255
215 232 255
215 232 255
215 232 255
215 232 255
215 232 255
215 232 255
215 232 255
215 232 255
215 232 255
216 232 255
216 232 255
216 232 255
216 232 255
216 232 255
216 232 255
216 232 255
216 232 255
216 232 255
216 232 255
216 232 255
216 232 255
216 232 255
216 232 255
216 232 255
216 232 255
216 232 255
216 232 255
216 232 255
216 232 255
216 232 255
216 232 255
216 232 255
216 232 255
216 232 255
216 232 255
216 232 255
216 232 255
216 232 255
216 232 255
216 232 255
216 232 255
216 232 255
216 232 255
216 232 255
216 232 255
216 233 255
216 233 255
216 233 255
216 233 255
216 233 255
216 233 255
216 233 255
216 233 255
216 233 255
216 233 255
216 233 255
216 233 255
216 233 255
216 233 255
216 233 255
216 233 255
216 233 255
216 233 255
216 233 255
216 233 255
216 233 255
216 233 255
216 233 255
216 233 255
216 233 255
216 233 255
216 233 255
216 233 255
216 233 255
216 233 255
216 233 255
216 233 255
216 233 255
216 233 255
216 233 255
216 233 255
216 233 255
216 233 255
216 233 255
216 233 255
216 233 255
216 233 255
216 233 255
216 233 255
216 233 255
216 233 255
216 233 255
216 233 255
216 233 255
216 233 255
216 233 255
216 233 255
217 233 255
217 233 255
217 233 255
217 233 255
217 233 255
217 233 255
217 233 255
217 233 255
217 233 255
217 233 255
217 233 255
217 233 255
217 233 255
217 233 255
217 233 255
217 233 255
217 233 255
217 233 255
217 233 255
217 233 255
217 233 255
217 233 255
217 233 255
217 233 255
217 233 255
217 233 255
217 233 255
217 233 255
217 233 255
217 233 255
217 233 255
217 233 255
217 233 255
217 233 255
217 233 255
217 233 255
217 233 255
217 233 255
217 233 255
217 233 255
217 233 255
217 233 255
217 233 255
217 233 255
217 233 255
217 233 255
217 233 255
217 233 255
217 233 255
217 233 255
217 233 255
217 233 255
217 233 255
217 233 255
217 233 255
217 233 255
217 233 255
217 233 255
217 233 255
217 233 255
217 233 255
217 233 255
217 233 255
217 233 255
217 233 255
217 233 255
217 233 255
217 233 255
217 233 255
217 233 255
217 233 255
217 233 255
217 233 255
217 233 255
217 233 255
217 233 255
218 233 255
218 233 255
218 233 255
218 233 255
218 233 255
218 233 255
218 233 255
218 233 255
218 234 255
218 234 255
218 234 255
218 234 255
218 234 255
218 234 255
218 234 255
218 233 255
218 233 255
218 233 255
218 233 255
218 233 255
217 233 255
217 233 255
217 233 255
217 233 255
217 233 255
217 233 255
217 233 255
217 233 255
217 233 255
217 233 255
217 233 255
217 233 255
217 233 255
217 233 255
217 233 255
217 233 255
217 233 255
217 233 255
217 233 255
217 233 255
217 233 255
217 233 255
217 233 255
217 233 255
217 233 255
217 233 255
217 233 255
217 233 255
217 233 255
217 233 255
217 233 255
217 233 255
217 233 255
217 233 255
217 233 255
217 233 255
217 233 255
217 233 255
217 233 255
217 233 255
217 233 255
217 233 255
217 233 255
217 233 255
217 233 255
217 233 255
217 233 255
217 233 255
217 233 255
217 233 255
217 233 255
217 233 255
217 233 255
217 233 255
217 233 255
217 233 255
217 233 255
217 233 255
217 233 255
217 233 255
217 233 255
217 233 255
217 233 255
217 233 255
217 233 255
217 233 255
217 233 255
217 233 255
217 233 255
217 233 255
217 233 255
217 233 255
217 233 255
217 233 255
217 233 255
217 233 255
216 233 255
216 233 255
216 233 255
216 233 255
216 233 255
216 233 255
216 233 255
216 233 255
216 233 255
216 233 255
216 233 255
216 233 255
216 233 255
216 233 255
216 233 255
216 233 255
216 233 255
216 233 255
216 233 255
216 233 255
216 233 255
216 233 255
216 233 255
216 233 255
216 233 255
216 233 255
216 233 255
216 233 255
216 233 255
216 233 255
216 233 255
216 233 255
216 233 255
216 233 255
216 233 255
216 233 255
216 233 255
216 233 255
216 233 255
216 233 255
216 233 255
216 233 255
216 233 255
216 233 255
216 233 255
216 233 255
216 233 255
216 233 255
216 232 255
216 232 255
216 232 255
216 232 255
216 232 255
216 232 255
216 232 255
216 232 255
216 232 255
216 232 255
216 232 255
216 232 255
216 232 255
216 232 255
216 232 255
216 232 255
216 232 255
216 232 255
216 232 255
216 232 255
216 232 255
216 232 255
216 232 255
216 232 255
216 232 255
216 232 255
216 232 255
216 232 255
215 232 255
215 232 255
215 232 255
215 232 255
215 232 255
215 232 255
215 232 255
215 232 255
215 232 255
215 232 255
215 232 255
215 232 255
215 232 255
215 232 255
215 232 255
215 232 255
215 232 255
215 232 255
215 232 255
215 232 255
215 232 255
215 232 255
215 232 255
215 232 255
215 232 255
215 232 255
215 232 255
215 232 255
215 232 255
215 232 255
215 232 255
215 232 255
215 232 255
215 232 255
215 232 255
215 232 255
215 232 255
215 232 255
215 232 255
215 232 255
215 232 255
215 232 255
215 232 255
215 232 255
215 232 255
215 232 255
215 232 255
215 232 255
215 232 255
215 232 255
215 232 255
215 232 255
215 232 255
215 232 255
215 232 255
215 232 255
215 232 255
215 232 255
215 232 255
215 232 255
215 232 255
215 232 255
215 232 255
215 232 255
215 232 255
215 232 255
215 232 255
215 232 255
215 232 255
215 232 255
215 232 255
215 232 255
215 232 255
215 232 255
215 232 255
215 232 255
215 232 255
215 232 255
215 232 255
215 232 255
215 232 255
215 232 255
215 232 255
215 232 255
215 232 255
215 232 255
216 232 255
216 232 255
216 232 255
216 232 255
216 232 255
216 232 255
216 232 255
216 232 255
216 232 255
216 232 255
216 232 255
216 232 255
216 232 255
216 232 255
216 232 255
216 232 255
216 232 255
216 232 255
216 232 255
216 232 255
216 232 255
216 232 255
216 232 255
216 232 255
216 232 255
216 232 255
216 232 255
216 233 255
216 233 255
216 233 255
216 233 255
216 233 255
216 233 255
216 233 255
216 233 255
216 233 255
216 233 255
216 233 255
216 233 255
216 233 255
216 233 255
216 233 255
216 233 255
216 233 255
216 233 255
216 233 255
216 233 255
216 233 255
216 233 255
216 233 255
216 233 255
216 233 255
216 233 255
216 233 255
216 233 255
216 233 255
216 233 255
216 233 255
216 233 255
216 233 255
216 233 255
216 233 255
216 233 255
216 233 255
216 233 255
216 233 255
216 233 255
216 233 255
216 233 255
216 233 255
216 233 255
216 233 255
216 233 255
216 233 255
216 233 255
216 233 255
217 233 255
217 233 255
217 233 255
217 233 255
217 233 255
217 233 255
217 233 255
217 233 255
217 233 255
217 233 255
217 233 255
217 233 255
217 233 255
217 233 255
217 233 255
217 233 255
217 233 255
217 233 255
217 233 255
217 233 255
217 233 255
217 233 255
217 233 255
217 233 255
217 233 255
217 233 255
217 233 255
217 233 255
217 233 255
217 233 255
217 233 255
217 233 255
217 233 255
217 233 255
217 233 255
217 233 255
217 233 255
217 233 255
217 233 255
217 233 255
217 233 255
217 233 255
217 233 255
217 233 255
217 233 255
217 233 255
217 233 255
217 233 255
217 233 255
217 233 255
217 233 255
217 233 255
217 233 255
217 233 255
217 233 255
217 233 255
217 233 255
217 233 255
217 233 255
217 233 255
217 233 255
217 233 255
217 233 255
217 233 255
217 233 255
217 233 255
217 233 255
217 233 255
217 233 255
217 233 255
217 233 255
217 233 255
217 233 255
217 233 255
217 233 255
217 233 255
218 233 255
218 233 255
218 233 255
218 233 255
218 233 255
217 233 255
217 233 255
217 233 255
217 233 255
217 233 255
217 233 255
217 233 255
217 233 255
217 233 255
217 233 255
217 233 255
217 233 255
217 233 255
217 233 255
217 233 255
217 233 255
217 233 255
217 233 255
217 233 255
217 233 255
217 233 255
217 233 255
217 233 255
217 233 255
217 233 255
217 233 255
217 233 255
217 233 255
217 233 255
217 233 255
217 233 255
217 233 255
217 233 255
217 233 255
217 233 255
217 233 255
217 233 255
217 233 255
217 233 255
217 233 255
217 233 255
217 233 255
217 233 255
217 233 255
217 233 255
217 233 255
217 233 255
217 233 255
217 233 255
217 233 255
217 233 255
217 233 255
217 233 255
217 233 255
217 233 255
217 233 255
217 233 255
217 233 255
217 233 255
217 233 255
217 233 255
217 233 255
217 233 255
217 233 255
217 233 255
217 233 255
217 233 255
217 233 255
217 233 255
217 233 255
217 233 255
216 233 255
216 233 255
216 233 255
216 233 255
216 233 255
216 233 255
216 233 255
216 233 255
216 233 255
216 233 255
216 233 255
216 233 255
216 233 255
216 233 255
216 233 255
216 233 255
216 233 255
216 233 255
216 233 255
216 233 255
216 233 255
216 233 255
216 233 255
216 233 255
216 233 255
216 233 255
216 233 255
216 233 255
216 233 255
216 233 255
216 233 255
216 233 255
216 233 255
216 233 255
216 233 255
216 233 255
216 233 255
216 233 255
216 233 255
216 233 255
216 233 255
216 233 255
216 233 255
216 233 255
216 233 255
216 233 255
216 233 255
216 232 255
216 232 255
216 232 255
216 232 255
216 232 255
216 232 255
216 232 255
216 232 255
216 232 255
216 232 255
216 232 255
216 232 255
216 232 255
216 232 255
216 232 255
216 232 255
216 232 255
216 232 255
216 232 255
216 232 255
216 232 255
216 232 255
216 232 255
216 232 255
215 232 255
215 232 255
215 232 255
215 232 255
215 232 255
215 232 255
215 232 255
215 232 255
215 232 255
215 232 255
215 232 255
215 232 255
215 232 255
215 232 255
215 232 255
215 232 255
215 232 255
215 232 255
215 232 255
215 232 255
215 232 255
215 232 255
215 232 255
215 232 255
215 232 255
215 232 255
215 232 255
215 232 255
215 232 255
215 232 255
215 232 255
215 232 255
215 232 255
215 232 255
215 232 255
215 232 255
215 232 255
215 232 255
215 232 255
215 232 255
215 232 255
215 232 255
215 232 255
215 232 255
215 232 255
215 232 255
215 232 255
215 232 255
215 232 255
215 232 255
215 232 255
215 232 255
215 232 255
215 232 255
215 232 255
215 232 255
215 232 255
215 232 255
215 232 255
215 232 255
215 232 255
215 232 255
215 232 255
215 232 255
215 232 255
215 232 255
215 232 255
215 232 255
215 232 255
215 232 255
215 232 255
215 232 255
215 232 255
215 232 255
215 232 255
215 232 255
215 232 255
215 232 255
215 232 255
215 232 255
215 232 255
215 232 255
215 232 255
215 232 255
215 232 255
215 232 255
215 232 255
215 232 255
215 232 255
215 232 255
215 232 255
215 232 255
215 232 255
215 232 255
215 232 255
215 232 255
215 232 255
215 232 255
215 232 255
215 232 255
215 232 255
215 232 255
215 232 255
215 232 255
215 232 255
215 232 255
215 232 255
215 232 255
215 232 255
215 232 255
215 232 255
215 232 255
215 232 255
215 232 255
215 232 255
215 232 255
215 232 255
216 232 255
216 232 255
216 232 255
216 232 255
216 232 255
216 232 255
216 232 255
216 232 255
216 232 255
216 232 255
216 232 255
216 232 255
216 232 255
216 232 255
216 232 255
216 232 255
216 232 255
216 232 255
216 232 255
216 232 255
216 232 255
216 232 255
216 232 255
216 233 255
216 233 255
216 233 255
216 233 255
216 233 255
216 233 255
216 233 255
216 233 255
216 233 255
216 233 255
216 233 255
216 233 255
216 233 255
216 233 255
216 233 255
216 233 255
216 233 255
216 233 255
216 233 255
216 233 255
216 233 255
216 233 255
216 233 255
216 233 255
216 233 255
216 233 255
216 233 255
216 233 255
216 233 255
216 233 255
216 233 255
216 233 255
216 233 255
216 233 255
216 233 255
216 233 255
216 233 255
216 233 255
216 233 255
216 233 255
216 233 255
216 233 255
216 233 255
216 233 255
216 233 255
216 233 255
216 233 255
217 233 255
217 233 255
217 233 255
217 233 255
217 233 255
217 233 255
217 233 255
217 233 255
217 233 255
217 233 255
217 233 255
217 233 255
217 233 255
217 233 255
217 233 255
217 233 255
217 233 255
217 233 255
217 233 255
217 233 255
217 233 255
217 233 255
217 233 255
217 233 255
217 233 255
217 233 255
217 233 255
217 233 255
217 233 255
217 233 255
217 233 255
217 233 255
217 233 255
217 233 255
217 233 255
217 233 255
217 233 255
217 233 255
217 233 255
217 233 255
217 233 255
217 233 255
217 233 255
217 233 255
217 233 255
217 233 255
217 233 255
217 233 255
217 233 255
217 233 255
217 233 255
217 233 255
217 233 255
217 233 255
217 233 255
217 233 255
217 233 255
217 233 255
217 233 255
217 233 255
217 233 255
217 233 255
217 233 255
217 233 255
217 233 255
217 233 255
217 233 255
217 233 255
217 233 255
217 233 255
217 233 255
217 233 255
217 233 255
217 233 255
217 233 255
217 233 255
217 233 255
217 233 255
217 233 255
217 233 255
217 233 255
217 233 255
217 233 255
217 233 255
217 233 255
217 233 255
217 233 255
217 233 255
217 233 255
217 233 255
217 233 255
217 233 255
217 233 255
217 233 255
217 233 255
217 233 255
217 233 255
217 233 255
217 233 255
217 233 255
217 233 255
217 233 255
217 233 255
217 233 255
217 233 255
217 233 255
217 233 255
217 233 255
217 233 255
217 233 255
217 233 255
217 233 255
217 233 255
217 233 255
217 233 255
217 233 255
217 233 255
217 233 255
217 233 255
217 233 255
217 233 255
217 233 255
217 233 255
217 233 255
217 233 255
217 233 255
217 233 255
217 233 255
217 233 255
217 233 255
217 233 255
217 233 255
217 233 255
216 233 255
216 233 255
216 233 255
216 233 255
216 233 255
216 233 255
216 233 255
216 233 255
216 233 255
216 233 255
216 233 255
216 233 255
216 233 255
216 233 255
216 233 255
216 233 255
216 233 255
216 233 255
216 233 255
216 233 255
216 233 255
216 233 255
216 233 255
216 233 255
216 233 255
216 233 255
216 233 255
216 233 255
216 233 255
216 233 255
216 233 255
216 233 255
216 233 255
216 233 255
216 233 255
216 233 255
216 233 255
216 233 255
216 233 255
216 233 255
216 233 255
216 233 255
216 233 255
216 233 255
216 233 255
216 232 255
216 232 255
216 232 255
216 232 255
216 232 255
216 232 255
216 232 255
216 232 255
216 232 255
216 232 255
216 232 255
216 232 255
216 232 255
216 232 255
216 232 255
216 232 255
216 232 255
216 232 255
216 232 255
216 232 255
216 232 255
216 232 255
215 232 255
215 232 255
215 232 255
215 232 255
215 232 255
215 232 255
215 232 255
215 232 255
215 232 255
215 232 255
215 232 255
215 232 255
215 232 255
215 232 255
215 232 255
215 232 255
215 232 255
215 232 255
215 232 255
215 232 255
215 232 255
215 232 255
215 232 255
215 232 255
215 232 255
215 232 255
215 232 255
215 232 255
215 232 255
215 232 255
215 232 255
215 232 255
215 232 255
215 232 255
215 232 255
215 232 255
215 232 255
215 232 255
215 232 255
215 232 255
215 232 255
215 232 255
215 232 255
215 232 255
215 232 255
215 232 255
215 232 255
215 232 255
215 232 255
215 232 255
215 232 255
215 232 255
215 232 255
215 232 255
215 232 255
215 232 255
215 232 255
215 232 255
215 232 255
215 232 255
215 232 255
215 232 255
215 232 255
215 232 255
215 232 255
215 232 255
215 232 255
215 232 255
215 232 255
215 232 255
215 232 255
215 232 255
215 232 255
215 232 255
215 232 255
215 232 255
215 232 255
215 232 255
215 232 255
215 232 255
215 232 255
215 232 255
215 232 255
215 232 255
215 232 255
215 232 255
215 232 255
215 232 255
215 232 255
215 232 255
215 232 255
215 232 255
215 232 255
215 232 255
215 232 255
215 232 255
215 232 255
215 232 255
215 232 255
215 232 255
215 232 255
215 232 255
215 232 255
215 232 255
215 232 255
215 232 255
215 232 255
215 232 255
215 232 255
215 232 255
215 232 255
215 232 255
215 232 255
215 232 255
215 232 255
215 232 255
215 232 255
215 232 255
215 232 255
215 232 255
215 232 255
215 232 255
215 232 255
215 232 255
215 232 255
215 232 255
215 232 255
215 232 255
215 232 255
215 232 255
215 232 255
215 232 255
215 232 255
215 232 255
215 232 255
215 232 255
215 232 255
215 232 255
215 232 255
215 232 255
215 232 255
215 232 255
216 232 255
216 232 255
216 232 255
216 232 255
216 232 255
216 232 255
216 232 255
216 232 255
216 232 255
216 232 255
216 232 255
216 232 255
216 232 255
216 232 255
216 232 255
216 232 255
216 232 255
216 232 255
216 232 255
216 232 255
216 232 255
216 232 255
216 233 255
216 233 255
216 233 255
216 233 255
216 233 255
216 233 255
216 233 255
216 233 255
216 233 255
216 233 255
216 233 255
216 233 255
216 233 255
216 233 255
216 233 255
216 233 255
216 233 255
216 233 255
216 233 255
216 233 255
216 233 255
216 233 255
216 233 255
216 233 255
216 233 255
216 233 255
216 233 255
216 233 255
216 233 255
216 233 255
216 233 255
216 233 255
216 233 255
216 233 255
216 233 255
216 233 255
216 233 255
216 233 255
216 233 255
216 233 255
216 233 255
216 233 255
216 233 255
216 233 255
216 233 255
217 233 255
217 233 255
217 233 255
217 233 255
217 233 255
217 233 255
217 233 255
217 233 255
217 233 255
217 233 255
217 233 255
217 233 255
217 233 255
217 233 255
217 233 255
217 233 255
217 233 255
217 233 255
217 233 255
217 233 255
217 233 255
217 233 255
217 233 255
217 233 255
217 233 255
217 233 255
217 233 255
217 233 255
217 233 255
217 233 255
217 233 255
217 233 255
217 233 255
217 233 255
217 233 255
217 233 255
217 233 255
217 233 255
217 233 255
217 233 255
217 233 255
217 233 255
217 233 255
217 233 255
217 233 255
217 233 255
217 233 255
217 233 255
217 233 255
217 233 255
217 233 255
217 233 255
217 233 255
217 233 255
217 233 255
217 233 255
217 233 255
217 233 255
217 233 255
217 233 255
217 233 255
217 233 255
