P3
400 225
255
217 233 255
217 233 255
217 233 255
217 233 255
217 233 255
217 233 255
217 233 255
217 233 255
217 233 255
217 233 255
217 233 255
217 233 255
217 233 255
217 233 255
217 233 255
217 233 255
217 233 255
217 233 255
217 233 255
217 233 255
217 233 255
217 233 255
217 233 255
217 233 255
217 233 255
217 233 255
217 233 255
217 233 255
217 233 255
217 233 255
217 233 255
217 233 255
217 233 255
217 233 255
217 233 255
217 233 255
217 233 255
217 233 255
217 233 255
217 233 255
217 233 255
217 233 255
217 233 255
217 233 255
217 233 255
217 233 255
217 233 255
217 233 255
217 233 255
217 233 255
217 233 255
217 233 255
217 233 255
217 233 255
217 233 255
217 233 255
217 233 255
217 233 255
217 233 255
217 233 255
217 233 255
217 233 255
216 233 255
216 233 255
216 233 255
216 233 255
216 233 255
216 233 255
216 233 255
216 233 255
216 233 255
216 233 255
216 233 255
216 233 255
216 233 255
216 233 255
216 233 255
216 233 255
216 233 255
216 233 255
216 233 255
216 233 255
216 233 255
216 233 255
216 233 255
216 233 255
216 233 255
216 233 255
216 233 255
216 233 255
216 233 255
216 233 255
216 233 255
216 233 255
216 233 255
216 233 255
216 233 255
216 233 255
216 233 255
216 233 255
216 233 255
216 233 255
216 233 255
216 233 255
216 233 255
216 233 255
216 233 255
216 232 255
216 232 255
216 232 255
216 232 255
216 232 255
216 232 255
216 232 255
216 232 255
216 232 255
216 232 255
216 232 255
216 232 255
216 232 255
216 232 255
216 232 255
216 232 255
216 232 255
216 232 255
216 232 255
216 232 255
216 232 255
216 232 255
215 232 255
215 232 255
215 232 255
215 232 255
215 232 255
215 232 255
215 232 255
215 232 255
215 232 255
215 232 255
215 232 255
215 232 255
215 232 255
215 232 255
215 232 255
215 232 255
215 232 255
215 232 255
215 232 255
215 232 255
215 232 255
215 232 255
215 232 255
215 232 255
215 232 255
215 232 255
215 232 255
215 232 255
215 232 255
215 232 255
215 232 255
215 232 255
215 232 255
215 232 255
215 232 255
215 232 255
215 232 255
215 232 255
215 232 255
215 232 255
215 232 255
215 232 255
215 232 255
215 232 255
215 232 255
215 232 255
215 232 255
215 232 255
215 232 255
215 232 255
215 232 255
215 232 255
215 232 255
215 232 255
215 232 255
215 232 255
215 232 255
215 232 255
215 232 255
215 232 255
215 232 255
215 232 255
215 232 255
215 232 255
215 232 255
215 232 255
215 232 255
215 232 255
215 232 255
215 232 255
215 232 255
215 232 255
215 232 255
215 232 255
215 232 255
215 232 255
215 232 255
215 232 255
215 232 255
215 232 255
215 232 255
215 232 255
215 232 255
215 232 255
215 232 255
215 232 255
215 232 255
215 232 255
215 232 255
215 232 255
215 232 255
215 232 255
215 232 255
215 232 255
215 232 255
215 232 255
215 232 255
215 232 255
215 232 255
215 232 255
215 232 255
215 232 255
215 232 255
215 232 255
215 232 255
215 232 255
215 232 255
215 232 255
215 232 255
215 232 255
215 232 255
215 232 255
215 232 255
215 232 255
215 232 255
215 232 255
215 232 255
215 232 255
215 232 255
215 232 255
215 232 255
215 232 255
215 232 255
215 232 255
215 232 255
215 232 255
215 232 255
215 232 255
215 232 255
215 232 255
215 232 255
215 232 255
215 232 255
215 232 255
215 232 255
215 232 255
215 232 255
215 232 255
215 232 255
215 232 255
215 232 255
215 232 255
216 232 255
216 232 255
216 232 255
216 232 255
216 232 255
216 232 255
216 232 255
216 232 255
216 232 255
216 232 255
216 232 255
216 232 255
216 232 255
216 232 255
216 232 255
216 232 255
216 232 255
216 232 255
216 232 255
216 232 255
216 232 255
216 232 255
216 233 255
216 233 255
216 233 255
216 233 255
216 233 255
216 233 255
216 233 255
216 233 255
216 233 255
216 233 255
216 233 255
216 233 255
216 233 255
216 233 255
216 233 255
216 233 255
216 233 255
216 233 255
216 233 255
216 233 255
216 233 255
216 233 255
216 233 255
216 233 255
216 233 255
216 233 255
216 233 255
216 233 255
216 233 255
216 233 255
216 233 255
216 233 255
216 233 255
216 233 255
216 233 255
216 233 255
216 233 255
216 233 255
216 233 255
216 233 255
216 233 255
216 233 255
216 233 255
216 233 255
216 233 255
216 233 255
217 233 255
217 233 255
217 233 255
217 233 255
217 233 255
217 233 255
217 233 255
217 233 255
217 233 255
217 233 255
217 233 255
217 233 255
217 233 255
217 233 255
217 233 255
217 233 255
217 233 255
217 233 255
217 233 255
217 233 255
217 233 255
217 233 255
217 233 255
217 233 255
217 233 255
217 233 255
217 233 255
217 233 255
217 233 255
217 233 255
217 233 255
217 233 255
217 233 255
217 233 255
217 233 255
217 233 255
217 233 255
217 233 255
217 233 255
217 233 255
217 233 255
217 233 255
217 233 255
217 233 255
217 233 255
217 233 255
217 233 255
217 233 255
217 233 255
217 233 255
217 233 255
217 233 255
217 233 255
217 233 255
217 233 255
217 233 255
217 233 255
217 233 255
217 233 255
217 233 255
217 233 255
217 233 255
217 233 255
217 233 255
217 233 255
217 233 255
217 233 255
217 233 255
217 233 255
217 233 255
217 233 255
217 233 255
217 233 255
217 233 255
217 233 255
217 233 255
217 233 255
217 233 255
217 233 255
217 233 255
217 233 255
217 233 255
217 233 255
217 233 255
217 233 255
217 233 255
217 233 255
217 233 255
217 233 255
217 233 255
217 233 255
217 233 255
217 233 255
217 233 255
217 233 255
217 233 255
217 233 255
217 233 255
217 233 255
217 233 255
217 233 255
217 233 255
217 233 255
217 233 255
217 233 255
217 233 255
217 233 255
217 233 255
217 233 255
217 233 255
217 233 255
217 233 255
217 233 255
217 233 255
217 233 255
217 233 255
217 233 255
217 233 255
217 233 255
217 233 255
217 233 255
217 233 255
217 233 255
217 233 255
217 233 255
217 233 255
217 233 255
217 233 255
217 233 255
217 233 255
217 233 255
217 233 255
216 233 255
216 233 255
216 233 255
216 233 255
216 233 255
216 233 255
216 233 255
216 233 255
216 233 255
216 233 255
216 233 255
216 233 255
216 233 255
216 233 255
216 233 255
216 233 255
216 233 255
216 233 255
216 233 255
216 233 255
216 233 255
216 233 255
216 233 255
216 233 255
216 233 255
216 233 255
216 233 255
216 233 255
216 233 255
216 233 255
216 233 255
216 233 255
216 233 255
216 233 255
216 233 255
216 233 255
216 233 255
216 233 255
216 233 255
216 233 255
216 233 255
216 233 255
216 233 255
216 233 255
216 233 255
216 233 255
216 233 255
216 232 255
216 232 255
216 232 255
216 232 255
216 232 255
216 232 255
216 232 255
216 232 255
216 232 255
216 232 255
216 232 255
216 232 255
216 232 255
216 232 255
216 232 255
216 232 255
216 232 255
216 232 255
216 232 255
216 232 255
216 232 255
216 232 255
216 232 255
215 232 255
215 232 255
215 232 255
215 232 255
215 232 255
215 232 255
215 232 255
215 232 255
215 232 255
215 232 255
215 232 255
215 232 255
215 232 255
215 232 255
215 232 255
215 232 255
215 232 255
215 232 255
215 232 255
215 232 255
215 232 255
215 232 255
215 232 255
215 232 255
215 232 255
215 232 255
215 232 255
215 232 255
215 232 255
215 232 255
215 232 255
215 232 255
215 232 255
215 232 255
215 232 255
215 232 255
215 232 255
215 232 255
215 232 255
215 232 255
215 232 255
215 232 255
215 232 255
215 232 255
215 232 255
215 232 255
215 232 255
215 232 255
215 232 255
215 232 255
215 232 255
215 232 255
215 232 255
215 232 255
215 232 255
215 232 255
215 232 255
215 232 255
215 232 255
215 232 255
215 232 255
215 232 255
215 232 255
215 232 255
215 232 255
215 232 255
215 232 255
215 232 255
215 232 255
215 232 255
215 232 255
215 232 255
215 232 255
215 232 255
215 232 255
215 232 255
215 232 255
215 232 255
215 232 255
215 232 255
215 232 255
215 232 255
215 232 255
215 232 255
215 232 255
215 232 255
215 232 255
215 232 255
215 232 255
215 232 255
215 232 255
215 232 255
215 232 255
215 232 255
215 232 255
215 232 255
215 232 255
215 232 255
215 232 255
215 232 255
215 232 255
215 232 255
215 232 255
215 232 255
215 232 255
215 232 255
215 232 255
215 232 255
215 232 255
215 232 255
215 232 255
215 232 255
215 232 255
215 232 255
215 232 255
215 232 255
215 232 255
216 232 255
216 232 255
216 232 255
216 232 255
216 232 255
216 232 255
216 232 255
216 232 255
216 232 255
216 232 255
216 232 255
216 232 255
216 232 255
216 232 255
216 232 255
216 232 255
216 232 255
216 232 255
216 232 255
216 232 255
216 232 255
216 232 255
216 232 255
216 232 255
216 233 255
216 233 255
216 233 255
216 233 255
216 233 255
216 233 255
216 233 255
216 233 255
216 233 255
216 233 255
216 233 255
216 233 255
216 233 255
216 233 255
216 233 255
216 233 255
216 233 255
216 233 255
216 233 255
216 233 255
216 233 255
216 233 255
216 233 255
216 233 255
216 233 255
216 233 255
216 233 255
216 233 255
216 233 255
216 233 255
216 233 255
216 233 255
216 233 255
216 233 255
216 233 255
216 233 255
216 233 255
216 233 255
216 233 255
216 233 255
216 233 255
216 233 255
216 233 255
216 233 255
216 233 255
216 233 255
216 233 255
217 233 255
217 233 255
217 233 255
217 233 255
217 233 255
217 233 255
217 233 255
217 233 255
217 233 255
217 233 255
217 233 255
217 233 255
217 233 255
217 233 255
217 233 255
217 233 255
217 233 255
217 233 255
217 233 255
217 233 255
217 233 255
217 233 255
217 233 255
217 233 255
217 233 255
217 233 255
217 233 255
217 233 255
217 233 255
217 233 255
217 233 255
217 233 255
217 233 255
217 233 255
217 233 255
217 233 255
217 233 255
217 233 255
217 233 255
217 233 255
217 233 255
217 233 255
217 233 255
217 233 255
217 233 255
217 233 255
217 233 255
217 233 255
217 233 255
217 233 255
217 233 255
217 233 255
217 233 255
217 233 255
217 233 255
217 233 255
217 233 255
217 233 255
217 233 255
217 233 255
217 233 255
217 233 255
217 233 255
217 233 255
217 233 255
217 233 255
217 233 255
217 233 255
217 233 255
217 233 255
217 233 255
218 233 255
218 233 255
218 233 255
218 233 255
218 233 255
218 233 255
217 233 255
217 233 255
217 233 255
217 233 255
217 233 255
217 233 255
217 233 255
217 233 255
217 233 255
217 233 255
217 233 255
217 233 255
217 233 255
217 233 255
217 233 255
217 233 255
217 233 255
217 233 255
217 233 255
217 233 255
217 233 255
217 233 255
217 233 255
217 233 255
217 233 255
217 233 255
217 233 255
217 233 255
217 233 255
217 233 255
217 233 255
217 233 255
217 233 255
217 233 255
217 233 255
217 233 255
217 233 255
217 233 255
217 233 255
217 233 255
217 233 255
217 233 255
217 233 255
217 233 255
217 233 255
217 233 255
217 233 255
217 233 255
217 233 255
217 233 255
217 233 255
217 233 255
217 233 255
217 233 255
217 233 255
217 233 255
217 233 255
217 233 255
217 233 255
217 233 255
217 233 255
217 233 255
217 233 255
217 233 255
217 233 255
217 233 255
217 233 255
217 233 255
217 233 255
217 233 255
217 233 255
217 233 255
217 233 255
217 233 255
217 233 255
216 233 255
216 233 255
216 233 255
216 233 255
216 233 255
216 233 255
216 233 255
216 233 255
216 233 255
216 233 255
216 233 255
216 233 255
216 233 255
216 233 255
216 233 255
216 233 255
216 233 255
216 233 255
216 233 255
216 233 255
216 233 255
216 233 255
216 233 255
216 233 255
216 233 255
216 233 255
216 233 255
216 233 255
216 233 255
216 233 255
216 233 255
216 233 255
216 233 255
216 233 255
216 233 255
216 233 255
216 233 255
216 233 255
216 233 255
216 233 255
216 233 255
216 233 255
216 233 255
216 233 255
216 233 255
216 233 255
216 233 255
216 233 255
216 232 255
216 232 255
216 232 255
216 232 255
216 232 255
216 232 255
216 232 255
216 232 255
216 232 255
216 232 255
216 232 255
216 232 255
216 232 255
216 232 255
216 232 255
216 232 255
216 232 255
216 232 255
216 232 255
216 232 255
216 232 255
216 232 255
216 232 255
216 232 255
216 232 255
216 232 255
216 232 255
216 232 255
215 232 255
215 232 255
215 232 255
215 232 255
215 232 255
215 232 255
215 232 255
215 232 255
215 232 255
215 232 255
215 232 255
215 232 255
215 232 255
215 232 255
215 232 255
215 232 255
215 232 255
215 232 255
215 232 255
215 232 255
215 232 255
215 232 255
215 232 255
215 232 255
215 232 255
215 232 255
215 232 255
215 232 255
215 232 255
215 232 255
215 232 255
215 232 255
215 232 255
215 232 255
215 232 255
215 232 255
215 232 255
215 232 255
215 232 255
215 232 255
215 232 255
215 232 255
215 232 255
215 232 255
215 232 255
215 232 255
215 232 255
215 232 255
215 232 255
215 232 255
215 232 255
215 232 255
215 232 255
215 232 255
215 232 255
215 232 255
215 232 255
215 232 255
215 232 255
215 232 255
215 232 255
215 232 255
215 232 255
215 232 255
215 232 255
215 232 255
215 232 255
215 232 255
215 232 255
215 232 255
215 232 255
215 232 255
215 232 255
215 232 255
215 232 255
215 232 255
215 232 255
215 232 255
215 232 255
215 232 255
215 232 255
215 232 255
215 232 255
215 232 255
215 232 255
215 232 255
215 232 255
216 232 255
216 232 255
216 232 255
216 232 255
216 232 255
216 232 255
216 232 255
216 232 255
216 232 255
216 232 255
216 232 255
216 232 255
216 232 255
216 232 255
216 232 255
216 232 255
216 232 255
216 232 255
216 232 255
216 232 255
216 232 255
216 232 255
216 232 255
216 232 255
216 232 255
216 232 255
216 233 255
216 233 255
216 233 255
216 233 255
216 233 255
216 233 255
216 233 255
216 233 255
216 233 255
216 233 255
216 233 255
216 233 255
216 233 255
216 233 255
216 233 255
216 233 255
216 233 255
216 233 255
216 233 255
216 233 255
216 233 255
216 233 255
216 233 255
216 233 255
216 233 255
216 233 255
216 233 255
216 233 255
216 233 255
216 233 255
216 233 255
216 233 255
216 233 255
216 233 255
216 233 255
216 233 255
216 233 255
216 233 255
216 233 255
216 233 255
216 233 255
216 233 255
216 233 255
216 233 255
216 233 255
216 233 255
216 233 255
216 233 255
216 233 255
217 233 255
217 233 255
217 233 255
217 233 255
217 233 255
217 233 255
217 233 255
217 233 255
217 233 255
217 233 255
217 233 255
217 233 255
217 233 255
217 233 255
217 233 255
217 233 255
217 233 255
217 233 255
217 233 255
217 233 255
217 233 255
217 233 255
217 233 255
217 233 255
217 233 255
217 233 255
217 233 255
217 233 255
217 233 255
217 233 255
217 233 255
217 233 255
217 233 255
217 233 255
217 233 255
217 233 255
217 233 255
217 233 255
217 233 255
217 233 255
217 233 255
217 233 255
217 233 255
217 233 255
217 233 255
217 233 255
217 233 255
217 233 255
217 233 255
217 233 255
217 233 255
217 233 255
217 233 255
217 233 255
217 233 255
217 233 255
217 233 255
217 233 255
217 233 255
217 233 255
217 233 255
217 233 255
217 233 255
217 233 255
217 233 255
217 233 255
217 233 255
217 233 255
217 233 255
217 233 255
217 233 255
217 233 255
217 233 255
217 233 255
217 233 255
217 233 255
218 233 255
218 233 255
218 233 255
218 233 255
218 233 255
218 234 255
218 234 255
218 234 255
218 234 255
218 234 255
218 234 255
218 234 255
218 233 255
218 233 255
218 233 255
218 233 255
218 233 255
218 233 255
218 233 255
218 233 255
217 233 255
217 233 255
217 233 255
217 233 255
217 233 255
217 233 255
217 233 255
217 233 255
217 233 255
217 233 255
217 233 255
217 233 255
217 233 255
217 233 255
217 233 255
217 233 255
217 233 255
217 233 255
217 233 255
217 233 255
217 233 255
217 233 255
217 233 255
217 233 255
217 233 255
217 233 255
217 233 255
217 233 255
217 233 255
217 233 255
217 233 255
217 233 255
217 233 255
217 233 255
217 233 255
217 233 255
217 233 255
217 233 255
217 233 255
217 233 255
217 233 255
217 233 255
217 233 255
217 233 255
217 233 255
217 233 255
217 233 255
217 233 255
217 233 255
217 233 255
217 233 255
217 233 255
217 233 255
217 233 255
217 233 255
217 233 255
217 233 255
217 233 255
217 233 255
217 233 255
217 233 255
217 233 255
217 233 255
217 233 255
217 233 255
217 233 255
217 233 255
217 233 255
217 233 255
217 233 255
217 233 255
217 233 255
217 233 255
217 233 255
217 233 255
217 233 255
216 233 255
216 233 255
216 233 255
216 233 255
216 233 255
216 233 255
216 233 255
216 233 255
216 233 255
216 233 255
216 233 255
216 233 255
216 233 255
216 233 255
216 233 255
216 233 255
216 233 255
216 233 255
216 233 255
216 233 255
216 233 255
216 233 255
216 233 255
216 233 255
216 233 255
216 233 255
216 233 255
216 233 255
216 233 255
216 233 255
216 233 255
216 233 255
216 233 255
216 233 255
216 233 255
216 233 255
216 233 255
216 233 255
216 233 255
216 233 255
216 233 255
216 233 255
216 233 255
216 233 255
216 233 255
216 233 255
216 233 255
216 233 255
216 233 255
216 233 255
216 233 255
216 233 255
216 232 255
216 232 255
216 232 255
216 232 255
216 232 255
216 232 255
216 232 255
216 232 255
216 232 255
216 232 255
216 232 255
216 232 255
216 232 255
216 232 255
216 232 255
216 232 255
216 232 255
216 232 255
216 232 255
216 232 255
216 232 255
216 232 255
216 232 255
216 232 255
216 232 255
216 232 255
216 232 255
216 232 255
216 232 255
216 232 255
216 232 255
216 232 255
216 232 255
216 232 255
216 232 255
216 232 255
216 232 255
215 232 255
215 232 255
216 232 255
215 232 255
215 232 255
215 232 255
215 232 255
215 232 255
215 232 255
215 232 255
215 232 255
215 232 255
215 232 255
215 232 255
215 232 255
215 232 255
215 232 255
215 232 255
215 232 255
215 232 255
215 232 255
215 232 255
215 232 255
215 232 255
215 232 255
215 232 255
215 232 255
215 232 255
215 232 255
215 232 255
215 232 255
215 232 255
215 232 255
215 232 255
215 232 255
215 232 255
215 232 255
215 232 255
215 232 255
215 232 255
216 232 255
216 232 255
216 232 255
216 232 255
216 232 255
216 232 255
216 232 255
216 232 255
216 232 255
216 232 255
216 232 255
216 232 255
216 232 255
216 232 255
216 232 255
216 232 255
216 232 255
216 232 255
216 232 255
216 232 255
216 232 255
216 232 255
216 232 255
216 232 255
216 232 255
216 232 255
216 232 255
216 232 255
216 232 255
216 232 255
216 232 255
216 232 255
216 232 255
216 232 255
216 232 255
216 232 255
216 232 255
216 232 255
216 233 255
216 233 255
216 233 255
216 233 255
216 233 255
216 233 255
216 233 255
216 233 255
216 233 255
216 233 255
216 233 255
216 233 255
216 233 255
216 233 255
216 233 255
216 233 255
216 233 255
216 233 255
216 233 255
216 233 255
216 233 255
216 233 255
216 233 255
216 233 255
216 233 255
216 233 255
216 233 255
216 233 255
216 233 255
216 233 255
216 233 255
216 233 255
216 233 255
216 233 255
216 233 255
216 233 255
216 233 255
216 233 255
216 233 255
216 233 255
216 233 255
216 233 255
216 233 255
216 233 255
216 233 255
216 233 255
216 233 255
216 233 255
216 233 255
216 233 255
216 233 255
217 233 255
217 233 255
217 233 255
217 233 255
217 233 255
217 233 255
217 233 255
217 233 255
217 233 255
217 233 255
217 233 255
217 233 255
217 233 255
217 233 255
217 233 255
217 233 255
217 233 255
217 233 255
217 233 255
217 233 255
217 233 255
217 233 255
217 233 255
217 233 255
217 233 255
217 233 255
217 233 255
217 233 255
217 233 255
217 233 255
217 233 255
217 233 255
217 233 255
217 233 255
217 233 255
217 233 255
217 233 255
217 233 255
217 233 255
217 233 255
217 233 255
217 233 255
217 233 255
217 233 255
217 233 255
217 233 255
217 233 255
217 233 255
217 233 255
217 233 255
217 233 255
217 233 255
217 233 255
217 233 255
217 233 255
217 233 255
217 233 255
217 233 255
217 233 255
217 233 255
217 233 255
217 233 255
217 233 255
217 233 255
217 233 255
217 233 255
217 233 255
217 233 255
217 233 255
217 233 255
217 233 255
217 233 255
217 233 255
217 233 255
217 233 255
217 233 255
218 233 255
218 233 255
218 233 255
218 233 255
218 233 255
218 233 255
218 233 255
218 233 255
218 234 255
218 234 255
218 234 255
218 234 255
218 234 255
218 234 255
218 234 255
218 234 255
218 234 255
218 234 255
218 234 255
218 234 255
218 234 255
218 234 255
218 234 255
218 234 255
218 234 255
218 234 255
218 234 255
218 234 255
218 234 255
218 234 255
218 234 255
218 234 255
218 233 255
218 233 255
218 233 255
218 233 255
218 233 255
218 233 255
218 233 255
218 233 255
218 233 255
217 233 255
217 233 255
217 233 255
217 233 255
217 233 255
217 233 255
217 233 255
217 233 255
217 233 255
217 233 255
217 233 255
217 233 255
217 233 255
217 233 255
217 233 255
217 233 255
217 233 255
217 233 255
217 233 255
217 233 255
217 233 255
217 233 255
217 233 255
217 233 255
217 233 255
217 233 255
217 233 255
217 233 255
217 233 255
217 233 255
217 233 255
217 233 255
217 233 255
217 233 255
217 233 255
217 233 255
217 233 255
217 233 255
217 233 255
217 233 255
217 233 255
217 233 255
217 233 255
217 233 255
217 233 255
217 233 255
217 233 255
217 233 255
217 233 255
217 233 255
217 233 255
217 233 255
217 233 255
217 233 255
217 233 255
217 233 255
217 233 255
217 233 255
217 233 255
217 233 255
217 233 255
217 233 255
217 233 255
217 233 255
217 233 255
217 233 255
217 233 255
217 233 255
217 233 255
217 233 255
217 233 255
217 233 255
217 233 255
217 233 255
217 233 255
216 233 255
216 233 255
216 233 255
216 233 255
216 233 255
216 233 255
216 233 255
216 233 255
216 233 255
216 233 255
216 233 255
216 233 255
216 233 255
216 233 255
216 233 255
216 233 255
216 233 255
216 233 255
216 233 255
216 233 255
216 233 255
216 233 255
216 233 255
216 233 255
216 233 255
216 233 255
216 233 255
216 233 255
216 233 255
216 233 255
216 233 255
216 233 255
216 233 255
216 233 255
216 233 255
216 233 255
216 233 255
216 233 255
216 233 255
216 233 255
216 233 255
216 233 255
216 233 255
216 233 255
216 233 255
216 233 255
216 233 255
216 233 255
216 233 255
216 233 255
216 233 255
216 233 255
216 233 255
216 233 255
216 233 255
216 233 255
216 233 255
216 233 255
216 232 255
216 232 255
216 232 255
216 232 255
216 232 255
216 232 255
216 232 255
216 232 255
216 232 255
216 232 255
216 232 255
216 232 255
216 232 255
216 232 255
216 232 255
216 232 255
216 232 255
216 232 255
216 232 255
216 232 255
216 232 255
216 232 255
216 232 255
216 232 255
216 232 255
216 232 255
216 232 255
216 232 255
216 232 255
216 232 255
216 232 255
216 232 255
216 232 255
216 232 255
216 232 255
216 232 255
216 232 255
216 232 255
216 232 255
216 232 255
216 232 255
216 232 255
216 232 255
216 232 255
216 232 255
216 232 255
216 232 255
216 232 255
216 232 255
216 232 255
216 232 255
216 232 255
216 232 255
216 232 255
216 232 255
216 232 255
216 232 255
216 232 255
216 232 255
216 232 255
216 232 255
216 232 255
216 232 255
216 232 255
216 232 255
216 232 255
216 232 255
216 232 255
216 232 255
216 232 255
216 232 255
216 232 255
216 232 255
216 232 255
216 232 255
216 232 255
216 232 255
216 232 255
216 232 255
216 232 255
216 232 255
216 232 255
216 233 255
216 233 255
216 233 255
216 233 255
216 233 255
216 233 255
216 233 255
216 233 255
216 233 255
216 233 255
216 233 255
216 233 255
216 233 255
216 233 255
216 233 255
216 233 255
216 233 255
216 233 255
216 233 255
216 233 255
216 233 255
216 233 255
216 233 255
216 233 255
216 233 255
216 233 255
216 233 255
216 233 255
216 233 255
216 233 255
216 233 255
216 233 255
216 233 255
216 233 255
216 233 255
216 233 255
216 233 255
216 233 255
216 233 255
216 233 255
216 233 255
216 233 255
216 233 255
216 233 255
216 233 255
216 233 255
216 233 255
216 233 255
216 233 255
216 233 255
216 233 255
216 233 255
216 233 255
216 233 255
216 233 255
216 233 255
216 233 255
216 233 255
217 233 255
217 233 255
217 233 255
217 233 255
217 233 255
217 233 255
217 233 255
217 233 255
217 233 255
217 233 255
217 233 255
217 233 255
217 233 255
217 233 255
217 233 255
217 233 255
217 233 255
217 233 255
217 233 255
217 233 255
217 233 255
217 233 255
217 233 255
217 233 255
217 233 255
217 233 255
217 233 255
217 233 255
217 233 255
217 233 255
217 233 255
217 233 255
217 233 255
217 233 255
217 233 255
217 233 255
217 233 255
217 233 255
217 233 255
217 233 255
217 233 255
217 233 255
217 233 255
217 233 255
217 233 255
217 233 255
217 233 255
217 233 255
217 233 255
217 233 255
217 233 255
217 233 255
217 233 255
217 233 255
217 233 255
217 233 255
217 233 255
217 233 255
217 233 255
217 233 255
217 233 255
217 233 255
217 233 255
217 233 255
217 233 255
217 233 255
217 233 255
217 233 255
217 233 255
217 233 255
217 233 255
217 233 255
217 233 255
217 233 255
217 233 255
218 233 255
218 233 255
218 233 255
218 233 255
218 233 255
218 233 255
218 233 255
218 233 255
218 233 255
218 234 255
218 234 255
218 234 255
218 234 255
218 234 255
218 234 255
218 234 255
218 234 255
218 234 255
218 234 255
218 234 255
218 234 255
218 234 255
218 234 255
218 234 255
218 234 255
218 234 255
218 234 255
218 234 255
218 234 255
218 234 255
218 234 255
218 234 255
218 234 255
218 234 255
218 234 255
218 234 255
218 234 255
218 234 255
218 234 255
218 234 255
218 234 255
218 234 255
218 234 255
218 234 255
218 234 255
218 234 255
218 234 255
218 234 255
218 234 255
218 234 255
218 234 255
218 234 255
218 234 255
218 233 255
218 233 255
218 233 255
218 233 255
218 233 255
218 233 255
218 233 255
218 233 255
218 233 255
217 233 255
217 233 255
217 233 255
217 233 255
217 233 255
217 233 255
217 233 255
217 233 255
217 233 255
217 233 255
217 233 255
217 233 255
217 233 255
217 233 255
217 233 255
217 233 255
217 233 255
217 233 255
217 233 255
217 233 255
217 233 255
217 233 255
217 233 255
217 233 255
217 233 255
217 233 255
217 233 255
217 233 255
217 233 255
217 233 255
217 233 255
217 233 255
217 233 255
217 233 255
217 233 255
217 233 255
217 233 255
217 233 255
217 233 255
217 233 255
217 233 255
217 233 255
217 233 255
217 233 255
217 233 255
217 233 255
217 233 255
217 233 255
217 233 255
217 233 255
217 233 255
217 233 255
217 233 255
217 233 255
217 233 255
217 233 255
217 233 255
217 233 255
217 233 255
217 233 255
217 233 255
217 233 255
217 233 255
217 233 255
217 233 255
217 233 255
217 233 255
217 233 255
217 233 255
217 233 255
217 233 255
217 233 255
217 233 255
217 233 255
217 233 255
217 233 255
217 233 255
216 233 255
216 233 255
216 233 255
216 233 255
216 233 255
216 233 255
216 233 255
216 233 255
216 233 255
216 233 255
216 233 255
216 233 255
216 233 255
216 233 255
216 233 255
216 233 255
216 233 255
216 233 255
216 233 255
216 233 255
216 233 255
216 233 255
216 233 255
216 233 255
216 233 255
216 233 255
216 233 255
216 233 255
216 233 255
216 233 255
216 233 255
216 233 255
216 233 255
216 233 255
216 233 255
216 233 255
216 233 255
216 233 255
216 233 255
216 233 255
216 233 255
216 233 255
216 233 255
216 233 255
216 233 255
216 233 255
216 233 255
216 233 255
216 233 255
216 233 255
216 233 255
216 233 255
216 233 255
216 233 255
216 233 255
216 233 255
216 233 255
216 233 255
216 233 255
216 233 255
216 233 255
216 233 255
216 233 255
216 233 255
216 233 255
216 233 255
216 233 255
216 233 255
216 233 255
216 233 255
216 233 255
216 233 255
216 233 255
216 233 255
216 233 255
216 233 255
216 233 255
216 232 255
216 232 255
216 232 255
216 232 255
216 232 255
216 232 255
216 232 255
216 232 255
216 232 255
216 232 255
216 232 255
216 232 255
216 232 255
216 232 255
216 232 255
216 232 255
216 233 255
216 233 255
216 232 255
216 233 255
216 232 255
216 233 255
216 233 255
216 233 255
216 233 255
216 233 255
216 233 255
216 233 255
216 233 255
216 233 255
216 233 255
216 233 255
216 233 255
216 233 255
216 233 255
216 233 255
216 233 255
216 233 255
216 233 255
216 233 255
216 233 255
216 233 255
216 233 255
216 233 255
216 233 255
216 233 255
216 233 255
216 233 255
216 233 255
216 233 255
216 233 255
216 233 255
216 233 255
216 233 255
216 233 255
216 233 255
216 233 255
216 233 255
216 233 255
216 233 255
216 233 255
216 233 255
216 233 255
216 233 255
216 233 255
216 233 255
216 233 255
216 233 255
216 233 255
216 233 255
216 233 255
216 233 255
216 233 255
216 233 255
216 233 255
216 233 255
216 233 255
216 233 255
216 233 255
216 233 255
216 233 255
216 233 255
216 233 255
216 233 255
216 233 255
216 233 255
216 233 255
216 233 255
216 233 255
216 233 255
216 233 255
216 233 255
216 233 255
216 233 255
216 233 255
216 233 255
216 233 255
216 233 255
217 233 255
217 233 255
217 233 255
217 233 255
217 233 255
217 233 255
217 233 255
217 233 255
217 233 255
217 233 255
217 233 255
217 233 255
217 233 255
217 233 255
217 233 255
217 233 255
217 233 255
217 233 255
217 233 255
217 233 255
217 233 255
217 233 255
217 233 255
217 233 255
217 233 255
217 233 255
217 233 255
217 233 255
217 233 255
217 233 255
217 233 255
217 233 255
217 233 255
217 233 255
217 233 255
217 233 255
217 233 255
217 233 255
217 233 255
217 233 255
217 233 255
217 233 255
217 233 255
217 233 255
217 233 255
217 233 255
217 233 255
217 233 255
217 233 255
217 233 255
217 233 255
217 233 255
217 233 255
217 233 255
217 233 255
217 233 255
217 233 255
217 233 255
217 233 255
217 233 255
217 233 255
217 233 255
217 233 255
217 233 255
217 233 255
217 233 255
217 233 255
217 233 255
217 233 255
217 233 255
217 233 255
217 233 255
217 233 255
217 233 255
217 233 255
217 233 255
218 233 255
218 233 255
218 233 255
218 233 255
218 233 255
218 233 255
218 233 255
218 233 255
218 233 255
218 234 255
218 234 255
218 234 255
218 234 255
218 234 255
218 234 255
218 234 255
218 234 255
218 234 255
218 234 255
218 234 255
218 234 255
218 234 255
218 234 255
218 234 255
218 234 255
218 234 255
218 234 255
218 234 255
218 234 255
218 234 255
218 234 255
218 234 255
218 234 255
218 234 255
218 234 255
218 234 255
218 234 255
218 234 255
218 234 255
218 234 255
218 234 255
218 234 255
218 234 255
218 234 255
218 234 255
218 234 255
218 234 255
218 234 255
218 234 255
218 234 255
218 234 255
218 234 255
218 234 255
218 234 255
218 234 255
218 234 255
218 234 255
218 234 255
218 234 255
218 234 255
218 234 255
218 234 255
218 234 255
218 234 255
218 234 255
218 234 255
218 234 255
218 234 255
218 234 255
218 234 255
218 234 255
218 234 255
218 234 255
218 234 255
218 233 255
218 233 255
218 233 255
218 233 255
218 233 255
218 233 255
218 233 255
218 233 255
218 233 255
218 233 255
217 233 255
217 233 255
217 233 255
217 233 255
217 233 255
217 233 255
217 233 255
217 233 255
217 233 255
217 233 255
217 233 255
217 233 255
217 233 255
217 233 255
217 233 255
217 233 255
217 233 255
217 233 255
217 233 255
217 233 255
217 233 255
217 233 255
217 233 255
217 233 255
217 233 255
217 233 255
217 233 255
217 233 255
217 233 255
217 233 255
217 233 255
217 233 255
217 233 255
217 233 255
217 233 255
217 233 255
217 233 255
217 233 255
217 233 255
217 233 255
217 233 255
217 233 255
217 233 255
217 233 255
217 233 255
217 233 255
217 233 255
217 233 255
217 233 255
217 233 255
217 233 255
217 233 255
217 233 255
217 233 255
217 233 255
217 233 255
217 233 255
217 233 255
217 233 255
217 233 255
217 233 255
217 233 255
217 233 255
217 233 255
217 233 255
217 233 255
217 233 255
217 233 255
217 233 255
217 233 255
217 233 255
217 233 255
217 233 255
217 233 255
217 233 255
217 233 255
217 233 255
217 233 255
216 233 255
216 233 255
216 233 255
216 233 255
216 233 255
216 233 255
216 233 255
216 233 255
216 233 255
216 233 255
216 233 255
216 233 255
216 233 255
216 233 255
216 233 255
216 233 255
216 233 255
216 233 255
216 233 255
216 233 255
216 233 255
216 233 255
216 233 255
216 233 255
216 233 255
216 233 255
216 233 255
216 233 255
216 233 255
216 233 255
216 233 255
216 233 255
216 233 255
216 233 255
216 233 255
216 233 255
216 233 255
216 233 255
216 233 255
216 233 255
216 233 255
216 233 255
216 233 255
216 233 255
216 233 255
216 233 255
216 233 255
216 233 255
216 233 255
216 233 255
216 233 255
216 233 255
216 233 255
216 233 255
216 233 255
216 233 255
216 233 255
216 233 255
216 233 255
216 233 255
216 233 255
216 233 255
216 233 255
216 233 255
216 233 255
216 233 255
216 233 255
216 233 255
216 233 255
216 233 255
216 233 255
216 233 255
216 233 255
216 233 255
216 233 255
216 233 255
216 233 255
216 233 255
216 233 255
216 233 255
216 233 255
216 233 255
216 233 255
216 233 255
216 233 255
216 233 255
216 233 255
216 233 255
216 233 255
216 233 255
216 233 255
216 233 255
216 233 255
216 233 255
216 233 255
216 233 255
216 233 255
216 233 255
216 233 255
216 233 255
216 233 255
216 233 255
216 233 255
216 233 255
216 233 255
216 233 255
216 233 255
216 233 255
216 233 255
216 233 255
216 233 255
216 233 255
216 233 255
216 233 255
216 233 255
216 233 255
216 233 255
216 233 255
216 233 255
216 233 255
216 233 255
216 233 255
216 233 255
216 233 255
216 233 255
216 233 255
216 233 255
216 233 255
216 233 255
216 233 255
216 233 255
216 233 255
216 233 255
216 233 255
216 233 255
216 233 255
216 233 255
216 233 255
216 233 255
216 233 255
216 233 255
216 233 255
216 233 255
216 233 255
216 233 255
216 233 255
216 233 255
216 233 255
217 233 255
217 233 255
217 233 255
217 233 255
217 233 255
217 233 255
217 233 255
217 233 255
217 233 255
217 233 255
217 233 255
217 233 255
217 233 255
217 233 255
217 233 255
217 233 255
217 233 255
217 233 255
217 233 255
217 233 255
217 233 255
217 233 255
217 233 255
217 233 255
217 233 255
217 233 255
217 233 255
217 233 255
217 233 255
217 233 255
217 233 255
217 233 255
217 233 255
217 233 255
217 233 255
217 233 255
217 233 255
217 233 255
217 233 255
217 233 255
217 233 255
217 233 255
217 233 255
217 233 255
217 233 255
217 233 255
217 233 255
217 233 255
217 233 255
217 233 255
217 233 255
217 233 255
217 233 255
217 233 255
217 233 255
217 233 255
217 233 255
217 233 255
217 233 255
217 233 255
217 233 255
217 233 255
217 233 255
217 233 255
217 233 255
217 233 255
217 233 255
217 233 255
217 233 255
217 233 255
217 233 255
217 233 255
217 233 255
217 233 255
217 233 255
217 233 255
217 233 255
217 233 255
217 233 255
218 233 255
218 233 255
218 233 255
218 233 255
218 233 255
218 233 255
218 233 255
218 233 255
218 233 255
218 234 255
218 234 255
218 234 255
218 234 255
218 234 255
218 234 255
218 234 255
218 234 255
218 234 255
218 234 255
218 234 255
218 234 255
218 234 255
218 234 255
218 234 255
218 234 255
218 234 255
218 234 255
218 234 255
218 234 255
218 234 255
218 234 255
218 234 255
218 234 255
218 234 255
218 234 255
218 234 255
218 234 255
218 234 255
218 234 255
218 234 255
218 234 255
218 234 255
218 234 255
218 234 255
218 234 255
218 234 255
218 234 255
218 234 255
218 234 255
218 234 255
218 234 255
218 234 255
218 234 255
218 234 255
218 234 255
218 234 255
218 234 255
218 234 255
218 234 255
218 234 255
218 234 255
218 234 255
218 234 255
218 234 255
218 234 255
218 234 255
218 234 255
218 234 255
218 234 255
218 234 255
218 234 255
218 234 255
218 234 255
218 234 255
218 234 255
218 234 255
218 234 255
218 234 255
218 234 255
218 234 255
218 234 255
218 234 255
218 234 255
218 234 255
218 234 255
218 234 255
218 234 255
218 234 255
218 234 255
218 234 255
218 234 255
218 234 255
218 234 255
218 234 255
218 234 255
218 234 255
218 233 255
218 233 255
218 233 255
218 233 255
218 233 255
218 233 255
218 233 255
218 233 255
218 233 255
217 233 255
217 233 255
217 233 255
217 233 255
217 233 255
217 233 255
217 233 255
217 233 255
217 233 255
217 233 255
217 233 255
217 233 255
217 233 255
217 233 255
217 233 255
217 233 255
217 233 255
217 233 255
217 233 255
217 233 255
217 233 255
217 233 255
217 233 255
217 233 255
217 233 255
217 233 255
217 233 255
217 233 255
217 233 255
217 233 255
217 233 255
217 233 255
217 233 255
217 233 255
217 233 255
217 233 255
217 233 255
217 233 255
217 233 255
217 233 255
217 233 255
217 233 255
217 233 255
217 233 255
217 233 255
217 233 255
217 233 255
217 233 255
217 233 255
217 233 255
217 233 255
217 233 255
217 233 255
217 233 255
217 233 255
217 233 255
217 233 255
217 233 255
217 233 255
217 233 255
217 233 255
217 233 255
217 233 255
217 233 255
217 233 255
217 233 255
217 233 255
217 233 255
217 233 255
217 233 255
217 233 255
217 233 255
217 233 255
217 233 255
217 233 255
217 233 255
217 233 255
217 233 255
217 233 255
217 233 255
217 233 255
217 233 255
216 233 255
216 233 255
216 233 255
216 233 255
216 233 255
216 233 255
216 233 255
216 233 255
216 233 255
216 233 255
216 233 255
216 233 255
216 233 255
216 233 255
216 233 255
216 233 255
216 233 255
216 233 255
216 233 255
216 233 255
216 233 255
216 233 255
216 233 255
216 233 255
216 233 255
216 233 255
216 233 255
216 233 255
216 233 255
216 233 255
216 233 255
216 233 255
216 233 255
216 233 255
216 233 255
216 233 255
216 233 255
216 233 255
216 233 255
216 233 255
216 233 255
216 233 255
216 233 255
216 233 255
216 233 255
216 233 255
216 233 255
216 233 255
216 233 255
216 233 255
216 233 255
216 233 255
216 233 255
216 233 255
216 233 255
216 233 255
216 233 255
216 233 255
216 233 255
216 233 255
216 233 255
216 233 255
216 233 255
216 233 255
216 233 255
216 233 255
216 233 255
216 233 255
216 233 255
216 233 255
216 233 255
216 233 255
216 233 255
216 233 255
216 233 255
216 233 255
216 233 255
216 233 255
216 233 255
216 233 255
216 233 255
216 233 255
216 233 255
216 233 255
216 233 255
216 233 255
216 233 255
216 233 255
216 233 255
216 233 255
216 233 255
216 233 255
216 233 255
216 233 255
216 233 255
216 233 255
216 233 255
216 233 255
216 233 255
216 233 255
216 233 255
216 233 255
216 233 255
216 233 255
216 233 255
216 233 255
216 233 255
216 233 255
216 233 255
216 233 255
216 233 255
216 233 255
216 233 255
216 233 255
216 233 255
216 233 255
216 233 255
216 233 255
216 233 255
217 233 255
217 233 255
217 233 255
217 233 255
217 233 255
217 233 255
217 233 255
217 233 255
217 233 255
217 233 255
217 233 255
217 233 255
217 233 255
217 233 255
217 233 255
217 233 255
217 233 255
217 233 255
217 233 255
217 233 255
217 233 255
217 233 255
217 233 255
217 233 255
217 233 255
217 233 255
217 233 255
217 233 255
217 233 255
217 233 255
217 233 255
217 233 255
217 233 255
217 233 255
217 233 255
217 233 255
217 233 255
217 233 255
217 233 255
217 233 255
217 233 255
217 233 255
217 233 255
217 233 255
217 233 255
217 233 255
217 233 255
217 233 255
217 233 255
217 233 255
217 233 255
217 233 255
217 233 255
217 233 255
217 233 255
217 233 255
217 233 255
217 233 255
217 233 255
217 233 255
217 233 255
217 233 255
217 233 255
217 233 255
217 233 255
217 233 255
217 233 255
217 233 255
217 233 255
217 233 255
217 233 255
217 233 255
217 233 255
217 233 255
217 233 255
217 233 255
217 233 255
217 233 255
217 233 255
217 233 255
217 233 255
217 233 255
217 233 255
218 233 255
218 233 255
218 233 255
218 233 255
218 233 255
218 233 255
218 233 255
218 233 255
218 233 255
218 234 255
218 234 255
218 234 255
218 234 255
218 234 255
218 234 255
218 234 255
218 234 255
218 234 255
218 234 255
218 234 255
218 234 255
218 234 255
218 234 255
218 234 255
218 234 255
218 234 255
218 234 255
218 234 255
218 234 255
218 234 255
218 234 255
218 234 255
218 234 255
218 234 255
218 234 255
218 234 255
218 234 255
218 234 255
218 234 255
218 234 255
218 234 255
218 234 255
218 234 255
218 234 255
218 234 255
218 234 255
218 234 255
218 234 255
218 234 255
218 234 255
218 234 255
218 234 255
218 234 255
218 234 255
218 234 255
218 234 255
218 234 255
218 234 255
218 234 255
218 234 255
218 234 255
218 234 255
218 234 255
218 234 255
218 234 255
218 234 255
218 234 255
218 234 255
218 234 255
218 234 255
218 234 255
218 234 255
218 234 255
218 234 255
218 234 255
218 234 255
218 234 255
218 234 255
218 234 255
218 234 255
218 234 255
218 234 255
218 234 255
218 234 255
218 234 255
218 234 255
218 234 255
218 234 255
218 234 255
218 234 255
218 234 255
218 234 255
218 234 255
218 234 255
218 234 255
218 234 255
218 234 255
218 234 255
218 234 255
218 234 255
218 234 255
218 234 255
218 234 255
218 234 255
218 234 255
218 234 255
218 234 255
218 234 255
218 234 255
218 234 255
218 234 255
218 234 255
218 234 255
218 234 255
218 234 255
218 234 255
218 234 255
218 234 255
218 234 255
218 233 255
218 233 255
218 233 255
218 233 255
218 233 255
218 233 255
218 233 255
218 233 255
218 233 255
217 233 255
217 233 255
217 233 255
217 233 255
217 233 255
217 233 255
217 233 255
217 233 255
217 233 255
217 233 255
217 233 255
217 233 255
217 233 255
217 233 255
217 233 255
217 233 255
217 233 255
217 233 255
217 233 255
217 233 255
217 233 255
217 233 255
217 233 255
217 233 255
217 233 255
217 233 255
217 233 255
217 233 255
217 233 255
217 233 255
217 233 255
217 233 255
217 233 255
217 233 255
217 233 255
217 233 255
217 233 255
217 233 255
217 233 255
217 233 255
217 233 255
217 233 255
217 233 255
217 233 255
217 233 255
217 233 255
217 233 255
217 233 255
217 233 255
217 233 255
217 233 255
217 233 255
217 233 255
217 233 255
217 233 255
217 233 255
217 233 255
217 233 255
217 233 255
217 233 255
217 233 255
217 233 255
217 233 255
217 233 255
217 233 255
217 233 255
217 233 255
217 233 255
217 233 255
217 233 255
217 233 255
217 233 255
217 233 255
217 233 255
217 233 255
217 233 255
217 233 255
217 233 255
217 233 255
217 233 255
217 233 255
217 233 255
217 233 255
217 233 255
217 233 255
217 233 255
217 233 255
217 233 255
217 233 255
217 233 255
216 233 255
216 233 255
216 233 255
216 233 255
216 233 255
216 233 255
216 233 255
216 233 255
216 233 255
216 233 255
216 233 255
216 233 255
216 233 255
216 233 255
216 233 255
216 233 255
216 233 255
216 233 255
216 233 255
216 233 255
216 233 255
216 233 255
216 233 255
216 233 255
216 233 255
216 233 255
216 233 255
216 233 255
216 233 255
216 233 255
216 233 255
216 233 255
216 233 255
216 233 255
216 233 255
216 233 255
216 233 255
216 233 255
216 233 255
216 233 255
216 233 255
216 233 255
216 233 255
216 233 255
216 233 255
216 233 255
216 233 255
216 233 255
216 233 255
216 233 255
216 233 255
216 233 255
216 233 255
216 233 255
216 233 255
216 233 255
216 233 255
216 233 255
216 233 255
216 233 255
216 233 255
216 233 255
216 233 255
216 233 255
216 233 255
216 233 255
216 233 255
216 233 255
216 233 255
216 233 255
216 233 255
216 233 255
216 233 255
216 233 255
216 233 255
216 233 255
216 233 255
216 233 255
216 233 255
216 233 255
216 233 255
216 233 255
217 233 255
217 233 255
217 233 255
217 233 255
217 233 255
217 233 255
217 233 255
217 233 255
217 233 255
217 233 255
217 233 255
217 233 255
217 233 255
217 233 255
217 233 255
217 233 255
217 233 255
217 233 255
217 233 255
217 233 255
217 233 255
217 233 255
217 233 255
217 233 255
217 233 255
217 233 255
217 233 255
217 233 255
217 233 255
217 233 255
217 233 255
217 233 255
217 233 255
217 233 255
217 233 255
217 233 255
217 233 255
217 233 255
217 233 255
217 233 255
217 233 255
217 233 255
217 233 255
217 233 255
217 233 255
217 233 255
217 233 255
217 233 255
217 233 255
217 233 255
217 233 255
217 233 255
217 233 255
217 233 255
217 233 255
217 233 255
217 233 255
217 233 255
217 233 255
217 233 255
217 233 255
217 233 255
217 233 255
217 233 255
217 233 255
217 233 255
217 233 255
217 233 255
217 233 255
217 233 255
217 233 255
217 233 255
217 233 255
217 233 255
217 233 255
217 233 255
217 233 255
217 233 255
217 233 255
217 233 255
217 233 255
217 233 255
217 233 255
217 233 255
217 233 255
217 233 255
217 233 255
217 233 255
218 233 255
218 233 255
218 233 255
218 233 255
218 233 255
218 233 255
218 233 255
218 233 255
218 233 255
218 234 255
218 234 255
218 234 255
218 234 255
218 234 255
218 234 255
218 234 255
218 234 255
218 234 255
218 234 255
218 234 255
218 234 255
218 234 255
218 234 255
218 234 255
218 234 255
218 234 255
218 234 255
218 234 255
218 234 255
218 234 255
218 234 255
218 234 255
218 234 255
218 234 255
218 234 255
218 234 255
218 234 255
218 234 255
218 234 255
218 234 255
218 234 255
218 234 255
218 234 255
218 234 255
218 234 255
218 234 255
218 234 255
218 234 255
218 234 255
218 234 255
218 234 255
218 234 255
218 234 255
218 234 255
218 234 255
218 234 255
218 234 255
218 234 255
218 234 255
218 234 255
218 234 255
218 234 255
218 234 255
218 234 255
218 234 255
218 234 255
218 234 255
218 234 255
218 234 255
218 234 255
218 234 255
218 234 255
218 234 255
218 234 255
218 234 255
218 234 255
218 234 255
218 234 255
218 234 255
218 234 255
218 234 255
218 234 255
218 234 255
218 234 255
218 234 255
218 234 255
218 234 255
218 234 255
218 234 255
218 234 255
218 234 255
218 234 255
218 234 255
218 234 255
218 234 255
218 234 255
218 234 255
218 234 255
218 234 255
218 234 255
218 234 255
218 234 255
218 234 255
218 234 255
218 234 255
218 234 255
218 234 255
218 234 255
218 234 255
218 234 255
218 234 255
218 234 255
218 234 255
218 234 255
218 234 255
218 234 255
218 234 255
218 234 255
218 234 255
218 234 255
218 234 255
218 234 255
218 234 255
218 234 255
218 234 255
218 234 255
218 234 255
218 234 255
218 234 255
218 234 255
218 234 255
218 234 255
218 234 255
218 234 255
218 234 255
218 234 255
218 234 255
218 234 255
218 234 255
218 234 255
218 234 255
218 234 255
218 234 255
218 234 255
218 233 255
218 233 255
218 233 255
218 233 255
218 233 255
218 233 255
218 233 255
218 233 255
218 233 255
217 233 255
217 233 255
217 233 255
217 233 255
217 233 255
217 233 255
217 233 255
217 233 255
217 233 255
217 233 255
217 233 255
217 233 255
217 233 255
217 233 255
217 233 255
217 233 255
217 233 255
217 233 255
217 233 255
217 233 255
217 233 255
217 233 255
217 233 255
217 233 255
217 233 255
217 233 255
217 233 255
217 233 255
217 233 255
217 233 255
217 233 255
217 233 255
217 233 255
217 233 255
217 233 255
217 233 255
217 233 255
217 233 255
217 233 255
217 233 255
217 233 255
217 233 255
217 233 255
217 233 255
217 233 255
217 233 255
217 233 255
217 233 255
217 233 255
217 233 255
217 233 255
217 233 255
217 233 255
217 233 255
217 233 255
217 233 255
217 233 255
217 233 255
217 233 255
217 233 255
217 233 255
217 233 255
217 233 255
217 233 255
217 233 255
217 233 255
217 233 255
217 233 255
217 233 255
217 233 255
217 233 255
217 233 255
217 233 255
217 233 255
217 233 255
217 233 255
217 233 255
217 233 255
217 233 255
217 233 255
217 233 255
217 233 255
217 233 255
217 233 255
217 233 255
217 233 255
217 233 255
217 233 255
217 233 255
217 233 255
217 233 255
217 233 255
217 233 255
217 233 255
217 233 255
217 233 255
217 233 255
217 233 255
217 233 255
217 233 255
217 233 255
217 233 255
217 233 255
217 233 255
217 233 255
217 233 255
217 233 255
217 233 255
217 233 255
217 233 255
217 233 255
217 233 255
217 233 255
217 233 255
217 233 255
217 233 255
217 233 255
217 233 255
217 233 255
217 233 255
217 233 255
217 233 255
217 233 255
217 233 255
217 233 255
217 233 255
217 233 255
217 233 255
217 233 255
217 233 255
217 233 255
217 233 255
217 233 255
217 233 255
217 233 255
217 233 255
217 233 255
217 233 255
217 233 255
217 233 255
217 233 255
217 233 255
217 233 255
217 233 255
217 233 255
217 233 255
217 233 255
217 233 255
217 233 255
217 233 255
217 233 255
217 233 255
217 233 255
217 233 255
217 233 255
217 233 255
217 233 255
217 233 255
217 233 255
217 233 255
217 233 255
217 233 255
217 233 255
217 233 255
217 233 255
217 233 255
217 233 255
217 233 255
217 233 255
217 233 255
217 233 255
217 233 255
217 233 255
217 233 255
217 233 255
217 233 255
217 233 255
217 233 255
217 233 255
217 233 255
217 233 255
217 233 255
217 233 255
217 233 255
217 233 255
217 233 255
217 233 255
217 233 255
217 233 255
217 233 255
217 233 255
217 233 255
217 233 255
217 233 255
217 233 255
217 233 255
217 233 255
217 233 255
217 233 255
217 233 255
217 233 255
217 233 255
217 233 255
217 233 255
217 233 255
217 233 255
217 233 255
217 233 255
217 233 255
217 233 255
217 233 255
217 233 255
217 233 255
217 233 255
217 233 255
217 233 255
217 233 255
217 233 255
217 233 255
217 233 255
217 233 255
217 233 255
217 233 255
217 233 255
217 233 255
217 233 255
217 233 255
217 233 255
217 233 255
217 233 255
217 233 255
217 233 255
217 233 255
217 233 255
217 233 255
218 233 255
218 233 255
218 233 255
218 233 255
218 233 255
218 233 255
218 233 255
218 233 255
218 233 255
218 234 255
218 234 255
218 234 255
218 234 255
218 234 255
218 234 255
218 234 255
218 234 255
218 234 255
218 234 255
218 234 255
218 234 255
218 234 255
218 234 255
218 234 255
218 234 255
218 234 255
218 234 255
218 234 255
218 234 255
218 234 255
218 234 255
218 234 255
218 234 255
218 234 255
218 234 255
218 234 255
218 234 255
218 234 255
218 234 255
218 234 255
218 234 255
218 234 255
218 234 255
218 234 255
218 234 255
218 234 255
218 234 255
218 234 255
218 234 255
218 234 255
218 234 255
218 234 255
218 234 255
218 234 255
218 234 255
218 234 255
218 234 255
218 234 255
218 234 255
218 234 255
218 234 255
218 234 255
218 234 255
218 234 255
218 234 255
218 234 255
218 234 255
218 234 255
218 234 255
218 234 255
218 234 255
218 234 255
218 234 255
218 234 255
218 234 255
218 234 255
218 234 255
218 234 255
218 234 255
218 234 255
218 234 255
218 234 255
218 234 255
218 234 255
218 234 255
218 234 255
218 234 255
218 234 255
218 234 255
218 234 255
218 234 255
218 234 255
218 234 255
218 234 255
218 234 255
218 234 255
218 234 255
218 234 255
218 234 255
218 234 255
218 234 255
218 234 255
218 234 255
218 234 255
218 234 255
218 234 255
218 234 255
218 234 255
218 234 255
218 234 255
218 234 255
218 234 255
218 234 255
218 234 255
218 234 255
218 234 255
218 234 255
218 234 255
218 234 255
218 234 255
218 234 255
218 234 255
218 234 255
218 234 255
218 234 255
218 234 255
218 234 255
218 234 255
218 234 255
218 234 255
218 234 255
218 234 255
218 234 255
218 234 255
218 234 255
218 234 255
218 234 255
218 234 255
218 234 255
218 234 255
218 234 255
218 234 255
218 234 255
218 234 255
218 234 255
218 234 255
218 234 255
218 234 255
218 234 255
218 234 255
218 234 255
218 234 255
218 234 255
218 234 255
218 234 255
218 234 255
218 234 255
218 234 255
218 234 255
218 234 255
218 234 255
218 234 255
218 234 255
218 234 255
218 234 255
218 234 255
218 234 255
218 234 255
218 234 255
218 233 255
218 233 255
218 233 255
218 233 255
218 233 255
218 233 255
218 233 255
218 233 255
217 233 255
217 233 255
217 233 255
217 233 255
217 233 255
217 233 255
217 233 255
217 233 255
217 233 255
217 233 255
217 233 255
217 233 255
217 233 255
217 233 255
217 233 255
217 233 255
217 233 255
217 233 255
217 233 255
217 233 255
217 233 255
217 233 255
217 233 255
217 233 255
217 233 255
217 233 255
217 233 255
217 233 255
217 233 255
217 233 255
217 233 255
217 233 255
217 233 255
217 233 255
217 233 255
217 233 255
217 233 255
217 233 255
217 233 255
217 233 255
217 233 255
217 233 255
217 233 255
217 233 255
217 233 255
217 233 255
217 233 255
217 233 255
217 233 255
217 233 255
217 233 255
217 233 255
217 233 255
217 233 255
217 233 255
217 233 255
217 233 255
217 233 255
217 233 255
217 233 255
217 233 255
217 233 255
217 233 255
217 233 255
217 233 255
217 233 255
217 233 255
217 233 255
217 233 255
217 233 255
217 233 255
217 233 255
217 233 255
217 233 255
217 233 255
217 233 255
217 233 255
217 233 255
217 233 255
217 233 255
217 233 255
217 233 255
217 233 255
217 233 255
217 233 255
217 233 255
217 233 255
217 233 255
217 233 255
217 233 255
217 233 255
217 233 255
217 233 255
217 233 255
217 233 255
217 233 255
217 233 255
217 233 255
217 233 255
217 233 255
217 233 255
217 233 255
217 233 255
217 233 255
217 233 255
217 233 255
217 233 255
217 233 255
217 233 255
217 233 255
217 233 255
217 233 255
217 233 255
217 233 255
217 233 255
217 233 255
217 233 255
217 233 255
217 233 255
217 233 255
217 233 255
217 233 255
217 233 255
217 233 255
217 233 255
217 233 255
217 233 255
217 233 255
217 233 255
217 233 255
217 233 255
217 233 255
217 233 255
217 233 255
217 233 255
217 233 255
217 233 255
217 233 255
217 233 255
217 233 255
217 233 255
217 233 255
217 233 255
217 233 255
217 233 255
217 233 255
217 233 255
217 233 255
217 233 255
217 233 255
217 233 255
217 233 255
217 233 255
217 233 255
217 233 255
217 233 255
217 233 255
217 233 255
217 233 255
217 233 255
217 233 255
217 233 255
217 233 255
217 233 255
217 233 255
217 233 255
217 233 255
217 233 255
217 233 255
217 233 255
217 233 255
217 233 255
217 233 255
217 233 255
217 233 255
217 233 255
217 233 255
217 233 255
217 233 255
217 233 255
217 233 255
217 233 255
217 233 255
217 233 255
217 233 255
217 233 255
217 233 255
217 233 255
217 233 255
217 233 255
217 233 255
217 233 255
217 233 255
217 233 255
217 233 255
217 233 255
217 233 255
217 233 255
217 233 255
217 233 255
217 233 255
217 233 255
217 233 255
217 233 255
217 233 255
217 233 255
217 233 255
217 233 255
217 233 255
217 233 255
218 233 255
218 233 255
218 233 255
218 233 255
218 233 255
218 233 255
218 233 255
218 233 255
218 233 255
218 234 255
218 234 255
218 234 255
218 234 255
218 234 255
218 234 255
218 234 255
218 234 255
218 234 255
218 234 255
218 234 255
218 234 255
218 234 255
218 234 255
218 234 255
218 234 255
218 234 255
218 234 255
218 234 255
218 234 255
218 234 255
218 234 255
218 234 255
218 234 255
218 234 255
218 234 255
218 234 255
218 234 255
218 234 255
218 234 255
218 234 255
218 234 255
218 234 255
218 234 255
218 234 255
218 234 255
218 234 255
218 234 255
218 234 255
218 234 255
218 234 255
218 234 255
218 234 255
218 234 255
218 234 255
218 234 255
218 234 255
218 234 255
218 234 255
218 234 255
218 234 255
218 234 255
218 234 255
218 234 255
218 234 255
218 234 255
218 234 255
218 234 255
218 234 255
218 234 255
218 234 255
218 234 255
218 234 255
218 234 255
218 234 255
218 234 255
218 234 255
218 234 255
218 234 255
218 234 255
218 234 255
218 234 255
218 234 255
218 234 255
218 234 255
218 234 255
218 234 255
218 234 255
218 234 255
218 234 255
218 234 255
218 234 255
218 234 255
218 234 255
218 234 255
218 234 255
219 234 255
219 234 255
219 234 255
219 234 255
219 234 255
219 234 255
219 234 255
219 234 255
219 234 255
219 234 255
219 234 255
219 234 255
219 234 255
218 234 255
218 234 255
218 234 255
218 234 255
218 234 255
218 234 255
218 234 255
218 234 255
218 234 255
218 234 255
218 234 255
218 234 255
218 234 255
218 234 255
218 234 255
218 234 255
218 234 255
218 234 255
218 234 255
218 234 255
218 234 255
218 234 255
218 234 255
218 234 255
218 234 255
218 234 255
218 234 255
218 234 255
218 234 255
218 234 255
218 234 255
218 234 255
218 234 255
218 234 255
218 234 255
218 234 255
218 234 255
218 234 255
218 234 255
218 234 255
218 234 255
218 234 255
218 234 255
218 234 255
218 234 255
218 234 255
218 234 255
218 234 255
218 234 255
218 234 255
218 234 255
218 234 255
218 234 255
218 234 255
218 234 255
218 234 255
218 234 255
218 234 255
218 234 255
218 234 255
218 234 255
218 234 255
218 234 255
218 234 255
218 234 255
218 234 255
218 234 255
218 234 255
218 234 255
218 234 255
218 234 255
218 234 255
218 234 255
218 234 255
218 234 255
218 234 255
218 234 255
218 234 255
218 234 255
218 234 255
218 234 255
218 234 255
218 234 255
218 234 255
218 234 255
218 234 255
218 234 255
218 233 255
218 233 255
218 233 255
218 233 255
218 233 255
218 233 255
218 233 255
218 233 255
218 233 255
217 233 255
217 233 255
217 233 255
217 233 255
217 233 255
217 233 255
217 233 255
217 233 255
217 233 255
217 233 255
217 233 255
217 233 255
217 233 255
217 233 255
217 233 255
217 233 255
217 233 255
217 233 255
217 233 255
217 233 255
217 233 255
217 233 255
217 233 255
217 233 255
217 233 255
217 233 255
217 233 255
217 233 255
217 233 255
217 233 255
217 233 255
217 233 255
217 233 255
217 233 255
217 233 255
217 233 255
217 233 255
217 233 255
217 233 255
217 233 255
217 233 255
217 233 255
217 233 255
217 233 255
217 233 255
217 233 255
217 233 255
217 233 255
217 233 255
217 233 255
217 233 255
217 233 255
217 233 255
217 233 255
217 233 255
217 233 255
217 233 255
217 233 255
217 233 255
217 233 255
217 233 255
217 233 255
217 233 255
217 233 255
217 233 255
217 233 255
217 233 255
217 233 255
217 233 255
217 233 255
217 233 255
217 233 255
217 233 255
217 233 255
217 233 255
217 233 255
217 233 255
217 233 255
217 233 255
217 233 255
217 233 255
217 233 255
217 233 255
217 233 255
217 233 255
217 233 255
217 233 255
217 233 255
217 233 255
217 233 255
217 233 255
217 233 255
217 233 255
217 233 255
217 233 255
217 233 255
217 233 255
217 233 255
217 233 255
217 233 255
217 233 255
217 233 255
217 233 255
217 233 255
217 233 255
217 233 255
217 233 255
217 233 255
217 233 255
217 233 255
217 233 255
217 233 255
217 233 255
217 233 255
217 233 255
217 233 255
217 233 255
217 233 255
217 233 255
217 233 255
217 233 255
217 233 255
217 233 255
217 233 255
217 233 255
217 233 255
217 233 255
217 233 255
217 233 255
217 233 255
217 233 255
217 233 255
217 233 255
217 233 255
217 233 255
217 233 255
217 233 255
217 233 255
217 233 255
217 233 255
217 233 255
217 233 255
217 233 255
217 233 255
217 233 255
217 233 255
217 233 255
217 233 255
217 233 255
217 233 255
217 233 255
217 233 255
217 233 255
217 233 255
217 233 255
217 233 255
217 233 255
217 233 255
217 233 255
217 233 255
217 233 255
217 233 255
217 233 255
217 233 255
217 233 255
217 233 255
217 233 255
217 233 255
217 233 255
217 233 255
217 233 255
217 233 255
217 233 255
217 233 255
217 233 255
217 233 255
217 233 255
217 233 255
217 233 255
217 233 255
217 233 255
218 233 255
218 233 255
218 233 255
218 233 255
218 233 255
218 233 255
218 233 255
218 233 255
218 233 255
218 233 255
218 234 255
218 234 255
218 234 255
218 234 255
218 234 255
218 234 255
218 234 255
218 234 255
218 234 255
218 234 255
218 234 255
218 234 255
218 234 255
218 234 255
218 234 255
218 234 255
218 234 255
218 234 255
218 234 255
218 234 255
218 234 255
218 234 255
218 234 255
218 234 255
218 234 255
218 234 255
218 234 255
218 234 255
218 234 255
218 234 255
218 234 255
218 234 255
218 234 255
218 234 255
218 234 255
218 234 255
218 234 255
218 234 255
218 234 255
218 234 255
218 234 255
218 234 255
218 234 255
218 234 255
218 234 255
218 234 255
218 234 255
218 234 255
218 234 255
218 234 255
218 234 255
218 234 255
218 234 255
218 234 255
218 234 255
218 234 255
218 234 255
218 234 255
218 234 255
218 234 255
218 234 255
218 234 255
218 234 255
218 234 255
218 234 255
218 234 255
218 234 255
218 234 255
218 234 255
218 234 255
218 234 255
218 234 255
218 234 255
218 234 255
218 234 255
218 234 255
218 234 255
218 234 255
218 234 255
218 234 255
218 234 255
218 234 255
218 234 255
218 234 255
218 234 255
218 234 255
218 234 255
219 234 255
219 234 255
219 234 255
219 234 255
219 234 255
219 234 255
219 234 255
219 234 255
219 234 255
219 234 255
219 234 255
219 234 255
219 234 255
219 234 255
219 234 255
219 234 255
219 234 255
219 234 255
219 234 255
219 234 255
219 234 255
219 234 255
219 234 255
219 234 255
219 234 255
219 234 255
219 234 255
219 234 255
219 234 255
219 234 255
219 234 255
219 234 255
219 234 255
219 234 255
219 234 255
219 234 255
219 234 255
219 234 255
219 234 255
219 234 255
218 234 255
218 234 255
218 234 255
218 234 255
218 234 255
218 234 255
218 234 255
218 234 255
218 234 255
218 234 255
218 234 255
218 234 255
218 234 255
218 234 255
218 234 255
218 234 255
218 234 255
218 234 255
218 234 255
218 234 255
218 234 255
218 234 255
218 234 255
218 234 255
218 234 255
218 234 255
218 234 255
218 234 255
218 234 255
218 234 255
218 234 255
218 234 255
218 234 255
218 234 255
218 234 255
218 234 255
218 234 255
218 234 255
218 234 255
218 234 255
218 234 255
218 234 255
218 234 255
218 234 255
218 234 255
218 234 255
218 234 255
218 234 255
218 234 255
218 234 255
218 234 255
218 234 255
218 234 255
218 234 255
218 234 255
218 234 255
218 234 255
218 234 255
218 234 255
218 234 255
218 234 255
218 234 255
218 234 255
218 234 255
218 234 255
218 234 255
218 234 255
218 234 255
218 234 255
218 234 255
218 234 255
218 234 255
218 234 255
218 234 255
218 234 255
218 234 255
218 234 255
218 234 255
218 234 255
218 234 255
218 234 255
218 234 255
218 234 255
218 234 255
218 234 255
218 234 255
218 234 255
218 234 255
218 233 255
218 233 255
218 233 255
218 233 255
218 233 255
218 233 255
218 233 255
218 233 255
218 233 255
218 233 255
217 233 255
217 233 255
217 233 255
217 233 255
217 233 255
217 233 255
217 233 255
217 233 255
217 233 255
217 233 255
217 233 255
217 233 255
217 233 255
217 233 255
217 233 255
217 233 255
217 233 255
217 233 255
217 233 255
217 233 255
217 233 255
217 233 255
217 233 255
217 233 255
217 233 255
217 233 255
217 233 255
217 233 255
217 233 255
217 233 255
217 233 255
217 233 255
217 233 255
217 233 255
217 233 255
217 233 255
217 233 255
217 233 255
217 233 255
217 233 255
217 233 255
217 233 255
217 233 255
217 233 255
217 233 255
217 233 255
217 233 255
217 233 255
217 233 255
217 233 255
217 233 255
217 233 255
217 233 255
217 233 255
217 233 255
217 233 255
217 233 255
217 233 255
217 233 255
217 233 255
217 233 255
217 233 255
217 233 255
217 233 255
217 233 255
217 233 255
217 233 255
217 233 255
217 233 255
217 233 255
217 233 255
217 233 255
217 233 255
217 233 255
217 233 255
217 233 255
217 233 255
217 233 255
217 233 255
217 233 255
217 233 255
217 233 255
217 233 255
217 233 255
217 233 255
217 233 255
217 233 255
217 233 255
217 233 255
217 233 255
217 233 255
217 233 255
217 233 255
217 233 255
217 233 255
217 233 255
217 233 255
217 233 255
217 233 255
217 233 255
217 233 255
217 233 255
217 233 255
217 233 255
217 233 255
217 233 255
217 233 255
217 233 255
217 233 255
217 233 255
217 233 255
217 233 255
217 233 255
217 233 255
217 233 255
217 233 255
217 233 255
217 233 255
217 233 255
217 233 255
217 233 255
217 233 255
217 233 255
217 233 255
217 233 255
217 233 255
217 233 255
217 233 255
217 233 255
217 233 255
217 233 255
217 233 255
217 233 255
217 233 255
217 233 255
217 233 255
217 233 255
217 233 255
217 233 255
217 233 255
217 233 255
217 233 255
217 233 255
217 233 255
217 233 255
217 233 255
217 233 255
217 233 255
217 233 255
218 233 255
218 233 255
218 233 255
218 233 255
218 233 255
218 233 255
218 233 255
218 233 255
218 233 255
218 233 255
218 233 255
218 233 255
218 234 255
218 234 255
218 234 255
218 234 255
218 234 255
218 234 255
218 234 255
218 234 255
218 234 255
218 234 255
218 234 255
218 234 255
218 234 255
218 234 255
218 234 255
218 234 255
218 234 255
218 234 255
218 234 255
218 234 255
218 234 255
218 234 255
218 234 255
218 234 255
218 234 255
218 234 255
218 234 255
218 234 255
218 234 255
218 234 255
218 234 255
218 234 255
218 234 255
218 234 255
218 234 255
218 234 255
218 234 255
218 234 255
218 234 255
218 234 255
218 234 255
218 234 255
218 234 255
218 234 255
218 234 255
218 234 255
218 234 255
218 234 255
218 234 255
218 234 255
218 234 255
218 234 255
218 234 255
218 234 255
218 234 255
218 234 255
218 234 255
218 234 255
218 234 255
218 234 255
218 234 255
218 234 255
218 234 255
218 234 255
218 234 255
218 234 255
218 234 255
218 234 255
218 234 255
218 234 255
218 234 255
218 234 255
218 234 255
218 234 255
218 234 255
218 234 255
218 234 255
218 234 255
218 234 255
218 234 255
218 234 255
218 234 255
218 234 255
218 234 255
218 234 255
218 234 255
218 234 255
218 234 255
219 234 255
219 234 255
219 234 255
219 234 255
219 234 255
219 234 255
219 234 255
219 234 255
219 234 255
219 234 255
219 234 255
219 234 255
219 234 255
219 234 255
219 234 255
219 234 255
219 234 255
219 234 255
219 234 255
219 234 255
219 234 255
219 234 255
219 234 255
219 234 255
219 234 255
219 234 255
219 234 255
219 234 255
219 234 255
219 234 255
219 234 255
219 234 255
219 234 255
219 234 255
219 234 255
219 234 255
219 234 255
219 234 255
219 234 255
219 234 255
219 234 255
219 234 255
219 234 255
219 234 255
219 234 255
219 234 255
219 234 255
219 234 255
219 234 255
219 234 255
219 234 255
219 234 255
219 234 255
219 234 255
219 234 255
219 234 255
219 234 255
219 234 255
219 234 255
219 234 255
219 234 255
219 234 255
219 234 255
219 234 255
219 234 255
219 234 255
219 234 255
218 234 255
218 234 255
218 234 255
218 234 255
218 234 255
218 234 255
218 234 255
218 234 255
218 234 255
218 234 255
218 234 255
218 234 255
218 234 255
218 234 255
218 234 255
218 234 255
218 234 255
218 234 255
218 234 255
218 234 255
218 234 255
218 234 255
218 234 255
218 234 255
218 234 255
218 234 255
218 234 255
218 234 255
218 234 255
218 234 255
218 234 255
218 234 255
218 234 255
218 234 255
218 234 255
218 234 255
218 234 255
218 234 255
218 234 255
218 234 255
218 234 255
218 234 255
218 234 255
218 234 255
218 234 255
218 234 255
218 234 255
218 234 255
218 234 255
218 234 255
218 234 255
218 234 255
218 234 255
218 234 255
218 234 255
218 234 255
218 234 255
218 234 255
218 234 255
218 234 255
218 234 255
218 234 255
218 234 255
218 234 255
218 234 255
218 234 255
218 234 255
218 234 255
218 234 255
218 234 255
218 234 255
218 234 255
218 234 255
218 234 255
218 234 255
218 234 255
218 234 255
218 234 255
218 234 255
218 234 255
218 234 255
218 234 255
218 234 255
218 234 255
218 234 255
218 234 255
218 234 255
218 234 255
218 234 255
218 234 255
218 234 255
218 234 255
218 233 255
218 233 255
218 233 255
218 233 255
218 233 255
218 233 255
218 233 255
218 233 255
218 233 255
218 233 255
218 233 255
218 233 255
217 233 255
217 233 255
217 233 255
217 233 255
217 233 255
217 233 255
217 233 255
217 233 255
217 233 255
217 233 255
217 233 255
217 233 255
217 233 255
217 233 255
217 233 255
217 233 255
217 233 255
217 233 255
217 233 255
217 233 255
217 233 255
217 233 255
217 233 255
217 233 255
217 233 255
217 233 255
217 233 255
217 233 255
217 233 255
217 233 255
217 233 255
217 233 255
217 233 255
217 233 255
217 233 255
217 233 255
217 233 255
217 233 255
217 233 255
217 233 255
217 233 255
217 233 255
217 233 255
217 233 255
217 233 255
217 233 255
217 233 255
217 233 255
217 233 255
217 233 255
217 233 255
217 233 255
217 233 255
217 233 255
217 233 255
217 233 255
217 233 255
217 233 255
217 233 255
217 233 255
217 233 255
217 233 255
217 233 255
217 233 255
217 233 255
217 233 255
217 233 255
217 233 255
217 233 255
217 233 255
217 233 255
217 233 255
217 233 255
217 233 255
217 233 255
217 233 255
217 233 255
217 233 255
217 233 255
217 233 255
217 233 255
217 233 255
217 233 255
217 233 255
217 233 255
217 233 255
217 233 255
217 233 255
217 233 255
217 233 255
217 233 255
217 233 255
217 233 255
217 233 255
217 233 255
217 233 255
217 233 255
217 233 255
217 233 255
217 233 255
217 233 255
217 233 255
217 233 255
217 233 255
217 233 255
217 233 255
217 233 255
217 233 255
217 233 255
217 233 255
218 233 255
218 233 255
218 233 255
218 233 255
218 233 255
218 233 255
218 233 255
218 233 255
218 233 255
218 233 255
218 233 255
218 233 255
218 233 255
218 234 255
218 234 255
218 234 255
218 234 255
218 234 255
218 234 255
218 234 255
218 234 255
218 234 255
218 234 255
218 234 255
218 234 255
218 234 255
218 234 255
218 234 255
218 234 255
218 234 255
218 234 255
218 234 255
218 234 255
218 234 255
218 234 255
218 234 255
218 234 255
218 234 255
218 234 255
218 234 255
218 234 255
218 234 255
218 234 255
218 234 255
218 234 255
218 234 255
218 234 255
218 234 255
218 234 255
218 234 255
218 234 255
218 234 255
218 234 255
218 234 255
218 234 255
218 234 255
218 234 255
218 234 255
218 234 255
218 234 255
218 234 255
218 234 255
218 234 255
218 234 255
218 234 255
218 234 255
218 234 255
218 234 255
218 234 255
218 234 255
218 234 255
218 234 255
218 234 255
218 234 255
218 234 255
218 234 255
218 234 255
218 234 255
218 234 255
218 234 255
218 234 255
218 234 255
218 234 255
218 234 255
218 234 255
218 234 255
218 234 255
218 234 255
218 234 255
218 234 255
218 234 255
218 234 255
218 234 255
218 234 255
218 234 255
218 234 255
218 234 255
218 234 255
218 234 255
218 234 255
218 234 255
218 234 255
218 234 255
218 234 255
219 234 255
219 234 255
219 234 255
219 234 255
219 234 255
219 234 255
219 234 255
219 234 255
219 234 255
219 234 255
219 234 255
219 234 255
219 234 255
219 234 255
219 234 255
219 234 255
219 234 255
219 234 255
219 234 255
219 234 255
219 234 255
219 234 255
219 234 255
219 234 255
219 234 255
219 234 255
219 234 255
219 234 255
219 234 255
219 234 255
219 234 255
219 234 255
219 234 255
219 234 255
219 234 255
219 234 255
219 234 255
219 234 255
219 234 255
219 234 255
219 234 255
219 234 255
219 234 255
219 234 255
219 234 255
219 234 255
219 234 255
219 234 255
219 234 255
219 234 255
219 234 255
219 234 255
219 234 255
219 234 255
219 234 255
219 234 255
219 234 255
219 234 255
219 234 255
219 234 255
219 234 255
219 234 255
219 234 255
219 234 255
219 234 255
219 234 255
219 234 255
219 234 255
219 234 255
219 234 255
219 234 255
219 234 255
219 234 255
219 234 255
219 234 255
219 234 255
219 234 255
219 234 255
219 234 255
219 234 255
219 234 255
219 234 255
219 234 255
219 234 255
219 234 255
219 234 255
219 234 255
219 234 255
219 234 255
219 234 255
219 234 255
219 234 255
219 234 255
219 234 255
219 234 255
219 234 255
219 234 255
218 234 255
218 234 255
218 234 255
218 234 255
218 234 255
218 234 255
218 234 255
218 234 255
218 234 255
218 234 255
218 234 255
218 234 255
218 234 255
218 234 255
218 234 255
218 234 255
218 234 255
218 234 255
218 234 255
218 234 255
218 234 255
218 234 255
218 234 255
218 234 255
218 234 255
218 234 255
218 234 255
218 234 255
218 234 255
218 234 255
218 234 255
218 234 255
218 234 255
218 234 255
218 234 255
218 234 255
218 234 255
218 234 255
218 234 255
218 234 255
218 234 255
218 234 255
218 234 255
218 234 255
218 234 255
218 234 255
218 234 255
218 234 255
218 234 255
218 234 255
218 234 255
218 234 255
218 234 255
218 234 255
218 234 255
218 234 255
218 234 255
218 234 255
218 234 255
218 234 255
218 234 255
218 234 255
218 234 255
218 234 255
218 234 255
218 234 255
218 234 255
218 234 255
218 234 255
218 234 255
218 234 255
218 234 255
218 234 255
218 234 255
218 234 255
218 234 255
218 234 255
218 234 255
218 234 255
218 234 255
218 234 255
218 234 255
218 234 255
218 234 255
218 234 255
218 234 255
218 234 255
218 234 255
218 234 255
218 234 255
218 234 255
218 234 255
218 234 255
218 234 255
218 234 255
218 234 255
218 234 255
218 234 255
218 234 255
218 233 255
218 233 255
218 233 255
218 233 255
218 233 255
218 233 255
218 233 255
218 233 255
218 233 255
218 233 255
218 233 255
218 233 255
218 233 255
218 233 255
218 233 255
218 233 255
218 233 255
217 233 255
217 233 255
217 233 255
217 233 255
217 233 255
217 233 255
217 233 255
217 233 255
217 233 255
217 233 255
217 233 255
217 233 255
217 233 255
217 233 255
217 233 255
217 233 255
217 233 255
217 233 255
217 233 255
217 233 255
217 233 255
217 233 255
217 233 255
217 233 255
217 233 255
217 233 255
217 233 255
217 233 255
217 233 255
217 233 255
217 233 255
217 233 255
217 233 255
217 233 255
217 233 255
217 233 255
217 233 255
217 233 255
217 233 255
217 233 255
217 233 255
217 233 255
217 233 255
217 233 255
217 233 255
217 233 255
217 233 255
217 233 255
217 233 255
217 233 255
217 233 255
217 233 255
217 233 255
217 233 255
217 233 255
217 233 255
218 233 255
218 233 255
218 233 255
218 233 255
218 233 255
218 233 255
218 233 255
218 233 255
218 233 255
218 233 255
218 233 255
218 233 255
218 233 255
218 233 255
218 233 255
218 233 255
218 233 255
218 234 255
218 234 255
218 234 255
218 234 255
218 234 255
218 234 255
218 234 255
218 234 255
218 234 255
218 234 255
218 234 255
218 234 255
218 234 255
218 234 255
218 234 255
218 234 255
218 234 255
218 234 255
218 234 255
218 234 255
218 234 255
218 234 255
218 234 255
218 234 255
218 234 255
218 234 255
218 234 255
218 234 255
218 234 255
218 234 255
218 234 255
218 234 255
218 234 255
218 234 255
218 234 255
218 234 255
218 234 255
218 234 255
218 234 255
218 234 255
218 234 255
218 234 255
218 234 255
218 234 255
218 234 255
218 234 255
218 234 255
218 234 255
218 234 255
218 234 255
218 234 255
218 234 255
218 234 255
218 234 255
218 234 255
218 234 255
218 234 255
218 234 255
218 234 255
218 234 255
218 234 255
218 234 255
218 234 255
218 234 255
218 234 255
218 234 255
218 234 255
218 234 255
218 234 255
218 234 255
218 234 255
218 234 255
218 234 255
218 234 255
218 234 255
218 234 255
218 234 255
218 234 255
218 234 255
218 234 255
218 234 255
218 234 255
218 234 255
218 234 255
218 234 255
218 234 255
218 234 255
218 234 255
218 234 255
218 234 255
218 234 255
218 234 255
218 234 255
218 234 255
218 234 255
218 234 255
218 234 255
218 234 255
218 234 255
219 234 255
219 234 255
219 234 255
219 234 255
219 234 255
219 234 255
219 234 255
219 234 255
219 234 255
219 234 255
219 234 255
219 234 255
219 234 255
219 234 255
219 234 255
219 234 255
219 234 255
219 234 255
219 234 255
219 234 255
219 234 255
219 234 255
219 234 255
219 234 255
219 234 255
219 234 255
219 234 255
219 234 255
219 234 255
219 234 255
219 234 255
219 234 255
219 234 255
219 234 255
219 234 255
219 234 255
219 234 255
219 234 255
219 234 255
219 234 255
219 234 255
219 234 255
219 234 255
219 234 255
219 234 255
219 234 255
219 234 255
219 234 255
219 234 255
219 234 255
219 234 255
219 234 255
219 234 255
219 234 255
219 234 255
219 234 255
219 234 255
219 234 255
219 234 255
219 234 255
219 234 255
219 234 255
219 234 255
219 234 255
219 234 255
219 234 255
219 234 255
219 234 255
219 234 255
219 234 255
219 234 255
219 234 255
219 234 255
219 234 255
219 234 255
219 234 255
219 234 255
219 234 255
219 234 255
219 234 255
219 234 255
219 234 255
219 234 255
219 234 255
219 234 255
219 234 255
219 234 255
219 234 255
219 234 255
219 234 255
219 234 255
219 234 255
219 234 255
219 234 255
219 234 255
219 234 255
219 234 255
219 234 255
219 234 255
219 234 255
219 234 255
219 234 255
219 234 255
219 234 255
219 234 255
219 234 255
219 234 255
219 234 255
219 234 255
219 234 255
219 234 255
219 234 255
219 234 255
219 234 255
219 234 255
219 234 255
219 234 255
219 234 255
219 234 255
219 234 255
219 234 255
219 234 255
219 234 255
219 234 255
219 234 255
219 234 255
219 234 255
219 234 255
219 234 255
218 234 255
218 234 255
218 234 255
218 234 255
218 234 255
218 234 255
218 234 255
218 234 255
218 234 255
218 234 255
218 234 255
218 234 255
218 234 255
218 234 255
218 234 255
218 234 255
218 234 255
218 234 255
218 234 255
218 234 255
218 234 255
218 234 255
218 234 255
218 234 255
218 234 255
218 234 255
218 234 255
218 234 255
218 234 255
218 234 255
218 234 255
218 234 255
218 234 255
218 234 255
218 234 255
218 234 255
218 234 255
218 234 255
218 234 255
218 234 255
218 234 255
218 234 255
218 234 255
218 234 255
218 234 255
218 234 255
218 234 255
218 234 255
218 234 255
218 234 255
218 234 255
218 234 255
218 234 255
218 234 255
218 234 255
218 234 255
218 234 255
218 234 255
218 234 255
218 234 255
218 234 255
218 234 255
218 234 255
218 234 255
218 234 255
218 234 255
218 234 255
218 234 255
218 234 255
218 234 255
218 234 255
218 234 255
218 234 255
218 234 255
218 234 255
218 234 255
218 234 255
218 234 255
218 234 255
218 234 255
218 234 255
218 234 255
218 234 255
218 234 255
218 234 255
218 234 255
218 234 255
218 234 255
218 234 255
218 234 255
218 234 255
218 234 255
218 234 255
218 234 255
218 234 255
218 234 255
218 234 255
218 234 255
218 234 255
218 234 255
218 234 255
218 234 255
218 234 255
218 234 255
218 234 255
218 234 255
218 234 255
218 234 255
218 234 255
218 234 255
218 234 255
218 234 255
218 234 255
218 234 255
218 234 255
218 234 255
218 234 255
218 234 255
218 234 255
218 234 255
218 234 255
218 234 255
218 234 255
218 234 255
218 234 255
218 234 255
218 234 255
218 234 255
218 234 255
218 234 255
218 234 255
218 234 255
218 234 255
218 234 255
218 234 255
218 234 255
218 234 255
218 234 255
218 234 255
218 234 255
218 234 255
218 234 255
218 234 255
218 234 255
218 234 255
218 234 255
218 234 255
218 234 255
218 234 255
218 234 255
218 234 255
218 234 255
218 234 255
218 234 255
218 234 255
218 234 255
218 234 255
218 234 255
218 234 255
218 234 255
218 234 255
218 234 255
218 234 255
218 234 255
218 234 255
218 234 255
218 234 255
218 234 255
218 234 255
218 234 255
218 234 255
218 234 255
218 234 255
218 234 255
218 234 255
218 234 255
218 234 255
218 234 255
218 234 255
218 234 255
218 234 255
218 234 255
218 234 255
218 234 255
218 234 255
218 234 255
218 234 255
218 234 255
218 234 255
218 234 255
218 234 255
218 234 255
218 234 255
218 234 255
218 234 255
218 234 255
218 234 255
218 234 255
218 234 255
218 234 255
218 234 255
218 234 255
218 234 255
218 234 255
218 234 255
218 234 255
218 234 255
218 234 255
218 234 255
218 234 255
218 234 255
218 234 255
218 234 255
218 234 255
218 234 255
218 234 255
218 234 255
218 234 255
218 234 255
218 234 255
218 234 255
218 234 255
218 234 255
218 234 255
218 234 255
218 234 255
218 234 255
218 234 255
218 234 255
218 234 255
218 234 255
218 234 255
218 234 255
218 234 255
218 234 255
218 234 255
218 234 255
218 234 255
218 234 255
218 234 255
218 234 255
218 234 255
218 234 255
218 234 255
218 234 255
218 234 255
218 234 255
218 234 255
218 234 255
218 234 255
218 234 255
218 234 255
218 234 255
218 234 255
218 234 255
219 234 255
219 234 255
219 234 255
219 234 255
219 234 255
219 234 255
219 234 255
219 234 255
219 234 255
219 234 255
219 234 255
219 234 255
219 234 255
219 234 255
219 234 255
219 234 255
219 234 255
219 234 255
219 234 255
219 234 255
219 234 255
219 234 255
219 234 255
219 234 255
219 234 255
219 234 255
219 234 255
219 234 255
219 234 255
219 234 255
219 234 255
219 234 255
219 234 255
219 234 255
219 234 255
219 234 255
219 234 255
219 234 255
219 234 255
219 234 255
219 234 255
219 234 255
219 234 255
219 234 255
219 234 255
219 234 255
219 234 255
219 234 255
219 234 255
219 234 255
219 234 255
219 234 255
219 234 255
219 234 255
219 234 255
219 234 255
219 234 255
219 234 255
219 234 255
219 234 255
219 234 255
219 234 255
219 234 255
219 234 255
219 234 255
219 234 255
219 234 255
219 234 255
219 234 255
219 234 255
219 234 255
219 234 255
219 234 255
219 234 255
219 234 255
219 234 255
219 234 255
219 234 255
219 234 255
219 234 255
219 234 255
219 234 255
219 234 255
219 234 255
219 234 255
219 234 255
219 234 255
219 234 255
219 234 255
219 234 255
219 234 255
219 234 255
219 234 255
219 234 255
219 234 255
219 234 255
219 234 255
219 234 255
219 234 255
219 234 255
219 234 255
219 234 255
219 234 255
219 234 255
219 234 255
219 234 255
219 234 255
219 234 255
219 234 255
219 234 255
219 234 255
219 234 255
219 234 255
219 234 255
219 234 255
219 234 255
219 234 255
219 234 255
219 234 255
219 234 255
219 234 255
219 234 255
219 234 255
219 234 255
219 234 255
219 234 255
219 234 255
219 234 255
219 234 255
219 234 255
219 234 255
219 234 255
219 234 255
219 234 255
219 234 255
219 234 255
219 234 255
219 234 255
219 234 255
219 234 255
219 234 255
219 234 255
219 234 255
219 234 255
219 234 255
219 234 255
219 234 255
219 234 255
219 234 255
219 234 255
219 234 255
219 234 255
219 234 255
219 234 255
219 234 255
219 234 255
219 234 255
219 234 255
219 234 255
219 234 255
219 234 255
219 234 255
218 234 255
218 234 255
218 234 255
218 234 255
218 234 255
218 234 255
218 234 255
218 234 255
218 234 255
218 234 255
218 234 255
218 234 255
218 234 255
218 234 255
218 234 255
218 234 255
218 234 255
218 234 255
218 234 255
218 234 255
218 234 255
218 234 255
218 234 255
218 234 255
218 234 255
218 234 255
218 234 255
218 234 255
218 234 255
218 234 255
218 234 255
218 234 255
218 234 255
218 234 255
218 234 255
218 234 255
218 234 255
218 234 255
218 234 255
218 234 255
218 234 255
218 234 255
218 234 255
218 234 255
218 234 255
218 234 255
218 234 255
218 234 255
218 234 255
218 234 255
218 234 255
218 234 255
218 234 255
218 234 255
218 234 255
218 234 255
218 234 255
218 234 255
218 234 255
218 234 255
218 234 255
218 234 255
218 234 255
218 234 255
218 234 255
218 234 255
218 234 255
218 234 255
218 234 255
218 234 255
218 234 255
218 234 255
218 234 255
218 234 255
218 234 255
218 234 255
218 234 255
218 234 255
218 234 255
218 234 255
218 234 255
218 234 255
218 234 255
218 234 255
218 234 255
218 234 255
218 234 255
218 234 255
218 234 255
218 234 255
218 234 255
218 234 255
218 234 255
218 234 255
218 234 255
218 234 255
218 234 255
218 234 255
218 234 255
218 234 255
218 234 255
218 234 255
218 234 255
218 234 255
218 234 255
218 234 255
218 234 255
218 234 255
218 234 255
218 234 255
218 234 255
218 234 255
218 234 255
218 234 255
218 234 255
218 234 255
218 234 255
218 234 255
218 234 255
218 234 255
218 234 255
218 234 255
218 234 255
218 234 255
218 234 255
218 234 255
218 234 255
218 234 255
218 234 255
218 234 255
218 234 255
218 234 255
218 234 255
218 234 255
218 234 255
218 234 255
218 234 255
218 234 255
218 234 255
218 234 255
218 234 255
218 234 255
218 234 255
218 234 255
218 234 255
218 234 255
218 234 255
218 234 255
218 234 255
218 234 255
218 234 255
218 234 255
218 234 255
218 234 255
218 234 255
218 234 255
218 234 255
218 234 255
218 234 255
218 234 255
218 234 255
218 234 255
218 234 255
218 234 255
218 234 255
218 234 255
218 234 255
218 234 255
218 234 255
218 234 255
218 234 255
218 234 255
218 234 255
218 234 255
218 234 255
218 234 255
218 234 255
218 234 255
218 234 255
218 234 255
218 234 255
218 234 255
218 234 255
218 234 255
218 234 255
218 234 255
218 234 255
218 234 255
218 234 255
218 234 255
218 234 255
218 234 255
218 234 255
218 234 255
218 234 255
218 234 255
218 234 255
218 234 255
218 234 255
218 234 255
218 234 255
218 234 255
218 234 255
218 234 255
218 234 255
218 234 255
218 234 255
218 234 255
218 234 255
218 234 255
218 234 255
218 234 255
218 234 255
218 234 255
218 234 255
218 234 255
218 234 255
218 234 255
218 234 255
218 234 255
219 234 255
219 234 255
219 234 255
219 234 255
219 234 255
219 234 255
219 234 255
219 234 255
219 234 255
219 234 255
219 234 255
219 234 255
219 234 255
219 234 255
219 234 255
219 234 255
219 234 255
219 234 255
219 234 255
219 234 255
219 234 255
219 234 255
219 234 255
219 234 255
219 234 255
219 234 255
219 234 255
219 234 255
219 234 255
219 234 255
219 234 255
219 234 255
219 234 255
219 234 255
219 234 255
219 234 255
219 234 255
219 234 255
219 234 255
219 234 255
219 234 255
219 234 255
219 234 255
219 234 255
219 234 255
219 234 255
219 234 255
219 234 255
219 234 255
219 234 255
219 234 255
219 234 255
219 234 255
219 234 255
219 234 255
219 234 255
219 234 255
219 234 255
219 234 255
219 234 255
219 234 255
219 234 255
219 234 255
219 234 255
219 234 255
219 234 255
219 234 255
219 234 255
219 234 255
219 234 255
219 234 255
219 234 255
219 234 255
219 234 255
219 234 255
219 234 255
219 234 255
219 234 255
219 234 255
219 234 255
219 234 255
219 234 255
219 234 255
219 234 255
219 234 255
219 234 255
219 234 255
219 234 255
219 234 255
219 234 255
219 234 255
219 234 255
219 234 255
219 234 255
219 234 255
219 234 255
219 234 255
219 234 255
219 234 255
219 234 255
219 234 255
219 234 255
219 234 255
219 234 255
219 234 255
219 234 255
219 234 255
219 234 255
219 234 255
219 234 255
219 234 255
219 234 255
219 234 255
219 234 255
219 234 255
219 234 255
219 234 255
219 234 255
219 234 255
219 234 255
219 234 255
219 234 255
219 234 255
219 234 255
219 234 255
219 234 255
219 234 255
219 234 255
219 234 255
219 234 255
219 234 255
219 234 255
219 234 255
219 234 255
219 234 255
219 234 255
219 234 255
219 234 255
219 234 255
219 234 255
219 234 255
219 234 255
219 234 255
219 234 255
219 234 255
219 234 255
219 234 255
219 234 255
219 234 255
219 234 255
219 234 255
219 234 255
219 234 255
219 234 255
219 234 255
219 234 255
219 234 255
219 234 255
219 234 255
219 234 255
219 234 255
219 234 255
219 234 255
219 234 255
219 234 255
219 234 255
219 234 255
219 234 255
219 234 255
219 234 255
219 234 255
219 234 255
219 234 255
219 234 255
219 234 255
219 234 255
219 234 255
219 234 255
219 234 255
219 234 255
219 234 255
219 234 255
219 234 255
219 234 255
219 234 255
219 234 255
219 234 255
219 234 255
219 234 255
219 234 255
219 234 255
219 234 255
219 234 255
219 234 255
219 234 255
219 234 255
219 234 255
219 234 255
218 234 255
218 234 255
218 234 255
218 234 255
218 234 255
218 234 255
218 234 255
218 234 255
218 234 255
218 234 255
218 234 255
218 234 255
218 234 255
218 234 255
218 234 255
218 234 255
218 234 255
218 234 255
218 234 255
218 234 255
218 234 255
218 234 255
218 234 255
218 234 255
218 234 255
218 234 255
218 234 255
218 234 255
218 234 255
218 234 255
218 234 255
218 234 255
218 234 255
218 234 255
218 234 255
218 234 255
218 234 255
218 234 255
218 234 255
218 234 255
218 234 255
218 234 255
218 234 255
218 234 255
218 234 255
218 234 255
218 234 255
218 234 255
218 234 255
218 234 255
218 234 255
218 234 255
218 234 255
218 234 255
218 234 255
218 234 255
218 234 255
218 234 255
218 234 255
218 234 255
218 234 255
218 234 255
218 234 255
218 234 255
218 234 255
218 234 255
218 234 255
218 234 255
218 234 255
218 234 255
218 234 255
218 234 255
218 234 255
218 234 255
218 234 255
218 234 255
218 234 255
218 234 255
218 234 255
218 234 255
218 234 255
218 234 255
218 234 255
218 234 255
218 234 255
218 234 255
218 234 255
218 234 255
218 234 255
218 234 255
218 234 255
218 234 255
218 234 255
218 234 255
218 234 255
218 234 255
218 234 255
218 234 255
218 234 255
218 234 255
218 234 255
218 234 255
218 234 255
218 234 255
218 234 255
218 234 255
218 234 255
218 234 255
218 234 255
218 234 255
218 234 255
218 234 255
218 234 255
218 234 255
218 234 255
218 234 255
218 234 255
218 234 255
218 234 255
218 234 255
218 234 255
218 234 255
218 234 255
218 234 255
218 234 255
218 234 255
218 234 255
218 234 255
218 234 255
218 234 255
218 234 255
218 234 255
218 234 255
218 234 255
218 234 255
218 234 255
218 234 255
218 234 255
218 234 255
218 234 255
218 234 255
218 234 255
218 234 255
218 234 255
218 234 255
218 234 255
218 234 255
218 234 255
218 234 255
218 234 255
218 234 255
218 234 255
218 234 255
218 234 255
218 234 255
218 234 255
218 234 255
218 234 255
218 234 255
218 234 255
218 234 255
218 234 255
218 234 255
218 234 255
218 234 255
218 234 255
218 234 255
218 234 255
218 234 255
218 234 255
218 234 255
218 234 255
218 234 255
218 234 255
218 234 255
218 234 255
218 234 255
218 234 255
218 234 255
218 234 255
218 234 255
218 234 255
218 234 255
218 234 255
219 234 255
219 234 255
219 234 255
219 234 255
219 234 255
219 234 255
219 234 255
219 234 255
219 234 255
219 234 255
219 234 255
219 234 255
219 234 255
219 234 255
219 234 255
219 234 255
219 234 255
219 234 255
219 234 255
219 234 255
219 234 255
219 234 255
219 234 255
219 234 255
219 234 255
219 234 255
219 234 255
219 234 255
219 234 255
219 234 255
219 234 255
219 234 255
219 234 255
219 234 255
219 234 255
219 234 255
219 234 255
219 234 255
219 234 255
219 234 255
219 234 255
219 234 255
219 234 255
219 234 255
219 234 255
219 234 255
219 234 255
219 234 255
219 234 255
219 234 255
219 234 255
219 234 255
219 234 255
219 234 255
219 234 255
219 234 255
219 234 255
219 234 255
219 234 255
219 234 255
219 234 255
219 234 255
219 234 255
219 234 255
219 234 255
219 234 255
219 234 255
219 234 255
219 234 255
219 234 255
219 234 255
219 234 255
219 234 255
219 234 255
219 234 255
219 234 255
219 234 255
219 234 255
219 234 255
219 234 255
219 234 255
219 234 255
219 234 255
219 234 255
219 234 255
219 234 255
219 234 255
219 234 255
219 234 255
219 234 255
219 234 255
219 234 255
219 234 255
219 234 255
219 234 255
219 234 255
219 234 255
219 234 255
219 234 255
219 234 255
219 234 255
219 234 255
219 234 255
219 234 255
219 234 255
219 234 255
219 234 255
219 234 255
219 235 255
219 235 255
219 235 255
219 235 255
219 235 255
219 235 255
219 235 255
219 235 255
219 235 255
219 234 255
219 234 255
219 234 255
219 234 255
219 234 255
219 234 255
219 234 255
219 234 255
219 234 255
219 234 255
219 234 255
219 234 255
219 234 255
219 234 255
219 234 255
219 234 255
219 234 255
219 234 255
219 234 255
219 234 255
219 234 255
219 234 255
219 234 255
219 234 255
219 234 255
219 234 255
219 234 255
219 234 255
219 234 255
219 234 255
219 234 255
219 234 255
219 234 255
219 234 255
219 234 255
219 234 255
219 234 255
219 234 255
219 234 255
219 234 255
219 234 255
219 234 255
219 234 255
219 234 255
219 234 255
219 234 255
219 234 255
219 234 255
219 234 255
219 234 255
219 234 255
219 234 255
219 234 255
219 234 255
219 234 255
219 234 255
219 234 255
219 234 255
219 234 255
219 234 255
219 234 255
219 234 255
219 234 255
219 234 255
219 234 255
219 234 255
219 234 255
219 234 255
219 234 255
219 234 255
219 234 255
219 234 255
219 234 255
219 234 255
219 234 255
219 234 255
219 234 255
219 234 255
219 234 255
219 234 255
219 234 255
219 234 255
219 234 255
219 234 255
219 234 255
219 234 255
219 234 255
219 234 255
219 234 255
219 234 255
219 234 255
219 234 255
219 234 255
219 234 255
219 234 255
219 234 255
219 234 255
219 234 255
219 234 255
219 234 255
219 234 255
219 234 255
219 234 255
219 234 255
219 234 255
219 234 255
219 234 255
219 234 255
219 234 255
219 234 255
219 234 255
219 234 255
219 234 255
219 234 255
219 234 255
219 234 255
219 234 255
219 234 255
219 234 255
219 234 255
219 234 255
218 234 255
218 234 255
218 234 255
218 234 255
218 234 255
218 234 255
218 234 255
218 234 255
218 234 255
218 234 255
218 234 255
218 234 255
218 234 255
218 234 255
218 234 255
218 234 255
218 234 255
218 234 255
218 234 255
218 234 255
218 234 255
218 234 255
218 234 255
218 234 255
218 234 255
218 234 255
218 234 255
218 234 255
218 234 255
218 234 255
218 234 255
218 234 255
218 234 255
218 234 255
218 234 255
218 234 255
218 234 255
218 234 255
218 234 255
218 234 255
218 234 255
218 234 255
218 234 255
218 234 255
218 234 255
218 234 255
218 234 255
218 234 255
218 234 255
218 234 255
218 234 255
218 234 255
218 234 255
218 234 255
218 234 255
218 234 255
218 234 255
218 234 255
218 234 255
218 234 255
218 234 255
218 234 255
218 234 255
218 234 255
218 234 255
218 234 255
218 234 255
218 234 255
218 234 255
218 234 255
218 234 255
218 234 255
218 234 255
218 234 255
218 234 255
218 234 255
218 234 255
218 234 255
218 234 255
218 234 255
218 234 255
218 234 255
218 234 255
218 234 255
218 234 255
218 234 255
218 234 255
218 234 255
218 234 255
218 234 255
218 234 255
218 234 255
218 234 255
218 234 255
218 234 255
218 234 255
218 234 255
218 234 255
218 234 255
218 234 255
218 234 255
218 234 255
218 234 255
218 234 255
218 234 255
218 234 255
218 234 255
218 234 255
218 234 255
218 234 255
218 234 255
218 234 255
218 234 255
218 234 255
218 234 255
218 234 255
218 234 255
218 234 255
218 234 255
218 234 255
218 234 255
218 234 255
218 234 255
218 234 255
218 234 255
218 234 255
218 234 255
218 234 255
218 234 255
218 234 255
218 234 255
218 234 255
218 234 255
218 234 255
218 234 255
218 234 255
218 234 255
218 234 255
218 234 255
218 234 255
219 234 255
219 234 255
219 234 255
219 234 255
219 234 255
219 234 255
219 234 255
219 234 255
219 234 255
219 234 255
219 234 255
219 234 255
219 234 255
219 234 255
219 234 255
219 234 255
219 234 255
219 234 255
219 234 255
219 234 255
219 234 255
219 234 255
219 234 255
219 234 255
219 234 255
219 234 255
219 234 255
219 234 255
219 234 255
219 234 255
219 234 255
219 234 255
219 234 255
219 234 255
219 234 255
219 234 255
219 234 255
219 234 255
219 234 255
219 234 255
219 234 255
219 234 255
219 234 255
219 234 255
219 234 255
219 234 255
219 234 255
219 234 255
219 234 255
219 234 255
219 234 255
219 234 255
219 234 255
219 234 255
219 234 255
219 234 255
219 234 255
219 234 255
219 234 255
219 234 255
219 234 255
219 234 255
219 234 255
219 234 255
219 234 255
219 234 255
219 234 255
219 234 255
219 234 255
219 234 255
219 234 255
219 234 255
219 234 255
219 234 255
219 234 255
219 234 255
219 234 255
219 234 255
219 234 255
219 234 255
219 234 255
219 234 255
219 234 255
219 234 255
219 234 255
219 234 255
219 234 255
219 234 255
219 234 255
219 234 255
219 234 255
219 234 255
219 234 255
219 234 255
219 234 255
219 234 255
219 234 255
219 234 255
219 234 255
219 234 255
219 234 255
219 234 255
219 234 255
219 234 255
219 234 255
219 234 255
219 234 255
219 234 255
219 234 255
219 234 255
219 234 255
219 234 255
219 234 255
219 234 255
219 234 255
219 234 255
219 234 255
219 234 255
219 234 255
219 234 255
219 234 255
219 234 255
219 235 255
219 235 255
219 235 255
219 235 255
219 235 255
219 235 255
219 235 255
219 235 255
220 235 255
220 235 255
220 235 255
220 235 255
220 235 255
220 235 255
220 235 255
220 235 255
220 235 255
220 235 255
219 235 255
219 235 255
219 235 255
219 235 255
219 235 255
219 235 255
219 235 255
219 235 255
219 235 255
219 235 255
219 235 255
219 235 255
219 235 255
219 235 255
219 235 255
219 235 255
219 235 255
219 235 255
219 235 255
219 234 255
219 234 255
219 234 255
219 234 255
219 234 255
219 234 255
219 234 255
219 234 255
219 234 255
219 234 255
219 234 255
219 234 255
219 234 255
219 234 255
219 234 255
219 234 255
219 234 255
219 234 255
219 234 255
219 234 255
219 234 255
219 234 255
219 234 255
219 234 255
219 234 255
219 234 255
219 234 255
219 234 255
219 234 255
219 234 255
219 234 255
219 234 255
219 234 255
219 234 255
219 234 255
219 234 255
219 234 255
219 234 255
219 234 255
219 234 255
219 234 255
219 234 255
219 234 255
219 234 255
219 234 255
219 234 255
219 234 255
219 234 255
219 234 255
219 234 255
219 234 255
219 234 255
219 234 255
219 234 255
219 234 255
219 234 255
219 234 255
219 234 255
219 234 255
219 234 255
219 234 255
219 234 255
219 234 255
219 234 255
219 234 255
219 234 255
219 234 255
219 234 255
219 234 255
219 234 255
219 234 255
219 234 255
219 234 255
219 234 255
219 234 255
219 234 255
219 234 255
219 234 255
219 234 255
219 234 255
219 234 255
219 234 255
219 234 255
219 234 255
219 234 255
219 234 255
219 234 255
219 234 255
219 234 255
219 234 255
219 234 255
219 234 255
219 234 255
219 234 255
219 234 255
219 234 255
219 234 255
219 234 255
219 234 255
219 234 255
219 234 255
219 234 255
219 234 255
219 234 255
219 234 255
219 234 255
219 234 255
219 234 255
219 234 255
219 234 255
219 234 255
219 234 255
219 234 255
219 234 255
219 234 255
219 234 255
219 234 255
219 234 255
219 234 255
219 234 255
219 234 255
219 234 255
219 234 255
219 234 255
219 234 255
219 234 255
219 234 255
219 234 255
219 234 255
219 234 255
219 234 255
219 234 255
219 234 255
218 234 255
218 234 255
218 234 255
218 234 255
218 234 255
218 234 255
218 234 255
218 234 255
218 234 255
218 234 255
218 234 255
218 234 255
218 234 255
218 234 255
218 234 255
218 234 255
218 234 255
218 234 255
218 234 255
218 234 255
218 234 255
218 234 255
218 234 255
218 234 255
218 234 255
218 234 255
218 234 255
218 234 255
218 234 255
218 234 255
218 234 255
218 234 255
218 234 255
218 234 255
218 234 255
218 234 255
218 234 255
218 234 255
218 234 255
218 234 255
218 234 255
218 234 255
218 234 255
218 234 255
218 234 255
218 234 255
218 234 255
218 234 255
218 234 255
218 234 255
218 234 255
218 234 255
218 234 255
218 234 255
218 234 255
218 234 255
218 234 255
218 234 255
218 234 255
218 234 255
218 234 255
218 234 255
218 234 255
218 234 255
218 234 255
218 234 255
218 234 255
218 234 255
218 234 255
218 234 255
218 234 255
218 234 255
218 234 255
218 234 255
218 234 255
218 234 255
218 234 255
218 234 255
219 234 255
219 234 255
219 234 255
219 234 255
219 234 255
219 234 255
219 234 255
219 234 255
219 234 255
219 234 255
219 234 255
219 234 255
219 234 255
219 234 255
219 234 255
219 234 255
219 234 255
219 234 255
219 234 255
219 234 255
219 234 255
219 234 255
219 234 255
219 234 255
219 234 255
219 234 255
219 234 255
219 234 255
219 234 255
219 234 255
219 234 255
219 234 255
219 234 255
219 234 255
219 234 255
219 234 255
219 234 255
219 234 255
219 234 255
219 234 255
219 234 255
219 234 255
219 234 255
219 234 255
219 234 255
219 234 255
219 234 255
219 234 255
219 234 255
219 234 255
219 234 255
219 234 255
219 234 255
219 234 255
219 234 255
219 234 255
219 234 255
219 234 255
219 234 255
219 234 255
219 234 255
219 234 255
219 234 255
219 234 255
219 234 255
219 234 255
219 234 255
219 234 255
219 234 255
219 234 255
219 234 255
219 234 255
219 234 255
219 234 255
219 234 255
219 234 255
219 234 255
219 234 255
219 234 255
219 234 255
219 234 255
219 234 255
219 234 255
219 234 255
219 234 255
219 234 255
219 234 255
219 234 255
219 234 255
219 234 255
219 234 255
219 234 255
219 234 255
219 234 255
219 234 255
219 234 255
219 234 255
219 234 255
219 234 255
219 234 255
219 234 255
219 234 255
219 234 255
219 234 255
219 234 255
219 234 255
219 234 255
219 234 255
219 234 255
219 234 255
219 234 255
219 234 255
219 234 255
219 234 255
219 234 255
219 234 255
219 234 255
219 234 255
219 234 255
219 234 255
219 234 255
219 234 255
219 234 255
219 234 255
219 234 255
219 234 255
219 234 255
219 234 255
219 234 255
219 234 255
219 234 255
219 235 255
219 235 255
219 235 255
219 235 255
219 235 255
219 235 255
219 235 255
219 235 255
219 235 255
219 235 255
219 235 255
219 235 255
219 235 255
219 235 255
219 235 255
219 235 255
219 235 255
219 235 255
219 235 255
220 235 255
220 235 255
220 235 255
220 235 255
220 235 255
220 235 255
220 235 255
220 235 255
220 235 255
220 235 255
220 235 255
220 235 255
220 235 255
220 235 255
220 235 255
220 235 255
220 235 255
220 235 255
220 235 255
220 235 255
220 235 255
220 235 255
220 235 255
220 235 255
220 235 255
220 235 255
220 235 255
220 235 255
220 235 255
220 235 255
220 235 255
220 235 255
220 235 255
220 235 255
220 235 255
220 235 255
220 235 255
220 235 255
220 235 255
220 235 255
220 235 255
220 235 255
220 235 255
219 235 255
219 235 255
219 235 255
219 235 255
219 235 255
219 235 255
219 235 255
219 235 255
219 235 255
219 235 255
219 235 255
219 235 255
219 235 255
219 235 255
219 235 255
219 235 255
219 235 255
219 235 255
219 234 255
219 234 255
219 234 255
219 234 255
219 234 255
219 234 255
219 234 255
219 234 255
219 234 255
219 234 255
219 234 255
219 234 255
219 234 255
219 234 255
219 234 255
219 234 255
219 234 255
219 234 255
219 234 255
219 234 255
219 234 255
219 234 255
219 234 255
219 234 255
219 234 255
219 234 255
219 234 255
219 234 255
219 234 255
219 234 255
219 234 255
219 234 255
219 234 255
219 234 255
219 234 255
219 234 255
219 234 255
219 234 255
219 234 255
219 234 255
219 234 255
219 234 255
219 234 255
219 234 255
219 234 255
219 234 255
219 234 255
219 234 255
219 234 255
219 234 255
219 234 255
219 234 255
219 234 255
219 234 255
219 234 255
219 234 255
219 234 255
219 234 255
219 234 255
219 234 255
219 234 255
219 234 255
219 234 255
219 234 255
219 234 255
219 234 255
219 234 255
219 234 255
219 234 255
219 234 255
219 234 255
219 234 255
219 234 255
219 234 255
219 234 255
219 234 255
219 234 255
219 234 255
219 234 255
219 234 255
219 234 255
219 234 255
219 234 255
219 234 255
219 234 255
219 234 255
219 234 255
219 234 255
219 234 255
219 234 255
219 234 255
219 234 255
219 234 255
219 234 255
219 234 255
219 234 255
219 234 255
219 234 255
219 234 255
219 234 255
219 234 255
219 234 255
219 234 255
219 234 255
219 234 255
219 234 255
219 234 255
219 234 255
219 234 255
219 234 255
219 234 255
219 234 255
219 234 255
219 234 255
219 234 255
219 234 255
219 234 255
219 234 255
219 234 255
219 234 255
219 234 255
219 234 255
219 234 255
219 234 255
219 234 255
219 234 255
219 234 255
219 234 255
219 234 255
219 234 255
219 234 255
219 234 255
219 234 255
219 234 255
219 234 255
219 234 255
219 234 255
219 234 255
219 234 255
219 234 255
219 234 255
219 234 255
219 234 255
219 234 255
219 234 255
219 234 255
219 234 255
219 234 255
219 234 255
219 234 255
219 234 255
219 234 255
219 234 255
219 234 255
219 234 255
219 234 255
219 234 255
219 234 255
219 234 255
219 234 255
219 234 255
219 234 255
219 234 255
219 234 255
219 234 255
219 234 255
219 234 255
219 234 255
219 234 255
219 234 255
219 234 255
219 234 255
219 234 255
219 234 255
219 234 255
219 234 255
219 234 255
219 234 255
219 234 255
219 234 255
219 234 255
219 234 255
219 234 255
219 234 255
219 234 255
219 234 255
219 234 255
219 234 255
219 234 255
219 234 255
219 234 255
219 234 255
219 234 255
219 234 255
219 234 255
219 234 255
219 234 255
219 234 255
219 234 255
219 234 255
219 234 255
219 234 255
219 234 255
219 234 255
219 234 255
219 234 255
219 234 255
219 234 255
219 234 255
219 234 255
219 234 255
219 234 255
219 234 255
219 234 255
219 234 255
219 234 255
219 234 255
219 234 255
219 234 255
219 234 255
219 234 255
219 234 255
219 234 255
219 234 255
219 234 255
219 234 255
219 234 255
219 234 255
219 234 255
219 234 255
219 234 255
219 234 255
219 234 255
219 234 255
219 234 255
219 234 255
219 234 255
219 234 255
219 234 255
219 234 255
219 234 255
219 234 255
219 234 255
219 234 255
219 234 255
219 234 255
219 234 255
219 234 255
219 234 255
219 234 255
219 234 255
219 234 255
219 234 255
219 234 255
219 234 255
219 234 255
219 234 255
219 234 255
219 234 255
219 234 255
219 234 255
219 234 255
219 234 255
219 234 255
219 234 255
219 234 255
219 234 255
219 234 255
219 234 255
219 234 255
219 234 255
219 234 255
219 234 255
219 234 255
219 234 255
219 234 255
219 234 255
219 234 255
219 234 255
219 234 255
219 234 255
219 234 255
219 234 255
219 234 255
219 234 255
219 234 255
219 234 255
219 234 255
219 234 255
219 234 255
219 234 255
219 234 255
219 234 255
219 234 255
219 234 255
219 234 255
219 234 255
219 234 255
219 235 255
219 235 255
219 235 255
219 235 255
219 235 255
219 235 255
219 235 255
219 235 255
219 235 255
219 235 255
219 235 255
219 235 255
219 235 255
219 235 255
219 235 255
219 235 255
219 235 255
219 235 255
219 235 255
220 235 255
220 235 255
220 235 255
220 235 255
220 235 255
220 235 255
220 235 255
220 235 255
220 235 255
220 235 255
220 235 255
220 235 255
220 235 255
220 235 255
220 235 255
220 235 255
220 235 255
220 235 255
220 235 255
220 235 255
220 235 255
220 235 255
220 235 255
220 235 255
220 235 255
220 235 255
220 235 255
220 235 255
220 235 255
220 235 255
220 235 255
220 235 255
220 235 255
220 235 255
220 235 255
220 235 255
220 235 255
220 235 255
220 235 255
220 235 255
220 235 255
220 235 255
220 235 255
220 235 255
220 235 255
220 235 255
220 235 255
220 235 255
220 235 255
220 235 255
220 235 255
220 235 255
220 235 255
220 235 255
220 235 255
220 235 255
220 235 255
220 235 255
220 235 255
220 235 255
220 235 255
220 235 255
220 235 255
220 235 255
220 235 255
220 235 255
220 235 255
220 235 255
220 235 255
220 235 255
220 235 255
220 235 255
220 235 255
220 235 255
220 235 255
220 235 255
220 235 255
220 235 255
220 235 255
220 235 255
220 235 255
220 235 255
220 235 255
220 235 255
220 235 255
220 235 255
220 235 255
220 235 255
220 235 255
219 235 255
219 235 255
219 235 255
219 235 255
219 235 255
219 235 255
219 235 255
219 235 255
219 235 255
219 235 255
219 235 255
219 235 255
219 235 255
219 235 255
219 235 255
219 235 255
219 235 255
219 235 255
219 234 255
219 235 255
219 234 255
219 234 255
219 234 255
219 234 255
219 234 255
219 234 255
219 234 255
219 234 255
219 234 255
219 234 255
219 234 255
219 234 255
219 234 255
219 234 255
219 234 255
219 234 255
219 234 255
219 234 255
219 234 255
219 234 255
219 234 255
219 234 255
219 234 255
219 234 255
219 234 255
219 234 255
219 234 255
219 234 255
219 234 255
219 234 255
219 234 255
219 234 255
219 234 255
219 234 255
219 234 255
219 234 255
219 234 255
219 234 255
219 234 255
219 234 255
219 234 255
219 234 255
219 234 255
219 234 255
219 234 255
219 234 255
219 234 255
219 234 255
219 234 255
219 234 255
219 234 255
219 234 255
219 234 255
219 234 255
219 234 255
219 234 255
219 234 255
219 234 255
219 234 255
219 234 255
219 234 255
219 234 255
219 234 255
219 234 255
219 234 255
219 234 255
219 234 255
219 234 255
219 234 255
219 234 255
219 234 255
219 234 255
219 234 255
219 234 255
219 234 255
219 234 255
219 234 255
219 234 255
219 234 255
219 234 255
219 234 255
219 234 255
219 234 255
219 234 255
219 234 255
219 234 255
219 234 255
219 234 255
219 234 255
219 234 255
219 234 255
219 234 255
219 234 255
219 234 255
219 234 255
219 234 255
219 234 255
219 234 255
219 234 255
219 234 255
219 234 255
219 234 255
219 234 255
219 234 255
219 234 255
219 234 255
219 234 255
219 234 255
219 234 255
219 234 255
219 234 255
219 234 255
219 234 255
219 234 255
219 234 255
219 234 255
219 234 255
219 234 255
219 234 255
219 234 255
219 234 255
219 234 255
219 234 255
219 234 255
219 234 255
219 234 255
219 234 255
219 234 255
219 234 255
219 234 255
219 234 255
219 234 255
219 234 255
219 234 255
219 234 255
219 234 255
219 234 255
219 234 255
219 234 255
219 234 255
219 234 255
219 234 255
219 234 255
219 234 255
219 234 255
219 234 255
219 234 255
219 234 255
219 234 255
219 234 255
219 234 255
219 234 255
219 234 255
219 234 255
219 234 255
219 234 255
219 234 255
219 234 255
219 234 255
219 234 255
219 234 255
219 234 255
219 234 255
219 234 255
219 234 255
219 234 255
219 234 255
219 234 255
219 234 255
219 234 255
219 234 255
219 234 255
219 234 255
219 234 255
219 234 255
219 234 255
219 234 255
219 234 255
219 234 255
219 234 255
219 234 255
219 234 255
219 234 255
219 234 255
219 234 255
219 234 255
219 234 255
219 234 255
219 234 255
219 234 255
219 234 255
219 234 255
219 234 255
219 234 255
219 234 255
219 234 255
219 234 255
219 234 255
219 234 255
219 234 255
219 234 255
219 234 255
219 234 255
219 234 255
219 234 255
219 234 255
219 234 255
219 234 255
219 234 255
219 234 255
219 234 255
219 234 255
219 234 255
219 234 255
219 234 255
219 234 255
219 234 255
219 234 255
219 234 255
219 234 255
219 234 255
219 234 255
219 234 255
219 234 255
219 234 255
219 234 255
219 234 255
219 234 255
219 234 255
219 234 255
219 234 255
219 234 255
219 234 255
219 234 255
219 234 255
219 234 255
219 234 255
219 234 255
219 234 255
219 234 255
219 234 255
219 234 255
219 234 255
219 234 255
219 234 255
219 234 255
219 234 255
219 235 255
219 234 255
219 235 255
219 235 255
219 235 255
219 235 255
219 235 255
219 235 255
219 235 255
219 235 255
219 235 255
219 235 255
219 235 255
219 235 255
219 235 255
219 235 255
219 235 255
219 235 255
220 235 255
220 235 255
220 235 255
220 235 255
220 235 255
220 235 255
220 235 255
220 235 255
220 235 255
220 235 255
220 235 255
220 235 255
220 235 255
220 235 255
220 235 255
220 235 255
220 235 255
220 235 255
220 235 255
220 235 255
220 235 255
220 235 255
220 235 255
220 235 255
220 235 255
220 235 255
220 235 255
220 235 255
220 235 255
220 235 255
220 235 255
220 235 255
220 235 255
220 235 255
220 235 255
220 235 255
220 235 255
220 235 255
220 235 255
220 235 255
220 235 255
220 235 255
220 235 255
220 235 255
220 235 255
220 235 255
220 235 255
220 235 255
220 235 255
220 235 255
220 235 255
220 235 255
220 235 255
220 235 255
220 235 255
220 235 255
220 235 255
220 235 255
220 235 255
220 235 255
220 235 255
220 235 255
220 235 255
220 235 255
220 235 255
220 235 255
220 235 255
220 235 255
220 235 255
220 235 255
220 235 255
220 235 255
220 235 255
220 235 255
220 235 255
220 235 255
220 235 255
220 235 255
220 235 255
220 235 255
220 235 255
220 235 255
220 235 255
220 235 255
220 235 255
220 235 255
220 235 255
220 235 255
220 235 255
220 235 255
220 235 255
220 235 255
220 235 255
220 235 255
220 235 255
220 235 255
220 235 255
220 235 255
220 235 255
220 235 255
220 235 255
220 235 255
220 235 255
220 235 255
220 235 255
220 235 255
220 235 255
220 235 255
220 235 255
220 235 255
220 235 255
220 235 255
220 235 255
220 235 255
220 235 255
220 235 255
220 235 255
220 235 255
220 235 255
220 235 255
220 235 255
220 235 255
220 235 255
220 235 255
220 235 255
220 235 255
220 235 255
220 235 255
220 235 255
220 235 255
220 235 255
220 235 255
220 235 255
220 235 255
220 235 255
220 235 255
220 235 255
220 235 255
220 235 255
220 235 255
220 235 255
219 235 255
219 235 255
219 235 255
219 235 255
219 235 255
219 235 255
219 235 255
219 235 255
219 235 255
219 235 255
219 235 255
219 235 255
219 235 255
219 235 255
219 235 255
219 235 255
219 235 255
219 235 255
219 235 255
219 234 255
219 234 255
219 234 255
219 234 255
219 234 255
219 234 255
219 234 255
219 234 255
219 234 255
219 234 255
219 234 255
219 234 255
219 234 255
219 234 255
219 234 255
219 234 255
219 234 255
219 234 255
219 234 255
219 234 255
219 234 255
219 234 255
219 234 255
219 234 255
219 234 255
219 234 255
219 234 255
219 234 255
219 234 255
219 234 255
219 234 255
219 234 255
219 234 255
219 234 255
219 234 255
219 234 255
219 234 255
219 234 255
219 234 255
219 234 255
219 234 255
219 234 255
219 234 255
219 234 255
219 234 255
219 234 255
219 234 255
219 234 255
219 234 255
219 234 255
219 234 255
219 234 255
219 234 255
219 234 255
219 234 255
219 234 255
219 234 255
219 234 255
219 234 255
219 234 255
219 234 255
219 234 255
219 234 255
219 234 255
219 234 255
219 234 255
219 234 255
219 234 255
219 234 255
219 234 255
219 234 255
219 234 255
219 234 255
219 234 255
219 234 255
219 234 255
219 234 255
219 234 255
219 234 255
219 234 255
219 234 255
219 234 255
219 234 255
219 234 255
219 234 255
219 234 255
219 234 255
219 234 255
219 234 255
219 234 255
219 234 255
219 234 255
219 234 255
219 234 255
219 234 255
219 234 255
219 234 255
219 234 255
219 234 255
219 234 255
219 234 255
219 234 255
219 234 255
219 234 255
219 234 255
219 234 255
219 234 255
219 234 255
219 234 255
219 234 255
219 234 255
219 234 255
219 234 255
219 234 255
219 234 255
219 234 255
219 234 255
219 234 255
219 234 255
219 234 255
219 234 255
219 234 255
219 234 255
219 234 255
219 234 255
219 234 255
219 234 255
219 234 255
219 234 255
219 234 255
219 234 255
219 234 255
219 234 255
219 234 255
219 234 255
219 234 255
219 234 255
219 234 255
219 234 255
219 234 255
219 234 255
219 234 255
219 234 255
219 234 255
219 234 255
219 234 255
219 234 255
219 234 255
219 234 255
219 234 255
219 234 255
219 234 255
219 234 255
219 234 255
219 234 255
219 234 255
219 234 255
219 234 255
219 234 255
219 234 255
219 234 255
219 234 255
219 234 255
219 234 255
219 234 255
219 234 255
219 234 255
219 234 255
219 234 255
219 234 255
219 234 255
219 234 255
219 234 255
219 234 255
219 234 255
219 234 255
219 234 255
219 234 255
219 234 255
219 234 255
219 234 255
219 234 255
219 234 255
219 234 255
219 234 255
219 234 255
219 234 255
219 234 255
219 234 255
219 234 255
219 234 255
219 234 255
219 234 255
219 234 255
219 234 255
219 234 255
219 235 255
219 235 255
219 234 255
219 235 255
219 235 255
219 235 255
219 235 255
219 235 255
219 235 255
219 235 255
219 235 255
219 235 255
219 235 255
219 235 255
219 235 255
219 235 255
219 235 255
219 235 255
220 235 255
219 235 255
219 235 255
220 235 255
220 235 255
220 235 255
220 235 255
220 235 255
220 235 255
220 235 255
220 235 255
220 235 255
220 235 255
220 235 255
220 235 255
220 235 255
220 235 255
220 235 255
220 235 255
220 235 255
220 235 255
220 235 255
220 235 255
220 235 255
220 235 255
220 235 255
220 235 255
220 235 255
220 235 255
220 235 255
220 235 255
220 235 255
220 235 255
220 235 255
220 235 255
220 235 255
220 235 255
220 235 255
220 235 255
220 235 255
220 235 255
220 235 255
220 235 255
220 235 255
220 235 255
220 235 255
220 235 255
220 235 255
220 235 255
220 235 255
220 235 255
220 235 255
220 235 255
220 235 255
220 235 255
220 235 255
220 235 255
220 235 255
220 235 255
220 235 255
220 235 255
220 235 255
220 235 255
220 235 255
220 235 255
220 235 255
220 235 255
220 235 255
220 235 255
220 235 255
220 235 255
220 235 255
220 235 255
220 235 255
220 235 255
220 235 255
220 235 255
220 235 255
220 235 255
220 235 255
220 235 255
220 235 255
220 235 255
220 235 255
220 235 255
220 235 255
220 235 255
220 235 255
220 235 255
220 235 255
220 235 255
220 235 255
220 235 255
220 235 255
220 235 255
220 235 255
220 235 255
220 235 255
220 235 255
220 235 255
220 235 255
220 235 255
220 235 255
220 235 255
220 235 255
220 235 255
220 235 255
220 235 255
220 235 255
220 235 255
220 235 255
220 235 255
220 235 255
220 235 255
220 235 255
220 235 255
220 235 255
220 235 255
220 235 255
220 235 255
220 235 255
220 235 255
220 235 255
220 235 255
220 235 255
220 235 255
220 235 255
220 235 255
220 235 255
220 235 255
220 235 255
220 235 255
220 235 255
220 235 255
220 235 255
220 235 255
220 235 255
220 235 255
220 235 255
220 235 255
220 235 255
220 235 255
220 235 255
220 235 255
220 235 255
220 235 255
220 235 255
220 235 255
220 235 255
220 235 255
220 235 255
220 235 255
220 235 255
220 235 255
220 235 255
220 235 255
220 235 255
220 235 255
220 235 255
220 235 255
220 235 255
220 235 255
220 235 255
220 235 255
220 235 255
220 235 255
220 235 255
220 235 255
220 235 255
220 235 255
220 235 255
220 235 255
220 235 255
220 235 255
220 235 255
220 235 255
220 235 255
220 235 255
220 235 255
220 235 255
220 235 255
220 235 255
220 235 255
220 235 255
220 235 255
220 235 255
220 235 255
220 235 255
220 235 255
220 235 255
220 235 255
220 235 255
220 235 255
220 235 255
220 235 255
220 235 255
219 235 255
219 235 255
219 235 255
219 235 255
219 235 255
219 235 255
219 235 255
219 235 255
219 235 255
219 235 255
219 235 255
219 235 255
219 235 255
219 235 255
219 235 255
219 235 255
219 235 255
219 235 255
219 235 255
219 235 255
219 235 255
219 234 255
219 235 255
219 234 255
219 234 255
219 234 255
219 234 255
219 234 255
219 234 255
219 234 255
219 234 255
219 234 255
219 234 255
219 234 255
219 234 255
219 234 255
219 234 255
219 234 255
219 234 255
219 234 255
219 234 255
219 234 255
219 234 255
219 234 255
219 234 255
219 234 255
219 234 255
219 234 255
219 234 255
219 234 255
219 234 255
219 234 255
219 234 255
219 234 255
219 234 255
219 234 255
219 234 255
219 234 255
219 234 255
219 234 255
219 234 255
219 234 255
219 234 255
219 234 255
219 234 255
219 234 255
219 234 255
219 234 255
219 234 255
219 234 255
219 234 255
219 234 255
219 234 255
219 234 255
219 234 255
219 234 255
219 234 255
219 234 255
219 234 255
219 234 255
219 234 255
219 234 255
219 234 255
219 234 255
219 234 255
219 234 255
219 234 255
219 234 255
219 234 255
219 234 255
219 234 255
219 234 255
219 234 255
219 234 255
219 234 255
219 234 255
219 234 255
219 234 255
219 234 255
219 234 255
219 234 255
219 234 255
219 234 255
219 234 255
219 234 255
219 234 255
219 234 255
219 234 255
219 234 255
219 234 255
219 234 255
219 234 255
219 234 255
219 234 255
219 234 255
219 234 255
219 234 255
219 234 255
219 234 255
219 234 255
219 234 255
219 234 255
219 234 255
219 234 255
219 234 255
219 234 255
219 234 255
219 234 255
219 234 255
219 234 255
219 234 255
219 234 255
219 234 255
219 234 255
219 234 255
219 234 255
219 234 255
219 234 255
219 234 255
219 234 255
219 234 255
219 234 255
219 234 255
219 234 255
219 234 255
219 234 255
219 234 255
219 234 255
219 234 255
219 234 255
219 234 255
219 234 255
219 234 255
219 235 255
219 235 255
219 235 255
219 235 255
219 235 255
219 235 255
219 235 255
219 235 255
219 235 255
219 235 255
219 235 255
219 235 255
219 235 255
219 235 255
219 235 255
219 235 255
219 235 255
219 235 255
219 235 255
219 235 255
219 235 255
219 235 255
219 235 255
219 235 255
220 235 255
220 235 255
220 235 255
220 235 255
220 235 255
220 235 255
220 235 255
220 235 255
220 235 255
220 235 255
220 235 255
220 235 255
220 235 255
220 235 255
220 235 255
220 235 255
220 235 255
220 235 255
220 235 255
220 235 255
220 235 255
220 235 255
220 235 255
220 235 255
220 235 255
220 235 255
220 235 255
220 235 255
220 235 255
220 235 255
220 235 255
220 235 255
220 235 255
220 235 255
220 235 255
220 235 255
220 235 255
220 235 255
220 235 255
220 235 255
220 235 255
220 235 255
220 235 255
220 235 255
220 235 255
220 235 255
220 235 255
220 235 255
220 235 255
220 235 255
220 235 255
220 235 255
220 235 255
220 235 255
220 235 255
220 235 255
220 235 255
220 235 255
220 235 255
220 235 255
220 235 255
220 235 255
220 235 255
220 235 255
220 235 255
220 235 255
220 235 255
220 235 255
220 235 255
220 235 255
220 235 255
220 235 255
220 235 255
220 235 255
220 235 255
220 235 255
220 235 255
220 235 255
220 235 255
220 235 255
220 235 255
220 235 255
220 235 255
220 235 255
220 235 255
220 235 255
220 235 255
220 235 255
220 235 255
220 235 255
220 235 255
220 235 255
220 235 255
220 235 255
220 235 255
220 235 255
220 235 255
220 235 255
220 235 255
220 235 255
220 235 255
220 235 255
220 235 255
220 235 255
220 235 255
220 235 255
220 235 255
220 235 255
220 235 255
220 235 255
220 235 255
220 235 255
220 235 255
220 235 255
220 235 255
220 235 255
220 235 255
220 235 255
220 235 255
220 235 255
220 235 255
220 235 255
220 235 255
220 235 255
220 235 255
220 235 255
220 235 255
220 235 255
220 235 255
220 235 255
220 235 255
220 235 255
220 235 255
220 235 255
220 235 255
220 235 255
220 235 255
220 235 255
220 235 255
220 235 255
220 235 255
220 235 255
220 235 255
220 235 255
220 235 255
220 235 255
220 235 255
220 235 255
220 235 255
220 235 255
220 235 255
220 235 255
220 235 255
220 235 255
220 235 255
220 235 255
220 235 255
220 235 255
220 235 255
220 235 255
220 235 255
220 235 255
220 235 255
220 235 255
220 235 255
220 235 255
220 235 255
220 235 255
220 235 255
220 235 255
220 235 255
220 235 255
220 235 255
220 235 255
220 235 255
220 235 255
220 235 255
220 235 255
220 235 255
220 235 255
220 235 255
220 235 255
220 235 255
220 235 255
220 235 255
220 235 255
220 235 255
220 235 255
220 235 255
220 235 255
220 235 255
220 235 255
220 235 255
220 235 255
220 235 255
220 235 255
220 235 255
220 235 255
220 235 255
220 235 255
220 235 255
220 235 255
220 235 255
220 235 255
220 235 255
220 235 255
220 235 255
220 235 255
220 235 255
220 235 255
220 235 255
220 235 255
220 235 255
220 235 255
220 235 255
220 235 255
220 235 255
220 235 255
220 235 255
220 235 255
220 235 255
220 235 255
220 235 255
220 235 255
220 235 255
220 235 255
220 235 255
220 235 255
220 235 255
220 235 255
220 235 255
220 235 255
220 235 255
220 235 255
220 235 255
220 235 255
220 235 255
220 235 255
220 235 255
220 235 255
220 235 255
220 235 255
220 235 255
220 235 255
220 235 255
220 235 255
220 235 255
220 235 255
220 235 255
220 235 255
220 235 255
220 235 255
220 235 255
220 235 255
220 235 255
220 235 255
220 235 255
220 235 255
220 235 255
220 235 255
220 235 255
220 235 255
220 235 255
220 235 255
220 235 255
219 235 255
219 235 255
219 235 255
219 235 255
219 235 255
219 235 255
219 235 255
219 235 255
219 235 255
219 235 255
219 235 255
219 235 255
219 235 255
219 235 255
219 235 255
219 235 255
219 235 255
219 235 255
219 235 255
219 235 255
219 235 255
219 235 255
219 235 255
219 235 255
219 235 255
219 235 255
219 235 255
219 235 255
219 235 255
219 235 255
219 235 255
219 235 255
219 235 255
219 235 255
219 235 255
219 235 255
219 235 255
219 235 255
219 235 255
219 235 255
219 235 255
219 235 255
219 235 255
219 235 255
219 235 255
219 235 255
219 235 255
219 235 255
219 235 255
219 235 255
219 235 255
219 235 255
219 235 255
219 235 255
219 235 255
219 235 255
219 235 255
219 235 255
219 235 255
219 235 255
219 235 255
219 235 255
219 235 255
219 235 255
219 235 255
219 235 255
219 235 255
219 235 255
219 235 255
219 235 255
219 235 255
219 235 255
219 235 255
219 235 255
219 235 255
219 235 255
219 235 255
219 235 255
219 235 255
219 235 255
219 235 255
219 235 255
219 235 255
219 235 255
219 235 255
219 235 255
219 235 255
219 235 255
219 235 255
219 235 255
220 235 255
219 235 255
220 235 255
219 235 255
220 235 255
220 235 255
220 235 255
220 235 255
220 235 255
220 235 255
220 235 255
220 235 255
220 235 255
220 235 255
220 235 255
220 235 255
220 235 255
220 235 255
220 235 255
220 235 255
220 235 255
220 235 255
220 235 255
220 235 255
220 235 255
220 235 255
220 235 255
220 235 255
220 235 255
220 235 255
220 235 255
220 235 255
220 235 255
220 235 255
220 235 255
220 235 255
220 235 255
220 235 255
220 235 255
220 235 255
220 235 255
220 235 255
220 235 255
220 235 255
220 235 255
220 235 255
220 235 255
220 235 255
220 235 255
220 235 255
220 235 255
220 235 255
220 235 255
220 235 255
220 235 255
220 235 255
220 235 255
220 235 255
220 235 255
220 235 255
220 235 255
220 235 255
220 235 255
220 235 255
220 235 255
220 235 255
220 235 255
220 235 255
220 235 255
220 235 255
220 235 255
220 235 255
220 235 255
220 235 255
220 235 255
220 235 255
220 235 255
220 235 255
220 235 255
220 235 255
220 235 255
220 235 255
220 235 255
220 235 255
220 235 255
220 235 255
220 235 255
220 235 255
220 235 255
220 235 255
220 235 255
220 235 255
220 235 255
220 235 255
220 235 255
220 235 255
220 235 255
220 235 255
220 235 255
220 235 255
220 235 255
220 235 255
220 235 255
220 235 255
220 235 255
220 235 255
220 235 255
220 235 255
220 235 255
220 235 255
220 235 255
220 235 255
220 235 255
220 235 255
220 235 255
220 235 255
220 235 255
220 235 255
220 235 255
220 235 255
220 235 255
220 235 255
220 235 255
220 235 255
220 235 255
220 235 255
220 235 255
220 235 255
220 235 255
220 235 255
220 235 255
220 235 255
220 235 255
220 235 255
220 235 255
220 235 255
220 235 255
220 235 255
220 235 255
220 235 255
220 235 255
220 235 255
220 235 255
220 235 255
220 235 255
220 235 255
220 235 255
220 235 255
220 235 255
220 235 255
220 235 255
220 235 255
220 235 255
220 235 255
220 235 255
220 235 255
220 235 255
220 235 255
220 235 255
220 235 255
220 235 255
220 235 255
220 235 255
220 235 255
220 235 255
220 235 255
220 235 255
220 235 255
220 235 255
220 235 255
220 235 255
220 235 255
220 235 255
220 235 255
220 235 255
220 235 255
220 235 255
220 235 255
220 235 255
220 235 255
220 235 255
220 235 255
220 235 255
220 235 255
220 235 255
220 235 255
220 235 255
220 235 255
220 235 255
220 235 255
220 235 255
220 235 255
220 235 255
220 235 255
220 235 255
220 235 255
220 235 255
220 235 255
220 235 255
220 235 255
220 235 255
220 235 255
220 235 255
220 235 255
220 235 255
220 235 255
220 235 255
220 235 255
220 235 255
220 235 255
220 235 255
220 235 255
220 235 255
220 235 255
220 235 255
220 235 255
220 235 255
220 235 255
220 235 255
220 235 255
220 235 255
220 235 255
220 235 255
220 235 255
220 235 255
220 235 255
220 235 255
220 235 255
220 235 255
220 235 255
220 235 255
220 235 255
220 235 255
220 235 255
220 235 255
220 235 255
220 235 255
220 235 255
220 235 255
220 235 255
220 235 255
220 235 255
220 235 255
220 235 255
220 235 255
220 235 255
220 235 255
220 235 255
220 235 255
220 235 255
220 235 255
220 235 255
220 235 255
220 235 255
220 235 255
220 235 255
220 235 255
220 235 255
220 235 255
220 235 255
220 235 255
220 235 255
220 235 255
220 235 255
220 235 255
220 235 255
220 235 255
220 235 255
220 235 255
220 235 255
220 235 255
220 235 255
220 235 255
220 235 255
220 235 255
220 235 255
220 235 255
220 235 255
220 235 255
220 235 255
220 235 255
220 235 255
220 235 255
220 235 255
220 235 255
220 235 255
220 235 255
220 235 255
220 235 255
220 235 255
220 235 255
220 235 255
220 235 255
220 235 255
220 235 255
220 235 255
220 235 255
220 235 255
220 235 255
220 235 255
220 235 255
220 235 255
220 235 255
220 235 255
220 235 255
220 235 255
220 235 255
220 235 255
220 235 255
220 235 255
220 235 255
220 235 255
220 235 255
220 235 255
220 235 255
220 235 255
220 235 255
220 235 255
220 235 255
220 235 255
220 235 255
220 235 255
220 235 255
220 235 255
220 235 255
220 235 255
220 235 255
220 235 255
220 235 255
220 235 255
220 235 255
220 235 255
220 235 255
220 235 255
220 235 255
220 235 255
220 235 255
220 235 255
220 235 255
220 235 255
220 235 255
220 235 255
220 235 255
220 235 255
220 235 255
220 235 255
220 235 255
220 235 255
220 235 255
220 235 255
220 235 255
220 235 255
220 235 255
220 235 255
220 235 255
220 235 255
220 235 255
220 235 255
220 235 255
220 235 255
220 235 255
220 235 255
220 235 255
220 235 255
220 235 255
220 235 255
220 235 255
220 235 255
220 235 255
220 235 255
220 235 255
220 235 255
220 235 255
220 235 255
220 235 255
220 235 255
220 235 255
220 235 255
220 235 255
220 235 255
220 235 255
220 235 255
220 235 255
220 235 255
220 235 255
220 235 255
220 235 255
220 235 255
220 235 255
220 235 255
220 235 255
220 235 255
220 235 255
220 235 255
220 235 255
220 235 255
220 235 255
220 235 255
220 235 255
220 235 255
220 235 255
220 235 255
220 235 255
220 235 255
220 235 255
220 235 255
220 235 255
220 235 255
220 235 255
220 235 255
220 235 255
220 235 255
220 235 255
220 235 255
220 235 255
220 235 255
220 235 255
220 235 255
220 235 255
220 235 255
220 235 255
220 235 255
220 235 255
220 235 255
220 235 255
220 235 255
220 235 255
220 235 255
220 235 255
220 235 255
220 235 255
220 235 255
220 235 255
220 235 255
220 235 255
220 235 255
220 235 255
220 235 255
220 235 255
220 235 255
220 235 255
220 235 255
220 235 255
220 235 255
220 235 255
220 235 255
220 235 255
220 235 255
220 235 255
220 235 255
220 235 255
220 235 255
220 235 255
220 235 255
220 235 255
220 235 255
220 235 255
220 235 255
220 235 255
220 235 255
220 235 255
220 235 255
220 235 255
220 235 255
220 235 255
220 235 255
220 235 255
220 235 255
220 235 255
220 235 255
220 235 255
220 235 255
220 235 255
220 235 255
220 235 255
220 235 255
220 235 255
220 235 255
220 235 255
220 235 255
220 235 255
220 235 255
220 235 255
220 235 255
220 235 255
220 235 255
220 235 255
220 235 255
220 235 255
220 235 255
220 235 255
220 235 255
220 235 255
220 235 255
220 235 255
220 235 255
220 235 255
220 235 255
220 235 255
220 235 255
220 235 255
220 235 255
220 235 255
220 235 255
220 235 255
220 235 255
220 235 255
220 235 255
220 235 255
220 235 255
220 235 255
220 235 255
220 235 255
220 235 255
220 235 255
220 235 255
220 235 255
220 235 255
220 235 255
220 235 255
220 235 255
220 235 255
220 235 255
220 235 255
220 235 255
220 235 255
220 235 255
220 235 255
220 235 255
220 235 255
220 235 255
220 235 255
220 235 255
220 235 255
220 235 255
220 235 255
220 235 255
220 235 255
220 235 255
220 235 255
220 235 255
220 235 255
220 235 255
220 235 255
220 235 255
220 235 255
220 235 255
220 235 255
220 235 255
220 235 255
220 235 255
220 235 255
220 235 255
220 235 255
220 235 255
220 235 255
220 235 255
220 235 255
220 235 255
220 235 255
220 235 255
220 235 255
220 235 255
220 235 255
220 235 255
220 235 255
220 235 255
220 235 255
220 235 255
220 235 255
220 235 255
220 235 255
220 235 255
220 235 255
220 235 255
220 235 255
220 235 255
220 235 255
220 235 255
220 235 255
220 235 255
220 235 255
220 235 255
220 235 255
220 235 255
220 235 255
220 235 255
220 235 255
220 235 255
220 235 255
220 235 255
220 235 255
220 235 255
220 235 255
220 235 255
220 235 255
220 235 255
220 235 255
220 235 255
220 235 255
220 235 255
220 235 255
220 235 255
220 235 255
220 235 255
220 235 255
220 235 255
220 235 255
220 235 255
220 235 255
220 235 255
220 235 255
220 235 255
220 235 255
220 235 255
220 235 255
220 235 255
220 235 255
220 235 255
220 235 255
220 235 255
220 235 255
220 235 255
220 235 255
220 235 255
220 235 255
220 235 255
220 235 255
220 235 255
220 235 255
220 235 255
220 235 255
220 235 255
220 235 255
220 235 255
220 235 255
220 235 255
220 235 255
220 235 255
220 235 255
220 235 255
220 235 255
220 235 255
220 235 255
220 235 255
220 235 255
220 235 255
220 235 255
220 235 255
220 235 255
220 235 255
220 235 255
220 235 255
220 235 255
220 235 255
220 235 255
220 235 255
220 235 255
220 235 255
220 235 255
220 235 255
220 235 255
220 235 255
220 235 255
220 235 255
220 235 255
220 235 255
220 235 255
220 235 255
220 235 255
220 235 255
220 235 255
220 235 255
220 235 255
220 235 255
220 235 255
220 235 255
220 235 255
220 235 255
220 235 255
220 235 255
220 235 255
220 235 255
220 235 255
220 235 255
220 235 255
220 235 255
220 235 255
220 235 255
220 235 255
220 235 255
220 235 255
220 235 255
220 235 255
220 235 255
220 235 255
220 235 255
220 235 255
220 235 255
220 235 255
220 235 255
220 235 255
220 235 255
220 235 255
220 235 255
220 235 255
220 235 255
220 235 255
220 235 255
220 235 255
220 235 255
220 235 255
220 235 255
220 235 255
220 235 255
220 235 255
220 235 255
220 235 255
220 235 255
220 235 255
220 235 255
220 235 255
220 235 255
220 235 255
220 235 255
220 235 255
220 235 255
220 235 255
220 235 255
220 235 255
220 235 255
220 235 255
220 235 255
220 235 255
220 235 255
220 235 255
220 235 255
220 235 255
220 235 255
220 235 255
220 235 255
220 235 255
220 235 255
220 235 255
220 235 255
220 235 255
220 235 255
220 235 255
220 235 255
220 235 255
220 235 255
220 235 255
220 235 255
220 235 255
220 235 255
220 235 255
220 235 255
220 235 255
220 235 255
220 235 255
220 235 255
220 235 255
220 235 255
220 235 255
220 235 255
220 235 255
220 235 255
220 235 255
220 235 255
220 235 255
220 235 255
220 235 255
220 235 255
220 235 255
220 235 255
220 235 255
220 235 255
220 235 255
220 235 255
220 235 255
220 235 255
220 235 255
220 235 255
220 235 255
220 235 255
220 235 255
220 235 255
220 235 255
220 235 255
220 235 255
220 235 255
220 235 255
220 235 255
220 235 255
220 235 255
220 235 255
220 235 255
220 235 255
220 235 255
220 235 255
220 235 255
220 235 255
220 235 255
220 235 255
220 235 255
220 235 255
220 235 255
220 235 255
220 235 255
220 235 255
220 235 255
220 235 255
220 235 255
220 235 255
220 235 255
220 235 255
220 235 255
220 235 255
220 235 255
220 235 255
220 235 255
220 235 255
220 235 255
220 235 255
220 235 255
220 235 255
220 235 255
220 235 255
220 235 255
220 235 255
220 235 255
220 235 255
220 235 255
220 235 255
220 235 255
220 235 255
220 235 255
220 235 255
220 235 255
220 235 255
220 235 255
220 235 255
220 235 255
220 235 255
220 235 255
220 235 255
220 235 255
220 235 255
220 235 255
220 235 255
220 235 255
220 235 255
220 235 255
220 235 255
220 235 255
220 235 255
220 235 255
220 235 255
220 235 255
220 235 255
220 235 255
220 235 255
220 235 255
220 235 255
220 235 255
220 235 255
220 235 255
220 235 255
220 235 255
220 235 255
220 235 255
220 235 255
220 235 255
220 235 255
220 235 255
220 235 255
220 235 255
220 235 255
220 235 255
220 235 255
220 235 255
220 235 255
220 235 255
220 235 255
220 235 255
220 235 255
220 235 255
220 235 255
220 235 255
220 235 255
220 235 255
220 235 255
220 235 255
220 235 255
220 235 255
220 235 255
220 235 255
220 235 255
220 235 255
220 235 255
220 235 255
220 235 255
220 235 255
220 235 255
220 235 255
220 235 255
220 235 255
220 235 255
220 235 255
220 235 255
220 235 255
220 235 255
220 235 255
220 235 255
220 235 255
220 235 255
220 235 255
220 235 255
220 235 255
220 235 255
220 235 255
220 235 255
220 235 255
220 235 255
220 235 255
220 235 255
220 235 255
220 235 255
220 235 255
220 235 255
220 235 255
220 235 255
220 235 255
220 235 255
220 235 255
220 235 255
220 235 255
220 235 255
220 235 255
220 235 255
220 235 255
220 235 255
220 235 255
220 235 255
220 235 255
220 235 255
220 235 255
220 235 255
220 235 255
220 235 255
220 235 255
220 235 255
220 235 255
220 235 255
220 235 255
220 235 255
221 235 255
221 235 255
221 235 255
221 235 255
221 235 255
221 235 255
221 235 255
221 235 255
221 235 255
221 235 255
221 235 255
221 235 255
220 235 255
220 235 255
221 235 255
220 235 255
220 235 255
220 235 255
220 235 255
220 235 255
220 235 255
220 235 255
220 235 255
220 235 255
220 235 255
220 235 255
220 235 255
220 235 255
220 235 255
220 235 255
220 235 255
220 235 255
220 235 255
220 235 255
220 235 255
220 235 255
220 235 255
220 235 255
220 235 255
220 235 255
220 235 255
220 235 255
220 235 255
220 235 255
220 235 255
220 235 255
220 235 255
220 235 255
220 235 255
220 235 255
220 235 255
220 235 255
220 235 255
220 235 255
220 235 255
220 235 255
220 235 255
220 235 255
220 235 255
220 235 255
220 235 255
220 235 255
220 235 255
220 235 255
220 235 255
220 235 255
220 235 255
220 235 255
220 235 255
220 235 255
220 235 255
220 235 255
220 235 255
220 235 255
220 235 255
220 235 255
220 235 255
220 235 255
220 235 255
220 235 255
220 235 255
220 235 255
220 235 255
220 235 255
220 235 255
220 235 255
220 235 255
220 235 255
220 235 255
220 235 255
220 235 255
220 235 255
220 235 255
220 235 255
220 235 255
220 235 255
220 235 255
220 235 255
220 235 255
220 235 255
220 235 255
220 235 255
220 235 255
220 235 255
220 235 255
220 235 255
220 235 255
220 235 255
220 235 255
220 235 255
220 235 255
220 235 255
220 235 255
220 235 255
220 235 255
220 235 255
220 235 255
220 235 255
220 235 255
220 235 255
220 235 255
220 235 255
220 235 255
220 235 255
220 235 255
220 235 255
220 235 255
220 235 255
220 235 255
220 235 255
220 235 255
220 235 255
220 235 255
220 235 255
220 235 255
220 235 255
220 235 255
220 235 255
220 235 255
220 235 255
220 235 255
220 235 255
220 235 255
220 235 255
220 235 255
220 235 255
220 235 255
220 235 255
220 235 255
220 235 255
220 235 255
220 235 255
220 235 255
220 235 255
220 235 255
220 235 255
220 235 255
220 235 255
220 235 255
220 235 255
220 235 255
220 235 255
220 235 255
220 235 255
220 235 255
220 235 255
220 235 255
220 235 255
220 235 255
220 235 255
220 235 255
220 235 255
220 235 255
220 235 255
220 235 255
220 235 255
220 235 255
220 235 255
220 235 255
220 235 255
220 235 255
220 235 255
220 235 255
220 235 255
220 235 255
220 235 255
220 235 255
220 235 255
220 235 255
220 235 255
220 235 255
220 235 255
220 235 255
220 235 255
220 235 255
220 235 255
220 235 255
220 235 255
220 235 255
220 235 255
220 235 255
220 235 255
220 235 255
220 235 255
220 235 255
220 235 255
220 235 255
220 235 255
220 235 255
220 235 255
220 235 255
220 235 255
220 235 255
220 235 255
220 235 255
220 235 255
220 235 255
220 235 255
220 235 255
220 235 255
220 235 255
220 235 255
220 235 255
220 235 255
220 235 255
220 235 255
220 235 255
220 235 255
220 235 255
220 235 255
220 235 255
220 235 255
220 235 255
220 235 255
220 235 255
220 235 255
220 235 255
220 235 255
220 235 255
220 235 255
220 235 255
220 235 255
220 235 255
220 235 255
220 235 255
220 235 255
220 235 255
220 235 255
220 235 255
220 235 255
220 235 255
220 235 255
220 235 255
220 235 255
220 235 255
220 235 255
220 235 255
220 235 255
220 235 255
220 235 255
220 235 255
220 235 255
220 235 255
220 235 255
220 235 255
220 235 255
220 235 255
220 235 255
220 235 255
220 235 255
220 235 255
220 235 255
220 235 255
220 235 255
220 235 255
220 235 255
220 235 255
220 235 255
220 235 255
220 235 255
220 235 255
220 235 255
220 235 255
220 235 255
220 235 255
220 235 255
220 235 255
220 235 255
220 235 255
220 235 255
220 235 255
220 235 255
220 235 255
220 235 255
220 235 255
220 235 255
220 235 255
220 235 255
220 235 255
220 235 255
220 235 255
220 235 255
220 235 255
220 235 255
220 235 255
220 235 255
220 235 255
220 235 255
220 235 255
220 235 255
220 235 255
220 235 255
220 235 255
220 235 255
220 235 255
220 235 255
220 235 255
220 235 255
220 235 255
220 235 255
220 235 255
220 235 255
220 235 255
220 235 255
220 235 255
220 235 255
220 235 255
220 235 255
220 235 255
220 235 255
220 235 255
220 235 255
220 235 255
220 235 255
220 235 255
220 235 255
220 235 255
220 235 255
220 235 255
220 235 255
220 235 255
220 235 255
220 235 255
220 235 255
220 235 255
220 235 255
220 235 255
220 235 255
220 235 255
220 235 255
220 235 255
220 235 255
220 235 255
220 235 255
220 235 255
220 235 255
220 235 255
220 235 255
220 235 255
220 235 255
220 235 255
220 235 255
220 235 255
220 235 255
220 235 255
220 235 255
220 235 255
220 235 255
220 235 255
220 235 255
220 235 255
220 235 255
220 235 255
220 235 255
220 235 255
220 235 255
220 235 255
220 235 255
220 235 255
220 235 255
220 235 255
220 235 255
220 235 255
220 235 255
221 235 255
220 235 255
220 235 255
221 235 255
221 235 255
221 235 255
221 235 255
221 235 255
221 235 255
221 235 255
221 235 255
221 235 255
221 235 255
221 235 255
221 235 255
221 235 255
221 235 255
221 235 255
221 235 255
221 235 255
221 235 255
221 235 255
221 235 255
221 235 255
221 235 255
221 235 255
221 235 255
221 235 255
221 235 255
221 235 255
221 235 255
221 235 255
221 235 255
221 235 255
221 235 255
221 235 255
221 235 255
221 235 255
221 235 255
221 235 255
221 235 255
221 235 255
221 235 255
221 235 255
221 235 255
221 235 255
221 235 255
221 235 255
221 235 255
221 235 255
221 235 255
221 235 255
221 235 255
221 235 255
221 235 255
221 235 255
221 235 255
221 235 255
221 235 255
221 235 255
221 235 255
221 235 255
221 235 255
221 235 255
221 235 255
221 235 255
221 235 255
221 235 255
221 235 255
221 235 255
221 235 255
221 235 255
221 235 255
221 235 255
221 235 255
221 235 255
221 235 255
221 235 255
221 235 255
221 235 255
221 235 255
221 235 255
221 235 255
220 235 255
221 235 255
220 235 255
221 235 255
221 235 255
220 235 255
220 235 255
220 235 255
220 235 255
220 235 255
220 235 255
220 235 255
220 235 255
220 235 255
220 235 255
220 235 255
220 235 255
220 235 255
220 235 255
220 235 255
220 235 255
220 235 255
220 235 255
220 235 255
220 235 255
220 235 255
220 235 255
220 235 255
220 235 255
220 235 255
220 235 255
220 235 255
220 235 255
220 235 255
220 235 255
220 235 255
220 235 255
220 235 255
220 235 255
220 235 255
220 235 255
220 235 255
220 235 255
220 235 255
220 235 255
220 235 255
220 235 255
220 235 255
220 235 255
220 235 255
220 235 255
220 235 255
220 235 255
220 235 255
220 235 255
220 235 255
220 235 255
220 235 255
220 235 255
220 235 255
220 235 255
220 235 255
220 235 255
220 235 255
220 235 255
220 235 255
220 235 255
220 235 255
220 235 255
220 235 255
220 235 255
220 235 255
220 235 255
220 235 255
220 235 255
220 235 255
220 235 255
220 235 255
220 235 255
220 235 255
220 235 255
220 235 255
220 235 255
220 235 255
220 235 255
220 235 255
220 235 255
220 235 255
220 235 255
220 235 255
220 235 255
220 235 255
220 235 255
220 235 255
220 235 255
220 235 255
220 235 255
220 235 255
220 235 255
220 235 255
220 235 255
220 235 255
220 235 255
220 235 255
220 235 255
220 235 255
220 235 255
220 235 255
220 235 255
220 235 255
220 235 255
220 235 255
220 235 255
220 235 255
220 235 255
220 235 255
220 235 255
220 235 255
220 235 255
220 235 255
220 235 255
220 235 255
220 235 255
220 235 255
220 235 255
220 235 255
220 235 255
220 235 255
220 235 255
220 235 255
220 235 255
220 235 255
220 235 255
220 235 255
220 235 255
220 235 255
220 235 255
220 235 255
220 235 255
220 235 255
220 235 255
220 235 255
220 235 255
220 235 255
220 235 255
220 235 255
220 235 255
220 235 255
220 235 255
220 235 255
220 235 255
220 235 255
220 235 255
220 235 255
220 235 255
220 235 255
220 235 255
220 235 255
220 235 255
220 235 255
220 235 255
220 235 255
220 235 255
220 235 255
220 235 255
220 235 255
220 235 255
220 235 255
220 235 255
220 235 255
220 235 255
220 235 255
220 235 255
220 235 255
220 235 255
220 235 255
220 235 255
220 235 255
220 235 255
220 235 255
220 235 255
220 235 255
220 235 255
220 235 255
220 235 255
220 235 255
220 235 255
220 235 255
220 235 255
220 235 255
220 235 255
220 235 255
220 235 255
220 235 255
220 235 255
220 235 255
220 235 255
220 235 255
220 235 255
220 235 255
220 235 255
220 235 255
220 235 255
220 235 255
220 235 255
220 235 255
220 235 255
220 235 255
220 235 255
220 235 255
220 235 255
220 235 255
220 235 255
220 235 255
220 235 255
220 235 255
220 235 255
220 235 255
220 235 255
220 235 255
220 235 255
220 235 255
220 235 255
220 235 255
220 235 255
220 235 255
220 235 255
220 235 255
220 235 255
220 235 255
220 235 255
220 235 255
220 235 255
220 235 255
220 235 255
220 235 255
220 235 255
220 235 255
220 235 255
220 235 255
220 235 255
220 235 255
220 235 255
220 235 255
220 235 255
220 235 255
220 235 255
220 235 255
220 235 255
220 235 255
220 235 255
220 235 255
220 235 255
220 235 255
220 235 255
220 235 255
220 235 255
220 235 255
220 235 255
220 235 255
220 235 255
220 235 255
221 235 255
221 235 255
221 235 255
221 235 255
221 235 255
221 235 255
221 235 255
221 235 255
221 235 255
221 235 255
221 235 255
221 235 255
221 235 255
221 235 255
221 235 255
221 235 255
221 235 255
221 235 255
221 235 255
221 235 255
221 235 255
221 235 255
221 235 255
221 235 255
221 235 255
221 235 255
221 235 255
221 235 255
221 235 255
221 235 255
221 235 255
221 235 255
221 235 255
221 235 255
221 235 255
221 235 255
221 235 255
221 235 255
221 235 255
221 235 255
221 235 255
221 235 255
221 235 255
221 235 255
221 235 255
221 235 255
221 235 255
221 235 255
221 235 255
221 235 255
221 235 255
221 235 255
221 235 255
221 235 255
221 235 255
221 235 255
221 235 255
221 235 255
221 235 255
221 235 255
221 235 255
221 235 255
221 235 255
221 235 255
221 235 255
221 235 255
221 235 255
221 235 255
221 235 255
221 235 255
221 235 255
221 235 255
221 235 255
221 235 255
221 235 255
221 235 255
221 235 255
221 235 255
221 235 255
221 235 255
221 235 255
221 235 255
221 235 255
221 235 255
221 235 255
221 235 255
221 235 255
221 235 255
221 235 255
221 235 255
221 235 255
221 235 255
221 235 255
221 235 255
221 235 255
221 235 255
221 235 255
221 235 255
221 235 255
221 235 255
221 235 255
221 235 255
221 235 255
221 235 255
221 235 255
221 235 255
221 235 255
221 235 255
221 235 255
221 235 255
221 235 255
221 235 255
221 235 255
221 235 255
221 235 255
221 235 255
221 235 255
221 235 255
221 235 255
221 235 255
221 235 255
221 235 255
221 235 255
221 235 255
221 235 255
221 235 255
221 235 255
221 235 255
221 235 255
221 235 255
221 235 255
221 235 255
221 235 255
221 235 255
221 235 255
221 235 255
221 235 255
221 235 255
221 235 255
221 235 255
221 235 255
221 235 255
221 235 255
221 235 255
221 235 255
221 235 255
221 235 255
221 235 255
221 235 255
221 235 255
221 235 255
221 235 255
221 235 255
221 235 255
221 235 255
221 235 255
221 235 255
221 235 255
221 235 255
221 235 255
221 235 255
221 235 255
221 235 255
221 235 255
221 235 255
221 235 255
221 235 255
221 235 255
221 235 255
221 235 255
221 235 255
221 235 255
221 235 255
221 235 255
221 235 255
221 235 255
221 235 255
221 235 255
221 235 255
221 235 255
221 235 255
221 235 255
221 235 255
221 235 255
221 235 255
221 235 255
221 235 255
221 235 255
221 235 255
221 235 255
221 235 255
221 235 255
221 235 255
221 235 255
221 235 255
221 235 255
221 235 255
221 235 255
221 235 255
221 235 255
221 235 255
221 235 255
221 235 255
221 235 255
221 235 255
221 235 255
221 235 255
221 235 255
221 235 255
221 235 255
221 235 255
221 235 255
221 235 255
221 235 255
221 235 255
221 235 255
221 235 255
221 235 255
221 235 255
221 235 255
220 235 255
221 235 255
220 235 255
221 235 255
220 235 255
220 235 255
220 235 255
220 235 255
220 235 255
220 235 255
220 235 255
220 235 255
220 235 255
220 235 255
220 235 255
220 235 255
220 235 255
220 235 255
220 235 255
220 235 255
220 235 255
220 235 255
220 235 255
220 235 255
220 235 255
220 235 255
220 235 255
220 235 255
220 235 255
220 235 255
220 235 255
220 235 255
220 235 255
220 235 255
220 235 255
220 235 255
220 235 255
220 235 255
220 235 255
220 235 255
220 235 255
220 235 255
220 235 255
220 235 255
220 235 255
220 235 255
220 235 255
220 235 255
220 235 255
220 235 255
220 235 255
220 235 255
220 235 255
220 235 255
220 235 255
220 235 255
220 235 255
220 235 255
220 235 255
220 235 255
220 235 255
220 235 255
220 235 255
220 235 255
220 235 255
220 235 255
220 235 255
220 235 255
220 235 255
220 235 255
220 235 255
220 235 255
220 235 255
220 235 255
220 235 255
220 235 255
220 235 255
220 235 255
220 235 255
220 235 255
220 235 255
220 235 255
220 235 255
220 235 255
220 235 255
220 235 255
220 235 255
220 235 255
220 235 255
220 235 255
220 235 255
220 235 255
220 235 255
220 235 255
220 235 255
220 235 255
220 235 255
220 235 255
220 235 255
220 235 255
221 235 255
221 235 255
221 235 255
221 235 255
221 235 255
221 235 255
221 235 255
221 235 255
221 235 255
221 235 255
221 235 255
221 235 255
221 235 255
221 235 255
221 235 255
221 235 255
221 235 255
221 235 255
221 235 255
221 235 255
221 235 255
221 235 255
221 235 255
221 235 255
221 235 255
221 235 255
221 235 255
221 235 255
221 235 255
221 235 255
221 235 255
221 235 255
221 235 255
221 235 255
221 235 255
221 235 255
221 235 255
221 235 255
221 235 255
221 235 255
221 235 255
221 235 255
221 235 255
221 235 255
221 235 255
221 235 255
221 235 255
221 235 255
221 235 255
221 235 255
221 235 255
221 235 255
221 235 255
221 235 255
221 235 255
221 235 255
221 235 255
221 235 255
221 235 255
221 235 255
221 235 255
221 235 255
221 235 255
221 235 255
221 235 255
221 235 255
221 235 255
221 235 255
221 235 255
221 235 255
221 235 255
221 235 255
221 235 255
221 235 255
221 235 255
221 235 255
221 235 255
221 235 255
221 235 255
221 235 255
221 235 255
221 235 255
221 235 255
221 235 255
221 235 255
221 235 255
221 235 255
221 235 255
221 235 255
221 235 255
221 235 255
221 235 255
221 235 255
221 235 255
221 235 255
221 235 255
221 235 255
221 235 255
221 235 255
221 235 255
221 235 255
221 235 255
221 235 255
221 235 255
221 235 255
221 235 255
221 235 255
221 235 255
221 235 255
221 235 255
221 235 255
221 235 255
221 235 255
221 235 255
221 235 255
221 235 255
221 235 255
221 235 255
221 235 255
221 235 255
221 235 255
221 235 255
221 235 255
221 235 255
221 235 255
221 235 255
221 235 255
221 235 255
221 235 255
221 235 255
221 235 255
221 235 255
221 235 255
221 235 255
221 235 255
221 235 255
221 235 255
221 235 255
221 235 255
221 235 255
221 235 255
221 235 255
221 235 255
221 235 255
221 235 255
221 235 255
221 235 255
221 235 255
221 235 255
221 235 255
221 235 255
221 235 255
221 235 255
221 235 255
221 235 255
221 235 255
221 235 255
221 235 255
221 235 255
221 235 255
221 235 255
221 235 255
221 235 255
221 235 255
221 235 255
221 235 255
221 235 255
221 235 255
221 235 255
221 235 255
221 235 255
221 235 255
221 235 255
221 235 255
221 235 255
221 235 255
221 235 255
221 235 255
221 235 255
221 235 255
221 235 255
221 235 255
221 235 255
221 235 255
221 235 255
221 235 255
221 235 255
221 235 255
221 235 255
221 235 255
221 235 255
221 235 255
221 235 255
221 235 255
221 235 255
221 235 255
221 235 255
221 235 255
221 235 255
221 235 255
221 235 255
221 235 255
221 235 255
221 235 255
221 235 255
221 235 255
221 235 255
221 235 255
221 235 255
221 235 255
221 235 255
221 235 255
221 235 255
221 235 255
221 235 255
221 235 255
221 235 255
221 235 255
221 235 255
221 235 255
221 235 255
221 235 255
221 235 255
221 235 255
221 235 255
221 235 255
221 235 255
221 235 255
221 235 255
221 235 255
221 235 255
221 235 255
221 235 255
221 235 255
221 235 255
221 235 255
221 235 255
221 235 255
221 235 255
221 235 255
221 235 255
221 235 255
221 235 255
221 235 255
221 235 255
221 235 255
221 235 255
221 235 255
221 235 255
221 235 255
221 235 255
221 235 255
221 235 255
221 235 255
221 235 255
221 235 255
221 235 255
221 235 255
221 235 255
221 235 255
221 235 255
221 235 255
221 235 255
221 235 255
221 235 255
221 235 255
221 235 255
221 235 255
221 235 255
221 235 255
221 235 255
221 235 255
221 235 255
221 235 255
221 235 255
221 235 255
221 235 255
221 235 255
221 235 255
221 235 255
221 235 255
221 235 255
221 235 255
221 235 255
221 235 255
221 235 255
221 235 255
221 235 255
221 235 255
221 235 255
221 235 255
221 235 255
221 235 255
221 235 255
221 235 255
221 235 255
221 235 255
221 235 255
221 235 255
221 235 255
221 235 255
221 235 255
221 235 255
221 235 255
221 235 255
221 235 255
221 235 255
221 235 255
221 235 255
221 235 255
221 235 255
221 235 255
221 235 255
221 235 255
221 235 255
221 235 255
221 235 255
221 235 255
221 235 255
221 235 255
221 235 255
221 235 255
221 235 255
221 235 255
221 235 255
221 235 255
221 235 255
221 235 255
221 235 255
221 235 255
221 235 255
221 235 255
221 235 255
221 235 255
221 235 255
221 235 255
221 235 255
221 235 255
221 235 255
221 235 255
221 235 255
221 235 255
221 235 255
221 235 255
221 235 255
221 235 255
221 235 255
221 235 255
221 235 255
221 235 255
221 235 255
221 235 255
221 235 255
221 235 255
221 235 255
221 235 255
221 235 255
221 235 255
221 235 255
221 235 255
221 235 255
221 235 255
221 235 255
221 235 255
221 235 255
221 235 255
221 235 255
221 235 255
221 235 255
221 235 255
221 235 255
221 235 255
221 235 255
221 235 255
221 235 255
221 235 255
221 235 255
221 235 255
221 235 255
221 235 255
221 235 255
221 235 255
221 235 255
221 235 255
221 235 255
221 235 255
221 235 255
221 235 255
221 235 255
221 235 255
221 235 255
221 235 255
221 235 255
221 235 255
221 235 255
221 235 255
221 235 255
221 235 255
221 235 255
221 235 255
221 235 255
221 235 255
221 235 255
221 235 255
221 235 255
221 235 255
221 235 255
221 235 255
221 235 255
221 235 255
221 235 255
221 235 255
221 235 255
221 235 255
221 235 255
221 235 255
221 235 255
221 235 255
221 235 255
221 235 255
221 235 255
221 235 255
221 235 255
221 235 255
221 235 255
221 235 255
221 235 255
221 235 255
221 235 255
221 235 255
221 235 255
221 235 255
221 235 255
221 235 255
221 235 255
221 235 255
221 235 255
221 235 255
221 235 255
221 235 255
221 235 255
221 235 255
221 235 255
221 235 255
221 235 255
221 235 255
221 235 255
221 235 255
221 235 255
221 235 255
221 235 255
221 235 255
221 235 255
221 235 255
221 235 255
221 235 255
221 235 255
221 235 255
221 235 255
221 235 255
221 235 255
221 235 255
221 235 255
221 235 255
221 235 255
221 235 255
221 235 255
221 235 255
221 235 255
221 235 255
221 235 255
221 235 255
221 235 255
221 235 255
221 235 255
221 235 255
221 235 255
221 235 255
221 235 255
221 235 255
221 235 255
221 235 255
221 235 255
221 235 255
221 235 255
221 235 255
221 235 255
221 235 255
221 235 255
221 235 255
221 235 255
221 235 255
221 235 255
221 235 255
221 235 255
221 235 255
221 235 255
221 235 255
221 235 255
221 235 255
221 235 255
221 235 255
221 235 255
221 235 255
221 235 255
221 235 255
221 235 255
221 235 255
221 235 255
221 235 255
221 235 255
221 235 255
221 235 255
221 235 255
221 235 255
221 235 255
221 235 255
221 235 255
221 235 255
221 235 255
221 235 255
221 235 255
221 235 255
221 235 255
221 235 255
221 235 255
221 235 255
221 235 255
221 235 255
221 235 255
221 235 255
221 235 255
221 235 255
221 235 255
221 235 255
221 235 255
221 235 255
221 235 255
221 235 255
221 235 255
221 235 255
221 235 255
221 235 255
221 235 255
221 235 255
221 235 255
221 235 255
221 235 255
221 235 255
221 235 255
221 235 255
221 235 255
221 235 255
221 235 255
221 235 255
221 235 255
221 235 255
221 235 255
221 235 255
221 235 255
221 235 255
221 235 255
221 235 255
221 235 255
221 235 255
221 235 255
221 235 255
221 235 255
221 235 255
221 235 255
221 235 255
221 235 255
221 235 255
221 235 255
221 235 255
221 235 255
221 235 255
221 235 255
221 235 255
221 235 255
221 235 255
221 235 255
221 235 255
221 235 255
221 235 255
221 235 255
221 235 255
221 235 255
221 235 255
221 235 255
221 235 255
221 235 255
221 235 255
221 235 255
221 235 255
221 235 255
221 235 255
221 235 255
221 235 255
221 235 255
221 235 255
221 235 255
221 235 255
221 235 255
221 235 255
221 235 255
221 235 255
221 235 255
221 235 255
221 235 255
221 235 255
221 235 255
221 235 255
221 235 255
221 235 255
221 235 255
221 235 255
221 235 255
221 235 255
221 235 255
221 235 255
221 235 255
221 235 255
221 235 255
221 235 255
221 235 255
221 235 255
221 235 255
221 235 255
221 235 255
221 235 255
221 235 255
221 235 255
221 235 255
221 235 255
221 235 255
221 235 255
221 235 255
221 235 255
221 235 255
221 235 255
221 235 255
221 235 255
221 235 255
221 235 255
221 235 255
221 235 255
221 235 255
221 235 255
221 235 255
221 235 255
221 235 255
221 235 255
221 235 255
221 235 255
221 235 255
221 235 255
221 235 255
221 235 255
221 235 255
221 235 255
221 235 255
221 235 255
221 235 255
221 235 255
221 235 255
221 235 255
221 235 255
221 235 255
221 235 255
221 235 255
221 235 255
221 235 255
221 235 255
221 235 255
221 235 255
221 235 255
221 235 255
221 235 255
221 235 255
221 235 255
221 235 255
221 235 255
221 235 255
221 235 255
221 235 255
221 235 255
221 235 255
221 235 255
221 235 255
221 235 255
221 235 255
221 235 255
221 235 255
221 235 255
221 235 255
221 235 255
221 235 255
221 235 255
221 235 255
221 235 255
221 235 255
221 235 255
221 235 255
221 235 255
221 235 255
221 235 255
221 235 255
221 235 255
221 235 255
221 235 255
221 235 255
221 235 255
221 235 255
221 235 255
221 235 255
221 235 255
221 235 255
221 235 255
221 235 255
221 235 255
221 235 255
221 235 255
221 235 255
221 235 255
221 235 255
221 235 255
221 235 255
221 235 255
221 235 255
221 235 255
221 235 255
221 235 255
221 235 255
221 235 255
221 235 255
221 235 255
221 235 255
221 235 255
221 235 255
221 235 255
221 235 255
221 235 255
221 235 255
221 235 255
221 235 255
221 235 255
221 235 255
221 235 255
221 235 255
221 235 255
221 235 255
221 235 255
221 235 255
221 235 255
221 235 255
221 235 255
221 235 255
221 235 255
221 235 255
221 235 255
221 235 255
221 235 255
221 235 255
221 235 255
221 235 255
221 235 255
221 235 255
221 235 255
221 235 255
221 235 255
221 235 255
221 235 255
221 235 255
221 235 255
221 235 255
221 235 255
221 235 255
221 235 255
221 235 255
221 235 255
221 235 255
221 235 255
221 235 255
221 235 255
221 235 255
221 235 255
221 235 255
221 235 255
221 235 255
221 235 255
221 235 255
221 235 255
221 235 255
221 235 255
221 235 255
221 235 255
221 235 255
221 235 255
221 235 255
221 235 255
221 235 255
221 235 255
221 235 255
221 235 255
221 235 255
221 235 255
221 235 255
221 235 255
221 235 255
221 235 255
221 235 255
221 235 255
221 235 255
221 235 255
221 235 255
221 235 255
221 235 255
221 235 255
221 235 255
221 235 255
221 235 255
221 235 255
221 235 255
221 235 255
221 235 255
221 235 255
221 235 255
221 235 255
221 235 255
221 235 255
221 235 255
221 235 255
221 235 255
221 235 255
221 235 255
221 235 255
221 235 255
221 235 255
221 235 255
221 235 255
221 235 255
221 235 255
221 235 255
221 235 255
221 235 255
221 235 255
221 235 255
221 235 255
221 235 255
221 235 255
221 235 255
221 235 255
221 235 255
221 235 255
221 235 255
221 235 255
221 235 255
221 235 255
221 235 255
221 235 255
221 235 255
221 235 255
221 235 255
221 235 255
221 235 255
221 235 255
221 235 255
221 235 255
221 235 255
221 235 255
221 235 255
221 235 255
221 235 255
221 235 255
221 235 255
221 235 255
221 235 255
221 235 255
221 235 255
221 235 255
221 235 255
221 235 255
221 235 255
221 235 255
221 235 255
221 235 255
221 235 255
221 235 255
221 235 255
221 235 255
221 235 255
221 235 255
221 235 255
221 235 255
221 235 255
221 235 255
221 235 255
221 235 255
221 235 255
221 235 255
221 235 255
221 235 255
221 235 255
221 235 255
221 235 255
221 235 255
221 235 255
221 235 255
221 235 255
221 235 255
221 235 255
221 235 255
221 235 255
221 235 255
221 235 255
221 235 255
221 235 255
221 235 255
221 235 255
221 235 255
221 235 255
221 235 255
221 235 255
221 235 255
221 235 255
221 235 255
221 235 255
221 235 255
221 235 255
221 235 255
221 235 255
221 235 255
221 235 255
221 235 255
221 235 255
221 235 255
221 235 255
221 235 255
221 235 255
221 235 255
221 235 255
221 235 255
221 235 255
221 235 255
221 235 255
221 235 255
221 235 255
221 235 255
221 235 255
221 235 255
221 235 255
221 235 255
221 235 255
221 235 255
221 235 255
221 235 255
221 235 255
221 235 255
221 235 255
221 235 255
221 235 255
221 235 255
221 235 255
221 235 255
221 235 255
221 235 255
221 235 255
221 235 255
221 235 255
221 235 255
221 235 255
221 235 255
221 235 255
221 235 255
221 235 255
221 235 255
221 235 255
221 235 255
221 235 255
221 235 255
221 235 255
221 235 255
221 235 255
221 235 255
221 235 255
221 235 255
221 235 255
221 235 255
221 235 255
221 235 255
221 235 255
221 235 255
221 235 255
221 235 255
221 235 255
221 235 255
221 235 255
221 235 255
221 235 255
221 235 255
221 235 255
221 235 255
221 235 255
221 235 255
221 235 255
221 235 255
221 235 255
221 235 255
221 235 255
221 235 255
221 235 255
221 235 255
221 235 255
221 235 255
221 235 255
221 235 255
221 235 255
221 235 255
221 235 255
221 235 255
221 235 255
221 235 255
221 235 255
221 235 255
221 235 255
221 235 255
221 235 255
221 235 255
221 235 255
221 235 255
221 235 255
221 235 255
221 235 255
221 235 255
221 235 255
221 235 255
221 235 255
221 235 255
221 235 255
221 235 255
221 235 255
221 235 255
221 235 255
221 235 255
221 235 255
221 235 255
221 235 255
221 235 255
221 235 255
221 235 255
221 235 255
221 235 255
221 235 255
221 235 255
221 235 255
221 235 255
221 235 255
221 235 255
221 235 255
221 235 255
221 235 255
221 235 255
221 235 255
221 235 255
221 235 255
221 235 255
221 235 255
221 235 255
221 235 255
221 235 255
221 235 255
221 235 255
221 235 255
221 235 255
221 235 255
221 235 255
221 235 255
221 235 255
221 235 255
221 235 255
221 235 255
221 235 255
221 235 255
221 235 255
221 235 255
221 235 255
221 235 255
221 235 255
221 235 255
221 235 255
221 235 255
221 235 255
221 235 255
221 235 255
221 235 255
221 235 255
221 235 255
221 235 255
221 235 255
221 235 255
221 235 255
221 235 255
221 235 255
221 235 255
221 235 255
221 235 255
221 235 255
221 235 255
221 235 255
221 235 255
221 235 255
221 235 255
221 235 255
221 235 255
221 235 255
221 235 255
221 235 255
221 235 255
221 235 255
221 235 255
221 235 255
221 235 255
221 235 255
221 235 255
221 235 255
221 235 255
221 235 255
221 235 255
221 235 255
221 235 255
221 235 255
221 235 255
221 235 255
221 235 255
221 235 255
221 235 255
221 235 255
221 235 255
221 235 255
221 235 255
221 235 255
221 235 255
221 235 255
221 235 255
221 235 255
221 235 255
221 235 255
221 235 255
221 235 255
221 235 255
221 235 255
221 235 255
221 235 255
221 235 255
221 235 255
221 235 255
221 235 255
221 235 255
221 235 255
221 235 255
221 235 255
221 235 255
221 235 255
221 235 255
221 235 255
221 235 255
221 235 255
221 235 255
221 235 255
221 235 255
221 235 255
221 235 255
221 235 255
221 235 255
221 235 255
221 235 255
221 235 255
221 235 255
221 235 255
221 235 255
221 235 255
221 235 255
221 235 255
221 235 255
221 235 255
221 235 255
221 235 255
221 235 255
221 235 255
221 235 255
221 235 255
221 235 255
221 235 255
221 235 255
221 235 255
221 235 255
221 235 255
221 235 255
221 235 255
221 235 255
221 235 255
221 235 255
221 235 255
221 235 255
221 235 255
221 235 255
221 235 255
221 235 255
221 235 255
221 235 255
221 235 255
221 235 255
221 235 255
221 235 255
221 235 255
221 235 255
221 235 255
221 235 255
221 235 255
221 235 255
221 235 255
221 235 255
221 235 255
221 235 255
221 235 255
221 235 255
221 235 255
221 235 255
221 235 255
221 235 255
221 235 255
221 235 255
221 235 255
221 235 255
221 235 255
221 235 255
221 235 255
221 235 255
221 235 255
221 235 255
221 235 255
221 235 255
221 235 255
221 235 255
221 235 255
221 235 255
221 235 255
221 235 255
221 235 255
221 235 255
221 235 255
221 235 255
221 235 255
221 235 255
221 235 255
221 235 255
221 235 255
221 235 255
221 235 255
221 235 255
221 235 255
221 235 255
221 235 255
221 235 255
221 235 255
221 235 255
221 235 255
221 235 255
221 235 255
221 235 255
221 235 255
221 235 255
221 235 255
221 235 255
221 235 255
221 235 255
221 235 255
221 235 255
221 235 255
221 235 255
221 235 255
221 235 255
221 235 255
221 235 255
221 235 255
221 235 255
221 235 255
221 235 255
221 235 255
221 235 255
221 235 255
221 235 255
221 235 255
221 235 255
221 235 255
221 235 255
221 235 255
221 235 255
221 235 255
221 235 255
221 235 255
221 235 255
221 235 255
221 235 255
221 235 255
221 235 255
221 235 255
221 235 255
221 235 255
221 235 255
221 235 255
221 235 255
221 235 255
221 235 255
221 235 255
221 235 255
221 235 255
221 235 255
221 235 255
221 235 255
221 235 255
221 235 255
221 235 255
221 235 255
221 235 255
221 235 255
221 235 255
221 235 255
221 235 255
221 235 255
221 235 255
221 235 255
221 235 255
221 235 255
221 235 255
221 235 255
221 235 255
221 235 255
221 235 255
221 235 255
221 235 255
221 235 255
221 235 255
221 235 255
221 235 255
221 235 255
221 235 255
221 235 255
221 235 255
221 235 255
221 236 255
221 236 255
221 236 255
221 236 255
221 236 255
221 236 255
221 236 255
221 236 255
221 236 255
221 236 255
221 236 255
221 236 255
221 236 255
221 236 255
221 236 255
221 236 255
221 236 255
221 236 255
221 236 255
221 236 255
221 236 255
221 236 255
221 236 255
221 236 255
221 236 255
221 236 255
221 236 255
221 236 255
221 236 255
221 236 255
221 236 255
221 236 255
221 236 255
221 236 255
221 236 255
221 236 255
221 236 255
221 236 255
221 236 255
221 236 255
221 236 255
221 236 255
221 236 255
221 236 255
221 236 255
221 236 255
221 236 255
221 236 255
221 236 255
221 236 255
221 236 255
221 236 255
221 236 255
221 236 255
221 236 255
221 236 255
221 236 255
221 236 255
221 236 255
221 236 255
221 236 255
221 236 255
221 236 255
221 236 255
221 236 255
221 236 255
221 236 255
221 236 255
221 236 255
221 236 255
221 236 255
221 236 255
221 236 255
221 236 255
221 236 255
221 236 255
221 236 255
221 236 255
221 236 255
221 236 255
221 236 255
221 236 255
221 236 255
221 236 255
221 236 255
221 236 255
221 236 255
221 236 255
221 236 255
221 236 255
221 236 255
221 236 255
221 236 255
221 236 255
221 236 255
221 236 255
221 236 255
221 236 255
221 236 255
221 236 255
221 236 255
221 236 255
221 236 255
221 236 255
221 236 255
221 236 255
221 236 255
221 236 255
221 236 255
221 236 255
221 236 255
221 236 255
221 236 255
221 236 255
221 236 255
221 236 255
221 236 255
221 236 255
221 236 255
221 236 255
221 236 255
221 236 255
221 236 255
221 236 255
221 236 255
221 236 255
221 236 255
221 236 255
221 236 255
221 236 255
221 236 255
221 236 255
221 236 255
221 236 255
221 236 255
221 236 255
221 236 255
221 236 255
221 236 255
221 236 255
221 236 255
221 236 255
221 236 255
221 236 255
221 236 255
221 236 255
221 236 255
221 236 255
221 236 255
221 236 255
221 236 255
221 236 255
221 236 255
221 236 255
221 236 255
221 236 255
221 236 255
221 236 255
221 236 255
221 236 255
221 236 255
221 236 255
221 236 255
221 236 255
221 236 255
221 236 255
221 236 255
221 236 255
221 236 255
221 236 255
221 236 255
221 236 255
221 236 255
221 236 255
221 236 255
221 236 255
221 236 255
221 236 255
221 236 255
221 236 255
221 236 255
221 236 255
221 236 255
221 236 255
221 236 255
221 236 255
221 236 255
221 236 255
221 236 255
221 236 255
221 236 255
221 236 255
221 236 255
221 236 255
221 236 255
221 236 255
221 236 255
221 236 255
221 236 255
221 236 255
221 236 255
221 236 255
221 236 255
221 236 255
221 236 255
221 236 255
221 236 255
221 236 255
221 236 255
221 236 255
221 236 255
221 236 255
221 236 255
221 236 255
221 236 255
221 236 255
221 236 255
221 236 255
221 236 255
221 236 255
221 236 255
221 236 255
221 236 255
221 236 255
221 236 255
221 236 255
221 236 255
221 236 255
221 236 255
221 236 255
221 236 255
221 236 255
221 236 255
221 236 255
221 236 255
221 236 255
221 236 255
221 236 255
221 236 255
221 236 255
221 236 255
221 236 255
221 236 255
221 236 255
221 236 255
221 236 255
221 236 255
221 236 255
221 236 255
221 236 255
221 236 255
221 236 255
221 236 255
221 236 255
221 236 255
221 236 255
221 236 255
221 236 255
221 236 255
221 236 255
221 236 255
221 236 255
221 236 255
221 236 255
221 236 255
221 236 255
221 236 255
221 236 255
221 236 255
221 236 255
221 236 255
221 236 255
221 236 255
221 236 255
221 236 255
221 236 255
221 236 255
221 236 255
221 236 255
221 236 255
221 236 255
221 236 255
221 236 255
221 236 255
221 236 255
221 236 255
221 236 255
221 236 255
221 236 255
221 236 255
221 236 255
221 236 255
221 236 255
221 236 255
221 236 255
221 236 255
221 236 255
221 236 255
221 236 255
221 236 255
221 236 255
221 236 255
221 236 255
221 236 255
221 236 255
221 236 255
221 236 255
221 236 255
221 236 255
221 236 255
221 236 255
221 236 255
221 236 255
221 236 255
221 236 255
221 236 255
221 236 255
221 236 255
221 236 255
221 236 255
221 236 255
221 236 255
221 236 255
221 236 255
221 236 255
221 236 255
221 236 255
221 236 255
221 236 255
221 236 255
221 236 255
221 236 255
221 236 255
221 236 255
221 236 255
221 236 255
221 236 255
221 236 255
221 236 255
221 236 255
221 236 255
221 236 255
221 236 255
221 236 255
221 236 255
221 236 255
221 236 255
221 236 255
221 236 255
221 236 255
221 236 255
221 236 255
221 236 255
221 236 255
221 236 255
221 236 255
221 236 255
221 236 255
221 236 255
221 236 255
221 236 255
221 236 255
221 236 255
221 236 255
221 236 255
221 236 255
221 236 255
221 236 255
221 236 255
221 236 255
221 236 255
221 236 255
221 236 255
221 236 255
221 236 255
221 236 255
221 236 255
221 236 255
221 236 255
221 236 255
221 236 255
221 236 255
221 236 255
221 236 255
221 236 255
221 236 255
221 236 255
221 236 255
221 236 255
221 236 255
221 236 255
221 236 255
221 236 255
221 236 255
221 236 255
221 236 255
221 236 255
221 236 255
221 236 255
221 236 255
221 236 255
221 236 255
221 236 255
221 236 255
221 236 255
221 236 255
221 236 255
221 236 255
221 236 255
221 236 255
221 236 255
221 236 255
221 236 255
221 236 255
221 236 255
221 236 255
221 236 255
221 236 255
221 236 255
221 236 255
221 236 255
221 236 255
221 236 255
221 236 255
221 236 255
221 236 255
221 236 255
221 236 255
221 236 255
221 236 255
221 236 255
221 236 255
221 236 255
221 236 255
221 236 255
221 236 255
221 236 255
221 236 255
221 236 255
221 236 255
221 236 255
221 236 255
221 236 255
221 236 255
221 236 255
221 236 255
221 236 255
221 236 255
221 236 255
221 236 255
221 236 255
221 236 255
221 236 255
221 236 255
221 236 255
221 236 255
221 236 255
221 236 255
221 236 255
221 236 255
221 236 255
221 236 255
221 236 255
221 236 255
221 236 255
221 236 255
221 236 255
221 236 255
221 236 255
221 236 255
221 236 255
221 236 255
221 236 255
221 236 255
221 236 255
221 236 255
221 236 255
221 236 255
221 236 255
221 236 255
221 236 255
221 236 255
221 236 255
221 236 255
221 236 255
221 236 255
221 236 255
221 236 255
221 236 255
221 236 255
221 236 255
221 236 255
221 236 255
221 236 255
221 236 255
221 236 255
221 236 255
221 236 255
221 236 255
221 236 255
221 236 255
221 236 255
221 236 255
221 236 255
221 236 255
221 236 255
221 236 255
221 236 255
221 236 255
221 236 255
221 236 255
221 236 255
221 236 255
221 236 255
221 236 255
221 236 255
221 236 255
222 236 255
221 236 255
222 236 255
221 236 255
221 236 255
222 236 255
222 236 255
222 236 255
222 236 255
222 236 255
222 236 255
222 236 255
222 236 255
222 236 255
222 236 255
222 236 255
221 236 255
222 236 255
222 236 255
222 236 255
222 236 255
222 236 255
222 236 255
222 236 255
222 236 255
222 236 255
222 236 255
222 236 255
222 236 255
222 236 255
222 236 255
222 236 255
222 236 255
222 236 255
222 236 255
222 236 255
222 236 255
222 236 255
222 236 255
222 236 255
222 236 255
222 236 255
222 236 255
222 236 255
222 236 255
222 236 255
222 236 255
222 236 255
222 236 255
222 236 255
222 236 255
222 236 255
222 236 255
222 236 255
222 236 255
222 236 255
222 236 255
222 236 255
222 236 255
222 236 255
222 236 255
222 236 255
222 236 255
222 236 255
222 236 255
222 236 255
222 236 255
222 236 255
222 236 255
222 236 255
222 236 255
222 236 255
222 236 255
222 236 255
222 236 255
222 236 255
222 236 255
222 236 255
222 236 255
222 236 255
222 236 255
222 236 255
222 236 255
222 236 255
222 236 255
222 236 255
222 236 255
222 236 255
222 236 255
222 236 255
222 236 255
222 236 255
222 236 255
222 236 255
222 236 255
222 236 255
222 236 255
222 236 255
222 236 255
222 236 255
222 236 255
222 236 255
222 236 255
222 236 255
222 236 255
222 236 255
222 236 255
222 236 255
222 236 255
222 236 255
222 236 255
222 236 255
222 236 255
222 236 255
222 236 255
222 236 255
222 236 255
222 236 255
222 236 255
222 236 255
222 236 255
222 236 255
222 236 255
222 236 255
222 236 255
222 236 255
222 236 255
222 236 255
222 236 255
222 236 255
222 236 255
222 236 255
222 236 255
222 236 255
222 236 255
222 236 255
222 236 255
222 236 255
222 236 255
222 236 255
222 236 255
222 236 255
222 236 255
222 236 255
222 236 255
222 236 255
222 236 255
222 236 255
222 236 255
222 236 255
222 236 255
222 236 255
222 236 255
222 236 255
222 236 255
222 236 255
222 236 255
221 236 255
222 236 255
221 236 255
221 236 255
222 236 255
222 236 255
221 236 255
221 236 255
221 236 255
221 236 255
221 236 255
221 236 255
221 236 255
221 236 255
221 236 255
221 236 255
221 236 255
221 236 255
221 236 255
221 236 255
221 236 255
221 236 255
221 236 255
221 236 255
221 236 255
221 236 255
221 236 255
221 236 255
221 236 255
221 236 255
221 236 255
221 236 255
221 236 255
221 236 255
221 236 255
221 236 255
221 236 255
221 236 255
221 236 255
221 236 255
221 236 255
221 236 255
221 236 255
221 236 255
221 236 255
221 236 255
221 236 255
221 236 255
221 236 255
221 236 255
221 236 255
221 236 255
221 236 255
221 236 255
221 236 255
221 236 255
221 236 255
221 236 255
221 236 255
221 236 255
221 236 255
221 236 255
221 236 255
221 236 255
221 236 255
221 236 255
221 236 255
221 236 255
221 236 255
221 236 255
221 236 255
221 236 255
221 236 255
221 236 255
221 236 255
221 236 255
221 236 255
221 236 255
221 236 255
221 236 255
221 236 255
221 236 255
221 236 255
221 236 255
221 236 255
221 236 255
221 236 255
221 236 255
221 236 255
221 236 255
221 236 255
221 236 255
221 236 255
221 236 255
221 236 255
221 236 255
221 236 255
221 236 255
221 236 255
221 236 255
221 236 255
221 236 255
221 236 255
221 236 255
221 236 255
221 236 255
221 236 255
221 236 255
221 236 255
221 236 255
221 236 255
221 236 255
221 236 255
221 236 255
221 236 255
221 236 255
221 236 255
221 236 255
221 236 255
221 236 255
221 236 255
221 236 255
221 236 255
221 236 255
221 236 255
221 236 255
222 236 255
222 236 255
222 236 255
222 236 255
222 236 255
222 236 255
222 236 255
222 236 255
222 236 255
222 236 255
222 236 255
222 236 255
222 236 255
222 236 255
222 236 255
222 236 255
222 236 255
222 236 255
222 236 255
222 236 255
222 236 255
222 236 255
222 236 255
222 236 255
222 236 255
222 236 255
222 236 255
222 236 255
222 236 255
222 236 255
222 236 255
222 236 255
222 236 255
222 236 255
222 236 255
222 236 255
222 236 255
222 236 255
222 236 255
222 236 255
222 236 255
222 236 255
222 236 255
222 236 255
222 236 255
222 236 255
222 236 255
222 236 255
222 236 255
222 236 255
222 236 255
222 236 255
222 236 255
222 236 255
222 236 255
222 236 255
222 236 255
222 236 255
222 236 255
222 236 255
222 236 255
222 236 255
222 236 255
222 236 255
222 236 255
222 236 255
222 236 255
222 236 255
222 236 255
222 236 255
222 236 255
222 236 255
222 236 255
222 236 255
222 236 255
222 236 255
222 236 255
222 236 255
222 236 255
222 236 255
222 236 255
222 236 255
222 236 255
222 236 255
222 236 255
222 236 255
222 236 255
222 236 255
222 236 255
222 236 255
222 236 255
222 236 255
222 236 255
222 236 255
222 236 255
222 236 255
222 236 255
222 236 255
222 236 255
222 236 255
222 236 255
222 236 255
222 236 255
222 236 255
222 236 255
222 236 255
222 236 255
222 236 255
222 236 255
222 236 255
222 236 255
222 236 255
222 236 255
222 236 255
222 236 255
222 236 255
222 236 255
222 236 255
222 236 255
222 236 255
222 236 255
222 236 255
222 236 255
222 236 255
222 236 255
222 236 255
222 236 255
222 236 255
222 236 255
222 236 255
222 236 255
222 236 255
222 236 255
222 236 255
222 236 255
222 236 255
222 236 255
222 236 255
222 236 255
222 236 255
222 236 255
222 236 255
222 236 255
222 236 255
222 236 255
222 236 255
222 236 255
222 236 255
222 236 255
222 236 255
222 236 255
222 236 255
222 236 255
222 236 255
222 236 255
222 236 255
222 236 255
222 236 255
222 236 255
222 236 255
222 236 255
222 236 255
222 236 255
222 236 255
222 236 255
222 236 255
222 236 255
222 236 255
222 236 255
222 236 255
222 236 255
222 236 255
222 236 255
222 236 255
222 236 255
222 236 255
222 236 255
222 236 255
222 236 255
222 236 255
222 236 255
222 236 255
222 236 255
222 236 255
222 236 255
222 236 255
222 236 255
222 236 255
222 236 255
222 236 255
222 236 255
222 236 255
222 236 255
222 236 255
222 236 255
222 236 255
222 236 255
222 236 255
222 236 255
222 236 255
222 236 255
222 236 255
222 236 255
222 236 255
222 236 255
222 236 255
222 236 255
222 236 255
222 236 255
222 236 255
222 236 255
222 236 255
222 236 255
222 236 255
222 236 255
222 236 255
222 236 255
222 236 255
222 236 255
222 236 255
222 236 255
222 236 255
222 236 255
222 236 255
222 236 255
222 236 255
222 236 255
222 236 255
222 236 255
222 236 255
222 236 255
222 236 255
222 236 255
222 236 255
222 236 255
222 236 255
222 236 255
222 236 255
222 236 255
222 236 255
222 236 255
222 236 255
222 236 255
222 236 255
222 236 255
222 236 255
222 236 255
222 236 255
222 236 255
222 236 255
222 236 255
222 236 255
222 236 255
222 236 255
222 236 255
222 236 255
222 236 255
222 236 255
222 236 255
222 236 255
222 236 255
222 236 255
222 236 255
222 236 255
222 236 255
222 236 255
222 236 255
222 236 255
222 236 255
222 236 255
222 236 255
222 236 255
222 236 255
222 236 255
222 236 255
222 236 255
222 236 255
222 236 255
222 236 255
222 236 255
222 236 255
222 236 255
222 236 255
222 236 255
222 236 255
222 236 255
222 236 255
222 236 255
222 236 255
222 236 255
222 236 255
222 236 255
222 236 255
222 236 255
222 236 255
222 236 255
222 236 255
222 236 255
222 236 255
222 236 255
222 236 255
222 236 255
222 236 255
222 236 255
222 236 255
222 236 255
222 236 255
222 236 255
222 236 255
222 236 255
222 236 255
222 236 255
222 236 255
222 236 255
222 236 255
222 236 255
222 236 255
222 236 255
222 236 255
222 236 255
222 236 255
222 236 255
222 236 255
222 236 255
222 236 255
222 236 255
222 236 255
222 236 255
222 236 255
222 236 255
222 236 255
222 236 255
222 236 255
222 236 255
222 236 255
222 236 255
222 236 255
222 236 255
222 236 255
222 236 255
222 236 255
222 236 255
222 236 255
222 236 255
222 236 255
222 236 255
222 236 255
222 236 255
222 236 255
222 236 255
222 236 255
222 236 255
222 236 255
222 236 255
222 236 255
222 236 255
222 236 255
222 236 255
222 236 255
222 236 255
222 236 255
222 236 255
222 236 255
222 236 255
222 236 255
222 236 255
222 236 255
222 236 255
222 236 255
222 236 255
222 236 255
222 236 255
222 236 255
222 236 255
222 236 255
222 236 255
222 236 255
222 236 255
222 236 255
222 236 255
222 236 255
222 236 255
222 236 255
222 236 255
222 236 255
222 236 255
222 236 255
222 236 255
222 236 255
222 236 255
222 236 255
222 236 255
222 236 255
222 236 255
222 236 255
222 236 255
222 236 255
222 236 255
222 236 255
222 236 255
222 236 255
222 236 255
222 236 255
222 236 255
222 236 255
222 236 255
222 236 255
222 236 255
222 236 255
222 236 255
222 236 255
222 236 255
222 236 255
222 236 255
222 236 255
222 236 255
222 236 255
222 236 255
222 236 255
222 236 255
222 236 255
222 236 255
222 236 255
222 236 255
222 236 255
222 236 255
222 236 255
222 236 255
222 236 255
222 236 255
222 236 255
222 236 255
222 236 255
222 236 255
222 236 255
222 236 255
222 236 255
222 236 255
222 236 255
222 236 255
222 236 255
222 236 255
222 236 255
222 236 255
222 236 255
222 236 255
222 236 255
222 236 255
222 236 255
222 236 255
222 236 255
222 236 255
222 236 255
222 236 255
222 236 255
222 236 255
222 236 255
222 236 255
222 236 255
222 236 255
222 236 255
222 236 255
222 236 255
222 236 255
222 236 255
222 236 255
222 236 255
222 236 255
222 236 255
222 236 255
222 236 255
222 236 255
222 236 255
222 236 255
222 236 255
222 236 255
222 236 255
222 236 255
222 236 255
222 236 255
222 236 255
222 236 255
222 236 255
222 236 255
222 236 255
222 236 255
222 236 255
222 236 255
222 236 255
222 236 255
222 236 255
222 236 255
222 236 255
222 236 255
222 236 255
222 236 255
222 236 255
222 236 255
222 236 255
222 236 255
222 236 255
222 236 255
222 236 255
222 236 255
222 236 255
222 236 255
222 236 255
222 236 255
222 236 255
222 236 255
222 236 255
222 236 255
222 236 255
222 236 255
222 236 255
222 236 255
222 236 255
222 236 255
222 236 255
222 236 255
222 236 255
222 236 255
222 236 255
222 236 255
222 236 255
222 236 255
222 236 255
222 236 255
222 236 255
222 236 255
222 236 255
222 236 255
222 236 255
222 236 255
222 236 255
222 236 255
222 236 255
222 236 255
222 236 255
222 236 255
222 236 255
222 236 255
222 236 255
222 236 255
222 236 255
222 236 255
222 236 255
222 236 255
222 236 255
222 236 255
222 236 255
222 236 255
222 236 255
222 236 255
222 236 255
222 236 255
222 236 255
222 236 255
222 236 255
222 236 255
222 236 255
222 236 255
222 236 255
222 236 255
222 236 255
222 236 255
222 236 255
222 236 255
222 236 255
222 236 255
222 236 255
222 236 255
222 236 255
222 236 255
222 236 255
222 236 255
222 236 255
222 236 255
222 236 255
222 236 255
222 236 255
222 236 255
222 236 255
222 236 255
222 236 255
222 236 255
222 236 255
222 236 255
222 236 255
222 236 255
222 236 255
222 236 255
222 236 255
222 236 255
222 236 255
222 236 255
222 236 255
222 236 255
222 236 255
222 236 255
222 236 255
222 236 255
222 236 255
222 236 255
222 236 255
222 236 255
222 236 255
222 236 255
222 236 255
222 236 255
222 236 255
222 236 255
222 236 255
222 236 255
222 236 255
222 236 255
222 236 255
222 236 255
222 236 255
222 236 255
222 236 255
222 236 255
222 236 255
222 236 255
222 236 255
222 236 255
222 236 255
222 236 255
222 236 255
222 236 255
222 236 255
222 236 255
222 236 255
222 236 255
222 236 255
222 236 255
222 236 255
222 236 255
222 236 255
222 236 255
222 236 255
222 236 255
222 236 255
222 236 255
222 236 255
222 236 255
222 236 255
222 236 255
222 236 255
222 236 255
222 236 255
222 236 255
222 236 255
222 236 255
222 236 255
222 236 255
222 236 255
222 236 255
222 236 255
222 236 255
222 236 255
222 236 255
222 236 255
222 236 255
222 236 255
222 236 255
222 236 255
222 236 255
222 236 255
222 236 255
222 236 255
222 236 255
222 236 255
222 236 255
222 236 255
222 236 255
222 236 255
222 236 255
222 236 255
222 236 255
222 236 255
222 236 255
222 236 255
222 236 255
222 236 255
222 236 255
222 236 255
222 236 255
222 236 255
222 236 255
222 236 255
222 236 255
222 236 255
222 236 255
222 236 255
222 236 255
222 236 255
222 236 255
222 236 255
222 236 255
222 236 255
222 236 255
222 236 255
222 236 255
222 236 255
222 236 255
222 236 255
222 236 255
222 236 255
222 236 255
222 236 255
222 236 255
222 236 255
222 236 255
222 236 255
222 236 255
222 236 255
222 236 255
222 236 255
222 236 255
222 236 255
222 236 255
222 236 255
222 236 255
222 236 255
222 236 255
222 236 255
222 236 255
222 236 255
222 236 255
222 236 255
222 236 255
222 236 255
222 236 255
222 236 255
222 236 255
222 236 255
222 236 255
222 236 255
222 236 255
222 236 255
222 236 255
222 236 255
222 236 255
222 236 255
222 236 255
222 236 255
222 236 255
222 236 255
222 236 255
222 236 255
222 236 255
222 236 255
222 236 255
222 236 255
222 236 255
222 236 255
222 236 255
222 236 255
222 236 255
222 236 255
222 236 255
222 236 255
222 236 255
222 236 255
222 236 255
222 236 255
222 236 255
222 236 255
222 236 255
222 236 255
222 236 255
222 236 255
222 236 255
222 236 255
222 236 255
222 236 255
222 236 255
222 236 255
222 236 255
222 236 255
222 236 255
222 236 255
222 236 255
222 236 255
222 236 255
222 236 255
222 236 255
222 236 255
222 236 255
222 236 255
222 236 255
222 236 255
222 236 255
222 236 255
222 236 255
222 236 255
222 236 255
222 236 255
222 236 255
222 236 255
222 236 255
222 236 255
222 236 255
222 236 255
222 236 255
222 236 255
222 236 255
222 236 255
222 236 255
222 236 255
222 236 255
222 236 255
222 236 255
222 236 255
222 236 255
222 236 255
222 236 255
222 236 255
222 236 255
222 236 255
222 236 255
222 236 255
222 236 255
222 236 255
222 236 255
222 236 255
222 236 255
222 236 255
222 236 255
222 236 255
222 236 255
222 236 255
222 236 255
222 236 255
222 236 255
222 236 255
222 236 255
222 236 255
222 236 255
222 236 255
222 236 255
222 236 255
222 236 255
222 236 255
222 236 255
222 236 255
222 236 255
222 236 255
222 236 255
222 236 255
222 236 255
222 236 255
222 236 255
222 236 255
222 236 255
222 236 255
222 236 255
222 236 255
222 236 255
222 236 255
222 236 255
222 236 255
222 236 255
222 236 255
222 236 255
222 236 255
222 236 255
222 236 255
222 236 255
222 236 255
222 236 255
222 236 255
222 236 255
222 236 255
222 236 255
222 236 255
222 236 255
222 236 255
222 236 255
222 236 255
222 236 255
222 236 255
222 236 255
222 236 255
222 236 255
222 236 255
222 236 255
222 236 255
222 236 255
222 236 255
222 236 255
222 236 255
222 236 255
222 236 255
222 236 255
222 236 255
222 236 255
222 236 255
222 236 255
222 236 255
222 236 255
222 236 255
222 236 255
222 236 255
222 236 255
222 236 255
222 236 255
222 236 255
222 236 255
222 236 255
222 236 255
222 236 255
222 236 255
222 236 255
222 236 255
222 236 255
222 236 255
222 236 255
222 236 255
222 236 255
222 236 255
222 236 255
222 236 255
222 236 255
222 236 255
222 236 255
222 236 255
222 236 255
222 236 255
222 236 255
222 236 255
222 236 255
222 236 255
222 236 255
222 236 255
222 236 255
222 236 255
222 236 255
222 236 255
222 236 255
222 236 255
222 236 255
222 236 255
222 236 255
222 236 255
222 236 255
222 236 255
222 236 255
222 236 255
222 236 255
222 236 255
222 236 255
222 236 255
222 236 255
222 236 255
222 236 255
222 236 255
222 236 255
222 236 255
222 236 255
222 236 255
222 236 255
222 236 255
222 236 255
222 236 255
222 236 255
222 236 255
222 236 255
222 236 255
222 236 255
222 236 255
222 236 255
222 236 255
222 236 255
222 236 255
222 236 255
222 236 255
222 236 255
222 236 255
222 236 255
222 236 255
222 236 255
222 236 255
222 236 255
222 236 255
222 236 255
222 236 255
222 236 255
222 236 255
222 236 255
222 236 255
222 236 255
222 236 255
222 236 255
222 236 255
222 236 255
222 236 255
222 236 255
222 236 255
222 236 255
222 236 255
222 236 255
222 236 255
222 236 255
222 236 255
222 236 255
222 236 255
222 236 255
222 236 255
222 236 255
222 236 255
222 236 255
222 236 255
222 236 255
222 236 255
222 236 255
222 236 255
222 236 255
222 236 255
222 236 255
222 236 255
222 236 255
222 236 255
222 236 255
222 236 255
222 236 255
222 236 255
222 236 255
222 236 255
222 236 255
222 236 255
222 236 255
222 236 255
222 236 255
222 236 255
222 236 255
222 236 255
222 236 255
222 236 255
222 236 255
222 236 255
222 236 255
222 236 255
222 236 255
222 236 255
222 236 255
222 236 255
222 236 255
222 236 255
222 236 255
222 236 255
222 236 255
222 236 255
222 236 255
222 236 255
222 236 255
222 236 255
222 236 255
222 236 255
222 236 255
222 236 255
222 236 255
222 236 255
222 236 255
222 236 255
222 236 255
222 236 255
222 236 255
222 236 255
222 236 255
222 236 255
222 236 255
222 236 255
222 236 255
222 236 255
222 236 255
222 236 255
222 236 255
222 236 255
222 236 255
222 236 255
222 236 255
222 236 255
222 236 255
222 236 255
222 236 255
222 236 255
222 236 255
222 236 255
222 236 255
222 236 255
222 236 255
222 236 255
222 236 255
222 236 255
222 236 255
222 236 255
222 236 255
222 236 255
222 236 255
222 236 255
222 236 255
222 236 255
222 236 255
222 236 255
222 236 255
222 236 255
222 236 255
222 236 255
222 236 255
222 236 255
222 236 255
222 236 255
222 236 255
222 236 255
222 236 255
222 236 255
222 236 255
222 236 255
222 236 255
222 236 255
222 236 255
222 236 255
222 236 255
222 236 255
222 236 255
222 236 255
222 236 255
222 236 255
222 236 255
222 236 255
222 236 255
222 236 255
222 236 255
222 236 255
222 236 255
222 236 255
222 236 255
222 236 255
222 236 255
222 236 255
222 236 255
222 236 255
222 236 255
222 236 255
222 236 255
222 236 255
222 236 255
222 236 255
222 236 255
222 236 255
222 236 255
222 236 255
222 236 255
222 236 255
222 236 255
222 236 255
222 236 255
222 236 255
222 236 255
222 236 255
222 236 255
222 236 255
222 236 255
222 236 255
222 236 255
222 236 255
222 236 255
222 236 255
222 236 255
222 236 255
222 236 255
222 236 255
222 236 255
222 236 255
222 236 255
222 236 255
222 236 255
222 236 255
222 236 255
222 236 255
222 236 255
222 236 255
222 236 255
222 236 255
222 236 255
222 236 255
222 236 255
222 236 255
222 236 255
222 236 255
222 236 255
222 236 255
222 236 255
222 236 255
222 236 255
222 236 255
222 236 255
222 236 255
222 236 255
222 236 255
222 236 255
222 236 255
222 236 255
222 236 255
222 236 255
222 236 255
222 236 255
222 236 255
222 236 255
222 236 255
222 236 255
222 236 255
222 236 255
222 236 255
222 236 255
222 236 255
222 236 255
222 236 255
222 236 255
222 236 255
222 236 255
222 236 255
222 236 255
222 236 255
222 236 255
222 236 255
222 236 255
222 236 255
222 236 255
222 236 255
222 236 255
222 236 255
222 236 255
222 236 255
222 236 255
222 236 255
222 236 255
222 236 255
222 236 255
222 236 255
222 236 255
222 236 255
222 236 255
222 236 255
222 236 255
222 236 255
222 236 255
222 236 255
222 236 255
222 236 255
222 236 255
222 236 255
222 236 255
222 236 255
222 236 255
222 236 255
222 236 255
222 236 255
222 236 255
222 236 255
222 236 255
222 236 255
222 236 255
222 236 255
222 236 255
222 236 255
222 236 255
222 236 255
222 236 255
222 236 255
222 236 255
222 236 255
222 236 255
222 236 255
222 236 255
222 236 255
222 236 255
222 236 255
222 236 255
222 236 255
222 236 255
222 236 255
222 236 255
222 236 255
222 236 255
222 236 255
222 236 255
222 236 255
222 236 255
222 236 255
222 236 255
222 236 255
222 236 255
222 236 255
222 236 255
222 236 255
222 236 255
222 236 255
222 236 255
222 236 255
222 236 255
222 236 255
222 236 255
222 236 255
222 236 255
222 236 255
222 236 255
222 236 255
222 236 255
222 236 255
222 236 255
222 236 255
222 236 255
222 236 255
222 236 255
222 236 255
222 236 255
222 236 255
222 236 255
222 236 255
222 236 255
222 236 255
222 236 255
222 236 255
222 236 255
222 236 255
222 236 255
222 236 255
222 236 255
222 236 255
222 236 255
222 236 255
222 236 255
222 236 255
222 236 255
222 236 255
222 236 255
222 236 255
222 236 255
222 236 255
222 236 255
222 236 255
222 236 255
222 236 255
222 236 255
222 236 255
222 236 255
222 236 255
222 236 255
222 236 255
222 236 255
222 236 255
222 236 255
222 236 255
222 236 255
222 236 255
222 236 255
222 236 255
222 236 255
222 236 255
222 236 255
222 236 255
222 236 255
222 236 255
222 236 255
222 236 255
222 236 255
222 236 255
222 236 255
222 236 255
222 236 255
222 236 255
222 236 255
222 236 255
222 236 255
222 236 255
222 236 255
222 236 255
222 236 255
222 236 255
222 236 255
222 236 255
222 236 255
222 236 255
222 236 255
222 236 255
222 236 255
222 236 255
222 236 255
222 236 255
222 236 255
222 236 255
222 236 255
222 236 255
222 236 255
222 236 255
222 236 255
222 236 255
222 236 255
222 236 255
222 236 255
222 236 255
222 236 255
222 236 255
222 236 255
222 236 255
222 236 255
222 236 255
222 236 255
222 236 255
222 236 255
222 236 255
222 236 255
222 236 255
222 236 255
222 236 255
222 236 255
222 236 255
222 236 255
222 236 255
222 236 255
222 236 255
222 236 255
222 236 255
222 236 255
222 236 255
222 236 255
222 236 255
222 236 255
222 236 255
222 236 255
222 236 255
222 236 255
222 236 255
222 236 255
222 236 255
222 236 255
222 236 255
222 236 255
222 236 255
222 236 255
222 236 255
222 236 255
222 236 255
222 236 255
222 236 255
222 236 255
222 236 255
222 236 255
222 236 255
222 236 255
222 236 255
222 236 255
222 236 255
222 236 255
222 236 255
222 236 255
222 236 255
222 236 255
222 236 255
222 236 255
222 236 255
222 236 255
222 236 255
222 236 255
222 236 255
222 236 255
222 236 255
222 236 255
222 236 255
222 236 255
222 236 255
222 236 255
222 236 255
222 236 255
222 236 255
222 236 255
222 236 255
222 236 255
222 236 255
222 236 255
222 236 255
222 236 255
222 236 255
222 236 255
222 236 255
222 236 255
222 236 255
222 236 255
222 236 255
222 236 255
222 236 255
222 236 255
222 236 255
222 236 255
222 236 255
222 236 255
222 236 255
222 236 255
222 236 255
222 236 255
222 236 255
222 236 255
222 236 255
222 236 255
222 236 255
222 236 255
222 236 255
222 236 255
222 236 255
222 236 255
222 236 255
222 236 255
222 236 255
222 236 255
222 236 255
222 236 255
222 236 255
222 236 255
222 236 255
222 236 255
222 236 255
222 236 255
222 236 255
222 236 255
222 236 255
222 236 255
222 236 255
222 236 255
222 236 255
222 236 255
222 236 255
222 236 255
222 236 255
222 236 255
222 236 255
222 236 255
222 236 255
222 236 255
222 236 255
222 236 255
222 236 255
222 236 255
222 236 255
222 236 255
222 236 255
222 236 255
222 236 255
222 236 255
222 236 255
222 236 255
222 236 255
222 236 255
222 236 255
222 236 255
222 236 255
222 236 255
222 236 255
222 236 255
222 236 255
222 236 255
222 236 255
222 236 255
222 236 255
222 236 255
222 236 255
222 236 255
222 236 255
222 236 255
222 236 255
222 236 255
222 236 255
222 236 255
222 236 255
222 236 255
222 236 255
222 236 255
222 236 255
222 236 255
222 236 255
222 236 255
222 236 255
222 236 255
222 236 255
222 236 255
222 236 255
222 236 255
222 236 255
222 236 255
222 236 255
222 236 255
222 236 255
222 236 255
222 236 255
222 236 255
222 236 255
222 236 255
222 236 255
222 236 255
222 236 255
222 236 255
222 236 255
222 236 255
222 236 255
222 236 255
222 236 255
222 236 255
222 236 255
222 236 255
222 236 255
222 236 255
222 236 255
222 236 255
222 236 255
222 236 255
222 236 255
222 236 255
222 236 255
222 236 255
222 236 255
222 236 255
222 236 255
222 236 255
222 236 255
222 236 255
222 236 255
222 236 255
222 236 255
222 236 255
222 236 255
222 236 255
222 236 255
222 236 255
222 236 255
222 236 255
222 236 255
222 236 255
222 236 255
222 236 255
222 236 255
222 236 255
222 236 255
222 236 255
222 236 255
222 236 255
222 236 255
222 236 255
222 236 255
222 236 255
222 236 255
222 236 255
222 236 255
222 236 255
222 236 255
222 236 255
222 236 255
222 236 255
222 236 255
222 236 255
222 236 255
222 236 255
222 236 255
222 236 255
222 236 255
222 236 255
222 236 255
222 236 255
222 236 255
222 236 255
222 236 255
222 236 255
222 236 255
222 236 255
222 236 255
222 236 255
222 236 255
222 236 255
222 236 255
222 236 255
222 236 255
222 236 255
222 236 255
222 236 255
222 236 255
222 236 255
222 236 255
222 236 255
222 236 255
222 236 255
222 236 255
222 236 255
222 236 255
222 236 255
222 236 255
222 236 255
222 236 255
222 236 255
222 236 255
222 236 255
222 236 255
222 236 255
222 236 255
222 236 255
222 236 255
222 236 255
222 236 255
222 236 255
222 236 255
222 236 255
222 236 255
222 236 255
222 236 255
222 236 255
222 236 255
222 236 255
222 236 255
222 236 255
222 236 255
222 236 255
222 236 255
222 236 255
222 236 255
222 236 255
222 236 255
222 236 255
222 236 255
222 236 255
222 236 255
223 236 255
223 236 255
223 236 255
223 236 255
223 236 255
223 236 255
223 236 255
223 236 255
223 236 255
223 236 255
223 236 255
223 236 255
223 236 255
223 236 255
223 236 255
223 236 255
223 236 255
223 236 255
223 236 255
223 236 255
223 236 255
223 236 255
223 236 255
223 236 255
223 236 255
223 236 255
223 236 255
223 236 255
223 236 255
223 236 255
223 236 255
223 236 255
223 236 255
223 236 255
223 236 255
223 236 255
223 236 255
223 236 255
223 236 255
223 236 255
223 236 255
223 236 255
223 236 255
223 236 255
223 236 255
223 236 255
223 236 255
223 236 255
223 236 255
223 236 255
223 236 255
223 236 255
223 236 255
223 236 255
223 236 255
223 236 255
223 236 255
223 236 255
223 236 255
223 236 255
223 236 255
223 236 255
223 236 255
223 236 255
223 236 255
223 236 255
223 236 255
223 236 255
223 236 255
223 236 255
223 236 255
223 236 255
223 236 255
223 236 255
223 236 255
223 236 255
223 236 255
223 236 255
223 236 255
223 236 255
223 236 255
223 236 255
223 236 255
223 236 255
223 236 255
223 236 255
223 236 255
223 236 255
223 236 255
223 236 255
223 236 255
223 236 255
223 236 255
223 236 255
223 236 255
223 236 255
223 236 255
223 236 255
223 236 255
223 236 255
223 236 255
223 236 255
223 236 255
223 236 255
223 236 255
223 236 255
223 236 255
223 236 255
223 236 255
223 236 255
223 236 255
223 236 255
223 236 255
223 236 255
223 236 255
223 236 255
223 236 255
223 236 255
223 236 255
223 236 255
223 236 255
223 236 255
223 236 255
223 236 255
223 236 255
223 236 255
223 236 255
223 236 255
223 236 255
223 236 255
223 236 255
223 236 255
223 236 255
223 236 255
223 236 255
223 236 255
223 236 255
223 236 255
223 236 255
223 236 255
222 236 255
223 236 255
222 236 255
222 236 255
222 236 255
222 236 255
222 236 255
222 236 255
222 236 255
222 236 255
222 236 255
222 236 255
222 236 255
222 236 255
222 236 255
222 236 255
222 236 255
222 236 255
222 236 255
222 236 255
222 236 255
222 236 255
222 236 255
222 236 255
222 236 255
222 236 255
222 236 255
222 236 255
222 236 255
222 236 255
222 236 255
222 236 255
222 236 255
222 236 255
222 236 255
222 236 255
222 236 255
222 236 255
222 236 255
222 236 255
222 236 255
222 236 255
222 236 255
222 236 255
222 236 255
222 236 255
222 236 255
222 236 255
222 236 255
222 236 255
222 236 255
222 236 255
222 236 255
222 236 255
222 236 255
222 236 255
222 236 255
222 236 255
222 236 255
222 236 255
222 236 255
222 236 255
222 236 255
222 236 255
222 236 255
222 236 255
222 236 255
222 236 255
222 236 255
222 236 255
222 236 255
222 236 255
222 236 255
222 236 255
222 236 255
222 236 255
222 236 255
222 236 255
222 236 255
222 236 255
222 236 255
222 236 255
222 236 255
222 236 255
222 236 255
222 236 255
222 236 255
222 236 255
222 236 255
222 236 255
222 236 255
222 236 255
222 236 255
222 236 255
222 236 255
222 236 255
222 236 255
222 236 255
222 236 255
222 236 255
222 236 255
222 236 255
222 236 255
222 236 255
222 236 255
222 236 255
222 236 255
222 236 255
222 236 255
222 236 255
222 236 255
222 236 255
222 236 255
222 236 255
222 236 255
222 236 255
222 236 255
222 236 255
222 236 255
222 236 255
222 236 255
222 236 255
222 236 255
222 236 255
222 236 255
222 236 255
222 236 255
222 236 255
222 236 255
222 236 255
222 236 255
222 236 255
222 236 255
222 236 255
222 236 255
222 236 255
222 236 255
222 236 255
222 236 255
222 236 255
222 236 255
222 236 255
222 236 255
222 236 255
222 236 255
222 236 255
222 236 255
222 236 255
222 236 255
222 236 255
222 236 255
222 236 255
222 236 255
222 236 255
222 236 255
222 236 255
222 236 255
222 236 255
222 236 255
222 236 255
222 236 255
222 236 255
222 236 255
222 236 255
222 236 255
222 236 255
222 236 255
222 236 255
222 236 255
222 236 255
222 236 255
222 236 255
222 236 255
222 236 255
222 236 255
222 236 255
222 236 255
222 236 255
222 236 255
222 236 255
222 236 255
222 236 255
222 236 255
222 236 255
222 236 255
222 236 255
222 236 255
222 236 255
222 236 255
222 236 255
222 236 255
222 236 255
222 236 255
222 236 255
222 236 255
222 236 255
222 236 255
222 236 255
222 236 255
222 236 255
222 236 255
222 236 255
222 236 255
222 236 255
222 236 255
222 236 255
222 236 255
222 236 255
222 236 255
222 236 255
222 236 255
222 236 255
222 236 255
222 236 255
222 236 255
222 236 255
222 236 255
223 236 255
223 236 255
223 236 255
223 236 255
223 236 255
223 236 255
223 236 255
223 236 255
223 236 255
223 236 255
223 236 255
223 236 255
223 236 255
223 236 255
223 236 255
223 236 255
223 236 255
223 236 255
223 236 255
223 236 255
223 236 255
223 236 255
223 236 255
223 236 255
223 236 255
223 236 255
223 236 255
223 236 255
223 236 255
223 236 255
223 236 255
223 236 255
223 236 255
223 236 255
223 236 255
223 236 255
223 236 255
223 236 255
223 236 255
223 236 255
223 236 255
223 236 255
223 236 255
223 236 255
223 236 255
223 236 255
223 236 255
223 236 255
223 236 255
223 236 255
223 236 255
223 236 255
223 236 255
223 236 255
223 236 255
223 236 255
223 236 255
223 236 255
223 236 255
223 236 255
223 236 255
223 236 255
223 236 255
223 236 255
223 236 255
223 236 255
223 236 255
223 236 255
223 236 255
223 236 255
223 236 255
223 236 255
223 236 255
223 236 255
223 236 255
223 236 255
223 236 255
223 236 255
223 236 255
223 236 255
223 236 255
223 236 255
223 236 255
223 236 255
223 236 255
223 236 255
223 236 255
223 236 255
223 236 255
223 236 255
223 236 255
223 236 255
223 236 255
223 236 255
223 236 255
223 236 255
223 236 255
223 236 255
223 236 255
223 236 255
223 236 255
223 236 255
223 236 255
223 236 255
223 236 255
223 236 255
223 236 255
223 236 255
223 236 255
223 236 255
223 236 255
223 236 255
223 236 255
223 236 255
223 236 255
223 236 255
223 236 255
223 236 255
223 236 255
223 236 255
223 236 255
223 236 255
223 236 255
223 236 255
223 236 255
223 236 255
223 236 255
223 236 255
223 236 255
223 236 255
223 236 255
223 236 255
223 236 255
223 236 255
223 236 255
223 236 255
223 236 255
223 236 255
223 236 255
223 236 255
223 236 255
223 236 255
223 236 255
223 236 255
223 236 255
223 236 255
223 236 255
223 236 255
223 236 255
223 236 255
223 236 255
223 236 255
223 236 255
223 236 255
223 236 255
223 236 255
223 236 255
223 236 255
223 236 255
223 236 255
223 236 255
223 236 255
223 236 255
223 236 255
223 236 255
223 236 255
223 236 255
223 236 255
223 236 255
223 236 255
223 236 255
223 236 255
223 236 255
223 236 255
223 236 255
223 236 255
223 236 255
223 236 255
223 236 255
223 236 255
223 236 255
223 236 255
223 236 255
223 236 255
223 236 255
223 236 255
223 236 255
223 236 255
223 236 255
223 236 255
223 236 255
223 236 255
223 236 255
223 236 255
223 236 255
223 236 255
223 236 255
223 236 255
223 236 255
223 236 255
223 236 255
223 236 255
223 236 255
223 236 255
223 236 255
223 236 255
223 236 255
223 236 255
223 236 255
223 236 255
223 236 255
223 236 255
223 236 255
223 236 255
223 236 255
223 236 255
223 236 255
223 236 255
223 236 255
223 236 255
223 236 255
223 236 255
223 236 255
223 236 255
223 236 255
223 236 255
223 236 255
222 236 255
222 236 255
222 236 255
222 236 255
222 236 255
222 236 255
222 236 255
222 236 255
222 236 255
222 236 255
222 236 255
222 236 255
222 236 255
222 236 255
222 236 255
222 236 255
222 236 255
222 236 255
222 236 255
222 236 255
222 236 255
222 236 255
222 236 255
222 236 255
222 236 255
222 236 255
222 236 255
222 236 255
222 236 255
222 236 255
222 236 255
222 236 255
222 236 255
222 236 255
222 236 255
222 236 255
222 236 255
222 236 255
222 236 255
222 236 255
222 236 255
222 236 255
222 236 255
222 236 255
222 236 255
222 236 255
222 236 255
222 236 255
222 236 255
222 236 255
222 236 255
222 236 255
222 236 255
222 236 255
222 236 255
222 236 255
222 236 255
222 236 255
222 236 255
222 236 255
222 236 255
222 236 255
222 236 255
222 236 255
222 236 255
222 236 255
222 236 255
222 236 255
222 236 255
222 236 255
222 236 255
222 236 255
222 236 255
222 236 255
222 236 255
222 236 255
222 236 255
222 236 255
222 236 255
222 236 255
222 236 255
222 236 255
222 236 255
222 236 255
222 236 255
222 236 255
222 236 255
222 236 255
222 236 255
222 236 255
222 236 255
222 236 255
222 236 255
222 236 255
222 236 255
222 236 255
222 236 255
222 236 255
222 236 255
222 236 255
222 236 255
222 236 255
222 236 255
222 236 255
222 236 255
222 236 255
222 236 255
222 236 255
222 236 255
222 236 255
222 236 255
222 236 255
222 236 255
222 236 255
222 236 255
222 236 255
222 236 255
222 236 255
222 236 255
222 236 255
222 236 255
222 236 255
222 236 255
222 236 255
222 236 255
222 236 255
222 236 255
222 236 255
222 236 255
222 236 255
222 236 255
222 236 255
222 236 255
222 236 255
222 236 255
222 236 255
222 236 255
222 236 255
222 236 255
222 236 255
223 236 255
223 236 255
223 236 255
223 236 255
223 236 255
223 236 255
223 236 255
223 236 255
223 236 255
223 236 255
223 236 255
223 236 255
223 236 255
223 236 255
223 236 255
223 236 255
223 236 255
223 236 255
223 236 255
223 236 255
223 236 255
223 236 255
223 236 255
223 236 255
223 236 255
223 236 255
223 236 255
223 236 255
223 236 255
223 236 255
223 236 255
223 236 255
223 236 255
223 236 255
223 236 255
223 236 255
223 236 255
223 236 255
223 236 255
223 236 255
223 236 255
223 236 255
223 236 255
223 236 255
223 236 255
223 236 255
223 236 255
223 236 255
223 236 255
223 236 255
223 236 255
223 236 255
223 236 255
223 236 255
223 236 255
223 236 255
223 236 255
223 236 255
223 236 255
223 236 255
223 236 255
223 236 255
223 236 255
223 236 255
223 236 255
223 236 255
223 236 255
223 236 255
223 236 255
223 236 255
223 236 255
223 236 255
223 236 255
223 236 255
223 236 255
223 236 255
223 236 255
223 236 255
223 236 255
223 236 255
223 236 255
223 237 255
223 237 255
223 237 255
223 237 255
223 237 255
223 237 255
223 237 255
223 237 255
223 237 255
223 237 255
223 237 255
223 237 255
223 237 255
223 237 255
223 237 255
223 237 255
223 237 255
223 237 255
223 237 255
223 237 255
223 237 255
223 237 255
223 237 255
223 237 255
223 237 255
223 237 255
223 237 255
223 237 255
223 237 255
223 237 255
223 237 255
223 237 255
223 237 255
223 237 255
223 237 255
223 237 255
223 237 255
223 237 255
223 237 255
223 237 255
223 237 255
223 237 255
223 237 255
223 237 255
223 237 255
223 237 255
223 237 255
223 237 255
223 237 255
223 237 255
223 237 255
223 237 255
223 237 255
223 237 255
223 237 255
223 237 255
223 237 255
223 237 255
223 237 255
223 237 255
223 237 255
223 237 255
223 237 255
223 237 255
223 237 255
223 237 255
223 237 255
223 237 255
223 237 255
223 237 255
223 237 255
223 237 255
223 237 255
223 237 255
223 237 255
223 237 255
223 237 255
223 237 255
223 237 255
223 237 255
223 237 255
223 237 255
223 237 255
223 237 255
223 237 255
223 237 255
223 237 255
223 237 255
223 237 255
223 237 255
223 237 255
223 237 255
223 237 255
223 237 255
223 237 255
223 237 255
223 237 255
223 237 255
223 237 255
223 237 255
223 237 255
223 237 255
223 237 255
223 237 255
223 237 255
223 237 255
223 237 255
223 237 255
223 237 255
223 237 255
223 237 255
223 237 255
223 237 255
223 237 255
223 237 255
223 237 255
223 237 255
223 237 255
223 237 255
223 237 255
223 237 255
223 237 255
223 237 255
223 237 255
223 237 255
223 237 255
223 237 255
223 237 255
223 237 255
223 237 255
223 236 255
223 237 255
223 236 255
223 236 255
223 236 255
223 236 255
223 236 255
223 236 255
223 236 255
223 236 255
223 236 255
223 236 255
223 236 255
223 236 255
223 236 255
223 236 255
223 236 255
223 236 255
223 236 255
223 236 255
223 236 255
223 236 255
223 236 255
223 236 255
223 236 255
223 236 255
223 236 255
223 236 255
223 236 255
223 236 255
223 236 255
223 236 255
223 236 255
223 236 255
223 236 255
223 236 255
223 236 255
223 236 255
223 236 255
223 236 255
223 236 255
223 236 255
223 236 255
223 236 255
223 236 255
223 236 255
223 236 255
223 236 255
223 236 255
223 236 255
223 236 255
223 236 255
223 236 255
223 236 255
223 236 255
223 236 255
223 236 255
223 236 255
223 236 255
223 236 255
223 236 255
223 236 255
223 236 255
223 236 255
223 236 255
223 236 255
223 236 255
223 236 255
223 236 255
223 236 255
223 236 255
223 236 255
223 236 255
223 236 255
223 236 255
223 236 255
223 236 255
223 236 255
223 236 255
223 236 255
223 236 255
223 236 255
222 236 255
222 236 255
222 236 255
222 236 255
222 236 255
222 236 255
222 236 255
222 236 255
222 236 255
222 236 255
222 236 255
222 236 255
222 236 255
222 236 255
222 236 255
222 236 255
222 236 255
222 236 255
222 236 255
222 236 255
222 236 255
222 236 255
222 236 255
222 236 255
222 236 255
222 236 255
222 236 255
222 236 255
222 236 255
222 236 255
222 236 255
222 236 255
222 236 255
222 236 255
222 236 255
222 236 255
222 236 255
222 236 255
222 236 255
222 236 255
222 236 255
222 236 255
222 236 255
222 236 255
222 236 255
222 236 255
222 236 255
222 236 255
222 236 255
222 236 255
222 236 255
222 236 255
222 236 255
222 236 255
222 236 255
222 236 255
222 236 255
222 236 255
222 236 255
222 236 255
222 236 255
222 236 255
222 236 255
222 236 255
222 236 255
222 236 255
222 236 255
222 236 255
222 236 255
222 236 255
222 236 255
222 236 255
222 236 255
222 236 255
222 236 255
223 236 255
222 236 255
223 236 255
223 236 255
223 236 255
223 236 255
223 236 255
223 236 255
223 236 255
223 236 255
223 236 255
223 236 255
223 236 255
223 236 255
223 236 255
223 236 255
223 236 255
223 236 255
223 236 255
223 236 255
223 236 255
223 236 255
223 236 255
223 236 255
223 236 255
223 236 255
223 236 255
223 236 255
223 236 255
223 236 255
223 236 255
223 236 255
223 236 255
223 236 255
223 236 255
223 236 255
223 236 255
223 236 255
223 236 255
223 236 255
223 236 255
223 236 255
223 236 255
223 236 255
223 236 255
223 236 255
223 236 255
223 236 255
223 236 255
223 236 255
223 236 255
223 236 255
223 236 255
223 236 255
223 236 255
223 236 255
223 236 255
223 236 255
223 236 255
223 236 255
223 236 255
223 236 255
223 236 255
223 236 255
223 236 255
223 236 255
223 236 255
223 236 255
223 236 255
223 236 255
223 236 255
223 236 255
223 236 255
223 236 255
223 236 255
223 236 255
223 236 255
223 236 255
223 236 255
223 237 255
223 237 255
223 237 255
223 237 255
223 237 255
223 237 255
223 237 255
223 237 255
223 237 255
223 237 255
223 237 255
223 237 255
223 237 255
223 237 255
223 237 255
223 237 255
223 237 255
223 237 255
223 237 255
223 237 255
223 237 255
223 237 255
223 237 255
223 237 255
223 237 255
223 237 255
223 237 255
223 237 255
223 237 255
223 237 255
223 237 255
223 237 255
223 237 255
223 237 255
223 237 255
223 237 255
223 237 255
223 237 255
223 237 255
223 237 255
223 237 255
223 237 255
223 237 255
223 237 255
223 237 255
223 237 255
223 237 255
223 237 255
223 237 255
223 237 255
223 237 255
223 237 255
223 237 255
223 237 255
223 237 255
223 237 255
223 237 255
223 237 255
223 237 255
223 237 255
223 237 255
223 237 255
223 237 255
223 237 255
223 237 255
223 237 255
223 237 255
223 237 255
223 237 255
223 237 255
223 237 255
223 237 255
223 237 255
223 237 255
223 237 255
223 237 255
223 237 255
223 237 255
223 237 255
223 237 255
223 237 255
223 237 255
223 237 255
223 237 255
223 237 255
223 237 255
223 237 255
223 237 255
223 237 255
223 237 255
223 237 255
223 237 255
223 237 255
223 237 255
223 237 255
223 237 255
223 237 255
223 237 255
223 237 255
223 237 255
223 237 255
223 237 255
223 237 255
223 237 255
223 237 255
223 237 255
223 237 255
223 237 255
223 237 255
223 237 255
223 237 255
223 237 255
223 237 255
223 237 255
223 237 255
223 237 255
223 237 255
223 237 255
223 237 255
223 237 255
223 237 255
223 237 255
223 237 255
223 237 255
223 237 255
223 237 255
223 237 255
223 237 255
223 237 255
223 237 255
223 237 255
223 237 255
223 237 255
223 237 255
223 237 255
223 237 255
223 237 255
223 237 255
223 237 255
223 237 255
223 237 255
223 237 255
223 237 255
223 237 255
223 237 255
223 237 255
223 237 255
223 237 255
223 237 255
223 237 255
223 237 255
223 237 255
223 237 255
223 237 255
223 237 255
223 237 255
223 237 255
223 237 255
223 237 255
223 237 255
223 237 255
223 237 255
223 237 255
223 237 255
223 237 255
223 237 255
223 237 255
223 237 255
223 237 255
223 237 255
223 237 255
223 237 255
223 237 255
223 237 255
223 237 255
223 237 255
223 237 255
223 237 255
223 237 255
223 237 255
223 237 255
223 237 255
223 237 255
223 237 255
223 237 255
223 237 255
223 237 255
223 237 255
223 237 255
223 237 255
223 237 255
223 237 255
223 237 255
223 237 255
223 237 255
223 237 255
223 237 255
223 237 255
223 236 255
223 236 255
223 236 255
223 236 255
223 236 255
223 236 255
223 236 255
223 236 255
223 236 255
223 236 255
223 236 255
223 236 255
223 236 255
223 236 255
223 236 255
223 236 255
223 236 255
223 236 255
223 236 255
223 236 255
223 236 255
223 236 255
223 236 255
223 236 255
223 236 255
223 236 255
223 236 255
223 236 255
223 236 255
223 236 255
223 236 255
223 236 255
223 236 255
223 236 255
223 236 255
223 236 255
223 236 255
223 236 255
223 236 255
223 236 255
223 236 255
223 236 255
223 236 255
223 236 255
223 236 255
223 236 255
223 236 255
223 236 255
223 236 255
223 236 255
223 236 255
223 236 255
223 236 255
223 236 255
223 236 255
223 236 255
223 236 255
223 236 255
223 236 255
223 236 255
223 236 255
223 236 255
223 236 255
223 236 255
223 236 255
223 236 255
223 236 255
223 236 255
223 236 255
223 236 255
223 236 255
223 236 255
223 236 255
223 236 255
223 236 255
223 236 255
223 236 255
223 236 255
222 236 255
222 236 255
222 236 255
222 236 255
222 236 255
222 236 255
222 236 255
222 236 255
222 236 255
222 236 255
222 236 255
222 236 255
222 236 255
222 236 255
222 236 255
222 236 255
222 236 255
222 236 255
222 236 255
222 236 255
222 236 255
222 236 255
222 236 255
223 236 255
223 236 255
223 236 255
223 236 255
223 236 255
223 236 255
223 236 255
223 236 255
223 236 255
223 236 255
223 236 255
223 236 255
223 236 255
223 236 255
223 236 255
223 236 255
223 236 255
223 236 255
223 236 255
223 236 255
223 236 255
223 236 255
223 236 255
223 236 255
223 236 255
223 236 255
223 236 255
223 236 255
223 236 255
223 236 255
223 236 255
223 236 255
223 236 255
223 236 255
223 236 255
223 236 255
223 236 255
223 236 255
223 236 255
223 236 255
223 236 255
223 236 255
223 236 255
223 236 255
223 236 255
223 236 255
223 236 255
223 236 255
223 236 255
223 236 255
223 236 255
223 236 255
223 236 255
223 236 255
223 236 255
223 236 255
223 236 255
223 236 255
223 236 255
223 236 255
223 236 255
223 236 255
223 236 255
223 236 255
223 236 255
223 236 255
223 236 255
223 236 255
223 236 255
223 236 255
223 236 255
223 236 255
223 236 255
223 236 255
223 237 255
223 237 255
223 237 255
223 237 255
223 237 255
223 237 255
223 237 255
223 237 255
223 237 255
223 237 255
223 237 255
223 237 255
223 237 255
223 237 255
223 237 255
223 237 255
223 237 255
223 237 255
223 237 255
223 237 255
223 237 255
223 237 255
223 237 255
223 237 255
223 237 255
223 237 255
223 237 255
223 237 255
223 237 255
223 237 255
223 237 255
223 237 255
223 237 255
223 237 255
223 237 255
223 237 255
223 237 255
223 237 255
223 237 255
223 237 255
223 237 255
223 237 255
223 237 255
223 237 255
223 237 255
223 237 255
223 237 255
223 237 255
223 237 255
223 237 255
223 237 255
223 237 255
223 237 255
223 237 255
223 237 255
223 237 255
223 237 255
223 237 255
223 237 255
223 237 255
223 237 255
223 237 255
223 237 255
223 237 255
223 237 255
223 237 255
223 237 255
223 237 255
223 237 255
223 237 255
223 237 255
223 237 255
223 237 255
223 237 255
223 237 255
223 237 255
223 237 255
223 237 255
223 237 255
223 237 255
223 237 255
223 237 255
223 237 255
223 237 255
224 237 255
224 237 255
223 237 255
223 237 255
224 237 255
224 237 255
224 237 255
224 237 255
224 237 255
224 237 255
224 237 255
224 237 255
224 237 255
224 237 255
224 237 255
224 237 255
224 237 255
224 237 255
224 237 255
224 237 255
224 237 255
224 237 255
224 237 255
224 237 255
224 237 255
224 237 255
224 237 255
224 237 255
224 237 255
224 237 255
224 237 255
224 237 255
224 237 255
224 237 255
224 237 255
224 237 255
224 237 255
224 237 255
224 237 255
224 237 255
224 237 255
224 237 255
224 237 255
224 237 255
224 237 255
224 237 255
224 237 255
224 237 255
224 237 255
224 237 255
224 237 255
224 237 255
224 237 255
224 237 255
224 237 255
224 237 255
224 237 255
224 237 255
224 237 255
224 237 255
224 237 255
224 237 255
224 237 255
224 237 255
224 237 255
224 237 255
224 237 255
224 237 255
224 237 255
224 237 255
224 237 255
224 237 255
224 237 255
224 237 255
224 237 255
224 237 255
224 237 255
224 237 255
224 237 255
224 237 255
223 237 255
223 237 255
223 237 255
223 237 255
223 237 255
223 237 255
223 237 255
223 237 255
223 237 255
223 237 255
223 237 255
223 237 255
223 237 255
223 237 255
223 237 255
223 237 255
223 237 255
223 237 255
223 237 255
223 237 255
223 237 255
223 237 255
223 237 255
223 237 255
223 237 255
223 237 255
223 237 255
223 237 255
223 237 255
223 237 255
223 237 255
223 237 255
223 237 255
223 237 255
223 237 255
223 237 255
223 237 255
223 237 255
223 237 255
223 237 255
223 237 255
223 237 255
223 237 255
223 237 255
223 237 255
223 237 255
223 237 255
223 237 255
223 237 255
223 237 255
223 237 255
223 237 255
223 237 255
223 237 255
223 237 255
223 237 255
223 237 255
223 237 255
223 237 255
223 237 255
223 237 255
223 237 255
223 237 255
223 237 255
223 237 255
223 237 255
223 237 255
223 237 255
223 237 255
223 237 255
223 237 255
223 237 255
223 237 255
223 237 255
223 237 255
223 237 255
223 237 255
223 237 255
223 237 255
223 237 255
223 237 255
223 237 255
223 237 255
223 237 255
223 237 255
223 237 255
223 237 255
223 237 255
223 237 255
223 236 255
223 236 255
223 236 255
223 236 255
223 236 255
223 236 255
223 236 255
223 236 255
223 236 255
223 236 255
223 236 255
223 236 255
223 236 255
223 236 255
223 236 255
223 236 255
223 236 255
223 236 255
223 236 255
223 236 255
223 236 255
223 236 255
223 236 255
223 236 255
223 236 255
223 236 255
223 236 255
223 236 255
223 236 255
223 236 255
223 236 255
223 236 255
223 236 255
223 236 255
223 236 255
223 236 255
223 236 255
223 236 255
223 236 255
223 236 255
223 236 255
223 236 255
223 236 255
223 236 255
223 236 255
223 236 255
223 236 255
223 236 255
223 236 255
223 236 255
223 236 255
223 236 255
223 236 255
223 236 255
223 236 255
223 236 255
223 236 255
223 236 255
223 236 255
223 236 255
223 236 255
223 236 255
223 236 255
223 236 255
223 236 255
223 236 255
223 236 255
223 236 255
223 236 255
223 236 255
223 236 255
223 236 255
223 236 255
223 236 255
223 236 255
223 236 255
223 236 255
223 236 255
223 236 255
223 236 255
223 236 255
223 236 255
223 236 255
223 236 255
223 236 255
223 236 255
223 236 255
223 236 255
223 236 255
223 236 255
223 236 255
223 236 255
223 236 255
223 236 255
223 236 255
223 236 255
223 236 255
223 236 255
223 236 255
223 236 255
223 236 255
223 236 255
223 236 255
223 236 255
223 236 255
223 236 255
223 236 255
223 236 255
223 236 255
223 236 255
223 236 255
223 236 255
223 236 255
223 236 255
223 236 255
223 236 255
223 236 255
223 236 255
223 236 255
223 236 255
223 236 255
223 236 255
223 237 255
223 237 255
223 237 255
223 237 255
223 237 255
223 237 255
223 237 255
223 237 255
223 237 255
223 237 255
223 237 255
223 237 255
223 237 255
223 237 255
223 237 255
223 237 255
223 237 255
223 237 255
223 237 255
223 237 255
223 237 255
223 237 255
223 237 255
223 237 255
223 237 255
223 237 255
223 237 255
223 237 255
223 237 255
223 237 255
223 237 255
223 237 255
223 237 255
223 237 255
223 237 255
223 237 255
223 237 255
223 237 255
223 237 255
223 237 255
223 237 255
223 237 255
223 237 255
223 237 255
223 237 255
223 237 255
223 237 255
223 237 255
223 237 255
223 237 255
223 237 255
223 237 255
223 237 255
223 237 255
223 237 255
223 237 255
223 237 255
223 237 255
223 237 255
223 237 255
223 237 255
223 237 255
223 237 255
223 237 255
223 237 255
223 237 255
223 237 255
223 237 255
223 237 255
223 237 255
223 237 255
223 237 255
223 237 255
223 237 255
223 237 255
223 237 255
223 237 255
223 237 255
224 237 255
224 237 255
224 237 255
224 237 255
224 237 255
224 237 255
224 237 255
224 237 255
224 237 255
224 237 255
224 237 255
224 237 255
224 237 255
224 237 255
224 237 255
224 237 255
224 237 255
224 237 255
224 237 255
224 237 255
224 237 255
224 237 255
224 237 255
224 237 255
224 237 255
224 237 255
224 237 255
224 237 255
224 237 255
224 237 255
224 237 255
224 237 255
224 237 255
224 237 255
224 237 255
224 237 255
224 237 255
224 237 255
224 237 255
224 237 255
224 237 255
224 237 255
224 237 255
224 237 255
224 237 255
224 237 255
224 237 255
224 237 255
224 237 255
224 237 255
224 237 255
224 237 255
224 237 255
224 237 255
224 237 255
224 237 255
224 237 255
224 237 255
224 237 255
224 237 255
224 237 255
224 237 255
224 237 255
224 237 255
224 237 255
224 237 255
224 237 255
224 237 255
224 237 255
224 237 255
224 237 255
224 237 255
224 237 255
224 237 255
224 237 255
224 237 255
224 237 255
224 237 255
224 237 255
224 237 255
224 237 255
224 237 255
224 237 255
224 237 255
224 237 255
224 237 255
224 237 255
224 237 255
224 237 255
224 237 255
224 237 255
224 237 255
224 237 255
224 237 255
224 237 255
224 237 255
224 237 255
224 237 255
224 237 255
224 237 255
224 237 255
224 237 255
224 237 255
224 237 255
224 237 255
224 237 255
224 237 255
224 237 255
224 237 255
224 237 255
224 237 255
224 237 255
224 237 255
224 237 255
224 237 255
224 237 255
224 237 255
224 237 255
224 237 255
224 237 255
224 237 255
224 237 255
224 237 255
224 237 255
224 237 255
224 237 255
224 237 255
224 237 255
224 237 255
224 237 255
224 237 255
224 237 255
224 237 255
224 237 255
224 237 255
224 237 255
224 237 255
224 237 255
224 237 255
224 237 255
224 237 255
224 237 255
224 237 255
224 237 255
224 237 255
224 237 255
223 237 255
223 237 255
223 237 255
223 237 255
223 237 255
223 237 255
223 237 255
223 237 255
223 237 255
223 237 255
223 237 255
223 237 255
223 237 255
223 237 255
223 237 255
223 237 255
223 237 255
223 237 255
223 237 255
223 237 255
223 237 255
223 237 255
223 237 255
223 237 255
223 237 255
223 237 255
223 237 255
223 237 255
223 237 255
223 237 255
223 237 255
223 237 255
223 237 255
223 237 255
223 237 255
223 237 255
223 237 255
223 237 255
223 237 255
223 237 255
223 237 255
223 237 255
223 237 255
223 237 255
223 237 255
223 237 255
223 237 255
223 237 255
223 237 255
223 237 255
223 237 255
223 237 255
223 237 255
223 237 255
223 237 255
223 237 255
223 237 255
223 237 255
223 237 255
223 237 255
223 237 255
223 237 255
223 237 255
223 237 255
223 237 255
223 237 255
223 237 255
223 237 255
223 237 255
223 237 255
223 237 255
223 237 255
223 237 255
223 237 255
223 237 255
223 237 255
223 237 255
223 237 255
223 236 255
223 236 255
223 236 255
223 236 255
223 236 255
223 236 255
223 236 255
223 236 255
223 236 255
223 236 255
223 236 255
223 236 255
223 236 255
223 236 255
223 236 255
223 236 255
223 236 255
223 236 255
223 236 255
223 236 255
223 236 255
223 236 255
223 236 255
223 236 255
223 236 255
223 236 255
223 236 255
223 236 255
223 236 255
223 236 255
223 236 255
223 236 255
223 236 255
223 236 255
223 236 255
223 236 255
223 236 255
223 236 255
223 236 255
223 236 255
223 236 255
223 236 255
223 236 255
223 236 255
223 236 255
223 236 255
223 236 255
223 236 255
223 236 255
223 236 255
223 236 255
223 236 255
223 236 255
223 236 255
223 236 255
223 236 255
223 236 255
223 236 255
223 236 255
223 236 255
223 236 255
223 236 255
223 236 255
223 236 255
223 236 255
223 236 255
223 236 255
223 236 255
223 236 255
223 236 255
223 236 255
223 236 255
223 236 255
223 236 255
223 236 255
223 237 255
223 237 255
223 237 255
223 237 255
223 237 255
223 237 255
223 237 255
223 237 255
223 237 255
223 237 255
223 237 255
223 237 255
223 237 255
223 237 255
223 237 255
223 237 255
223 237 255
223 237 255
223 237 255
223 237 255
223 237 255
223 237 255
223 237 255
223 237 255
223 237 255
223 237 255
223 237 255
223 237 255
223 237 255
223 237 255
223 237 255
223 237 255
223 237 255
223 237 255
223 237 255
223 237 255
223 237 255
223 237 255
223 237 255
223 237 255
223 237 255
223 237 255
223 237 255
223 237 255
223 237 255
223 237 255
223 237 255
223 237 255
223 237 255
223 237 255
223 237 255
223 237 255
223 237 255
223 237 255
223 237 255
223 237 255
223 237 255
223 237 255
223 237 255
223 237 255
223 237 255
223 237 255
223 237 255
223 237 255
223 237 255
223 237 255
223 237 255
223 237 255
223 237 255
223 237 255
223 237 255
223 237 255
223 237 255
223 237 255
224 237 255
224 237 255
224 237 255
224 237 255
224 237 255
224 237 255
224 237 255
224 237 255
224 237 255
224 237 255
224 237 255
224 237 255
224 237 255
224 237 255
224 237 255
224 237 255
224 237 255
224 237 255
224 237 255
224 237 255
224 237 255
224 237 255
224 237 255
224 237 255
224 237 255
224 237 255
224 237 255
224 237 255
224 237 255
224 237 255
224 237 255
224 237 255
224 237 255
224 237 255
224 237 255
224 237 255
224 237 255
224 237 255
224 237 255
224 237 255
224 237 255
224 237 255
224 237 255
224 237 255
224 237 255
224 237 255
224 237 255
224 237 255
224 237 255
224 237 255
224 237 255
224 237 255
224 237 255
224 237 255
224 237 255
224 237 255
224 237 255
224 237 255
224 237 255
224 237 255
224 237 255
224 237 255
224 237 255
224 237 255
224 237 255
224 237 255
224 237 255
224 237 255
224 237 255
224 237 255
224 237 255
224 237 255
224 237 255
224 237 255
224 237 255
224 237 255
224 237 255
224 237 255
224 237 255
224 237 255
224 237 255
224 237 255
224 237 255
224 237 255
224 237 255
224 237 255
224 237 255
224 237 255
224 237 255
224 237 255
224 237 255
224 237 255
224 237 255
224 237 255
224 237 255
224 237 255
224 237 255
224 237 255
224 237 255
224 237 255
224 237 255
224 237 255
224 237 255
224 237 255
224 237 255
224 237 255
224 237 255
224 237 255
224 237 255
224 237 255
224 237 255
224 237 255
224 237 255
224 237 255
224 237 255
224 237 255
224 237 255
224 237 255
224 237 255
224 237 255
224 237 255
224 237 255
224 237 255
224 237 255
224 237 255
224 237 255
224 237 255
224 237 255
224 237 255
224 237 255
224 237 255
224 237 255
224 237 255
224 237 255
224 237 255
224 237 255
224 237 255
224 237 255
224 237 255
224 237 255
224 237 255
224 237 255
224 237 255
224 237 255
224 237 255
224 237 255
224 237 255
224 237 255
224 237 255
224 237 255
224 237 255
224 237 255
224 237 255
224 237 255
224 237 255
224 237 255
224 237 255
224 237 255
224 237 255
224 237 255
224 237 255
224 237 255
224 237 255
224 237 255
224 237 255
224 237 255
224 237 255
224 237 255
224 237 255
224 237 255
224 237 255
224 237 255
224 237 255
224 237 255
224 237 255
224 237 255
224 237 255
224 237 255
224 237 255
224 237 255
224 237 255
224 237 255
224 237 255
224 237 255
224 237 255
224 237 255
224 237 255
224 237 255
224 237 255
224 237 255
224 237 255
224 237 255
224 237 255
224 237 255
224 237 255
224 237 255
224 237 255
224 237 255
223 237 255
223 237 255
223 237 255
223 237 255
223 237 255
223 237 255
223 237 255
223 237 255
223 237 255
223 237 255
223 237 255
223 237 255
223 237 255
223 237 255
223 237 255
223 237 255
223 237 255
223 237 255
223 237 255
223 237 255
223 237 255
223 237 255
223 237 255
223 237 255
223 237 255
223 237 255
223 237 255
223 237 255
223 237 255
223 237 255
223 237 255
223 237 255
223 237 255
223 237 255
223 237 255
223 237 255
223 237 255
223 237 255
223 237 255
223 237 255
223 237 255
223 237 255
223 237 255
223 237 255
223 237 255
223 237 255
223 237 255
223 237 255
223 237 255
223 237 255
223 237 255
223 237 255
223 237 255
223 237 255
223 237 255
223 237 255
223 237 255
223 237 255
223 237 255
223 237 255
223 237 255
223 237 255
223 237 255
223 237 255
223 237 255
223 237 255
223 237 255
223 237 255
223 237 255
223 237 255
223 237 255
223 237 255
223 237 255
223 237 255
223 237 255
223 237 255
223 236 255
223 236 255
223 236 255
223 236 255
223 236 255
223 236 255
223 236 255
223 236 255
223 236 255
223 236 255
223 236 255
223 236 255
223 236 255
223 236 255
223 236 255
223 236 255
223 236 255
223 236 255
223 236 255
223 236 255
223 236 255
223 236 255
223 236 255
223 236 255
223 236 255
223 236 255
223 236 255
223 236 255
223 236 255
223 236 255
223 236 255
223 237 255
223 237 255
223 237 255
223 237 255
223 237 255
223 237 255
223 237 255
223 237 255
223 237 255
223 237 255
223 237 255
223 237 255
223 237 255
223 237 255
223 237 255
223 237 255
223 237 255
223 237 255
223 237 255
223 237 255
223 237 255
223 237 255
223 237 255
223 237 255
223 237 255
223 237 255
223 237 255
223 237 255
223 237 255
223 237 255
223 237 255
223 237 255
223 237 255
223 237 255
223 237 255
223 237 255
223 237 255
223 237 255
223 237 255
223 237 255
223 237 255
223 237 255
223 237 255
223 237 255
223 237 255
223 237 255
223 237 255
223 237 255
223 237 255
223 237 255
223 237 255
223 237 255
223 237 255
223 237 255
223 237 255
223 237 255
223 237 255
223 237 255
223 237 255
223 237 255
223 237 255
223 237 255
223 237 255
223 237 255
223 237 255
223 237 255
223 237 255
223 237 255
223 237 255
223 237 255
223 237 255
223 237 255
223 237 255
223 237 255
223 237 255
223 237 255
224 237 255
224 237 255
224 237 255
224 237 255
224 237 255
224 237 255
224 237 255
224 237 255
224 237 255
224 237 255
224 237 255
224 237 255
224 237 255
224 237 255
224 237 255
224 237 255
224 237 255
224 237 255
224 237 255
224 237 255
224 237 255
224 237 255
224 237 255
224 237 255
224 237 255
224 237 255
224 237 255
224 237 255
224 237 255
224 237 255
224 237 255
224 237 255
224 237 255
224 237 255
224 237 255
224 237 255
224 237 255
224 237 255
224 237 255
224 237 255
224 237 255
224 237 255
224 237 255
224 237 255
224 237 255
224 237 255
224 237 255
224 237 255
224 237 255
224 237 255
224 237 255
224 237 255
224 237 255
224 237 255
224 237 255
224 237 255
224 237 255
224 237 255
224 237 255
224 237 255
224 237 255
224 237 255
224 237 255
224 237 255
224 237 255
224 237 255
224 237 255
224 237 255
224 237 255
224 237 255
224 237 255
224 237 255
224 237 255
224 237 255
224 237 255
224 237 255
224 237 255
224 237 255
224 237 255
224 237 255
224 237 255
224 237 255
224 237 255
224 237 255
224 237 255
224 237 255
224 237 255
224 237 255
224 237 255
224 237 255
224 237 255
224 237 255
224 237 255
224 237 255
224 237 255
224 237 255
224 237 255
224 237 255
224 237 255
224 237 255
224 237 255
224 237 255
224 237 255
224 237 255
224 237 255
224 237 255
224 237 255
224 237 255
224 237 255
224 237 255
224 237 255
224 237 255
224 237 255
224 237 255
224 237 255
224 237 255
224 237 255
224 237 255
224 237 255
224 237 255
224 237 255
224 237 255
224 237 255
224 237 255
224 237 255
224 237 255
224 237 255
224 237 255
224 237 255
224 237 255
224 237 255
224 237 255
224 237 255
224 237 255
224 237 255
224 237 255
224 237 255
224 237 255
224 237 255
224 237 255
224 237 255
224 237 255
224 237 255
224 237 255
224 237 255
224 237 255
224 237 255
224 237 255
224 237 255
224 237 255
224 237 255
224 237 255
224 237 255
224 237 255
224 237 255
224 237 255
224 237 255
224 237 255
224 237 255
224 237 255
224 237 255
224 237 255
224 237 255
224 237 255
224 237 255
224 237 255
224 237 255
224 237 255
224 237 255
224 237 255
224 237 255
224 237 255
224 237 255
224 237 255
224 237 255
224 237 255
224 237 255
224 237 255
224 237 255
224 237 255
224 237 255
224 237 255
224 237 255
224 237 255
224 237 255
224 237 255
224 237 255
224 237 255
224 237 255
224 237 255
224 237 255
224 237 255
224 237 255
224 237 255
224 237 255
224 237 255
224 237 255
224 237 255
224 237 255
224 237 255
224 237 255
224 237 255
224 237 255
224 237 255
224 237 255
224 237 255
224 237 255
224 237 255
224 237 255
224 237 255
224 237 255
224 237 255
224 237 255
224 237 255
224 237 255
224 237 255
224 237 255
224 237 255
224 237 255
224 237 255
224 237 255
224 237 255
224 237 255
224 237 255
224 237 255
224 237 255
224 237 255
224 237 255
224 237 255
224 237 255
224 237 255
224 237 255
224 237 255
224 237 255
224 237 255
224 237 255
224 237 255
224 237 255
224 237 255
223 237 255
223 237 255
223 237 255
223 237 255
223 237 255
223 237 255
223 237 255
223 237 255
223 237 255
223 237 255
223 237 255
223 237 255
223 237 255
223 237 255
223 237 255
223 237 255
223 237 255
223 237 255
223 237 255
223 237 255
223 237 255
223 237 255
223 237 255
223 237 255
223 237 255
223 237 255
223 237 255
223 237 255
223 237 255
223 237 255
223 237 255
223 237 255
223 237 255
223 237 255
223 237 255
223 237 255
223 237 255
223 237 255
223 237 255
223 237 255
223 237 255
223 237 255
223 237 255
223 237 255
223 237 255
223 237 255
223 237 255
223 237 255
223 237 255
223 237 255
223 237 255
223 237 255
223 237 255
223 237 255
223 237 255
223 237 255
223 237 255
223 237 255
223 237 255
223 237 255
223 237 255
223 237 255
223 237 255
223 237 255
223 237 255
223 237 255
223 237 255
223 237 255
223 237 255
223 237 255
223 237 255
223 237 255
223 237 255
223 237 255
223 237 255
223 236 255
223 236 255
223 236 255
223 236 255
223 236 255
223 237 255
223 237 255
223 237 255
223 237 255
223 237 255
223 237 255
223 237 255
223 237 255
223 237 255
223 237 255
223 237 255
223 237 255
223 237 255
223 237 255
223 237 255
223 237 255
223 237 255
223 237 255
223 237 255
223 237 255
223 237 255
223 237 255
223 237 255
223 237 255
223 237 255
223 237 255
223 237 255
223 237 255
223 237 255
223 237 255
223 237 255
223 237 255
223 237 255
223 237 255
223 237 255
223 237 255
223 237 255
223 237 255
223 237 255
223 237 255
223 237 255
223 237 255
223 237 255
223 237 255
223 237 255
223 237 255
223 237 255
223 237 255
223 237 255
223 237 255
223 237 255
223 237 255
223 237 255
223 237 255
223 237 255
223 237 255
223 237 255
223 237 255
223 237 255
223 237 255
223 237 255
224 237 255
224 237 255
224 237 255
224 237 255
224 237 255
224 237 255
224 237 255
224 237 255
224 237 255
224 237 255
224 237 255
224 237 255
224 237 255
224 237 255
224 237 255
224 237 255
224 237 255
224 237 255
224 237 255
224 237 255
224 237 255
224 237 255
224 237 255
224 237 255
224 237 255
224 237 255
224 237 255
224 237 255
224 237 255
224 237 255
224 237 255
224 237 255
224 237 255
224 237 255
224 237 255
224 237 255
224 237 255
224 237 255
224 237 255
224 237 255
224 237 255
224 237 255
224 237 255
224 237 255
224 237 255
224 237 255
224 237 255
224 237 255
224 237 255
224 237 255
224 237 255
224 237 255
224 237 255
224 237 255
224 237 255
224 237 255
224 237 255
224 237 255
224 237 255
224 237 255
224 237 255
224 237 255
224 237 255
224 237 255
224 237 255
224 237 255
224 237 255
224 237 255
224 237 255
224 237 255
224 237 255
224 237 255
224 237 255
224 237 255
224 237 255
224 237 255
224 237 255
224 237 255
224 237 255
224 237 255
224 237 255
224 237 255
224 237 255
224 237 255
224 237 255
224 237 255
224 237 255
224 237 255
224 237 255
224 237 255
224 237 255
224 237 255
224 237 255
224 237 255
224 237 255
224 237 255
224 237 255
224 237 255
224 237 255
224 237 255
224 237 255
224 237 255
224 237 255
224 237 255
224 237 255
224 237 255
224 237 255
224 237 255
224 237 255
224 237 255
224 237 255
224 237 255
224 237 255
225 237 255
225 237 255
224 237 255
224 237 255
225 237 255
225 237 255
225 237 255
225 237 255
225 237 255
225 237 255
225 237 255
225 237 255
225 237 255
225 237 255
225 237 255
225 237 255
225 237 255
225 237 255
225 237 255
225 237 255
225 237 255
225 237 255
225 237 255
225 237 255
225 237 255
225 237 255
225 237 255
225 237 255
225 237 255
225 237 255
225 237 255
225 237 255
225 237 255
225 237 255
225 237 255
225 237 255
225 237 255
225 237 255
225 237 255
225 237 255
225 237 255
225 237 255
225 237 255
225 237 255
225 237 255
225 237 255
225 237 255
225 237 255
225 237 255
225 237 255
224 237 255
224 237 255
224 237 255
224 237 255
224 237 255
224 237 255
224 237 255
224 237 255
224 237 255
224 237 255
224 237 255
224 237 255
224 237 255
224 237 255
224 237 255
224 237 255
224 237 255
224 237 255
224 237 255
224 237 255
224 237 255
224 237 255
224 237 255
224 237 255
224 237 255
224 237 255
224 237 255
224 237 255
224 237 255
224 237 255
224 237 255
224 237 255
224 237 255
224 237 255
224 237 255
224 237 255
224 237 255
224 237 255
224 237 255
224 237 255
224 237 255
224 237 255
224 237 255
224 237 255
224 237 255
224 237 255
224 237 255
224 237 255
224 237 255
224 237 255
224 237 255
224 237 255
224 237 255
224 237 255
224 237 255
224 237 255
224 237 255
224 237 255
224 237 255
224 237 255
224 237 255
224 237 255
224 237 255
224 237 255
224 237 255
224 237 255
224 237 255
224 237 255
224 237 255
224 237 255
224 237 255
224 237 255
224 237 255
224 237 255
224 237 255
224 237 255
224 237 255
224 237 255
224 237 255
224 237 255
224 237 255
224 237 255
224 237 255
224 237 255
224 237 255
224 237 255
224 237 255
224 237 255
224 237 255
224 237 255
224 237 255
224 237 255
224 237 255
224 237 255
224 237 255
224 237 255
224 237 255
224 237 255
224 237 255
224 237 255
224 237 255
224 237 255
224 237 255
224 237 255
224 237 255
224 237 255
224 237 255
224 237 255
224 237 255
224 237 255
224 237 255
224 237 255
224 237 255
224 237 255
224 237 255
223 237 255
223 237 255
223 237 255
223 237 255
223 237 255
223 237 255
223 237 255
223 237 255
223 237 255
223 237 255
223 237 255
223 237 255
223 237 255
223 237 255
223 237 255
223 237 255
223 237 255
223 237 255
223 237 255
223 237 255
223 237 255
223 237 255
223 237 255
223 237 255
223 237 255
223 237 255
223 237 255
223 237 255
223 237 255
223 237 255
223 237 255
223 237 255
223 237 255
223 237 255
223 237 255
223 237 255
223 237 255
223 237 255
223 237 255
223 237 255
223 237 255
223 237 255
223 237 255
223 237 255
223 237 255
223 237 255
223 237 255
223 237 255
223 237 255
223 237 255
223 237 255
223 237 255
223 237 255
223 237 255
223 237 255
223 237 255
223 237 255
223 237 255
223 237 255
223 237 255
223 237 255
223 237 255
223 237 255
223 237 255
223 237 255
223 237 255
223 237 255
223 237 255
223 237 255
223 237 255
223 237 255
223 237 255
223 237 255
223 237 255
223 237 255
223 237 255
223 237 255
223 237 255
223 237 255
223 237 255
223 237 255
223 237 255
223 237 255
223 237 255
223 237 255
223 237 255
223 237 255
223 237 255
223 237 255
223 237 255
223 237 255
223 237 255
223 237 255
223 237 255
223 237 255
223 237 255
223 237 255
223 237 255
223 237 255
223 237 255
223 237 255
223 237 255
223 237 255
223 237 255
224 237 255
224 237 255
224 237 255
224 237 255
224 237 255
224 237 255
224 237 255
224 237 255
224 237 255
224 237 255
224 237 255
224 237 255
224 237 255
224 237 255
224 237 255
224 237 255
224 237 255
224 237 255
224 237 255
224 237 255
224 237 255
224 237 255
224 237 255
224 237 255
224 237 255
224 237 255
224 237 255
224 237 255
224 237 255
224 237 255
224 237 255
224 237 255
224 237 255
224 237 255
224 237 255
224 237 255
224 237 255
224 237 255
224 237 255
224 237 255
224 237 255
224 237 255
224 237 255
224 237 255
224 237 255
224 237 255
224 237 255
224 237 255
224 237 255
224 237 255
224 237 255
224 237 255
224 237 255
224 237 255
224 237 255
224 237 255
224 237 255
224 237 255
224 237 255
224 237 255
224 237 255
224 237 255
224 237 255
224 237 255
224 237 255
224 237 255
224 237 255
224 237 255
224 237 255
224 237 255
224 237 255
224 237 255
224 237 255
224 237 255
224 237 255
224 237 255
224 237 255
224 237 255
224 237 255
224 237 255
224 237 255
224 237 255
224 237 255
224 237 255
224 237 255
224 237 255
224 237 255
224 237 255
224 237 255
224 237 255
224 237 255
224 237 255
224 237 255
224 237 255
224 237 255
224 237 255
224 237 255
224 237 255
224 237 255
224 237 255
224 237 255
225 237 255
225 237 255
225 237 255
225 237 255
225 237 255
225 237 255
225 237 255
225 237 255
225 237 255
225 237 255
225 237 255
225 237 255
225 237 255
225 237 255
225 237 255
225 237 255
225 237 255
225 237 255
225 237 255
225 237 255
225 237 255
225 237 255
225 237 255
225 237 255
225 237 255
225 238 255
225 238 255
225 238 255
225 238 255
225 238 255
225 238 255
225 238 255
225 238 255
225 238 255
225 238 255
225 238 255
225 238 255
225 238 255
225 238 255
225 238 255
225 238 255
225 238 255
225 238 255
225 238 255
225 238 255
225 238 255
225 238 255
225 238 255
225 238 255
225 238 255
225 238 255
225 238 255
225 238 255
225 238 255
225 238 255
225 238 255
225 238 255
225 238 255
225 238 255
225 238 255
225 238 255
225 238 255
225 238 255
225 238 255
225 238 255
225 238 255
225 238 255
225 238 255
225 238 255
225 238 255
225 238 255
225 238 255
225 238 255
225 238 255
225 238 255
225 238 255
225 238 255
225 238 255
225 238 255
225 238 255
225 238 255
225 238 255
225 238 255
225 238 255
225 238 255
225 238 255
225 238 255
225 237 255
225 237 255
225 237 255
225 237 255
225 237 255
225 237 255
225 237 255
225 237 255
225 237 255
225 237 255
225 237 255
225 237 255
225 237 255
225 237 255
225 237 255
225 237 255
225 237 255
225 237 255
225 237 255
225 237 255
225 237 255
225 237 255
225 237 255
225 237 255
225 237 255
224 237 255
224 237 255
224 237 255
224 237 255
224 237 255
224 237 255
224 237 255
224 237 255
224 237 255
224 237 255
224 237 255
224 237 255
224 237 255
224 237 255
224 237 255
224 237 255
224 237 255
224 237 255
224 237 255
224 237 255
224 237 255
224 237 255
224 237 255
224 237 255
224 237 255
224 237 255
224 237 255
224 237 255
224 237 255
224 237 255
224 237 255
224 237 255
224 237 255
224 237 255
224 237 255
224 237 255
224 237 255
224 237 255
224 237 255
224 237 255
224 237 255
224 237 255
224 237 255
224 237 255
224 237 255
224 237 255
224 237 255
224 237 255
224 237 255
224 237 255
224 237 255
224 237 255
224 237 255
224 237 255
224 237 255
224 237 255
224 237 255
224 237 255
224 237 255
224 237 255
224 237 255
224 237 255
224 237 255
224 237 255
224 237 255
224 237 255
224 237 255
224 237 255
224 237 255
224 237 255
224 237 255
224 237 255
224 237 255
224 237 255
224 237 255
224 237 255
224 237 255
224 237 255
224 237 255
224 237 255
224 237 255
224 237 255
224 237 255
224 237 255
224 237 255
224 237 255
224 237 255
224 237 255
224 237 255
224 237 255
224 237 255
224 237 255
224 237 255
224 237 255
224 237 255
224 237 255
224 237 255
224 237 255
224 237 255
224 237 255
224 237 255
223 237 255
223 237 255
223 237 255
223 237 255
223 237 255
223 237 255
223 237 255
223 237 255
223 237 255
223 237 255
223 237 255
223 237 255
223 237 255
223 237 255
223 237 255
223 237 255
223 237 255
223 237 255
223 237 255
223 237 255
223 237 255
223 237 255
223 237 255
223 237 255
223 237 255
223 237 255
223 237 255
223 237 255
223 237 255
223 237 255
223 237 255
223 237 255
223 237 255
223 237 255
223 237 255
223 237 255
223 237 255
223 237 255
223 237 255
223 237 255
223 237 255
223 237 255
223 237 255
223 237 255
223 237 255
223 237 255
223 237 255
223 237 255
223 237 255
223 237 255
223 237 255
223 237 255
223 237 255
223 237 255
223 237 255
223 237 255
223 237 255
223 237 255
223 237 255
223 237 255
223 237 255
223 237 255
223 237 255
223 237 255
223 237 255
223 237 255
223 237 255
223 237 255
223 237 255
224 237 255
224 237 255
224 237 255
224 237 255
224 237 255
224 237 255
224 237 255
224 237 255
224 237 255
224 237 255
224 237 255
224 237 255
224 237 255
224 237 255
224 237 255
224 237 255
224 237 255
224 237 255
224 237 255
224 237 255
224 237 255
224 237 255
224 237 255
224 237 255
224 237 255
224 237 255
224 237 255
224 237 255
224 237 255
224 237 255
224 237 255
224 237 255
224 237 255
224 237 255
224 237 255
224 237 255
224 237 255
224 237 255
224 237 255
224 237 255
224 237 255
224 237 255
224 237 255
224 237 255
224 237 255
224 237 255
224 237 255
224 237 255
224 237 255
224 237 255
224 237 255
224 237 255
224 237 255
224 237 255
224 237 255
224 237 255
224 237 255
224 237 255
224 237 255
224 237 255
224 237 255
224 237 255
224 237 255
224 237 255
224 237 255
224 237 255
224 237 255
224 237 255
224 237 255
224 237 255
224 237 255
224 237 255
224 237 255
224 237 255
224 237 255
224 237 255
224 237 255
224 237 255
224 237 255
224 237 255
224 237 255
224 237 255
224 237 255
224 237 255
224 237 255
224 237 255
224 237 255
224 237 255
224 237 255
224 237 255
224 237 255
224 237 255
224 237 255
224 237 255
224 237 255
224 237 255
224 237 255
225 237 255
225 237 255
225 237 255
225 237 255
225 237 255
225 237 255
225 237 255
225 237 255
225 237 255
225 237 255
225 237 255
225 237 255
225 237 255
225 237 255
225 237 255
225 237 255
225 237 255
225 237 255
225 238 255
225 238 255
225 238 255
225 238 255
225 238 255
225 238 255
225 238 255
225 238 255
225 238 255
225 238 255
225 238 255
225 238 255
225 238 255
225 238 255
225 238 255
225 238 255
225 238 255
225 238 255
225 238 255
225 238 255
225 238 255
225 238 255
225 238 255
225 238 255
225 238 255
225 238 255
225 238 255
225 238 255
225 238 255
225 238 255
225 238 255
225 238 255
225 238 255
225 238 255
225 238 255
225 238 255
225 238 255
225 238 255
225 238 255
225 238 255
225 238 255
225 238 255
225 238 255
225 238 255
225 238 255
225 238 255
225 238 255
225 238 255
225 238 255
225 238 255
225 238 255
225 238 255
225 238 255
225 238 255
225 238 255
225 238 255
225 238 255
225 238 255
225 238 255
225 238 255
225 238 255
225 238 255
225 238 255
225 238 255
225 238 255
225 238 255
225 238 255
225 238 255
225 238 255
225 238 255
225 238 255
225 238 255
225 238 255
225 238 255
225 238 255
225 238 255
225 238 255
225 238 255
225 238 255
225 238 255
225 238 255
225 238 255
225 238 255
225 238 255
225 238 255
225 238 255
225 238 255
225 238 255
225 238 255
225 238 255
225 238 255
225 238 255
225 238 255
225 238 255
225 238 255
225 238 255
225 238 255
225 238 255
225 238 255
225 238 255
225 238 255
225 238 255
225 238 255
225 238 255
225 238 255
225 238 255
225 238 255
225 238 255
225 238 255
225 238 255
225 238 255
225 238 255
225 238 255
225 238 255
225 238 255
225 238 255
225 238 255
225 238 255
225 237 255
225 237 255
225 237 255
225 237 255
225 237 255
225 237 255
225 237 255
225 237 255
225 237 255
225 237 255
225 237 255
225 237 255
225 237 255
225 237 255
225 237 255
225 237 255
225 237 255
225 237 255
224 237 255
224 237 255
224 237 255
224 237 255
224 237 255
224 237 255
224 237 255
224 237 255
224 237 255
224 237 255
224 237 255
224 237 255
224 237 255
224 237 255
224 237 255
224 237 255
224 237 255
224 237 255
224 237 255
224 237 255
224 237 255
224 237 255
224 237 255
224 237 255
224 237 255
224 237 255
224 237 255
224 237 255
224 237 255
224 237 255
224 237 255
224 237 255
224 237 255
224 237 255
224 237 255
224 237 255
224 237 255
224 237 255
224 237 255
224 237 255
224 237 255
224 237 255
224 237 255
224 237 255
224 237 255
224 237 255
224 237 255
224 237 255
224 237 255
224 237 255
224 237 255
224 237 255
224 237 255
224 237 255
224 237 255
224 237 255
224 237 255
224 237 255
224 237 255
224 237 255
224 237 255
224 237 255
224 237 255
224 237 255
224 237 255
224 237 255
224 237 255
224 237 255
224 237 255
224 237 255
224 237 255
224 237 255
224 237 255
224 237 255
224 237 255
224 237 255
224 237 255
224 237 255
224 237 255
224 237 255
224 237 255
224 237 255
224 237 255
224 237 255
224 237 255
224 237 255
224 237 255
224 237 255
224 237 255
224 237 255
224 237 255
224 237 255
224 237 255
224 237 255
224 237 255
224 237 255
224 237 255
223 237 255
223 237 255
223 237 255
223 237 255
223 237 255
223 237 255
223 237 255
223 237 255
223 237 255
223 237 255
223 237 255
223 237 255
223 237 255
223 237 255
223 237 255
223 237 255
223 237 255
223 237 255
223 237 255
223 237 255
223 237 255
223 237 255
223 237 255
223 237 255
223 237 255
223 237 255
223 237 255
223 237 255
223 237 255
223 237 255
223 237 255
223 237 255
223 237 255
223 237 255
223 237 255
223 237 255
224 237 255
224 237 255
224 237 255
224 237 255
224 237 255
224 237 255
224 237 255
224 237 255
224 237 255
224 237 255
224 237 255
224 237 255
224 237 255
224 237 255
224 237 255
224 237 255
224 237 255
224 237 255
224 237 255
224 237 255
224 237 255
224 237 255
224 237 255
224 237 255
224 237 255
224 237 255
224 237 255
224 237 255
224 237 255
224 237 255
224 237 255
224 237 255
224 237 255
224 237 255
224 237 255
224 237 255
224 237 255
224 237 255
224 237 255
224 237 255
224 237 255
224 237 255
224 237 255
224 237 255
224 237 255
224 237 255
224 237 255
224 237 255
224 237 255
224 237 255
224 237 255
224 237 255
224 237 255
224 237 255
224 237 255
224 237 255
224 237 255
224 237 255
224 237 255
224 237 255
224 237 255
224 237 255
224 237 255
224 237 255
224 237 255
224 237 255
224 237 255
224 237 255
224 237 255
224 237 255
224 237 255
224 237 255
224 237 255
224 237 255
224 237 255
224 237 255
224 237 255
224 237 255
224 237 255
224 237 255
224 237 255
224 237 255
224 237 255
224 237 255
224 237 255
224 237 255
224 237 255
224 237 255
224 237 255
224 237 255
224 237 255
224 237 255
224 237 255
224 237 255
224 237 255
225 237 255
225 237 255
225 237 255
225 237 255
225 237 255
225 237 255
225 237 255
225 237 255
225 237 255
225 237 255
225 237 255
225 237 255
225 237 255
225 237 255
225 237 255
225 237 255
225 237 255
225 237 255
225 238 255
225 238 255
225 238 255
225 238 255
225 238 255
225 238 255
225 238 255
225 238 255
225 238 255
225 238 255
225 238 255
225 238 255
225 238 255
225 238 255
225 238 255
225 238 255
225 238 255
225 238 255
225 238 255
225 238 255
225 238 255
225 238 255
225 238 255
225 238 255
225 238 255
225 238 255
225 238 255
225 238 255
225 238 255
225 238 255
225 238 255
225 238 255
225 238 255
225 238 255
225 238 255
225 238 255
225 238 255
225 238 255
225 238 255
225 238 255
225 238 255
225 238 255
225 238 255
225 238 255
225 238 255
225 238 255
225 238 255
225 238 255
225 238 255
225 238 255
225 238 255
225 238 255
225 238 255
225 238 255
225 238 255
225 238 255
225 238 255
225 238 255
225 238 255
225 238 255
225 238 255
225 238 255
225 238 255
225 238 255
225 238 255
225 238 255
225 238 255
225 238 255
225 238 255
225 238 255
225 238 255
225 238 255
225 238 255
225 238 255
225 238 255
225 238 255
225 238 255
225 238 255
225 238 255
225 238 255
225 238 255
225 238 255
225 238 255
225 238 255
225 238 255
225 238 255
225 238 255
225 238 255
225 238 255
225 238 255
225 238 255
225 238 255
225 238 255
225 238 255
225 238 255
225 238 255
225 238 255
225 238 255
225 238 255
225 238 255
225 238 255
225 238 255
225 238 255
225 238 255
225 238 255
225 238 255
225 238 255
225 238 255
225 238 255
225 238 255
225 238 255
225 238 255
225 238 255
225 238 255
225 238 255
225 238 255
225 238 255
225 238 255
225 238 255
225 238 255
225 238 255
225 238 255
225 238 255
225 238 255
225 238 255
225 238 255
225 238 255
225 238 255
225 238 255
225 238 255
225 238 255
225 238 255
225 238 255
225 238 255
225 238 255
225 238 255
225 238 255
225 238 255
225 238 255
225 238 255
225 238 255
225 238 255
225 238 255
225 238 255
225 238 255
225 238 255
225 238 255
225 238 255
225 238 255
225 238 255
225 238 255
225 238 255
225 238 255
225 238 255
225 238 255
225 237 255
225 237 255
225 237 255
225 237 255
225 237 255
225 237 255
225 237 255
225 237 255
225 237 255
225 237 255
225 237 255
225 237 255
225 237 255
225 237 255
225 237 255
225 237 255
224 237 255
224 237 255
224 237 255
224 237 255
224 237 255
224 237 255
224 237 255
224 237 255
224 237 255
224 237 255
224 237 255
224 237 255
224 237 255
224 237 255
224 237 255
224 237 255
224 237 255
224 237 255
224 237 255
224 237 255
224 237 255
224 237 255
224 237 255
224 237 255
224 237 255
224 237 255
224 237 255
224 237 255
224 237 255
224 237 255
224 237 255
224 237 255
224 237 255
224 237 255
224 237 255
224 237 255
224 237 255
224 237 255
224 237 255
224 237 255
224 237 255
224 237 255
224 237 255
224 237 255
224 237 255
224 237 255
224 237 255
224 237 255
224 237 255
224 237 255
224 237 255
224 237 255
224 237 255
224 237 255
224 237 255
224 237 255
224 237 255
224 237 255
224 237 255
224 237 255
224 237 255
224 237 255
224 237 255
224 237 255
224 237 255
224 237 255
224 237 255
224 237 255
224 237 255
224 237 255
224 237 255
224 237 255
224 237 255
224 237 255
224 237 255
224 237 255
224 237 255
224 237 255
224 237 255
224 237 255
224 237 255
224 237 255
224 237 255
224 237 255
224 237 255
224 237 255
224 237 255
224 237 255
224 237 255
224 237 255
224 237 255
224 237 255
224 237 255
224 237 255
224 237 255
224 237 255
223 237 255
223 237 255
223 237 255
223 237 255
223 237 255
223 237 255
223 237 255
223 237 255
223 237 255
223 237 255
224 237 255
224 237 255
224 237 255
224 237 255
224 237 255
224 237 255
224 237 255
224 237 255
224 237 255
224 237 255
224 237 255
224 237 255
224 237 255
224 237 255
224 237 255
224 237 255
224 237 255
224 237 255
224 237 255
224 237 255
224 237 255
224 237 255
224 237 255
224 237 255
224 237 255
224 237 255
224 237 255
224 237 255
224 237 255
224 237 255
224 237 255
224 237 255
224 237 255
224 237 255
224 237 255
224 237 255
224 237 255
224 237 255
224 237 255
224 237 255
224 237 255
224 237 255
224 237 255
224 237 255
224 237 255
224 237 255
224 237 255
224 237 255
224 237 255
224 237 255
224 237 255
224 237 255
224 237 255
224 237 255
224 237 255
224 237 255
224 237 255
224 237 255
224 237 255
224 237 255
224 237 255
224 237 255
224 237 255
224 237 255
224 237 255
224 237 255
224 237 255
224 237 255
224 237 255
224 237 255
224 237 255
224 237 255
224 237 255
224 237 255
224 237 255
224 237 255
224 237 255
224 237 255
224 237 255
224 237 255
224 237 255
224 237 255
224 237 255
224 237 255
224 237 255
224 237 255
224 237 255
224 237 255
224 237 255
224 237 255
224 237 255
225 237 255
225 237 255
225 237 255
225 237 255
225 237 255
225 237 255
225 237 255
225 237 255
225 237 255
225 237 255
225 237 255
225 237 255
225 237 255
225 237 255
225 237 255
225 237 255
225 238 255
225 238 255
225 238 255
225 238 255
225 238 255
225 238 255
225 238 255
225 238 255
225 238 255
225 238 255
225 238 255
225 238 255
225 238 255
225 238 255
225 238 255
225 238 255
225 238 255
225 238 255
225 238 255
225 238 255
225 238 255
225 238 255
225 238 255
225 238 255
225 238 255
225 238 255
225 238 255
225 238 255
225 238 255
225 238 255
225 238 255
225 238 255
225 238 255
225 238 255
225 238 255
225 238 255
225 238 255
225 238 255
225 238 255
225 238 255
225 238 255
225 238 255
225 238 255
225 238 255
225 238 255
225 238 255
225 238 255
225 238 255
225 238 255
225 238 255
225 238 255
225 238 255
225 238 255
225 238 255
225 238 255
225 238 255
225 238 255
225 238 255
225 238 255
225 238 255
225 238 255
225 238 255
225 238 255
225 238 255
225 238 255
225 238 255
225 238 255
225 238 255
225 238 255
225 238 255
225 238 255
225 238 255
225 238 255
225 238 255
225 238 255
225 238 255
225 238 255
226 238 255
226 238 255
226 238 255
226 238 255
226 238 255
226 238 255
226 238 255
226 238 255
226 238 255
226 238 255
226 238 255
226 238 255
226 238 255
226 238 255
226 238 255
226 238 255
226 238 255
226 238 255
226 238 255
226 238 255
226 238 255
226 238 255
226 238 255
226 238 255
226 238 255
226 238 255
226 238 255
226 238 255
226 238 255
225 238 255
226 238 255
226 238 255
226 238 255
226 238 255
225 238 255
225 238 255
225 238 255
225 238 255
225 238 255
225 238 255
225 238 255
225 238 255
225 238 255
225 238 255
225 238 255
225 238 255
225 238 255
225 238 255
225 238 255
225 238 255
225 238 255
225 238 255
225 238 255
225 238 255
225 238 255
225 238 255
225 238 255
225 238 255
225 238 255
225 238 255
225 238 255
225 238 255
225 238 255
225 238 255
225 238 255
225 238 255
225 238 255
225 238 255
225 238 255
225 238 255
225 238 255
225 238 255
225 238 255
225 238 255
225 238 255
225 238 255
225 238 255
225 238 255
225 238 255
225 238 255
225 238 255
225 238 255
225 238 255
225 238 255
225 238 255
225 238 255
225 238 255
225 238 255
225 238 255
225 238 255
225 238 255
225 238 255
225 238 255
225 238 255
225 238 255
225 238 255
225 238 255
225 238 255
225 238 255
225 238 255
225 238 255
225 238 255
225 238 255
225 238 255
225 238 255
225 238 255
225 238 255
225 238 255
225 238 255
225 238 255
225 237 255
225 237 255
225 237 255
225 237 255
225 237 255
225 237 255
225 237 255
225 237 255
225 237 255
225 237 255
225 237 255
225 237 255
225 237 255
225 237 255
225 237 255
225 237 255
224 237 255
224 237 255
224 237 255
224 237 255
224 237 255
224 237 255
224 237 255
224 237 255
224 237 255
224 237 255
224 237 255
224 237 255
224 237 255
224 237 255
224 237 255
224 237 255
224 237 255
224 237 255
224 237 255
224 237 255
224 237 255
224 237 255
224 237 255
224 237 255
224 237 255
224 237 255
224 237 255
224 237 255
224 237 255
224 237 255
224 237 255
224 237 255
224 237 255
224 237 255
224 237 255
224 237 255
224 237 255
224 237 255
224 237 255
224 237 255
224 237 255
224 237 255
224 237 255
224 237 255
224 237 255
224 237 255
224 237 255
224 237 255
224 237 255
224 237 255
224 237 255
224 237 255
224 237 255
224 237 255
224 237 255
224 237 255
224 237 255
224 237 255
224 237 255
224 237 255
224 237 255
224 237 255
224 237 255
224 237 255
224 237 255
224 237 255
224 237 255
224 237 255
224 237 255
224 237 255
224 237 255
224 237 255
224 237 255
224 237 255
224 237 255
224 237 255
224 237 255
224 237 255
224 237 255
224 237 255
224 237 255
224 237 255
224 237 255
224 237 255
224 237 255
224 237 255
224 237 255
224 237 255
224 237 255
224 237 255
224 237 255
224 237 255
224 237 255
224 237 255
224 237 255
224 237 255
224 237 255
224 237 255
224 237 255
224 237 255
224 237 255
224 237 255
224 237 255
224 237 255
224 237 255
224 237 255
224 237 255
224 237 255
224 237 255
224 237 255
224 237 255
224 237 255
224 237 255
224 237 255
224 237 255
224 237 255
224 237 255
224 237 255
224 237 255
224 237 255
224 237 255
224 237 255
224 237 255
224 237 255
224 237 255
224 237 255
224 237 255
224 237 255
224 237 255
224 237 255
224 237 255
224 237 255
224 237 255
224 237 255
224 237 255
224 237 255
224 237 255
224 237 255
224 237 255
224 237 255
224 237 255
224 237 255
224 237 255
224 237 255
224 237 255
224 237 255
224 237 255
224 237 255
224 237 255
224 237 255
224 237 255
224 237 255
224 237 255
224 237 255
224 237 255
224 237 255
224 237 255
224 237 255
224 237 255
224 237 255
224 237 255
224 237 255
224 237 255
224 237 255
224 237 255
224 237 255
225 237 255
225 237 255
225 237 255
225 237 255
225 237 255
225 237 255
225 237 255
225 237 255
225 237 255
225 237 255
225 237 255
225 237 255
225 237 255
225 237 255
225 237 255
225 237 255
225 238 255
225 238 255
225 238 255
225 238 255
225 238 255
225 238 255
225 238 255
225 238 255
225 238 255
225 238 255
225 238 255
225 238 255
225 238 255
225 238 255
225 238 255
225 238 255
225 238 255
225 238 255
225 238 255
225 238 255
225 238 255
225 238 255
225 238 255
225 238 255
225 238 255
225 238 255
225 238 255
225 238 255
225 238 255
225 238 255
225 238 255
225 238 255
225 238 255
225 238 255
225 238 255
225 238 255
225 238 255
225 238 255
225 238 255
225 238 255
225 238 255
225 238 255
225 238 255
225 238 255
225 238 255
225 238 255
225 238 255
225 238 255
225 238 255
225 238 255
225 238 255
225 238 255
225 238 255
225 238 255
225 238 255
225 238 255
225 238 255
225 238 255
225 238 255
225 238 255
226 238 255
225 238 255
226 238 255
226 238 255
226 238 255
226 238 255
226 238 255
226 238 255
226 238 255
226 238 255
226 238 255
226 238 255
226 238 255
226 238 255
226 238 255
226 238 255
226 238 255
226 238 255
226 238 255
226 238 255
226 238 255
226 238 255
226 238 255
226 238 255
226 238 255
226 238 255
226 238 255
226 238 255
226 238 255
226 238 255
226 238 255
226 238 255
226 238 255
226 238 255
226 238 255
226 238 255
226 238 255
226 238 255
226 238 255
226 238 255
226 238 255
226 238 255
226 238 255
226 238 255
226 238 255
226 238 255
226 238 255
226 238 255
226 238 255
226 238 255
226 238 255
226 238 255
226 238 255
226 238 255
226 238 255
226 238 255
226 238 255
226 238 255
226 238 255
226 238 255
226 238 255
226 238 255
226 238 255
226 238 255
226 238 255
226 238 255
226 238 255
226 238 255
226 238 255
226 238 255
226 238 255
226 238 255
226 238 255
226 238 255
226 238 255
226 238 255
226 238 255
226 238 255
226 238 255
226 238 255
226 238 255
226 238 255
226 238 255
226 238 255
226 238 255
226 238 255
226 238 255
226 238 255
226 238 255
226 238 255
226 238 255
226 238 255
226 238 255
226 238 255
226 238 255
226 238 255
225 238 255
225 238 255
225 238 255
225 238 255
225 238 255
225 238 255
225 238 255
225 238 255
225 238 255
225 238 255
225 238 255
225 238 255
225 238 255
225 238 255
225 238 255
225 238 255
225 238 255
225 238 255
225 238 255
225 238 255
225 238 255
225 238 255
225 238 255
225 238 255
225 238 255
225 238 255
225 238 255
225 238 255
225 238 255
225 238 255
225 238 255
225 238 255
225 238 255
225 238 255
225 238 255
225 238 255
225 238 255
225 238 255
225 238 255
225 238 255
225 238 255
225 238 255
225 238 255
225 238 255
225 238 255
225 238 255
225 238 255
225 238 255
225 238 255
225 238 255
225 238 255
225 238 255
225 238 255
225 238 255
225 238 255
225 238 255
225 238 255
225 238 255
225 238 255
225 237 255
225 237 255
225 237 255
225 237 255
225 237 255
225 237 255
225 237 255
225 237 255
225 237 255
225 237 255
225 237 255
225 237 255
225 237 255
225 237 255
225 237 255
225 237 255
225 237 255
224 237 255
224 237 255
224 237 255
224 237 255
224 237 255
224 237 255
224 237 255
224 237 255
224 237 255
224 237 255
224 237 255
224 237 255
224 237 255
224 237 255
224 237 255
224 237 255
224 237 255
224 237 255
224 237 255
224 237 255
224 237 255
224 237 255
224 237 255
224 237 255
224 237 255
224 237 255
224 237 255
224 237 255
224 237 255
224 237 255
224 237 255
224 237 255
224 237 255
224 237 255
224 237 255
224 237 255
224 237 255
224 237 255
224 237 255
224 237 255
224 237 255
224 237 255
224 237 255
224 237 255
224 237 255
224 237 255
224 237 255
224 237 255
224 237 255
224 237 255
224 237 255
224 237 255
224 237 255
224 237 255
224 237 255
224 237 255
224 237 255
224 237 255
224 237 255
224 237 255
224 237 255
224 237 255
224 237 255
224 237 255
224 237 255
224 237 255
224 237 255
224 237 255
224 237 255
224 237 255
224 237 255
224 237 255
224 237 255
224 237 255
224 237 255
224 237 255
224 237 255
224 237 255
224 237 255
224 237 255
224 237 255
224 237 255
224 237 255
224 237 255
224 237 255
224 237 255
224 237 255
224 237 255
224 237 255
224 237 255
224 237 255
224 237 255
224 237 255
224 237 255
224 237 255
224 237 255
224 237 255
224 237 255
224 237 255
224 237 255
224 237 255
224 237 255
224 237 255
224 237 255
224 237 255
224 237 255
224 237 255
224 237 255
224 237 255
224 237 255
224 237 255
224 237 255
224 237 255
224 237 255
224 237 255
224 237 255
224 237 255
224 237 255
224 237 255
224 237 255
224 237 255
224 237 255
224 237 255
224 237 255
224 237 255
224 237 255
224 237 255
224 237 255
224 237 255
224 237 255
224 237 255
224 237 255
224 237 255
224 237 255
224 237 255
224 237 255
224 237 255
224 237 255
225 237 255
224 237 255
225 237 255
225 237 255
225 237 255
225 237 255
225 237 255
225 237 255
225 237 255
225 237 255
225 237 255
225 237 255
225 237 255
225 237 255
225 237 255
225 237 255
225 238 255
225 238 255
225 238 255
225 238 255
225 238 255
225 238 255
225 238 255
225 238 255
225 238 255
225 238 255
225 238 255
225 238 255
225 238 255
225 238 255
225 238 255
225 238 255
225 238 255
225 238 255
225 238 255
225 238 255
225 238 255
225 238 255
225 238 255
225 238 255
225 238 255
225 238 255
225 238 255
225 238 255
225 238 255
225 238 255
225 238 255
225 238 255
225 238 255
225 238 255
225 238 255
225 238 255
225 238 255
225 238 255
225 238 255
225 238 255
225 238 255
225 238 255
225 238 255
225 238 255
225 238 255
225 238 255
225 238 255
225 238 255
225 238 255
225 238 255
225 238 255
225 238 255
225 238 255
225 238 255
225 238 255
225 238 255
225 238 255
226 238 255
226 238 255
226 238 255
226 238 255
226 238 255
226 238 255
226 238 255
226 238 255
226 238 255
226 238 255
226 238 255
226 238 255
226 238 255
226 238 255
226 238 255
226 238 255
226 238 255
226 238 255
226 238 255
226 238 255
226 238 255
226 238 255
226 238 255
226 238 255
226 238 255
226 238 255
226 238 255
226 238 255
226 238 255
226 238 255
226 238 255
226 238 255
226 238 255
226 238 255
226 238 255
226 238 255
226 238 255
226 238 255
226 238 255
226 238 255
226 238 255
226 238 255
226 238 255
226 238 255
226 238 255
226 238 255
226 238 255
226 238 255
226 238 255
226 238 255
226 238 255
226 238 255
226 238 255
226 238 255
226 238 255
226 238 255
226 238 255
226 238 255
226 238 255
226 238 255
226 238 255
226 238 255
226 238 255
226 238 255
226 238 255
226 238 255
226 238 255
226 238 255
226 238 255
226 238 255
226 238 255
226 238 255
226 238 255
226 238 255
226 238 255
226 238 255
226 238 255
226 238 255
226 238 255
226 238 255
226 238 255
226 238 255
226 238 255
226 238 255
226 238 255
226 238 255
226 238 255
226 238 255
226 238 255
226 238 255
226 238 255
226 238 255
226 238 255
226 238 255
226 238 255
226 238 255
226 238 255
226 238 255
226 238 255
226 238 255
226 238 255
226 238 255
226 238 255
226 238 255
226 238 255
226 238 255
226 238 255
226 238 255
226 238 255
226 238 255
226 238 255
226 238 255
226 238 255
226 238 255
226 238 255
226 238 255
226 238 255
226 238 255
226 238 255
226 238 255
226 238 255
226 238 255
226 238 255
226 238 255
226 238 255
226 238 255
226 238 255
226 238 255
226 238 255
226 238 255
225 238 255
225 238 255
225 238 255
225 238 255
225 238 255
225 238 255
225 238 255
225 238 255
225 238 255
225 238 255
225 238 255
225 238 255
225 238 255
225 238 255
225 238 255
225 238 255
225 238 255
225 238 255
225 238 255
225 238 255
225 238 255
225 238 255
225 238 255
225 238 255
225 238 255
225 238 255
225 238 255
225 238 255
225 238 255
225 238 255
225 238 255
225 238 255
225 238 255
225 238 255
225 238 255
225 238 255
225 238 255
225 238 255
225 238 255
225 238 255
225 238 255
225 238 255
225 238 255
225 238 255
225 238 255
225 238 255
225 238 255
225 238 255
225 238 255
225 238 255
225 238 255
225 238 255
225 238 255
225 238 255
225 238 255
225 238 255
225 238 255
225 237 255
225 237 255
225 237 255
225 237 255
225 237 255
225 237 255
225 237 255
225 237 255
225 237 255
225 237 255
225 237 255
225 237 255
225 237 255
225 237 255
224 237 255
224 237 255
224 237 255
224 237 255
224 237 255
224 237 255
224 237 255
224 237 255
224 237 255
224 237 255
224 237 255
224 237 255
224 237 255
224 237 255
224 237 255
224 237 255
224 237 255
224 237 255
224 237 255
224 237 255
224 237 255
224 237 255
224 237 255
224 237 255
224 237 255
224 237 255
224 237 255
224 237 255
224 237 255
224 237 255
224 237 255
224 237 255
224 237 255
224 237 255
224 237 255
224 237 255
224 237 255
224 237 255
224 237 255
224 237 255
224 237 255
224 237 255
224 237 255
224 237 255
224 237 255
224 237 255
224 237 255
224 237 255
224 237 255
224 237 255
224 237 255
224 237 255
224 237 255
224 237 255
224 237 255
224 237 255
224 237 255
224 237 255
224 237 255
224 237 255
224 237 255
224 237 255
224 237 255
224 237 255
224 237 255
224 237 255
224 237 255
224 237 255
224 237 255
224 237 255
224 237 255
224 237 255
224 237 255
224 237 255
224 237 255
224 237 255
224 237 255
224 237 255
224 237 255
224 237 255
224 237 255
224 237 255
224 237 255
224 237 255
224 237 255
224 237 255
224 237 255
224 237 255
224 237 255
224 237 255
224 237 255
224 237 255
224 237 255
224 237 255
224 237 255
224 237 255
224 237 255
224 237 255
224 237 255
224 237 255
224 237 255
224 237 255
224 237 255
224 237 255
224 237 255
224 237 255
224 237 255
224 237 255
224 237 255
224 237 255
224 237 255
224 237 255
224 237 255
224 237 255
224 237 255
225 237 255
225 237 255
225 237 255
225 237 255
225 237 255
225 237 255
225 237 255
225 237 255
225 237 255
225 237 255
225 237 255
225 237 255
225 237 255
225 237 255
225 237 255
225 238 255
225 238 255
225 238 255
225 238 255
225 238 255
225 238 255
225 238 255
225 238 255
225 238 255
225 238 255
225 238 255
225 238 255
225 238 255
225 238 255
225 238 255
225 238 255
225 238 255
225 238 255
225 238 255
225 238 255
225 238 255
225 238 255
225 238 255
225 238 255
225 238 255
225 238 255
225 238 255
225 238 255
225 238 255
225 238 255
225 238 255
225 238 255
225 238 255
225 238 255
225 238 255
225 238 255
225 238 255
225 238 255
225 238 255
225 238 255
225 238 255
225 238 255
225 238 255
225 238 255
225 238 255
225 238 255
225 238 255
225 238 255
225 238 255
225 238 255
225 238 255
225 238 255
225 238 255
225 238 255
226 238 255
226 238 255
226 238 255
226 238 255
226 238 255
226 238 255
226 238 255
226 238 255
226 238 255
226 238 255
226 238 255
226 238 255
226 238 255
226 238 255
226 238 255
226 238 255
226 238 255
226 238 255
226 238 255
226 238 255
226 238 255
226 238 255
226 238 255
226 238 255
226 238 255
226 238 255
226 238 255
226 238 255
226 238 255
226 238 255
226 238 255
226 238 255
226 238 255
226 238 255
226 238 255
226 238 255
226 238 255
226 238 255
226 238 255
226 238 255
226 238 255
226 238 255
226 238 255
226 238 255
226 238 255
226 238 255
226 238 255
226 238 255
226 238 255
226 238 255
226 238 255
226 238 255
226 238 255
226 238 255
226 238 255
226 238 255
226 238 255
226 238 255
226 238 255
226 238 255
226 238 255
226 238 255
226 238 255
226 238 255
226 238 255
226 238 255
226 238 255
226 238 255
226 238 255
226 238 255
226 238 255
226 238 255
226 238 255
226 238 255
226 238 255
226 238 255
226 238 255
226 238 255
226 238 255
226 238 255
226 238 255
226 238 255
226 238 255
226 238 255
226 238 255
226 238 255
226 238 255
226 238 255
226 238 255
226 238 255
226 238 255
226 238 255
226 238 255
226 238 255
226 238 255
226 238 255
226 238 255
226 238 255
226 238 255
226 238 255
226 238 255
226 238 255
226 238 255
226 238 255
226 238 255
226 238 255
226 238 255
226 238 255
226 238 255
226 238 255
226 238 255
226 238 255
226 238 255
226 238 255
226 238 255
226 238 255
226 238 255
226 238 255
226 238 255
226 238 255
226 238 255
226 238 255
226 238 255
226 238 255
226 238 255
226 238 255
226 238 255
226 238 255
226 238 255
226 238 255
226 238 255
226 238 255
226 238 255
226 238 255
226 238 255
226 238 255
226 238 255
226 238 255
226 238 255
226 238 255
226 238 255
226 238 255
226 238 255
226 238 255
226 238 255
226 238 255
226 238 255
226 238 255
226 238 255
226 238 255
226 238 255
226 238 255
226 238 255
226 238 255
226 238 255
226 238 255
226 238 255
226 238 255
226 238 255
226 238 255
225 238 255
225 238 255
225 238 255
225 238 255
225 238 255
225 238 255
225 238 255
225 238 255
225 238 255
225 238 255
225 238 255
225 238 255
225 238 255
225 238 255
225 238 255
225 238 255
225 238 255
225 238 255
225 238 255
225 238 255
225 238 255
225 238 255
225 238 255
225 238 255
225 238 255
225 238 255
225 238 255
225 238 255
225 238 255
225 238 255
225 238 255
225 238 255
225 238 255
225 238 255
225 238 255
225 238 255
225 238 255
225 238 255
225 238 255
225 238 255
225 238 255
225 238 255
225 238 255
225 238 255
225 238 255
225 238 255
225 238 255
225 238 255
225 238 255
225 238 255
225 238 255
225 238 255
225 238 255
225 238 255
225 237 255
225 237 255
225 237 255
225 237 255
225 237 255
225 237 255
225 237 255
225 237 255
225 237 255
225 237 255
225 237 255
225 237 255
225 237 255
225 237 255
225 237 255
225 237 255
224 237 255
224 237 255
224 237 255
224 237 255
224 237 255
224 237 255
224 237 255
224 237 255
224 237 255
224 237 255
224 237 255
224 237 255
224 237 255
224 237 255
224 237 255
224 237 255
224 237 255
224 237 255
224 237 255
224 237 255
224 237 255
224 237 255
224 237 255
224 237 255
224 237 255
224 237 255
224 237 255
224 237 255
224 237 255
224 237 255
224 237 255
224 237 255
224 237 255
224 237 255
224 237 255
224 237 255
224 237 255
224 237 255
224 237 255
224 237 255
224 237 255
224 237 255
224 237 255
224 237 255
224 237 255
224 237 255
224 237 255
224 237 255
224 237 255
224 237 255
224 237 255
224 237 255
224 237 255
224 237 255
224 237 255
224 237 255
224 237 255
224 237 255
224 237 255
224 237 255
224 237 255
224 237 255
224 237 255
224 237 255
224 237 255
224 237 255
224 237 255
224 237 255
224 237 255
224 237 255
224 237 255
224 237 255
224 237 255
224 237 255
224 237 255
224 237 255
224 237 255
224 237 255
224 237 255
224 237 255
224 237 255
224 237 255
224 237 255
224 237 255
224 237 255
224 237 255
224 237 255
224 237 255
224 237 255
225 237 255
225 237 255
225 237 255
225 237 255
225 237 255
225 237 255
225 237 255
225 237 255
225 237 255
225 237 255
225 237 255
225 237 255
225 237 255
225 237 255
225 237 255
225 238 255
225 238 255
225 238 255
225 238 255
225 238 255
225 238 255
225 238 255
225 238 255
225 238 255
225 238 255
225 238 255
225 238 255
225 238 255
225 238 255
225 238 255
225 238 255
225 238 255
225 238 255
225 238 255
225 238 255
225 238 255
225 238 255
225 238 255
225 238 255
225 238 255
225 238 255
225 238 255
225 238 255
225 238 255
225 238 255
225 238 255
225 238 255
225 238 255
225 238 255
225 238 255
225 238 255
225 238 255
225 238 255
225 238 255
225 238 255
225 238 255
225 238 255
225 238 255
225 238 255
225 238 255
225 238 255
225 238 255
225 238 255
225 238 255
225 238 255
225 238 255
225 238 255
225 238 255
226 238 255
226 238 255
226 238 255
226 238 255
226 238 255
226 238 255
226 238 255
226 238 255
226 238 255
226 238 255
226 238 255
226 238 255
226 238 255
226 238 255
226 238 255
226 238 255
226 238 255
226 238 255
226 238 255
226 238 255
226 238 255
226 238 255
226 238 255
226 238 255
226 238 255
226 238 255
226 238 255
226 238 255
226 238 255
226 238 255
226 238 255
226 238 255
226 238 255
226 238 255
226 238 255
226 238 255
226 238 255
226 238 255
226 238 255
226 238 255
226 238 255
226 238 255
226 238 255
226 238 255
226 238 255
226 238 255
226 238 255
226 238 255
226 238 255
226 238 255
226 238 255
226 238 255
226 238 255
226 238 255
226 238 255
226 238 255
226 238 255
226 238 255
226 238 255
226 238 255
226 238 255
226 238 255
226 238 255
226 238 255
226 238 255
226 238 255
226 238 255
226 238 255
226 238 255
226 238 255
226 238 255
226 239 255
226 239 255
226 239 255
226 239 255
226 239 255
226 239 255
226 239 255
227 239 255
227 239 255
227 239 255
227 239 255
227 239 255
227 239 255
227 239 255
227 239 255
227 239 255
227 239 255
227 239 255
227 239 255
227 239 255
227 239 255
227 239 255
227 239 255
227 239 255
227 239 255
227 239 255
227 239 255
227 239 255
227 239 255
227 239 255
227 239 255
227 239 255
227 239 255
227 239 255
227 239 255
226 239 255
226 239 255
226 239 255
226 239 255
226 239 255
226 239 255
226 239 255
226 238 255
226 238 255
226 239 255
226 238 255
226 238 255
226 238 255
226 238 255
226 238 255
226 238 255
226 238 255
226 238 255
226 238 255
226 238 255
226 238 255
226 238 255
226 238 255
226 238 255
226 238 255
226 238 255
226 238 255
226 238 255
226 238 255
226 238 255
226 238 255
226 238 255
226 238 255
226 238 255
226 238 255
226 238 255
226 238 255
226 238 255
226 238 255
226 238 255
226 238 255
226 238 255
226 238 255
226 238 255
226 238 255
226 238 255
226 238 255
226 238 255
226 238 255
226 238 255
226 238 255
226 238 255
226 238 255
226 238 255
226 238 255
226 238 255
226 238 255
226 238 255
226 238 255
226 238 255
226 238 255
226 238 255
226 238 255
226 238 255
226 238 255
226 238 255
226 238 255
226 238 255
226 238 255
226 238 255
226 238 255
226 238 255
226 238 255
226 238 255
226 238 255
226 238 255
226 238 255
226 238 255
226 238 255
226 238 255
226 238 255
225 238 255
225 238 255
225 238 255
225 238 255
225 238 255
225 238 255
225 238 255
225 238 255
225 238 255
225 238 255
225 238 255
225 238 255
225 238 255
225 238 255
225 238 255
225 238 255
225 238 255
225 238 255
225 238 255
225 238 255
225 238 255
225 238 255
225 238 255
225 238 255
225 238 255
225 238 255
225 238 255
225 238 255
225 238 255
225 238 255
225 238 255
225 238 255
225 238 255
225 238 255
225 238 255
225 238 255
225 238 255
225 238 255
225 238 255
225 238 255
225 238 255
225 238 255
225 238 255
225 238 255
225 238 255
225 238 255
225 238 255
225 238 255
225 238 255
225 238 255
225 238 255
225 238 255
225 237 255
225 237 255
225 237 255
225 237 255
225 237 255
225 237 255
225 237 255
225 237 255
225 237 255
225 237 255
225 237 255
225 237 255
225 237 255
225 237 255
225 237 255
224 237 255
224 237 255
224 237 255
224 237 255
224 237 255
224 237 255
224 237 255
224 237 255
224 237 255
224 237 255
224 237 255
224 237 255
224 237 255
224 237 255
224 237 255
224 237 255
224 237 255
224 237 255
224 237 255
224 237 255
224 237 255
224 237 255
224 237 255
224 237 255
224 237 255
224 237 255
224 237 255
224 237 255
224 237 255
224 237 255
224 237 255
224 237 255
224 237 255
224 237 255
224 237 255
224 237 255
224 237 255
224 237 255
224 237 255
224 237 255
224 237 255
224 237 255
224 237 255
224 237 255
224 237 255
224 237 255
224 237 255
224 237 255
224 237 255
224 237 255
224 237 255
224 237 255
224 237 255
224 237 255
224 237 255
224 237 255
224 237 255
224 237 255
224 237 255
224 237 255
224 237 255
224 237 255
224 237 255
224 237 255
224 237 255
224 237 255
225 237 255
225 237 255
225 237 255
225 237 255
225 237 255
225 237 255
225 237 255
225 237 255
225 237 255
225 237 255
225 237 255
225 237 255
225 237 255
225 237 255
225 237 255
225 237 255
225 238 255
225 238 255
225 238 255
225 238 255
225 238 255
225 238 255
225 238 255
225 238 255
225 238 255
225 238 255
225 238 255
225 238 255
225 238 255
225 238 255
225 238 255
225 238 255
225 238 255
225 238 255
225 238 255
225 238 255
225 238 255
225 238 255
225 238 255
225 238 255
225 238 255
225 238 255
225 238 255
225 238 255
225 238 255
225 238 255
225 238 255
225 238 255
225 238 255
225 238 255
225 238 255
225 238 255
225 238 255
225 238 255
225 238 255
225 238 255
225 238 255
225 238 255
225 238 255
225 238 255
225 238 255
225 238 255
225 238 255
225 238 255
225 238 255
225 238 255
225 238 255
225 238 255
225 238 255
226 238 255
226 238 255
226 238 255
226 238 255
226 238 255
226 238 255
226 238 255
226 238 255
226 238 255
226 238 255
226 238 255
226 238 255
226 238 255
226 238 255
226 238 255
226 238 255
226 238 255
226 238 255
226 238 255
226 238 255
226 238 255
226 238 255
226 238 255
226 238 255
226 238 255
226 238 255
226 238 255
226 238 255
226 238 255
226 238 255
226 238 255
226 238 255
226 238 255
226 238 255
226 238 255
226 238 255
226 238 255
226 238 255
226 238 255
226 238 255
226 238 255
226 238 255
226 238 255
226 238 255
226 238 255
226 238 255
226 238 255
226 238 255
226 238 255
226 238 255
226 238 255
226 238 255
226 238 255
226 238 255
226 238 255
226 238 255
226 238 255
226 238 255
226 238 255
226 239 255
226 239 255
226 239 255
227 239 255
227 239 255
227 239 255
227 239 255
227 239 255
227 239 255
227 239 255
227 239 255
227 239 255
227 239 255
227 239 255
227 239 255
227 239 255
227 239 255
227 239 255
227 239 255
227 239 255
227 239 255
227 239 255
227 239 255
227 239 255
227 239 255
227 239 255
227 239 255
227 239 255
227 239 255
227 239 255
227 239 255
227 239 255
227 239 255
227 239 255
227 239 255
227 239 255
227 239 255
227 239 255
227 239 255
227 239 255
227 239 255
227 239 255
227 239 255
227 239 255
227 239 255
227 239 255
227 239 255
227 239 255
227 239 255
227 239 255
227 239 255
227 239 255
227 239 255
227 239 255
227 239 255
227 239 255
227 239 255
227 239 255
227 239 255
227 239 255
227 239 255
227 239 255
227 239 255
227 239 255
227 239 255
227 239 255
227 239 255
227 239 255
227 239 255
227 239 255
227 239 255
227 239 255
227 239 255
227 239 255
227 239 255
227 239 255
227 239 255
227 239 255
227 239 255
227 239 255
227 239 255
227 239 255
227 239 255
227 239 255
227 239 255
227 239 255
227 239 255
226 239 255
226 239 255
226 239 255
226 239 255
226 238 255
226 238 255
226 238 255
226 238 255
226 238 255
226 238 255
226 238 255
226 238 255
226 238 255
226 238 255
226 238 255
226 238 255
226 238 255
226 238 255
226 238 255
226 238 255
226 238 255
226 238 255
226 238 255
226 238 255
226 238 255
226 238 255
226 238 255
226 238 255
226 238 255
226 238 255
226 238 255
226 238 255
226 238 255
226 238 255
226 238 255
226 238 255
226 238 255
226 238 255
226 238 255
226 238 255
226 238 255
226 238 255
226 238 255
226 238 255
226 238 255
226 238 255
226 238 255
226 238 255
226 238 255
226 238 255
226 238 255
226 238 255
226 238 255
226 238 255
226 238 255
226 238 255
226 238 255
226 238 255
226 238 255
226 238 255
226 238 255
226 238 255
226 238 255
225 238 255
225 238 255
225 238 255
225 238 255
225 238 255
225 238 255
225 238 255
225 238 255
225 238 255
225 238 255
225 238 255
225 238 255
225 238 255
225 238 255
225 238 255
225 238 255
225 238 255
225 238 255
225 238 255
225 238 255
225 238 255
225 238 255
225 238 255
225 238 255
225 238 255
225 238 255
225 238 255
225 238 255
225 238 255
225 238 255
225 238 255
225 238 255
225 238 255
225 238 255
225 238 255
225 238 255
225 238 255
225 238 255
225 238 255
225 238 255
225 238 255
225 238 255
225 238 255
225 238 255
225 238 255
225 238 255
225 238 255
225 238 255
225 238 255
225 238 255
225 238 255
225 238 255
225 237 255
225 237 255
225 237 255
225 237 255
225 237 255
225 237 255
225 237 255
225 237 255
225 237 255
225 237 255
225 237 255
225 237 255
225 237 255
225 237 255
225 237 255
225 237 255
224 237 255
224 237 255
224 237 255
224 237 255
224 237 255
224 237 255
224 237 255
224 237 255
224 237 255
224 237 255
224 237 255
224 237 255
224 237 255
224 237 255
224 237 255
224 237 255
224 237 255
224 237 255
224 237 255
224 237 255
224 237 255
224 237 255
224 237 255
224 237 255
224 237 255
224 237 255
224 237 255
224 237 255
224 237 255
224 237 255
224 237 255
224 237 255
224 237 255
224 237 255
224 237 255
224 237 255
224 237 255
224 237 255
224 237 255
224 237 255
224 237 255
224 237 255
225 237 255
225 237 255
225 237 255
225 237 255
225 237 255
225 237 255
225 237 255
225 237 255
225 237 255
225 237 255
225 237 255
225 237 255
225 237 255
225 237 255
225 237 255
225 237 255
225 237 255
225 238 255
225 238 255
225 238 255
225 238 255
225 238 255
225 238 255
225 238 255
225 238 255
225 238 255
225 238 255
225 238 255
225 238 255
225 238 255
225 238 255
225 238 255
225 238 255
225 238 255
225 238 255
225 238 255
225 238 255
225 238 255
225 238 255
225 238 255
225 238 255
225 238 255
225 238 255
225 238 255
225 238 255
225 238 255
225 238 255
225 238 255
225 238 255
225 238 255
225 238 255
225 238 255
225 238 255
225 238 255
225 238 255
225 238 255
225 238 255
225 238 255
225 238 255
225 238 255
225 238 255
225 238 255
225 238 255
225 238 255
225 238 255
225 238 255
225 238 255
225 238 255
225 238 255
226 238 255
226 238 255
226 238 255
226 238 255
226 238 255
226 238 255
226 238 255
226 238 255
226 238 255
226 238 255
226 238 255
226 238 255
226 238 255
226 238 255
226 238 255
226 238 255
226 238 255
226 238 255
226 238 255
226 238 255
226 238 255
226 238 255
226 238 255
226 238 255
226 238 255
226 238 255
226 238 255
226 238 255
226 238 255
226 238 255
226 238 255
226 238 255
226 238 255
226 238 255
226 238 255
226 238 255
226 238 255
226 238 255
226 238 255
226 238 255
226 238 255
226 238 255
226 238 255
226 238 255
226 238 255
226 238 255
226 238 255
226 238 255
226 238 255
226 238 255
226 238 255
226 238 255
226 238 255
226 238 255
226 238 255
226 238 255
226 239 255
227 239 255
227 239 255
227 239 255
227 239 255
227 239 255
227 239 255
227 239 255
227 239 255
227 239 255
227 239 255
227 239 255
227 239 255
227 239 255
227 239 255
227 239 255
227 239 255
227 239 255
227 239 255
227 239 255
227 239 255
227 239 255
227 239 255
227 239 255
227 239 255
227 239 255
227 239 255
227 239 255
227 239 255
227 239 255
227 239 255
227 239 255
227 239 255
227 239 255
227 239 255
227 239 255
227 239 255
227 239 255
227 239 255
227 239 255
227 239 255
227 239 255
227 239 255
227 239 255
227 239 255
227 239 255
227 239 255
227 239 255
227 239 255
227 239 255
227 239 255
227 239 255
227 239 255
227 239 255
227 239 255
227 239 255
227 239 255
227 239 255
227 239 255
227 239 255
227 239 255
227 239 255
227 239 255
227 239 255
227 239 255
227 239 255
227 239 255
227 239 255
227 239 255
227 239 255
227 239 255
227 239 255
227 239 255
227 239 255
227 239 255
227 239 255
227 239 255
227 239 255
227 239 255
227 239 255
227 239 255
227 239 255
227 239 255
227 239 255
227 239 255
227 239 255
227 239 255
227 239 255
227 239 255
227 239 255
227 239 255
227 239 255
227 239 255
227 239 255
227 239 255
227 239 255
227 239 255
227 239 255
227 239 255
227 239 255
227 239 255
227 239 255
227 239 255
227 239 255
227 239 255
227 239 255
227 239 255
227 239 255
227 239 255
227 239 255
227 239 255
227 239 255
227 239 255
227 239 255
227 239 255
227 239 255
227 239 255
227 239 255
227 239 255
226 239 255
226 239 255
226 238 255
226 238 255
226 238 255
226 238 255
226 238 255
226 238 255
226 238 255
226 238 255
226 238 255
226 238 255
226 238 255
226 238 255
226 238 255
226 238 255
226 238 255
226 238 255
226 238 255
226 238 255
226 238 255
226 238 255
226 238 255
226 238 255
226 238 255
226 238 255
226 238 255
226 238 255
226 238 255
226 238 255
226 238 255
226 238 255
226 238 255
226 238 255
226 238 255
226 238 255
226 238 255
226 238 255
226 238 255
226 238 255
226 238 255
226 238 255
226 238 255
226 238 255
226 238 255
226 238 255
226 238 255
226 238 255
226 238 255
226 238 255
226 238 255
226 238 255
226 238 255
226 238 255
226 238 255
226 238 255
226 238 255
225 238 255
225 238 255
225 238 255
225 238 255
225 238 255
225 238 255
225 238 255
225 238 255
225 238 255
225 238 255
225 238 255
225 238 255
225 238 255
225 238 255
225 238 255
225 238 255
225 238 255
225 238 255
225 238 255
225 238 255
225 238 255
225 238 255
225 238 255
225 238 255
225 238 255
225 238 255
225 238 255
225 238 255
225 238 255
225 238 255
225 238 255
225 238 255
225 238 255
225 238 255
225 238 255
225 238 255
225 238 255
225 238 255
225 238 255
225 238 255
225 238 255
225 238 255
225 238 255
225 238 255
225 238 255
225 238 255
225 238 255
225 238 255
225 238 255
225 238 255
225 238 255
225 238 255
225 237 255
225 237 255
225 237 255
225 237 255
225 237 255
225 237 255
225 237 255
225 237 255
225 237 255
225 237 255
225 237 255
225 237 255
225 237 255
225 237 255
225 237 255
225 237 255
225 237 255
224 237 255
224 237 255
224 237 255
224 237 255
224 237 255
224 237 255
224 237 255
224 237 255
224 237 255
224 237 255
224 237 255
224 237 255
224 237 255
224 237 255
224 237 255
224 237 255
224 237 255
224 237 255
224 237 255
225 237 255
225 237 255
225 237 255
225 237 255
225 237 255
225 237 255
225 237 255
225 237 255
225 237 255
225 237 255
225 237 255
225 237 255
225 237 255
225 237 255
225 237 255
225 237 255
225 237 255
225 238 255
225 238 255
225 238 255
225 238 255
225 238 255
225 238 255
225 238 255
225 238 255
225 238 255
225 238 255
225 238 255
225 238 255
225 238 255
225 238 255
225 238 255
225 238 255
225 238 255
225 238 255
225 238 255
225 238 255
225 238 255
225 238 255
225 238 255
225 238 255
225 238 255
225 238 255
225 238 255
225 238 255
225 238 255
225 238 255
225 238 255
225 238 255
225 238 255
225 238 255
225 238 255
225 238 255
225 238 255
225 238 255
225 238 255
225 238 255
225 238 255
225 238 255
225 238 255
225 238 255
225 238 255
225 238 255
225 238 255
225 238 255
225 238 255
225 238 255
225 238 255
225 238 255
226 238 255
226 238 255
226 238 255
226 238 255
226 238 255
226 238 255
226 238 255
226 238 255
226 238 255
226 238 255
226 238 255
226 238 255
226 238 255
226 238 255
226 238 255
226 238 255
226 238 255
226 238 255
226 238 255
226 238 255
226 238 255
226 238 255
226 238 255
226 238 255
226 238 255
226 238 255
226 238 255
226 238 255
226 238 255
226 238 255
226 238 255
226 238 255
226 238 255
226 238 255
226 238 255
226 238 255
226 238 255
226 238 255
226 238 255
226 238 255
226 238 255
226 238 255
226 238 255
226 238 255
226 238 255
226 238 255
226 238 255
226 238 255
226 238 255
226 238 255
226 238 255
226 238 255
226 238 255
226 238 255
226 239 255
226 239 255
227 239 255
227 239 255
227 239 255
227 239 255
227 239 255
227 239 255
227 239 255
227 239 255
227 239 255
227 239 255
227 239 255
227 239 255
227 239 255
227 239 255
227 239 255
227 239 255
227 239 255
227 239 255
227 239 255
227 239 255
227 239 255
227 239 255
227 239 255
227 239 255
227 239 255
227 239 255
227 239 255
227 239 255
227 239 255
227 239 255
227 239 255
227 239 255
227 239 255
227 239 255
227 239 255
227 239 255
227 239 255
227 239 255
227 239 255
227 239 255
227 239 255
227 239 255
227 239 255
227 239 255
227 239 255
227 239 255
227 239 255
227 239 255
227 239 255
227 239 255
227 239 255
227 239 255
227 239 255
227 239 255
227 239 255
227 239 255
227 239 255
227 239 255
227 239 255
227 239 255
227 239 255
227 239 255
227 239 255
227 239 255
227 239 255
227 239 255
227 239 255
227 239 255
227 239 255
227 239 255
227 239 255
227 239 255
227 239 255
227 239 255
227 239 255
227 239 255
227 239 255
227 239 255
227 239 255
227 239 255
227 239 255
227 239 255
227 239 255
227 239 255
227 239 255
227 239 255
227 239 255
227 239 255
227 239 255
227 239 255
227 239 255
227 239 255
227 239 255
227 239 255
227 239 255
227 239 255
227 239 255
227 239 255
227 239 255
227 239 255
227 239 255
227 239 255
227 239 255
227 239 255
227 239 255
227 239 255
227 239 255
227 239 255
227 239 255
227 239 255
227 239 255
227 239 255
227 239 255
227 239 255
227 239 255
227 239 255
227 239 255
227 239 255
227 239 255
227 239 255
227 239 255
227 239 255
227 239 255
227 239 255
227 239 255
227 239 255
227 239 255
227 239 255
227 239 255
227 239 255
227 239 255
227 239 255
227 239 255
227 239 255
227 239 255
227 239 255
227 239 255
227 239 255
227 239 255
227 239 255
227 239 255
227 239 255
227 239 255
226 239 255
226 238 255
226 238 255
226 238 255
226 238 255
226 238 255
226 238 255
226 238 255
226 238 255
226 238 255
226 238 255
226 238 255
226 238 255
226 238 255
226 238 255
226 238 255
226 238 255
226 238 255
226 238 255
226 238 255
226 238 255
226 238 255
226 238 255
226 238 255
226 238 255
226 238 255
226 238 255
226 238 255
226 238 255
226 238 255
226 238 255
226 238 255
226 238 255
226 238 255
226 238 255
226 238 255
226 238 255
226 238 255
226 238 255
226 238 255
226 238 255
226 238 255
226 238 255
226 238 255
226 238 255
226 238 255
226 238 255
226 238 255
226 238 255
226 238 255
226 238 255
226 238 255
226 238 255
226 238 255
225 238 255
225 238 255
225 238 255
225 238 255
225 238 255
225 238 255
225 238 255
225 238 255
225 238 255
225 238 255
225 238 255
225 238 255
225 238 255
225 238 255
225 238 255
225 238 255
225 238 255
225 238 255
225 238 255
225 238 255
225 238 255
225 238 255
225 238 255
225 238 255
225 238 255
225 238 255
225 238 255
225 238 255
225 238 255
225 238 255
225 238 255
225 238 255
225 238 255
225 238 255
225 238 255
225 238 255
225 238 255
225 238 255
225 238 255
225 238 255
225 238 255
225 238 255
225 238 255
225 238 255
225 238 255
225 238 255
225 238 255
225 238 255
225 238 255
225 238 255
225 238 255
225 238 255
225 238 255
225 238 255
225 237 255
225 237 255
225 237 255
225 237 255
225 237 255
225 237 255
225 237 255
225 237 255
225 237 255
225 237 255
225 237 255
225 237 255
225 237 255
225 237 255
225 237 255
225 237 255
224 237 255
224 237 255
224 237 255
224 237 255
225 237 255
225 237 255
225 237 255
225 237 255
225 237 255
225 237 255
225 237 255
225 237 255
225 237 255
225 238 255
225 238 255
225 238 255
225 238 255
225 238 255
225 238 255
225 238 255
225 238 255
225 238 255
225 238 255
225 238 255
225 238 255
225 238 255
225 238 255
225 238 255
225 238 255
225 238 255
225 238 255
225 238 255
225 238 255
225 238 255
225 238 255
225 238 255
225 238 255
225 238 255
225 238 255
225 238 255
225 238 255
225 238 255
225 238 255
225 238 255
225 238 255
225 238 255
225 238 255
225 238 255
225 238 255
225 238 255
225 238 255
225 238 255
225 238 255
225 238 255
225 238 255
225 238 255
225 238 255
225 238 255
225 238 255
225 238 255
225 238 255
225 238 255
225 238 255
225 238 255
225 238 255
225 238 255
225 238 255
225 238 255
226 238 255
226 238 255
226 238 255
226 238 255
226 238 255
226 238 255
226 238 255
226 238 255
226 238 255
226 238 255
226 238 255
226 238 255
226 238 255
226 238 255
226 238 255
226 238 255
226 238 255
226 238 255
226 238 255
226 238 255
226 238 255
226 238 255
226 238 255
226 238 255
226 238 255
226 238 255
226 238 255
226 238 255
226 238 255
226 238 255
226 238 255
226 238 255
226 238 255
226 238 255
226 238 255
226 238 255
226 238 255
226 238 255
226 238 255
226 238 255
226 238 255
226 238 255
226 238 255
226 238 255
226 238 255
226 238 255
226 238 255
226 238 255
226 238 255
226 238 255
226 238 255
226 239 255
226 239 255
227 239 255
227 239 255
227 239 255
227 239 255
227 239 255
227 239 255
227 239 255
227 239 255
227 239 255
227 239 255
227 239 255
227 239 255
227 239 255
227 239 255
227 239 255
227 239 255
227 239 255
227 239 255
227 239 255
227 239 255
227 239 255
227 239 255
227 239 255
227 239 255
227 239 255
227 239 255
227 239 255
227 239 255
227 239 255
227 239 255
227 239 255
227 239 255
227 239 255
227 239 255
227 239 255
227 239 255
227 239 255
227 239 255
227 239 255
227 239 255
227 239 255
227 239 255
227 239 255
227 239 255
227 239 255
227 239 255
227 239 255
227 239 255
227 239 255
227 239 255
227 239 255
227 239 255
227 239 255
227 239 255
227 239 255
227 239 255
227 239 255
227 239 255
227 239 255
227 239 255
227 239 255
227 239 255
227 239 255
227 239 255
227 239 255
228 239 255
227 239 255
228 239 255
228 239 255
228 239 255
228 239 255
228 239 255
228 239 255
228 239 255
228 239 255
228 239 255
228 239 255
228 239 255
228 239 255
228 239 255
228 239 255
228 239 255
228 239 255
228 239 255
228 239 255
228 239 255
228 239 255
228 239 255
228 239 255
228 239 255
228 239 255
228 239 255
228 239 255
228 239 255
228 239 255
228 239 255
228 239 255
228 239 255
228 239 255
227 239 255
227 239 255
227 239 255
227 239 255
227 239 255
227 239 255
227 239 255
227 239 255
227 239 255
227 239 255
227 239 255
227 239 255
227 239 255
227 239 255
227 239 255
227 239 255
227 239 255
227 239 255
227 239 255
227 239 255
227 239 255
227 239 255
227 239 255
227 239 255
227 239 255
227 239 255
227 239 255
227 239 255
227 239 255
227 239 255
227 239 255
227 239 255
227 239 255
227 239 255
227 239 255
227 239 255
227 239 255
227 239 255
227 239 255
227 239 255
227 239 255
227 239 255
227 239 255
227 239 255
227 239 255
227 239 255
227 239 255
227 239 255
227 239 255
227 239 255
227 239 255
227 239 255
227 239 255
227 239 255
227 239 255
227 239 255
227 239 255
227 239 255
227 239 255
227 239 255
227 239 255
227 239 255
227 239 255
227 239 255
227 239 255
227 239 255
227 239 255
226 239 255
226 239 255
226 238 255
226 238 255
226 238 255
226 238 255
226 238 255
226 238 255
226 238 255
226 238 255
226 238 255
226 238 255
226 238 255
226 238 255
226 238 255
226 238 255
226 238 255
226 238 255
226 238 255
226 238 255
226 238 255
226 238 255
226 238 255
226 238 255
226 238 255
226 238 255
226 238 255
226 238 255
226 238 255
226 238 255
226 238 255
226 238 255
226 238 255
226 238 255
226 238 255
226 238 255
226 238 255
226 238 255
226 238 255
226 238 255
226 238 255
226 238 255
226 238 255
226 238 255
226 238 255
226 238 255
226 238 255
226 238 255
226 238 255
226 238 255
226 238 255
226 238 255
226 238 255
226 238 255
225 238 255
225 238 255
225 238 255
225 238 255
225 238 255
225 238 255
225 238 255
225 238 255
225 238 255
225 238 255
225 238 255
225 238 255
225 238 255
225 238 255
225 238 255
225 238 255
225 238 255
225 238 255
225 238 255
225 238 255
225 238 255
225 238 255
225 238 255
225 238 255
225 238 255
225 238 255
225 238 255
225 238 255
225 238 255
225 238 255
225 238 255
225 238 255
225 238 255
225 238 255
225 238 255
225 238 255
225 238 255
225 238 255
225 238 255
225 238 255
225 238 255
225 238 255
225 238 255
225 238 255
225 238 255
225 238 255
225 238 255
225 238 255
225 238 255
225 238 255
225 238 255
225 238 255
225 238 255
225 237 255
225 237 255
225 237 255
225 237 255
225 237 255
225 237 255
225 237 255
225 237 255
225 237 255
225 237 255
225 238 255
225 238 255
225 238 255
225 238 255
225 238 255
225 238 255
225 238 255
225 238 255
225 238 255
225 238 255
225 238 255
225 238 255
225 238 255
225 238 255
225 238 255
225 238 255
225 238 255
225 238 255
225 238 255
225 238 255
225 238 255
225 238 255
225 238 255
225 238 255
225 238 255
225 238 255
225 238 255
225 238 255
225 238 255
225 238 255
225 238 255
225 238 255
225 238 255
225 238 255
225 238 255
225 238 255
225 238 255
225 238 255
225 238 255
225 238 255
225 238 255
225 238 255
225 238 255
225 238 255
225 238 255
225 238 255
225 238 255
225 238 255
225 238 255
225 238 255
225 238 255
225 238 255
225 238 255
225 238 255
226 238 255
226 238 255
226 238 255
226 238 255
226 238 255
226 238 255
226 238 255
226 238 255
226 238 255
226 238 255
226 238 255
226 238 255
226 238 255
226 238 255
226 238 255
226 238 255
226 238 255
226 238 255
226 238 255
226 238 255
226 238 255
226 238 255
226 238 255
226 238 255
226 238 255
226 238 255
226 238 255
226 238 255
226 238 255
226 238 255
226 238 255
226 238 255
226 238 255
226 238 255
226 238 255
226 238 255
226 238 255
226 238 255
226 238 255
226 238 255
226 238 255
226 238 255
226 238 255
226 238 255
226 238 255
226 238 255
226 238 255
226 238 255
226 238 255
226 238 255
226 238 255
226 239 255
226 239 255
227 239 255
227 239 255
227 239 255
227 239 255
227 239 255
227 239 255
227 239 255
227 239 255
227 239 255
227 239 255
227 239 255
227 239 255
227 239 255
227 239 255
227 239 255
227 239 255
227 239 255
227 239 255
227 239 255
227 239 255
227 239 255
227 239 255
227 239 255
227 239 255
227 239 255
227 239 255
227 239 255
227 239 255
227 239 255
227 239 255
227 239 255
227 239 255
227 239 255
227 239 255
227 239 255
227 239 255
227 239 255
227 239 255
227 239 255
227 239 255
227 239 255
227 239 255
227 239 255
227 239 255
227 239 255
227 239 255
227 239 255
227 239 255
227 239 255
227 239 255
227 239 255
227 239 255
228 239 255
228 239 255
228 239 255
228 239 255
228 239 255
228 239 255
228 239 255
228 239 255
228 239 255
228 239 255
228 239 255
228 239 255
228 239 255
228 239 255
228 239 255
228 239 255
228 239 255
228 239 255
228 239 255
228 239 255
228 239 255
228 239 255
228 239 255
228 239 255
228 239 255
228 239 255
228 239 255
228 239 255
228 239 255
228 239 255
228 239 255
228 239 255
228 239 255
228 239 255
228 239 255
228 239 255
228 239 255
228 239 255
228 239 255
228 239 255
228 239 255
228 239 255
228 239 255
228 239 255
228 239 255
228 239 255
228 239 255
228 239 255
228 239 255
228 239 255
228 239 255
228 239 255
228 239 255
228 239 255
228 239 255
228 239 255
228 239 255
228 239 255
228 239 255
228 239 255
228 239 255
228 239 255
228 239 255
228 239 255
228 239 255
228 239 255
228 239 255
228 239 255
228 239 255
228 239 255
228 239 255
228 239 255
228 239 255
228 239 255
228 239 255
228 239 255
228 239 255
228 239 255
228 239 255
228 239 255
227 239 255
227 239 255
227 239 255
227 239 255
227 239 255
227 239 255
227 239 255
227 239 255
227 239 255
227 239 255
227 239 255
227 239 255
227 239 255
227 239 255
227 239 255
227 239 255
227 239 255
227 239 255
227 239 255
227 239 255
227 239 255
227 239 255
227 239 255
227 239 255
227 239 255
227 239 255
227 239 255
227 239 255
227 239 255
227 239 255
227 239 255
227 239 255
227 239 255
227 239 255
227 239 255
227 239 255
227 239 255
227 239 255
227 239 255
227 239 255
227 239 255
227 239 255
227 239 255
227 239 255
227 239 255
227 239 255
227 239 255
227 239 255
227 239 255
227 239 255
227 239 255
227 239 255
227 239 255
227 239 255
226 239 255
226 239 255
226 238 255
226 238 255
226 238 255
226 238 255
226 238 255
226 238 255
226 238 255
226 238 255
226 238 255
226 238 255
226 238 255
226 238 255
226 238 255
226 238 255
226 238 255
226 238 255
226 238 255
226 238 255
226 238 255
226 238 255
226 238 255
226 238 255
226 238 255
226 238 255
226 238 255
226 238 255
226 238 255
226 238 255
226 238 255
226 238 255
226 238 255
226 238 255
226 238 255
226 238 255
226 238 255
226 238 255
226 238 255
226 238 255
226 238 255
226 238 255
226 238 255
226 238 255
226 238 255
226 238 255
226 238 255
226 238 255
226 238 255
226 238 255
226 238 255
226 238 255
226 238 255
225 238 255
225 238 255
225 238 255
225 238 255
225 238 255
225 238 255
225 238 255
225 238 255
225 238 255
225 238 255
225 238 255
225 238 255
225 238 255
225 238 255
225 238 255
225 238 255
225 238 255
225 238 255
225 238 255
225 238 255
225 238 255
225 238 255
225 238 255
225 238 255
225 238 255
225 238 255
225 238 255
225 238 255
225 238 255
225 238 255
225 238 255
225 238 255
225 238 255
225 238 255
225 238 255
225 238 255
225 238 255
225 238 255
225 238 255
225 238 255
225 238 255
225 238 255
225 238 255
225 238 255
225 238 255
225 238 255
225 238 255
225 238 255
225 238 255
225 238 255
225 238 255
225 238 255
225 238 255
225 238 255
225 238 255
225 238 255
225 238 255
225 238 255
225 238 255
225 238 255
225 238 255
225 238 255
225 238 255
225 238 255
225 238 255
225 238 255
225 238 255
225 238 255
225 238 255
225 238 255
225 238 255
225 238 255
225 238 255
225 238 255
225 238 255
225 238 255
225 238 255
225 238 255
225 238 255
225 238 255
225 238 255
225 238 255
225 238 255
225 238 255
225 238 255
225 238 255
225 238 255
225 238 255
225 238 255
225 238 255
225 238 255
225 238 255
225 238 255
225 238 255
225 238 255
225 238 255
225 238 255
225 238 255
225 238 255
226 238 255
226 238 255
226 238 255
226 238 255
226 238 255
226 238 255
226 238 255
226 238 255
226 238 255
226 238 255
226 238 255
226 238 255
226 238 255
226 238 255
226 238 255
226 238 255
226 238 255
226 238 255
226 238 255
226 238 255
226 238 255
226 238 255
226 238 255
226 238 255
226 238 255
226 238 255
226 238 255
226 238 255
226 238 255
226 238 255
226 238 255
226 238 255
226 238 255
226 238 255
226 238 255
226 238 255
226 238 255
226 238 255
226 238 255
226 238 255
226 238 255
226 238 255
226 238 255
226 238 255
226 238 255
226 238 255
226 238 255
226 238 255
226 238 255
226 238 255
226 238 255
226 239 255
227 239 255
227 239 255
227 239 255
227 239 255
227 239 255
227 239 255
227 239 255
227 239 255
227 239 255
227 239 255
227 239 255
227 239 255
227 239 255
227 239 255
227 239 255
227 239 255
227 239 255
227 239 255
227 239 255
227 239 255
227 239 255
227 239 255
227 239 255
227 239 255
227 239 255
227 239 255
227 239 255
227 239 255
227 239 255
227 239 255
227 239 255
227 239 255
227 239 255
227 239 255
227 239 255
227 239 255
227 239 255
227 239 255
227 239 255
227 239 255
227 239 255
227 239 255
227 239 255
227 239 255
227 239 255
227 239 255
227 239 255
227 239 255
227 239 255
228 239 255
228 239 255
228 239 255
228 239 255
228 239 255
228 239 255
228 239 255
228 239 255
228 239 255
228 239 255
228 239 255
228 239 255
228 239 255
228 239 255
228 239 255
228 239 255
228 239 255
228 239 255
228 239 255
228 239 255
228 239 255
228 239 255
228 239 255
228 239 255
228 239 255
228 239 255
228 239 255
228 239 255
228 239 255
228 239 255
228 239 255
228 239 255
228 239 255
228 239 255
228 239 255
228 239 255
228 239 255
228 239 255
228 239 255
228 239 255
228 239 255
228 239 255
228 239 255
228 239 255
228 239 255
228 239 255
228 239 255
228 239 255
228 239 255
228 239 255
228 239 255
228 239 255
228 239 255
228 239 255
228 239 255
228 239 255
228 239 255
228 239 255
228 239 255
228 239 255
228 239 255
228 239 255
228 239 255
228 239 255
228 239 255
228 239 255
228 239 255
228 239 255
228 239 255
228 239 255
228 239 255
228 239 255
228 239 255
228 239 255
228 239 255
228 239 255
228 239 255
228 239 255
228 239 255
228 239 255
228 239 255
228 239 255
228 239 255
228 239 255
228 239 255
228 239 255
228 239 255
228 239 255
228 239 255
228 239 255
228 239 255
228 239 255
228 239 255
228 239 255
228 239 255
228 239 255
228 239 255
228 239 255
228 239 255
228 239 255
228 239 255
228 239 255
228 239 255
228 239 255
228 239 255
228 239 255
228 239 255
228 239 255
227 239 255
227 239 255
227 239 255
227 239 255
227 239 255
227 239 255
227 239 255
227 239 255
227 239 255
227 239 255
227 239 255
227 239 255
227 239 255
227 239 255
227 239 255
227 239 255
227 239 255
227 239 255
227 239 255
227 239 255
227 239 255
227 239 255
227 239 255
227 239 255
227 239 255
227 239 255
227 239 255
227 239 255
227 239 255
227 239 255
227 239 255
227 239 255
227 239 255
227 239 255
227 239 255
227 239 255
227 239 255
227 239 255
227 239 255
227 239 255
227 239 255
227 239 255
227 239 255
227 239 255
227 239 255
227 239 255
227 239 255
227 239 255
227 239 255
226 239 255
226 239 255
226 238 255
226 238 255
226 238 255
226 238 255
226 238 255
226 238 255
226 238 255
226 238 255
226 238 255
226 238 255
226 238 255
226 238 255
226 238 255
226 238 255
226 238 255
226 238 255
226 238 255
226 238 255
226 238 255
226 238 255
226 238 255
226 238 255
226 238 255
226 238 255
226 238 255
226 238 255
226 238 255
226 238 255
226 238 255
226 238 255
226 238 255
226 238 255
226 238 255
226 238 255
226 238 255
226 238 255
226 238 255
226 238 255
226 238 255
226 238 255
226 238 255
226 238 255
226 238 255
226 238 255
226 238 255
226 238 255
226 238 255
226 238 255
226 238 255
226 238 255
226 238 255
225 238 255
225 238 255
225 238 255
225 238 255
225 238 255
225 238 255
225 238 255
225 238 255
225 238 255
225 238 255
225 238 255
225 238 255
225 238 255
225 238 255
225 238 255
225 238 255
225 238 255
225 238 255
225 238 255
225 238 255
225 238 255
225 238 255
225 238 255
225 238 255
225 238 255
225 238 255
225 238 255
225 238 255
225 238 255
225 238 255
225 238 255
225 238 255
225 238 255
225 238 255
225 238 255
225 238 255
225 238 255
225 238 255
225 238 255
225 238 255
225 238 255
225 238 255
225 238 255
225 238 255
225 238 255
225 238 255
225 238 255
225 238 255
225 238 255
225 238 255
225 238 255
225 238 255
225 238 255
225 238 255
225 238 255
225 238 255
225 238 255
225 238 255
225 238 255
225 238 255
225 238 255
225 238 255
225 238 255
225 238 255
225 238 255
225 238 255
225 238 255
225 238 255
225 238 255
225 238 255
225 238 255
225 238 255
225 238 255
225 238 255
225 238 255
225 238 255
225 238 255
225 238 255
225 238 255
226 238 255
226 238 255
226 238 255
226 238 255
226 238 255
226 238 255
226 238 255
226 238 255
226 238 255
226 238 255
226 238 255
226 238 255
226 238 255
226 238 255
226 238 255
226 238 255
226 238 255
226 238 255
226 238 255
226 238 255
226 238 255
226 238 255
226 238 255
226 238 255
226 238 255
226 238 255
226 238 255
226 238 255
226 238 255
226 238 255
226 238 255
226 238 255
226 238 255
226 238 255
226 238 255
226 238 255
226 238 255
226 238 255
226 238 255
226 238 255
226 238 255
226 238 255
226 238 255
226 238 255
226 238 255
226 238 255
226 238 255
226 238 255
226 238 255
226 238 255
226 238 255
226 239 255
226 239 255
227 239 255
227 239 255
227 239 255
227 239 255
227 239 255
227 239 255
227 239 255
227 239 255
227 239 255
227 239 255
227 239 255
227 239 255
227 239 255
227 239 255
227 239 255
227 239 255
227 239 255
227 239 255
227 239 255
227 239 255
227 239 255
227 239 255
227 239 255
227 239 255
227 239 255
227 239 255
227 239 255
227 239 255
227 239 255
227 239 255
227 239 255
227 239 255
227 239 255
227 239 255
227 239 255
227 239 255
227 239 255
227 239 255
227 239 255
227 239 255
227 239 255
227 239 255
227 239 255
227 239 255
227 239 255
227 239 255
228 239 255
228 239 255
228 239 255
228 239 255
228 239 255
228 239 255
228 239 255
228 239 255
228 239 255
228 239 255
228 239 255
228 239 255
228 239 255
228 239 255
228 239 255
228 239 255
228 239 255
228 239 255
228 239 255
228 239 255
228 239 255
228 239 255
228 239 255
228 239 255
228 239 255
228 239 255
228 239 255
228 239 255
228 239 255
228 239 255
228 239 255
228 239 255
228 239 255
228 239 255
228 239 255
228 239 255
228 239 255
228 239 255
228 239 255
222 239 252
214 237 248
208 237 244
212 237 246
201 236 241
194 235 237
187 233 233
174 232 227
171 232 226
164 231 223
164 231 223
144 229 214
148 230 215
158 230 220
139 228 211
155 230 218
139 227 211
131 228 208
129 227 207
127 227 207
109 225 200
121 227 204
123 226 205
116 227 203
125 226 206
114 226 202
112 226 201
129 227 207
114 226 202
121 227 204
116 226 203
121 227 204
123 227 205
127 227 207
131 227 208
123 227 205
140 229 212
127 227 207
149 229 216
151 230 217
131 228 208
155 230 218
142 229 213
169 231 225
164 231 223
189 234 235
181 233 231
194 235 237
185 234 233
198 235 239
218 238 250
214 238 248
219 238 250
224 239 253
227 239 255
228 239 255
228 239 255
228 239 255
228 239 255
228 239 255
228 239 255
228 239 255
228 239 255
228 239 255
228 239 255
228 239 255
228 239 255
228 239 255
228 239 255
228 239 255
228 239 255
228 239 255
228 239 255
228 239 255
228 239 255
228 239 255
228 239 255
228 239 255
228 239 255
228 239 255
228 239 255
228 239 255
228 239 255
228 239 255
228 239 255
228 239 255
228 239 255
228 239 255
228 239 255
228 239 255
228 239 255
228 239 255
228 239 255
227 239 255
227 239 255
227 239 255
227 239 255
227 239 255
227 239 255
227 239 255
227 239 255
227 239 255
227 239 255
227 239 255
227 239 255
227 239 255
227 239 255
227 239 255
227 239 255
227 239 255
227 239 255
227 239 255
227 239 255
227 239 255
227 239 255
227 239 255
227 239 255
227 239 255
227 239 255
227 239 255
227 239 255
227 239 255
227 239 255
227 239 255
227 239 255
227 239 255
227 239 255
227 239 255
227 239 255
227 239 255
227 239 255
227 239 255
227 239 255
227 239 255
227 239 255
227 239 255
227 239 255
227 239 255
227 239 255
226 239 255
226 239 255
226 238 255
226 238 255
226 238 255
226 238 255
226 238 255
226 238 255
226 238 255
226 238 255
226 238 255
226 238 255
226 238 255
226 238 255
226 238 255
226 238 255
226 238 255
226 238 255
226 238 255
226 238 255
226 238 255
226 238 255
226 238 255
226 238 255
226 238 255
226 238 255
226 238 255
226 238 255
226 238 255
226 238 255
226 238 255
226 238 255
226 238 255
226 238 255
226 238 255
226 238 255
226 238 255
226 238 255
226 238 255
226 238 255
226 238 255
226 238 255
226 238 255
226 238 255
226 238 255
226 238 255
226 238 255
226 238 255
226 238 255
226 238 255
226 238 255
226 238 255
226 238 255
225 238 255
225 238 255
225 238 255
225 238 255
225 238 255
225 238 255
225 238 255
225 238 255
225 238 255
225 238 255
225 238 255
225 238 255
225 238 255
225 238 255
225 238 255
225 238 255
225 238 255
225 238 255
225 238 255
225 238 255
225 238 255
225 238 255
225 238 255
225 238 255
225 238 255
225 238 255
225 238 255
225 238 255
225 238 255
225 238 255
225 238 255
225 238 255
225 238 255
225 238 255
225 238 255
225 238 255
225 238 255
225 238 255
225 238 255
225 238 255
225 238 255
225 238 255
225 238 255
225 238 255
225 238 255
225 238 255
225 238 255
225 238 255
225 238 255
225 238 255
225 238 255
225 238 255
225 238 255
225 238 255
225 238 255
225 238 255
225 238 255
225 238 255
225 238 255
225 238 255
225 238 255
225 238 255
226 238 255
226 238 255
226 238 255
226 238 255
226 238 255
226 238 255
226 238 255
226 238 255
226 238 255
226 238 255
226 238 255
226 238 255
226 238 255
226 238 255
226 238 255
226 238 255
226 238 255
226 238 255
226 238 255
226 238 255
226 238 255
226 238 255
226 238 255
226 238 255
226 238 255
226 238 255
226 238 255
226 238 255
226 238 255
226 238 255
226 238 255
226 238 255
226 238 255
226 238 255
226 238 255
226 238 255
226 238 255
226 238 255
226 238 255
226 238 255
226 238 255
226 238 255
226 238 255
226 238 255
226 238 255
226 238 255
226 238 255
226 238 255
226 238 255
226 238 255
226 238 255
226 239 255
227 239 255
227 239 255
227 239 255
227 239 255
227 239 255
227 239 255
227 239 255
227 239 255
227 239 255
227 239 255
227 239 255
227 239 255
227 239 255
227 239 255
227 239 255
227 239 255
227 239 255
227 239 255
227 239 255
227 239 255
227 239 255
227 239 255
227 239 255
227 239 255
227 239 255
227 239 255
227 239 255
227 239 255
227 239 255
227 239 255
227 239 255
227 239 255
227 239 255
227 239 255
227 239 255
227 239 255
227 239 255
227 239 255
227 239 255
227 239 255
227 239 255
227 239 255
227 239 255
227 239 255
227 239 255
228 239 255
228 239 255
228 239 255
228 239 255
228 239 255
228 239 255
228 239 255
228 239 255
228 239 255
228 239 255
228 239 255
228 239 255
228 239 255
228 239 255
228 239 255
228 239 255
228 239 255
228 239 255
228 239 255
228 239 255
228 239 255
228 239 255
228 239 255
228 239 255
228 239 255
228 239 255
228 239 255
228 239 255
228 239 255
228 239 255
228 239 255
228 239 255
228 239 255
228 239 255
224 239 253
216 238 249
196 235 238
189 234 235
195 235 238
169 231 225
169 232 225
158 230 220
123 226 205
118 226 203
109 227 200
99 226 197
79 224 191
45 222 184
32 221 182
0 221 181
0 222 181
0 222 181
0 221 181
0 221 181
0 222 181
0 223 181
0 221 181
0 223 181
0 222 181
0 222 181
0 222 181
0 221 181
0 222 181
0 221 181
0 221 181
0 221 181
0 221 181
0 221 181
0 221 181
0 221 181
0 222 181
0 222 181
0 222 181
0 221 181
0 221 181
0 221 181
0 221 181
0 221 181
0 221 181
0 221 181
0 221 181
0 221 181
0 222 181
0 222 181
0 221 181
0 221 181
0 222 181
0 221 181
0 222 181
0 222 181
0 222 181
0 221 181
0 221 181
0 221 181
0 221 181
0 222 181
0 221 181
0 222 181
0 221 181
0 222 181
0 222 181
0 223 181
0 221 181
22 221 181
60 223 187
75 223 190
109 226 200
82 223 192
109 226 200
131 227 208
161 230 221
178 232 229
168 232 224
187 234 233
194 234 237
209 237 245
216 238 249
226 239 254
228 239 255
228 239 255
228 239 255
228 239 255
228 239 255
228 239 255
228 239 255
228 239 255
228 239 255
228 239 255
228 239 255
228 239 255
228 239 255
228 239 255
228 239 255
228 239 255
228 239 255
228 239 255
228 239 255
228 239 255
228 239 255
228 239 255
228 239 255
228 239 255
228 239 255
228 239 255
228 239 255
228 239 255
228 239 255
228 239 255
228 239 255
228 239 255
228 239 255
228 239 255
227 239 255
227 239 255
227 239 255
227 239 255
227 239 255
227 239 255
227 239 255
227 239 255
227 239 255
227 239 255
227 239 255
227 239 255
227 239 255
227 239 255
227 239 255
227 239 255
227 239 255
227 239 255
227 239 255
227 239 255
227 239 255
227 239 255
227 239 255
227 239 255
227 239 255
227 239 255
227 239 255
227 239 255
227 239 255
227 239 255
227 239 255
227 239 255
227 239 255
227 239 255
227 239 255
227 239 255
227 239 255
227 239 255
227 239 255
227 239 255
227 239 255
227 239 255
227 239 255
227 239 255
226 239 255
226 239 255
226 239 255
226 238 255
226 238 255
226 238 255
226 238 255
226 238 255
226 238 255
226 238 255
226 238 255
226 238 255
226 238 255
226 238 255
226 238 255
226 238 255
226 238 255
226 238 255
226 238 255
226 238 255
226 238 255
226 238 255
226 238 255
226 238 255
226 238 255
226 238 255
226 238 255
226 238 255
226 238 255
226 238 255
226 238 255
226 238 255
226 238 255
226 238 255
226 238 255
226 238 255
226 238 255
226 238 255
226 238 255
226 238 255
226 238 255
226 238 255
226 238 255
226 238 255
226 238 255
226 238 255
226 238 255
226 238 255
226 238 255
226 238 255
226 238 255
226 238 255
226 238 255
225 238 255
225 238 255
225 238 255
225 238 255
225 238 255
225 238 255
225 238 255
225 238 255
225 238 255
225 238 255
225 238 255
225 238 255
225 238 255
225 238 255
225 238 255
225 238 255
225 238 255
225 238 255
225 238 255
225 238 255
225 238 255
225 238 255
225 238 255
225 238 255
225 238 255
225 238 255
225 238 255
225 238 255
225 238 255
225 238 255
225 238 255
225 238 255
225 238 255
225 238 255
225 238 255
225 238 255
225 238 255
225 238 255
225 238 255
225 238 255
225 238 255
225 238 255
225 238 255
225 238 255
225 238 255
226 238 255
226 238 255
226 238 255
226 238 255
226 238 255
226 238 255
226 238 255
226 238 255
226 238 255
226 238 255
226 238 255
226 238 255
226 238 255
226 238 255
226 238 255
226 238 255
226 238 255
226 238 255
226 238 255
226 238 255
226 238 255
226 238 255
226 238 255
226 238 255
226 238 255
226 238 255
226 238 255
226 238 255
226 238 255
226 238 255
226 238 255
226 238 255
226 238 255
226 238 255
226 238 255
226 238 255
226 238 255
226 238 255
226 238 255
226 238 255
226 238 255
226 238 255
226 238 255
226 238 255
226 238 255
226 238 255
226 238 255
226 238 255
226 238 255
226 238 255
226 238 255
226 238 255
226 239 255
227 239 255
227 239 255
227 239 255
227 239 255
227 239 255
227 239 255
227 239 255
227 239 255
227 239 255
227 239 255
227 239 255
227 239 255
227 239 255
227 239 255
227 239 255
227 239 255
227 239 255
227 239 255
227 239 255
227 239 255
227 239 255
227 239 255
227 239 255
227 239 255
227 239 255
227 239 255
227 239 255
227 239 255
227 239 255
227 239 255
227 239 255
227 239 255
227 239 255
227 239 255
227 239 255
227 239 255
227 239 255
227 239 255
227 239 255
227 239 255
227 239 255
227 239 255
227 239 255
227 239 255
228 239 255
228 239 255
228 239 255
228 239 255
228 239 255
228 239 255
228 239 255
228 239 255
228 239 255
228 239 255
228 239 255
228 239 255
228 239 255
228 239 255
228 239 255
228 239 255
228 239 255
228 239 255
228 239 255
228 239 255
228 239 255
228 239 255
228 239 255
228 239 255
228 239 255
228 239 255
228 239 255
228 239 255
228 239 255
228 239 255
228 239 255
228 240 255
219 238 250
213 237 247
202 235 241
185 233 233
161 231 221
156 230 219
148 229 215
99 225 197
97 225 196
60 223 187
56 223 186
0 221 181
0 221 181
0 221 181
0 222 181
0 222 181
0 222 181
0 222 181
0 221 181
0 222 181
0 221 181
0 221 181
0 221 181
0 221 181
0 221 181
0 222 181
0 221 181
0 221 181
0 223 181
0 223 181
0 221 181
0 223 181
0 222 181
0 222 181
0 221 181
0 222 181
0 221 181
0 221 181
0 222 181
0 221 181
0 220 181
0 222 181
0 222 181
0 221 181
0 221 181
0 221 181
0 222 181
0 222 181
0 220 181
0 222 181
0 221 181
0 221 181
0 222 181
0 222 181
0 221 181
0 221 181
0 221 181
0 221 181
0 221 181
0 221 181
0 221 181
0 221 181
0 221 181
0 221 181
0 221 181
0 222 181
0 222 181
0 221 181
0 221 181
0 221 181
0 222 181
0 222 181
0 221 181
0 221 181
0 221 181
0 221 181
0 222 181
0 222 181
0 221 181
0 221 181
0 221 181
0 222 181
0 221 181
0 221 181
0 221 181
0 221 181
0 221 181
0 221 181
0 221 181
0 222 181
0 221 181
0 221 181
0 222 181
0 221 181
0 222 181
45 222 184
88 224 194
85 223 193
114 225 202
137 227 211
151 229 217
168 232 224
178 232 229
199 235 240
207 236 244
225 239 254
228 240 255
228 239 255
228 239 255
228 239 255
228 239 255
228 239 255
228 239 255
228 239 255
228 239 255
228 239 255
228 239 255
228 239 255
228 239 255
228 239 255
228 239 255
228 239 255
228 239 255
228 239 255
228 239 255
228 239 255
228 239 255
228 239 255
228 239 255
228 239 255
228 239 255
228 239 255
228 239 255
228 239 255
228 239 255
228 239 255
228 239 255
228 239 255
227 239 255
227 239 255
227 239 255
227 239 255
227 239 255
227 239 255
227 239 255
227 239 255
227 239 255
227 239 255
227 239 255
227 239 255
227 239 255
227 239 255
227 239 255
227 239 255
227 239 255
227 239 255
227 239 255
227 239 255
227 239 255
227 239 255
227 239 255
227 239 255
227 239 255
227 239 255
227 239 255
227 239 255
227 239 255
227 239 255
227 239 255
227 239 255
227 239 255
227 239 255
227 239 255
227 239 255
227 239 255
227 239 255
227 239 255
227 239 255
227 239 255
227 239 255
227 239 255
227 239 255
226 239 255
226 239 255
226 238 255
226 238 255
226 238 255
226 238 255
226 238 255
226 238 255
226 238 255
226 238 255
226 238 255
226 238 255
226 238 255
226 238 255
226 238 255
226 238 255
226 238 255
226 238 255
226 238 255
226 238 255
226 238 255
226 238 255
226 238 255
226 238 255
226 238 255
226 238 255
226 238 255
226 238 255
226 238 255
226 238 255
226 238 255
226 238 255
226 238 255
226 238 255
226 238 255
226 238 255
226 238 255
226 238 255
226 238 255
226 238 255
226 238 255
226 238 255
226 238 255
226 238 255
226 238 255
226 238 255
226 238 255
226 238 255
226 238 255
226 238 255
226 238 255
226 238 255
226 238 255
225 238 255
225 238 255
225 238 255
225 238 255
225 238 255
225 238 255
225 238 255
225 238 255
225 238 255
225 238 255
225 238 255
225 238 255
225 238 255
225 238 255
225 238 255
225 238 255
225 238 255
225 238 255
225 238 255
225 238 255
225 238 255
225 238 255
225 238 255
225 238 255
225 238 255
225 238 255
225 238 255
225 238 255
226 238 255
226 238 255
226 238 255
226 238 255
226 238 255
226 238 255
226 238 255
226 238 255
226 238 255
226 238 255
226 238 255
226 238 255
226 238 255
226 238 255
226 238 255
226 238 255
226 238 255
226 238 255
226 238 255
226 238 255
226 238 255
226 238 255
226 238 255
226 238 255
226 238 255
226 238 255
226 238 255
226 238 255
226 238 255
226 238 255
226 238 255
226 238 255
226 238 255
226 238 255
226 238 255
226 238 255
226 238 255
226 238 255
226 238 255
226 238 255
226 238 255
226 238 255
226 238 255
226 238 255
226 238 255
226 238 255
226 238 255
226 238 255
226 238 255
226 238 255
226 238 255
226 238 255
226 239 255
227 239 255
227 239 255
227 239 255
227 239 255
227 239 255
227 239 255
227 239 255
227 239 255
227 239 255
227 239 255
227 239 255
227 239 255
227 239 255
227 239 255
227 239 255
227 239 255
227 239 255
227 239 255
227 239 255
227 239 255
227 239 255
227 239 255
227 239 255
227 239 255
227 239 255
227 239 255
227 239 255
227 239 255
227 239 255
227 239 255
227 239 255
227 239 255
227 239 255
227 239 255
227 239 255
227 239 255
227 239 255
227 239 255
227 239 255
227 239 255
227 239 255
227 239 255
227 239 255
228 239 255
228 239 255
228 239 255
228 239 255
228 239 255
228 239 255
228 239 255
228 239 255
228 239 255
228 239 255
228 239 255
228 239 255
228 239 255
228 239 255
228 239 255
228 239 255
228 239 255
228 239 255
228 239 255
228 239 255
228 239 255
228 239 255
228 239 255
228 239 255
228 239 255
228 239 255
228 239 255
228 239 255
228 239 255
228 240 255
228 240 255
225 239 254
210 237 246
217 238 249
178 233 229
171 231 226
151 230 217
133 227 209
118 226 203
94 225 195
32 221 182
0 222 181
0 221 181
0 220 181
0 222 181
0 221 181
0 221 181
0 222 181
0 221 181
0 221 181
0 222 181
0 221 181
0 221 181
0 221 181
0 223 181
0 221 181
0 221 181
0 221 181
0 221 181
0 221 181
0 221 181
0 221 181
0 221 181
0 221 181
0 221 181
0 221 181
0 221 181
0 222 181
0 222 181
0 221 181
0 222 181
0 221 181
0 221 181
0 221 181
0 221 181
0 222 181
0 222 181
0 221 181
0 222 181
0 222 181
0 221 181
0 222 181
0 221 181
0 222 181
0 221 181
0 221 181
0 221 181
0 221 181
0 221 181
0 221 180
0 222 181
0 222 181
0 221 181
0 222 181
0 221 181
0 222 181
0 222 181
0 221 181
0 221 181
0 220 181
0 221 181
0 220 181
0 221 181
0 222 181
0 222 181
0 221 181
0 221 181
0 221 181
0 222 181
0 222 181
0 222 181
0 221 181
0 222 181
0 222 181
0 221 181
0 221 181
0 221 181
0 221 181
0 221 181
0 221 181
0 222 181
0 222 181
0 222 181
0 221 181
0 222 181
0 222 181
0 221 181
0 222 181
0 221 181
0 221 181
0 222 181
0 221 181
0 221 181
0 221 181
0 221 181
0 221 181
0 220 181
0 222 181
0 222 181
0 220 181
0 221 181
0 221 181
0 223 181
0 222 181
0 221 181
0 221 181
0 222 181
51 222 185
79 224 191
104 226 199
133 228 209
133 228 209
178 233 229
194 234 237
202 236 241
218 238 250
227 239 255
228 240 255
228 239 255
228 239 255
228 239 255
228 239 255
228 239 255
228 239 255
228 239 255
228 239 255
228 239 255
228 239 255
228 239 255
228 239 255
228 239 255
228 239 255
228 239 255
228 239 255
228 239 255
228 239 255
228 239 255
228 239 255
228 239 255
228 239 255
228 239 255
228 239 255
228 239 255
228 239 255
228 239 255
228 239 255
228 239 255
227 239 255
227 239 255
227 239 255
227 239 255
227 239 255
227 239 255
227 239 255
227 239 255
227 239 255
227 239 255
227 239 255
227 239 255
227 239 255
227 239 255
227 239 255
227 239 255
227 239 255
227 239 255
227 239 255
227 239 255
227 239 255
227 239 255
227 239 255
227 239 255
227 239 255
227 239 255
227 239 255
227 239 255
227 239 255
227 239 255
227 239 255
227 239 255
227 239 255
227 239 255
227 239 255
227 239 255
227 239 255
227 239 255
227 239 255
227 239 255
227 239 255
227 239 255
227 239 255
227 239 255
226 239 255
226 239 255
226 238 255
226 238 255
226 238 255
226 238 255
226 238 255
226 238 255
226 238 255
226 238 255
226 238 255
226 238 255
226 238 255
226 238 255
226 238 255
226 238 255
226 238 255
226 238 255
226 238 255
226 238 255
226 238 255
226 238 255
226 238 255
226 238 255
226 238 255
226 238 255
226 238 255
226 238 255
226 238 255
226 238 255
226 238 255
226 238 255
226 238 255
226 238 255
226 238 255
226 238 255
226 238 255
226 238 255
226 238 255
226 238 255
226 238 255
226 238 255
226 238 255
226 238 255
226 238 255
226 238 255
226 238 255
226 238 255
226 238 255
226 238 255
226 238 255
226 238 255
226 238 255
226 238 255
225 238 255
225 238 255
225 238 255
225 238 255
225 238 255
225 238 255
225 238 255
225 238 255
225 238 255
225 238 255
226 238 255
226 238 255
226 238 255
226 238 255
226 238 255
226 238 255
226 238 255
226 238 255
226 238 255
226 238 255
226 238 255
226 238 255
226 238 255
226 238 255
226 238 255
226 238 255
226 238 255
226 238 255
226 238 255
226 238 255
226 238 255
226 238 255
226 238 255
226 238 255
226 238 255
226 238 255
226 238 255
226 238 255
226 238 255
226 238 255
226 238 255
226 238 255
226 238 255
226 238 255
226 238 255
226 238 255
226 238 255
226 238 255
226 238 255
226 238 255
226 238 255
226 238 255
226 238 255
226 238 255
226 238 255
226 238 255
226 238 255
226 238 255
226 238 255
226 238 255
226 238 255
226 238 255
226 238 255
226 239 255
227 239 255
227 239 255
227 239 255
227 239 255
227 239 255
227 239 255
227 239 255
227 239 255
227 239 255
227 239 255
227 239 255
227 239 255
227 239 255
227 239 255
227 239 255
227 239 255
227 239 255
227 239 255
227 239 255
227 239 255
227 239 255
227 239 255
227 239 255
227 239 255
227 239 255
227 239 255
227 239 255
227 239 255
227 239 255
227 239 255
227 239 255
227 239 255
227 239 255
227 239 255
227 239 255
227 239 255
227 239 255
227 239 255
227 239 255
227 239 255
227 239 255
227 239 255
227 239 255
228 239 255
228 239 255
228 239 255
228 239 255
228 239 255
228 239 255
228 239 255
228 239 255
228 239 255
228 239 255
228 239 255
228 239 255
228 239 255
228 239 255
228 239 255
228 239 255
228 239 255
228 239 255
228 239 255
228 239 255
228 239 255
228 239 255
228 239 255
228 239 255
228 239 255
228 239 255
228 239 255
228 239 255
228 240 255
228 240 255
228 240 255
226 239 254
217 238 249
199 235 240
172 232 226
142 229 213
144 229 214
99 225 197
91 224 194
39 222 183
0 221 181
0 221 181
0 222 181
0 221 181
0 222 181
0 221 181
0 222 181
0 221 181
0 221 181
0 220 181
0 221 181
0 222 181
0 220 181
0 221 181
0 222 181
0 220 181
0 222 181
0 222 181
0 221 181
0 221 181
0 221 181
0 221 181
0 221 181
0 221 181
0 222 181
0 221 181
0 222 181
0 221 181
0 221 181
0 221 181
0 221 181
0 222 181
0 221 181
0 221 181
0 221 181
0 222 181
0 220 181
0 221 181
0 222 181
0 222 181
0 222 181
0 221 181
0 222 181
0 221 181
0 221 181
0 221 181
0 221 181
0 221 181
0 221 181
0 221 181
0 222 181
0 222 181
0 221 181
0 222 181
0 221 181
0 222 181
0 221 181
0 221 181
0 221 181
0 221 181
0 222 181
0 221 181
0 221 181
0 221 181
0 221 181
0 221 181
0 222 181
0 222 181
0 221 181
0 221 181
0 221 181
0 220 181
0 222 181
0 221 181
0 221 181
0 222 181
0 221 181
0 221 181
0 221 181
0 221 181
0 222 181
0 221 181
0 221 181
0 221 181
0 221 181
0 221 181
0 222 181
0 222 181
0 221 181
0 221 181
0 221 181
0 222 181
0 221 181
0 221 181
0 223 181
0 221 181
0 222 181
0 221 181
0 222 181
0 222 181
0 221 181
0 221 181
0 220 181
0 220 181
0 222 181
0 221 181
0 222 181
0 221 181
0 221 181
0 221 181
0 221 181
0 222 181
0 222 181
0 223 181
0 221 181
0 220 181
0 221 181
0 222 181
0 221 181
0 220 181
0 222 181
0 221 181
0 221 181
0 221 181
32 222 182
85 224 193
112 225 201
135 228 210
158 230 220
183 233 231
191 235 236
212 237 246
227 239 255
228 240 255
228 240 255
228 240 255
228 239 255
228 239 255
228 239 255
228 239 255
228 239 255
228 239 255
228 239 255
228 239 255
228 239 255
228 239 255
228 239 255
228 239 255
228 239 255
228 239 255
228 239 255
228 239 255
228 239 255
228 239 255
228 239 255
228 239 255
228 239 255
228 239 255
228 239 255
228 239 255
228 239 255
228 239 255
228 239 255
228 239 255
227 239 255
227 239 255
227 239 255
227 239 255
227 239 255
227 239 255
227 239 255
227 239 255
227 239 255
227 239 255
227 239 255
227 239 255
227 239 255
227 239 255
227 239 255
227 239 255
227 239 255
227 239 255
227 239 255
227 239 255
227 239 255
227 239 255
227 239 255
227 239 255
227 239 255
227 239 255
227 239 255
227 239 255
227 239 255
227 239 255
227 239 255
227 239 255
227 239 255
227 239 255
227 239 255
227 239 255
227 239 255
227 239 255
227 239 255
227 239 255
227 239 255
227 239 255
227 239 255
226 239 255
226 238 255
226 238 255
226 238 255
226 238 255
226 238 255
226 238 255
226 238 255
226 238 255
226 238 255
226 238 255
226 238 255
226 238 255
226 238 255
226 238 255
226 238 255
226 238 255
226 238 255
226 238 255
226 238 255
226 238 255
226 238 255
226 238 255
226 238 255
226 238 255
226 238 255
226 238 255
226 238 255
226 238 255
226 238 255
226 238 255
226 238 255
226 238 255
226 238 255
226 238 255
226 238 255
226 238 255
226 238 255
226 238 255
226 238 255
226 238 255
226 238 255
226 238 255
226 238 255
226 238 255
226 238 255
226 238 255
226 238 255
226 238 255
226 238 255
226 238 255
226 238 255
226 238 255
226 238 255
225 238 255
226 238 255
226 238 255
226 238 255
226 238 255
226 238 255
226 238 255
226 238 255
226 238 255
226 238 255
226 238 255
226 238 255
226 238 255
226 238 255
226 238 255
226 238 255
226 238 255
226 238 255
226 238 255
226 238 255
226 238 255
226 238 255
226 238 255
226 238 255
226 238 255
226 238 255
226 238 255
226 238 255
226 238 255
226 238 255
226 238 255
226 238 255
226 238 255
226 238 255
226 238 255
226 238 255
226 238 255
226 238 255
226 238 255
226 238 255
226 238 255
226 238 255
226 238 255
226 238 255
226 238 255
226 238 255
226 238 255
226 239 255
226 239 255
227 239 255
227 239 255
227 239 255
227 239 255
227 239 255
227 239 255
227 239 255
227 239 255
227 239 255
227 239 255
227 239 255
227 239 255
227 239 255
227 239 255
227 239 255
227 239 255
227 239 255
227 239 255
227 239 255
227 239 255
227 239 255
227 239 255
227 239 255
227 239 255
227 239 255
227 239 255
227 239 255
227 239 255
227 239 255
227 239 255
227 239 255
227 239 255
227 239 255
227 239 255
227 239 255
227 239 255
227 239 255
227 239 255
227 239 255
227 239 255
227 239 255
227 239 255
227 239 255
228 239 255
228 239 255
228 239 255
228 239 255
228 239 255
228 239 255
228 239 255
228 239 255
228 239 255
228 239 255
228 239 255
228 239 255
228 239 255
228 239 255
228 239 255
228 239 255
228 239 255
228 239 255
228 239 255
228 239 255
228 239 255
228 239 255
228 239 255
228 239 255
228 239 255
228 239 255
228 239 255
228 240 255
228 240 255
228 240 255
228 240 255
223 239 252
205 236 243
184 233 232
178 232 229
151 229 217
97 224 196
75 223 190
32 222 182
0 221 181
0 221 181
0 221 181
0 221 181
0 222 181
0 222 181
0 221 181
0 221 181
0 221 181
0 222 181
0 221 181
0 222 181
0 221 181
0 220 181
0 222 181
0 220 181
0 222 181
0 222 181
0 220 181
0 222 181
0 221 181
0 221 181
0 221 181
0 221 181
0 221 181
0 223 181
0 220 181
0 219 181
0 222 181
0 222 181
0 221 181
0 221 181
0 221 181
0 221 181
0 221 181
0 221 181
0 221 181
0 221 181
0 222 181
0 221 181
0 221 181
0 221 181
0 223 181
0 222 181
0 221 181
0 221 181
0 221 181
0 221 181
0 222 181
0 221 181
0 221 181
0 221 181
0 221 181
0 221 181
0 222 181
0 221 181
0 221 181
0 221 181
0 222 181
0 222 181
0 221 181
0 222 181
0 222 181
0 221 181
0 221 181
0 221 181
0 221 181
0 222 181
0 221 181
0 222 181
0 221 181
0 221 181
0 222 181
0 222 181
0 222 181
0 221 181
0 222 181
0 221 181
0 223 181
0 222 181
0 222 181
0 222 181
0 221 181
0 221 181
0 221 181
0 221 181
0 222 181
0 222 181
0 221 181
0 221 181
0 221 181
0 221 181
0 222 181
0 221 181
0 222 181
0 222 181
0 221 181
0 221 181
0 221 181
0 221 181
0 222 181
0 220 181
0 221 181
0 221 181
0 221 181
0 222 181
0 221 181
0 221 181
0 222 181
0 222 181
0 220 181
0 221 181
0 221 181
0 221 181
0 221 181
0 222 181
0 222 181
0 222 181
0 221 181
0 221 181
0 220 181
0 222 181
0 222 181
0 222 181
0 222 181
0 222 181
0 221 181
0 222 181
0 221 181
0 222 181
0 221 181
0 221 181
0 221 181
0 221 181
0 221 181
0 221 181
0 221 181
0 221 181
0 221 181
0 222 181
32 222 182
82 224 192
114 226 202
141 228 212
174 232 227
180 233 230
203 235 242
223 239 252
228 240 255
228 240 255
228 240 255
228 240 255
228 239 255
228 239 255
228 239 255
228 239 255
228 239 255
228 239 255
228 239 255
228 239 255
228 239 255
228 239 255
228 239 255
228 239 255
228 239 255
228 239 255
228 239 255
228 239 255
228 239 255
228 239 255
228 239 255
228 239 255
228 239 255
228 239 255
228 239 255
228 239 255
228 239 255
228 239 255
228 239 255
227 239 255
227 239 255
227 239 255
227 239 255
227 239 255
227 239 255
227 239 255
227 239 255
227 239 255
227 239 255
227 239 255
227 239 255
227 239 255
227 239 255
227 239 255
227 239 255
227 239 255
227 239 255
227 239 255
227 239 255
227 239 255
227 239 255
227 239 255
227 239 255
227 239 255
227 239 255
227 239 255
227 239 255
227 239 255
227 239 255
227 239 255
227 239 255
227 239 255
227 239 255
227 239 255
227 239 255
227 239 255
227 239 255
227 239 255
227 239 255
227 239 255
227 239 255
227 239 255
226 239 255
226 239 255
226 238 255
226 238 255
226 238 255
226 238 255
226 238 255
226 238 255
226 238 255
226 238 255
226 238 255
226 238 255
226 238 255
226 238 255
226 238 255
226 238 255
226 238 255
226 238 255
226 238 255
226 238 255
226 238 255
226 238 255
226 238 255
226 238 255
226 238 255
226 238 255
226 238 255
226 238 255
226 238 255
226 238 255
226 238 255
226 238 255
226 238 255
226 238 255
226 238 255
226 238 255
226 238 255
226 238 255
226 238 255
226 238 255
226 238 255
226 238 255
226 238 255
226 238 255
226 238 255
226 238 255
226 238 255
226 238 255
226 238 255
226 238 255
226 238 255
226 238 255
226 238 255
226 238 255
226 238 255
226 238 255
226 238 255
226 238 255
226 238 255
226 238 255
226 238 255
226 238 255
226 238 255
226 238 255
226 238 255
226 238 255
226 238 255
226 238 255
226 238 255
226 238 255
226 238 255
226 238 255
226 238 255
226 238 255
226 238 255
226 238 255
226 238 255
226 238 255
226 238 255
226 238 255
226 238 255
226 238 255
226 238 255
226 238 255
226 238 255
226 238 255
226 239 255
226 239 255
227 239 255
227 239 255
227 239 255
227 239 255
227 239 255
227 239 255
227 239 255
227 239 255
227 239 255
227 239 255
227 239 255
227 239 255
227 239 255
227 239 255
227 239 255
227 239 255
227 239 255
227 239 255
227 239 255
227 239 255
227 239 255
227 239 255
227 239 255
227 239 255
227 239 255
227 239 255
227 239 255
227 239 255
227 239 255
227 239 255
227 239 255
227 239 255
227 239 255
227 239 255
227 239 255
227 239 255
227 239 255
227 239 255
227 239 255
227 239 255
227 239 255
227 239 255
227 239 255
227 239 255
228 239 255
228 239 255
228 239 255
228 239 255
228 239 255
228 239 255
228 239 255
228 239 255
228 239 255
228 239 255
228 239 255
228 239 255
228 239 255
228 239 255
228 239 255
228 239 255
228 239 255
228 239 255
228 239 255
228 239 255
228 239 255
228 239 255
228 239 255
228 239 255
228 239 255
228 239 255
228 240 255
228 240 255
228 240 255
228 240 255
228 240 255
213 237 247
208 236 244
181 233 231
144 229 214
142 229 213
88 225 194
22 222 181
0 221 181
0 222 181
0 221 181
0 222 181
0 222 181
0 221 181
0 221 181
0 221 181
0 221 181
0 222 181
0 221 181
0 221 181
0 222 181
0 222 181
0 221 181
0 222 181
0 221 181
0 221 181
0 221 181
0 220 181
0 221 181
0 221 181
0 221 181
0 221 181
0 221 181
0 221 181
0 222 181
0 222 181
0 221 181
0 222 181
0 221 181
0 222 181
0 222 181
0 221 181
0 222 181
0 222 181
0 221 181
0 220 181
0 220 181
0 221 181
0 222 181
0 221 181
0 221 181
0 221 181
0 221 181
0 220 181
0 221 181
0 221 181
0 221 181
0 222 181
0 222 181
0 222 181
0 222 181
0 221 181
0 221 181
0 221 181
0 222 181
0 222 181
0 221 181
0 222 181
0 221 181
0 221 181
0 221 180
0 221 181
0 221 181
0 222 181
0 221 181
0 221 181
0 221 181
0 222 181
0 222 181
0 221 181
0 222 181
0 221 181
0 222 181
0 221 181
0 221 181
0 221 181
0 221 181
0 222 181
0 222 181
0 220 181
0 221 181
0 222 181
0 221 181
0 221 181
0 222 181
0 222 181
0 221 181
0 221 181
0 221 181
0 221 181
0 220 181
0 221 181
0 221 181
0 221 181
0 221 181
0 222 181
0 221 181
0 221 181
0 220 181
0 221 181
0 222 181
0 222 181
0 222 181
0 221 181
0 222 181
0 221 181
0 221 181
0 222 181
0 221 181
0 221 181
0 222 181
0 222 181
0 222 181
0 221 181
0 221 181
0 221 181
0 221 181
0 222 181
0 221 181
0 220 181
0 221 181
0 220 181
0 221 181
0 222 181
0 221 181
0 221 181
0 222 181
0 221 181
0 222 181
0 221 181
0 221 181
0 221 181
0 221 181
0 221 181
0 222 181
0 222 181
0 221 181
0 221 181
0 220 181
0 221 181
0 221 181
0 222 181
0 222 181
0 222 181
0 221 181
0 223 181
0 222 181
0 222 181
0 220 181
0 222 181
0 221 181
0 222 181
0 222 181
0 222 181
64 223 188
79 224 191
137 229 211
150 230 216
175 232 228
196 235 238
221 238 252
228 240 255
228 240 255
228 240 255
228 240 255
228 240 255
228 239 255
228 239 255
228 239 255
228 239 255
228 239 255
228 239 255
228 239 255
228 239 255
228 239 255
228 239 255
228 239 255
228 239 255
228 239 255
228 239 255
228 239 255
228 239 255
228 239 255
228 239 255
228 239 255
228 239 255
228 239 255
228 239 255
228 239 255
228 239 255
228 239 255
228 239 255
228 239 255
227 239 255
227 239 255
227 239 255
227 239 255
227 239 255
227 239 255
227 239 255
227 239 255
227 239 255
227 239 255
227 239 255
227 239 255
227 239 255
227 239 255
227 239 255
227 239 255
227 239 255
227 239 255
227 239 255
227 239 255
227 239 255
227 239 255
227 239 255
227 239 255
227 239 255
227 239 255
227 239 255
227 239 255
227 239 255
227 239 255
227 239 255
227 239 255
227 239 255
227 239 255
227 239 255
227 239 255
227 239 255
227 239 255
227 239 255
227 239 255
227 239 255
227 239 255
227 239 255
226 239 255
226 238 255
226 238 255
226 238 255
226 238 255
226 238 255
226 238 255
226 238 255
226 238 255
226 238 255
226 238 255
226 238 255
226 238 255
226 238 255
226 238 255
226 238 255
226 238 255
226 238 255
226 238 255
226 238 255
226 238 255
226 238 255
226 238 255
226 238 255
226 238 255
226 238 255
226 238 255
226 238 255
226 238 255
226 238 255
226 238 255
226 238 255
226 238 255
226 238 255
226 238 255
226 238 255
226 238 255
226 238 255
226 238 255
226 238 255
226 238 255
226 238 255
226 238 255
226 238 255
226 238 255
226 238 255
226 238 255
226 238 255
226 238 255
226 238 255
226 238 255
226 238 255
226 238 255
226 238 255
226 238 255
226 238 255
226 238 255
226 238 255
226 238 255
226 238 255
226 238 255
226 238 255
226 238 255
226 238 255
226 238 255
226 238 255
226 238 255
226 238 255
226 238 255
226 238 255
226 238 255
226 239 255
226 239 255
227 239 255
227 239 255
227 239 255
227 239 255
227 239 255
227 239 255
227 239 255
227 239 255
227 239 255
227 239 255
227 239 255
227 239 255
227 239 255
227 239 255
227 239 255
227 239 255
227 239 255
227 239 255
227 239 255
227 239 255
227 239 255
227 239 255
227 239 255
227 239 255
227 239 255
227 239 255
227 239 255
227 239 255
227 239 255
227 239 255
227 239 255
227 239 255
227 239 255
227 239 255
227 239 255
227 239 255
227 239 255
227 239 255
227 239 255
227 239 255
227 239 255
227 239 255
227 239 255
228 239 255
228 239 255
228 239 255
228 239 255
228 239 255
228 239 255
228 239 255
228 239 255
228 239 255
228 239 255
228 239 255
228 239 255
228 239 255
228 239 255
228 239 255
228 239 255
228 239 255
228 239 255
228 239 255
228 239 255
228 239 255
228 239 255
228 239 255
228 239 255
228 239 255
228 239 255
228 239 255
228 240 255
228 240 255
228 240 255
228 240 255
228 240 255
225 239 254
203 236 242
192 235 236
155 230 218
125 228 206
104 225 199
45 222 184
0 221 181
0 222 181
0 221 181
0 221 181
0 221 181
0 222 181
0 221 181
0 222 181
0 220 181
0 221 181
0 221 181
0 221 181
0 222 181
0 221 181
0 221 181
0 220 181
0 222 181
0 222 181
0 221 181
0 221 181
0 222 181
0 221 181
0 222 181
0 222 181
0 222 181
0 222 181
0 221 181
0 221 181
0 221 181
0 222 181
0 222 181
0 222 181
0 221 181
0 221 181
0 220 181
0 222 181
0 221 181
0 221 181
0 222 181
0 222 181
0 221 181
0 222 181
0 222 181
0 221 181
0 221 181
0 222 181
0 221 181
0 221 181
0 222 181
0 221 181
0 221 181
0 222 181
0 222 180
0 221 181
0 220 181
0 221 181
0 222 181
0 222 181
0 221 181
0 221 181
0 221 181
0 221 181
0 221 181
0 222 181
0 221 181
0 222 181
0 220 181
0 221 181
0 221 181
0 221 181
0 220 181
0 222 181
0 222 181
0 222 181
0 222 181
0 221 181
0 221 181
0 221 181
0 222 181
0 221 181
0 221 181
0 221 181
0 221 181
0 221 181
0 222 181
0 221 181
0 221 181
0 221 181
0 223 181
0 222 181
0 221 181
0 221 181
0 221 181
0 221 181
0 222 181
0 221 181
0 221 181
0 222 181
0 221 181
0 220 180
0 222 181
0 221 181
0 222 181
0 221 181
0 221 181
0 221 181
0 221 181
0 223 181
0 222 181
0 221 181
0 221 181
0 221 181
0 220 181
0 222 181
0 222 181
0 222 181
0 222 181
0 221 181
0 220 181
0 222 181
0 221 181
0 222 181
0 222 181
0 222 181
0 221 181
0 222 181
0 221 181
0 222 181
0 221 181
0 222 181
0 221 181
0 222 181
0 220 181
0 221 181
0 222 181
0 222 181
0 222 181
0 221 181
0 222 181
0 220 181
0 222 181
0 221 181
0 221 181
0 221 181
0 221 181
0 221 181
0 222 181
0 222 181
0 221 181
0 223 181
0 221 181
0 221 181
0 221 181
0 221 181
0 222 181
0 222 181
0 221 181
0 221 181
0 222 181
0 221 181
0 221 181
0 221 181
0 222 181
0 220 181
0 223 181
0 222 181
0 222 181
0 221 181
0 222 181
0 221 181
56 222 186
104 225 199
131 227 208
156 230 219
188 234 234
204 237 242
220 238 251
228 240 255
228 240 255
228 240 255
228 240 255
228 240 255
228 239 255
228 239 255
228 239 255
228 239 255
228 239 255
228 239 255
228 239 255
228 239 255
228 239 255
228 239 255
228 239 255
228 239 255
228 239 255
228 239 255
228 239 255
228 239 255
228 239 255
228 239 255
228 239 255
228 239 255
228 239 255
228 239 255
228 239 255
228 239 255
228 239 255
228 239 255
228 239 255
227 239 255
227 239 255
227 239 255
227 239 255
227 239 255
227 239 255
227 239 255
227 239 255
227 239 255
227 239 255
227 239 255
227 239 255
227 239 255
227 239 255
227 239 255
227 239 255
227 239 255
227 239 255
227 239 255
227 239 255
227 239 255
227 239 255
227 239 255
227 239 255
227 239 255
227 239 255
227 239 255
227 239 255
227 239 255
227 239 255
227 239 255
227 239 255
227 239 255
227 239 255
227 239 255
227 239 255
227 239 255
227 239 255
227 239 255
227 239 255
227 239 255
227 239 255
227 239 255
226 239 255
226 239 255
226 238 255
226 238 255
226 238 255
226 238 255
226 238 255
226 238 255
226 238 255
226 238 255
226 238 255
226 238 255
226 238 255
226 238 255
226 238 255
226 238 255
226 238 255
226 238 255
226 238 255
226 238 255
226 238 255
226 238 255
226 238 255
226 238 255
226 238 255
226 238 255
226 238 255
226 238 255
226 238 255
226 238 255
226 238 255
226 238 255
226 238 255
226 238 255
226 238 255
226 238 255
226 238 255
226 238 255
226 238 255
226 238 255
226 238 255
226 238 255
226 238 255
226 238 255
226 238 255
226 238 255
226 238 255
226 238 255
226 238 255
226 238 255
226 238 255
226 238 255
226 238 255
226 238 255
226 238 255
226 238 255
226 238 255
226 239 255
226 239 255
227 239 255
227 239 255
227 239 255
227 239 255
227 239 255
227 239 255
227 239 255
227 239 255
227 239 255
227 239 255
227 239 255
227 239 255
227 239 255
227 239 255
227 239 255
227 239 255
227 239 255
227 239 255
227 239 255
227 239 255
227 239 255
227 239 255
227 239 255
227 239 255
227 239 255
227 239 255
227 239 255
227 239 255
227 239 255
227 239 255
227 239 255
227 239 255
227 239 255
227 239 255
227 239 255
227 239 255
227 239 255
227 239 255
227 239 255
227 239 255
227 239 255
227 239 255
227 239 255
227 239 255
228 239 255
228 239 255
228 239 255
228 239 255
228 239 255
228 239 255
228 239 255
228 239 255
228 239 255
228 239 255
228 239 255
228 239 255
228 239 255
228 239 255
228 239 255
228 239 255
228 239 255
228 239 255
228 239 255
228 239 255
228 239 255
228 239 255
228 239 255
228 239 255
228 239 255
228 240 255
228 240 255
228 240 255
228 240 255
228 240 255
228 240 255
228 240 255
215 238 248
195 235 238
177 232 228
158 231 220
127 228 207
79 224 191
0 221 181
0 221 181
0 222 181
0 222 181
0 222 181
0 221 181
0 221 181
0 222 181
0 221 181
0 221 181
0 221 181
0 222 181
0 222 181
0 221 181
0 221 181
0 221 181
0 222 181
0 220 181
0 222 181
0 221 181
0 221 181
0 221 181
0 221 181
0 221 181
0 221 181
0 220 181
0 220 180
0 221 181
0 222 181
0 222 181
0 221 181
0 222 181
0 222 181
0 221 181
0 221 181
0 221 181
0 222 181
0 221 181
0 222 181
0 221 181
0 221 181
0 222 181
0 221 181
0 221 181
0 220 181
0 221 181
0 221 181
0 221 181
0 222 181
0 221 181
0 221 181
0 221 181
0 221 181
0 221 181
0 221 181
0 221 181
0 221 181
0 221 181
0 222 181
0 220 181
0 221 181
0 222 181
0 222 181
0 222 181
0 222 181
0 222 181
0 221 181
0 222 181
0 222 181
0 221 181
0 221 181
0 221 181
0 222 181
0 220 181
0 221 181
0 222 181
0 221 181
0 221 181
0 221 181
0 221 181
0 221 181
0 221 181
0 221 181
0 221 181
0 222 181
0 220 181
0 221 181
0 220 181
0 222 181
0 222 181
0 222 181
0 221 181
0 221 181
0 221 181
0 221 181
0 221 181
0 221 181
0 222 181
0 221 181
0 221 181
0 221 181
0 221 181
0 221 181
0 221 181
0 221 181
0 221 181
0 221 181
0 221 181
0 221 181
0 222 181
0 222 181
0 221 181
0 222 181
0 221 181
0 221 181
0 220 181
0 221 181
0 222 181
0 221 181
0 221 181
0 221 181
0 222 181
0 221 181
0 221 181
0 221 181
0 222 181
0 222 181
0 221 181
0 222 181
0 221 181
0 221 181
0 221 181
0 220 181
0 222 181
0 221 181
0 221 181
0 222 181
0 221 181
0 222 181
0 221 181
0 222 181
0 221 181
0 222 181
0 220 181
0 221 181
0 221 181
0 221 181
0 222 181
0 222 181
0 221 181
0 221 181
0 220 181
0 222 181
0 221 181
0 222 181
0 221 181
0 220 181
0 222 181
0 222 181
0 221 181
0 222 181
0 221 181
0 221 181
0 221 181
0 220 181
0 222 181
0 221 181
0 221 181
0 222 181
0 221 181
0 222 181
0 221 181
0 222 181
0 221 181
0 222 181
0 222 181
0 221 181
0 220 181
0 222 181
0 222 181
0 222 181
0 221 181
0 223 181
32 221 182
94 225 195
123 228 205
155 230 218
183 233 231
198 235 239
221 239 252
228 240 255
228 240 255
228 240 255
228 240 255
228 240 255
228 240 255
228 239 255
228 239 255
228 239 255
228 239 255
228 239 255
228 239 255
228 239 255
228 239 255
228 239 255
228 239 255
228 239 255
228 239 255
228 239 255
228 239 255
228 239 255
228 239 255
228 239 255
228 239 255
228 239 255
228 239 255
228 239 255
228 239 255
228 239 255
228 239 255
228 239 255
228 239 255
228 239 255
227 239 255
227 239 255
227 239 255
227 239 255
227 239 255
227 239 255
227 239 255
227 239 255
227 239 255
227 239 255
227 239 255
227 239 255
227 239 255
227 239 255
227 239 255
227 239 255
227 239 255
227 239 255
227 239 255
227 239 255
227 239 255
227 239 255
227 239 255
227 239 255
227 239 255
227 239 255
227 239 255
227 239 255
227 239 255
227 239 255
227 239 255
227 239 255
227 239 255
227 239 255
227 239 255
227 239 255
227 239 255
227 239 255
227 239 255
227 239 255
227 239 255
227 239 255
227 239 255
226 239 255
226 239 255
226 238 255
226 238 255
226 238 255
226 238 255
226 238 255
226 238 255
226 238 255
226 238 255
226 238 255
226 238 255
226 238 255
226 238 255
226 238 255
226 238 255
226 238 255
226 238 255
226 238 255
226 238 255
226 238 255
226 238 255
226 238 255
226 238 255
226 238 255
226 238 255
226 238 255
226 238 255
226 238 255
226 238 255
226 238 255
226 238 255
226 238 255
226 238 255
226 238 255
226 238 255
226 238 255
226 238 255
226 238 255
226 238 255
226 238 255
226 238 255
226 238 255
226 239 255
226 239 255
227 239 255
227 239 255
227 239 255
227 239 255
227 239 255
227 239 255
227 239 255
227 239 255
227 239 255
227 239 255
227 239 255
227 239 255
227 239 255
227 239 255
227 239 255
227 239 255
227 239 255
227 239 255
227 239 255
227 239 255
227 239 255
227 239 255
227 239 255
227 239 255
227 239 255
227 239 255
227 239 255
227 239 255
227 239 255
227 239 255
227 239 255
227 239 255
227 239 255
227 239 255
227 239 255
227 239 255
227 239 255
227 239 255
227 239 255
227 239 255
227 239 255
227 239 255
227 239 255
227 239 255
228 239 255
228 239 255
228 239 255
228 239 255
228 239 255
228 239 255
228 239 255
228 239 255
228 239 255
228 239 255
228 239 255
228 239 255
228 239 255
228 239 255
228 239 255
228 239 255
228 239 255
228 239 255
228 239 255
228 239 255
228 239 255
228 239 255
228 239 255
228 239 255
228 239 255
228 239 255
228 240 255
228 240 255
228 240 255
228 240 255
228 240 255
228 240 255
228 240 255
212 237 246
194 235 237
175 233 228
151 230 217
112 226 201
64 223 188
0 222 181
0 222 181
0 221 181
0 221 181
0 222 181
0 221 181
0 222 181
0 220 181
0 221 181
0 222 181
0 220 181
0 222 181
0 221 181
0 222 181
0 222 181
0 222 181
0 221 181
0 221 181
0 220 181
0 220 181
0 221 181
0 222 181
0 222 181
0 221 181
0 221 181
0 221 181
0 221 181
0 221 181
0 222 181
0 221 181
0 221 181
0 221 181
0 221 181
0 222 181
0 221 181
0 221 181
0 220 181
0 221 181
0 221 181
0 221 181
0 221 181
0 221 181
0 221 181
0 221 181
0 221 181
0 221 181
0 220 181
0 221 181
0 221 181
0 221 181
0 221 181
0 221 181
0 221 181
0 221 181
0 221 181
0 222 181
0 221 181
0 221 181
0 222 181
0 222 181
0 222 181
0 221 181
0 221 181
0 222 181
0 221 181
0 221 181
0 222 181
0 222 181
0 221 181
0 221 181
0 222 181
0 221 181
0 221 181
0 220 181
0 221 181
0 221 181
0 222 181
0 222 181
0 222 181
0 222 181
0 221 181
0 220 181
0 221 181
0 221 181
0 222 181
0 222 181
0 222 181
0 221 181
0 221 181
0 221 181
0 221 181
0 221 181
0 222 181
0 221 181
0 221 181
0 221 181
0 221 181
0 221 181
0 221 181
0 221 181
0 221 181
0 221 181
0 222 181
0 221 181
0 221 181
0 220 181
0 221 181
0 221 181
0 221 181
0 221 181
0 221 181
0 221 181
0 221 181
0 221 181
0 221 181
0 221 181
0 222 181
0 223 181
0 221 181
0 222 181
0 221 181
0 222 181
0 221 181
0 222 181
0 222 181
0 222 181
0 220 181
0 221 181
0 221 181
0 221 181
0 220 181
0 223 181
0 223 181
0 220 181
0 221 181
0 221 181
0 222 181
0 220 181
0 221 181
0 221 181
0 221 181
0 222 181
0 221 181
0 222 181
0 221 181
0 222 181
0 223 181
0 221 181
0 222 181
0 222 181
0 222 181
0 220 181
0 222 181
0 221 181
0 220 181
0 221 181
0 222 181
0 221 181
0 222 181
0 221 181
0 221 181
0 221 181
0 221 181
0 220 181
0 221 181
0 221 181
0 222 181
0 221 181
0 221 181
0 222 181
0 220 181
0 221 181
0 221 181
0 221 181
0 221 181
0 222 181
0 221 181
0 222 181
0 220 181
0 221 181
0 221 181
0 221 181
0 222 181
0 222 181
0 221 181
0 221 181
0 222 181
0 221 181
0 222 181
0 221 181
0 222 181
0 221 181
0 221 181
0 222 181
0 222 181
0 223 181
68 223 188
116 226 203
156 230 219
181 233 231
198 235 239
213 237 247
228 240 255
228 240 255
228 240 255
228 240 255
228 240 255
228 240 255
228 240 255
228 239 255
228 239 255
228 239 255
228 239 255
228 239 255
228 239 255
228 239 255
228 239 255
228 239 255
228 239 255
228 239 255
228 239 255
228 239 255
228 239 255
228 239 255
228 239 255
228 239 255
228 239 255
228 239 255
228 239 255
228 239 255
228 239 255
228 239 255
228 239 255
228 239 255
228 239 255
227 239 255
227 239 255
227 239 255
227 239 255
227 239 255
227 239 255
227 239 255
227 239 255
227 239 255
227 239 255
227 239 255
227 239 255
227 239 255
227 239 255
227 239 255
227 239 255
227 239 255
227 239 255
227 239 255
227 239 255
227 239 255
227 239 255
227 239 255
227 239 255
227 239 255
227 239 255
227 239 255
227 239 255
227 239 255
227 239 255
227 239 255
227 239 255
227 239 255
227 239 255
227 239 255
227 239 255
227 239 255
227 239 255
227 239 255
227 239 255
227 239 255
227 239 255
227 239 255
227 239 255
226 239 255
226 239 255
226 238 255
226 238 255
226 238 255
226 238 255
226 238 255
226 238 255
226 238 255
226 238 255
226 238 255
226 238 255
226 238 255
226 238 255
226 238 255
226 238 255
226 238 255
226 238 255
226 238 255
226 238 255
226 238 255
226 238 255
226 238 255
226 238 255
226 238 255
226 238 255
226 238 255
226 238 255
226 238 255
226 239 255
226 239 255
227 239 255
227 239 255
227 239 255
227 239 255
227 239 255
227 239 255
227 239 255
227 239 255
227 239 255
227 239 255
227 239 255
227 239 255
227 239 255
227 239 255
227 239 255
227 239 255
227 239 255
227 239 255
227 239 255
227 239 255
227 239 255
227 239 255
227 239 255
227 239 255
227 239 255
227 239 255
227 239 255
227 239 255
227 239 255
227 239 255
227 239 255
227 239 255
227 239 255
227 239 255
227 239 255
227 239 255
227 239 255
227 239 255
227 239 255
227 239 255
227 239 255
227 239 255
227 239 255
227 239 255
228 239 255
228 239 255
228 239 255
228 239 255
228 239 255
228 239 255
228 239 255
228 239 255
228 239 255
228 239 255
228 239 255
228 239 255
228 239 255
228 239 255
228 239 255
228 239 255
228 239 255
228 239 255
228 239 255
228 239 255
228 239 255
228 239 255
228 239 255
228 239 255
228 239 255
228 239 255
228 239 255
228 240 255
228 240 255
228 240 255
228 240 255
228 240 255
228 240 255
228 240 255
219 238 250
194 234 237
174 233 227
133 228 209
131 228 208
68 222 188
0 221 181
0 221 181
0 222 181
0 222 181
0 222 181
0 221 181
0 221 181
0 222 181
0 221 181
0 221 181
0 221 181
0 221 181
0 222 181
0 221 181
0 220 181
0 222 181
0 222 181
0 220 181
0 222 181
0 222 181
0 221 181
0 222 181
0 221 181
0 221 181
0 221 181
0 221 181
0 222 181
0 221 181
0 221 181
0 221 181
0 222 181
0 223 181
0 222 181
0 222 181
0 222 181
0 221 181
0 221 181
0 221 181
0 222 181
0 221 181
0 221 181
0 220 181
0 222 181
0 222 181
0 221 181
0 221 181
0 222 181
0 221 181
0 221 181
0 222 181
0 222 181
0 221 181
0 221 181
0 220 181
0 220 181
0 222 181
0 221 181
0 222 181
0 222 181
0 222 181
0 221 181
0 221 181
0 222 181
0 222 181
0 222 181
0 221 181
0 221 181
0 221 181
0 221 181
0 220 181
0 221 181
0 221 181
0 222 181
0 221 181
0 221 181
0 221 181
0 221 181
0 222 181
0 221 181
0 221 181
0 221 181
0 221 181
0 221 181
0 221 181
0 221 181
0 222 181
0 222 181
0 220 181
0 221 181
0 220 181
0 221 180
0 221 181
0 222 181
0 221 181
0 221 181
0 222 181
0 221 181
0 221 181
0 221 181
0 221 181
0 221 181
0 221 181
0 222 181
0 220 181
0 220 181
0 221 181
0 220 180
0 221 181
0 220 181
0 222 181
0 222 181
0 220 181
0 221 181
0 221 181
0 222 181
0 222 181
0 221 181
0 220 181
0 221 181
0 221 181
0 221 181
0 221 181
0 221 181
0 221 181
0 221 181
0 221 181
0 221 181
0 221 181
0 222 181
0 221 181
0 221 181
0 221 181
0 221 181
0 221 181
0 220 180
0 222 181
0 222 181
0 222 181
0 221 181
0 221 181
0 221 181
0 221 181
0 222 181
0 221 181
0 221 181
0 221 181
0 222 181
0 221 181
0 222 181
0 222 181
0 222 181
0 221 181
0 221 181
0 222 181
0 221 181
0 221 181
0 221 181
0 221 181
0 222 181
0 222 181
0 221 181
0 221 181
0 222 181
0 221 181
0 220 181
0 221 181
0 221 181
0 220 181
0 222 181
0 221 181
0 221 181
0 222 181
0 221 181
0 222 181
0 221 181
0 220 181
0 221 181
0 221 181
0 222 181
0 221 181
0 222 181
0 221 181
0 221 181
0 222 181
0 221 181
0 222 181
0 221 181
0 221 181
0 221 181
0 222 181
0 221 181
0 222 181
0 221 181
0 222 181
0 221 181
0 221 181
0 221 181
0 222 181
0 221 181
0 221 181
0 221 181
0 221 181
0 222 181
0 221 181
0 222 181
0 221 181
0 221 181
0 221 181
45 221 184
109 226 200
151 230 217
187 234 233
208 237 244
224 239 253
228 240 255
228 240 255
228 240 255
228 240 255
228 240 255
228 240 255
228 240 255
228 239 255
228 239 255
228 239 255
228 239 255
228 239 255
228 239 255
228 239 255
228 239 255
228 239 255
228 239 255
228 239 255
228 239 255
228 239 255
228 239 255
228 239 255
228 239 255
228 239 255
228 239 255
228 239 255
228 239 255
228 239 255
228 239 255
228 239 255
228 239 255
228 239 255
228 239 255
228 239 255
227 239 255
227 239 255
227 239 255
227 239 255
227 239 255
227 239 255
227 239 255
227 239 255
227 239 255
227 239 255
227 239 255
227 239 255
227 239 255
227 239 255
227 239 255
227 239 255
227 239 255
227 239 255
227 239 255
227 239 255
227 239 255
227 239 255
227 239 255
227 239 255
227 239 255
227 239 255
227 239 255
227 239 255
227 239 255
227 239 255
227 239 255
227 239 255
227 239 255
227 239 255
227 239 255
227 239 255
227 239 255
227 239 255
227 239 255
227 239 255
227 239 255
227 239 255
227 239 255
227 239 255
226 239 255
226 239 255
226 238 255
226 238 255
226 238 255
226 238 255
226 238 255
226 238 255
226 238 255
226 238 255
226 238 255
226 238 255
226 238 255
226 238 255
226 238 255
226 238 255
226 239 255
227 239 255
227 239 255
227 239 255
227 239 255
227 239 255
227 239 255
227 239 255
227 239 255
227 239 255
227 239 255
227 239 255
227 239 255
227 239 255
227 239 255
227 239 255
227 239 255
227 239 255
227 239 255
227 239 255
227 239 255
227 239 255
227 239 255
227 239 255
227 239 255
227 239 255
227 239 255
227 239 255
227 239 255
227 239 255
227 239 255
227 239 255
227 239 255
227 239 255
227 239 255
227 239 255
227 239 255
227 239 255
227 239 255
227 239 255
227 239 255
227 239 255
227 239 255
227 239 255
227 239 255
227 239 255
228 239 255
228 239 255
228 239 255
228 239 255
228 239 255
228 239 255
228 239 255
228 239 255
228 239 255
228 239 255
228 239 255
228 239 255
228 239 255
228 239 255
228 239 255
228 239 255
228 239 255
228 239 255
228 239 255
228 239 255
228 239 255
228 239 255
228 239 255
228 239 255
228 239 255
228 239 255
228 240 255
228 240 255
228 240 255
228 240 255
228 240 255
228 240 255
228 240 255
228 240 255
226 239 254
213 237 247
194 235 237
155 230 218
127 227 207
75 223 190
0 222 181
0 221 181
0 223 181
0 221 181
0 221 181
0 221 181
0 222 181
0 222 181
0 221 181
0 222 181
0 221 181
0 220 181
0 222 181
0 221 181
0 221 181
0 222 181
0 221 181
0 222 181
0 222 181
0 222 181
0 222 181
0 221 181
0 221 181
0 222 181
0 221 181
0 222 181
0 222 181
0 222 181
0 221 181
0 222 181
0 221 181
0 221 181
0 221 181
0 221 181
0 221 181
0 222 181
0 222 181
0 222 181
0 221 181
0 221 181
0 222 181
0 222 181
0 221 181
0 222 181
0 221 181
0 221 181
0 221 181
0 220 181
0 222 181
0 221 181
0 221 181
0 221 181
0 221 181
0 221 181
0 221 181
0 221 181
0 221 181
0 220 180
0 221 181
0 221 181
0 221 181
0 221 181
0 221 181
0 221 181
0 221 181
0 221 181
0 222 181
0 222 181
0 221 181
0 221 181
0 221 181
0 222 181
0 221 181
0 221 181
0 221 181
0 221 181
0 221 181
0 222 181
0 221 181
0 221 181
0 222 181
0 221 181
0 221 181
0 222 181
0 220 181
0 220 181
0 221 181
0 221 181
0 220 181
0 221 181
0 221 181
0 220 181
0 222 181
0 221 181
0 222 181
0 221 181
0 221 181
0 221 181
0 222 181
0 221 181
0 221 181
0 221 181
0 219 179
0 221 181
0 221 181
0 221 181
0 220 181
0 222 181
0 221 181
0 221 181
0 220 181
0 221 181
0 221 181
0 221 181
0 221 181
0 221 181
0 221 180
0 222 181
0 221 181
0 222 181
0 221 181
0 221 181
0 222 181
0 221 181
0 221 181
0 222 181
0 221 181
0 222 181
0 221 181
0 221 181
0 220 180
0 221 181
0 222 181
0 221 181
0 222 181
0 222 181
0 221 181
0 221 181
0 222 181
0 221 181
0 221 181
0 221 181
0 221 181
0 222 181
0 222 181
0 222 181
0 221 180
0 221 181
0 222 181
0 221 181
0 221 181
0 222 181
0 221 181
0 221 181
0 221 181
0 221 181
0 221 181
0 221 181
0 222 181
0 221 181
0 222 181
0 221 181
0 220 181
0 221 181
0 221 181
0 221 181
0 221 181
0 220 181
0 221 181
0 221 181
0 221 181
0 223 181
0 222 181
0 221 181
0 221 181
0 222 181
0 221 181
0 222 181
0 221 181
0 222 181
0 221 181
0 221 181
0 222 181
0 221 181
0 221 181
0 222 181
0 221 181
0 222 181
0 221 181
0 221 181
0 221 181
0 221 181
0 221 181
0 222 181
0 222 181
0 221 181
0 221 181
0 221 181
0 222 181
0 221 181
0 221 181
0 221 181
0 221 181
0 221 181
0 221 181
0 221 181
0 221 181
0 221 181
0 221 181
0 221 181
0 222 181
0 221 181
0 221 181
0 220 181
0 221 181
0 222 181
0 222 181
0 220 181
0 222 181
0 221 181
72 223 189
129 227 207
137 229 211
186 234 233
207 236 244
226 239 254
228 240 255
228 240 255
228 240 255
228 240 255
228 240 255
228 240 255
228 240 255
228 240 255
228 239 255
228 239 255
228 239 255
228 239 255
228 239 255
228 239 255
228 239 255
228 239 255
228 239 255
228 239 255
228 239 255
228 239 255
228 239 255
228 239 255
228 239 255
228 239 255
228 239 255
228 239 255
228 239 255
228 239 255
228 239 255
228 239 255
228 239 255
228 239 255
228 239 255
228 239 255
227 239 255
227 239 255
227 239 255
227 239 255
227 239 255
227 239 255
227 239 255
227 239 255
227 239 255
227 239 255
227 239 255
227 239 255
227 239 255
227 239 255
227 239 255
227 239 255
227 239 255
227 239 255
227 239 255
227 239 255
227 239 255
227 239 255
227 239 255
227 239 255
227 239 255
227 239 255
227 239 255
227 239 255
227 239 255
227 239 255
227 239 255
227 239 255
227 239 255
227 239 255
227 239 255
227 239 255
227 239 255
227 239 255
227 239 255
227 239 255
227 239 255
227 239 255
227 239 255
227 239 255
227 239 255
226 239 255
226 238 255
226 238 255
226 238 255
226 238 255
227 239 255
227 239 255
227 239 255
227 239 255
227 239 255
227 239 255
227 239 255
227 239 255
227 239 255
227 239 255
227 239 255
227 239 255
227 239 255
227 239 255
227 239 255
227 239 255
227 239 255
227 239 255
227 239 255
227 239 255
227 239 255
227 239 255
227 239 255
227 239 255
227 239 255
227 239 255
227 239 255
227 239 255
227 239 255
227 239 255
227 239 255
227 239 255
227 239 255
227 239 255
227 239 255
227 239 255
227 239 255
227 239 255
227 239 255
227 239 255
227 239 255
227 239 255
227 239 255
227 239 255
228 239 255
228 239 255
228 239 255
228 239 255
228 239 255
228 239 255
228 239 255
228 239 255
228 239 255
228 239 255
228 239 255
228 239 255
228 239 255
228 239 255
228 239 255
228 239 255
228 239 255
228 239 255
228 239 255
228 239 255
228 239 255
228 239 255
228 239 255
228 239 255
228 239 255
228 239 255
228 240 255
228 240 255
228 240 255
228 240 255
228 240 255
228 240 255
228 240 255
228 240 255
228 240 255
220 238 251
199 235 240
171 231 226
143 229 213
109 226 200
0 221 181
0 222 181
0 222 181
0 222 181
0 222 181
0 221 181
0 221 181
0 221 181
0 221 181
0 221 181
0 221 181
0 222 181
0 222 181
0 221 181
0 221 181
0 222 181
0 221 181
0 221 181
0 221 181
0 221 181
0 221 181
0 221 181
0 221 181
0 221 181
0 221 181
0 221 181
0 221 181
0 222 181
0 222 181
0 222 181
0 221 181
0 220 181
0 221 181
0 221 181
0 221 181
0 221 181
0 221 181
0 221 181
0 221 181
0 221 181
0 221 181
0 222 181
0 221 181
0 221 181
0 221 181
0 220 181
0 222 181
0 222 181
0 221 181
0 221 181
0 222 181
0 222 181
0 221 181
0 220 181
0 222 181
0 221 181
0 222 181
0 221 181
0 222 181
0 221 181
0 222 181
0 220 181
0 222 181
0 221 181
0 220 181
0 220 181
0 221 181
0 222 181
0 222 181
0 222 181
0 222 181
0 221 181
0 222 181
0 222 181
0 221 181
0 221 181
0 221 181
0 222 181
0 222 181
0 221 181
0 221 181
0 221 181
0 221 181
0 222 181
0 220 181
0 221 181
0 221 181
0 221 181
0 222 181
0 221 181
0 221 181
0 222 181
0 221 181
0 222 181
0 222 181
0 221 181
0 221 181
0 221 181
0 221 181
0 222 181
0 221 181
0 221 181
0 221 181
0 221 181
0 221 181
0 221 181
0 221 181
0 221 181
0 221 181
0 222 181
0 220 180
0 221 181
0 221 181
0 221 181
0 221 181
0 222 181
0 222 181
0 220 181
0 222 181
0 221 181
0 222 181
0 220 180
0 221 180
0 222 181
0 221 181
0 221 180
0 222 181
0 221 181
0 222 181
0 222 181
0 222 181
0 222 181
0 222 181
0 221 181
0 221 181
0 222 181
0 222 181
0 221 181
0 222 181
0 222 181
0 222 181
0 221 181
0 221 181
0 221 181
0 221 181
0 221 181
0 222 181
0 222 181
0 220 181
0 221 181
0 222 181
0 221 181
0 222 181
0 222 181
0 222 181
0 222 181
0 221 181
0 221 181
0 221 181
0 221 181
0 221 181
0 222 181
0 221 181
0 221 181
0 222 181
0 220 181
0 222 181
0 221 181
0 222 181
0 222 181
0 221 181
0 221 181
0 221 181
0 222 181
0 222 181
0 221 181
0 221 181
0 221 181
0 221 181
0 222 181
0 222 181
0 221 181
0 222 181
0 221 181
0 221 181
0 220 181
0 221 181
0 222 181
0 221 181
0 222 181
0 222 181
0 221 181
0 222 181
0 220 181
0 222 181
0 221 181
0 221 181
0 222 181
0 222 181
0 221 181
0 221 181
0 221 181
0 221 181
0 220 181
0 220 181
0 221 181
0 221 181
0 221 181
0 222 181
0 221 181
0 222 181
0 220 181
0 221 181
0 221 181
0 221 181
0 222 181
0 221 181
0 220 181
0 221 181
0 220 181
0 222 181
0 221 181
0 221 181
0 222 181
0 221 181
0 221 181
0 222 181
0 222 181
0 221 181
0 221 181
0 221 181
51 222 185
112 225 201
146 229 214
174 232 227
195 235 238
220 238 251
228 240 255
228 240 255
228 240 255
228 240 255
228 240 255
228 240 255
228 240 255
228 240 255
228 240 255
228 239 255
228 239 255
228 239 255
228 239 255
228 239 255
228 239 255
228 239 255
228 239 255
228 239 255
228 239 255
228 239 255
228 239 255
228 239 255
228 239 255
228 239 255
228 239 255
228 239 255
228 239 255
228 239 255
228 239 255
228 239 255
228 239 255
228 239 255
228 239 255
228 239 255
228 239 255
227 239 255
227 239 255
227 239 255
227 239 255
227 239 255
227 239 255
227 239 255
227 239 255
227 239 255
227 239 255
227 239 255
227 239 255
227 239 255
227 239 255
227 239 255
227 239 255
227 239 255
227 239 255
227 239 255
227 239 255
227 239 255
227 239 255
227 239 255
227 239 255
227 239 255
227 239 255
227 239 255
227 239 255
227 239 255
227 239 255
227 239 255
227 239 255
227 239 255
227 239 255
227 239 255
227 239 255
227 239 255
227 239 255
227 239 255
227 239 255
227 239 255
227 239 255
227 239 255
227 239 255
227 239 255
227 239 255
227 239 255
227 239 255
227 239 255
227 239 255
227 239 255
227 239 255
227 239 255
227 239 255
227 239 255
227 239 255
227 239 255
227 239 255
227 239 255
227 239 255
227 239 255
227 239 255
227 239 255
227 239 255
227 239 255
227 239 255
227 239 255
227 239 255
227 239 255
227 239 255
227 239 255
227 239 255
227 239 255
227 239 255
227 239 255
227 239 255
227 239 255
227 239 255
227 239 255
227 239 255
227 239 255
227 239 255
228 239 255
228 239 255
228 239 255
228 239 255
228 239 255
228 239 255
228 239 255
228 239 255
228 239 255
228 239 255
228 239 255
228 239 255
228 239 255
228 239 255
228 239 255
228 239 255
228 239 255
228 239 255
228 239 255
228 239 255
228 239 255
228 239 255
228 239 255
228 239 255
228 239 255
228 239 255
228 240 255
228 240 255
228 240 255
228 240 255
228 240 255
228 240 255
228 240 255
228 240 255
228 240 255
228 240 255
222 239 252
178 233 229
165 230 223
129 227 207
85 224 193
0 221 181
0 221 181
0 222 181
0 221 181
0 221 181
0 221 181
0 222 181
0 221 181
0 221 181
0 221 181
0 222 181
0 221 181
0 222 181
0 222 181
0 223 181
0 221 181
0 221 181
0 221 181
0 221 181
0 221 181
0 222 181
0 223 181
0 222 181
0 222 181
0 221 181
0 220 181
0 221 181
0 221 181
0 222 181
0 221 181
0 221 181
0 222 181
0 221 181
0 221 181
0 221 181
0 222 181
0 221 181
0 220 181
0 222 181
0 221 181
0 221 181
0 221 181
0 221 181
0 222 181
0 222 181
0 223 181
0 221 181
0 222 181
0 221 181
0 221 181
0 222 181
0 222 181
0 222 181
0 222 181
0 221 181
0 221 181
0 222 181
0 221 181
0 221 181
0 221 181
0 221 181
0 221 181
0 221 181
0 222 181
0 222 181
0 221 181
0 219 180
0 221 181
0 221 181
0 223 181
0 221 181
0 221 181
0 221 181
0 220 180
0 221 181
0 221 181
0 220 181
0 222 181
0 221 181
0 221 181
0 222 181
0 222 181
0 221 181
0 221 181
0 221 181
0 222 181
0 221 181
0 221 181
0 221 181
0 221 181
0 222 181
0 221 181
0 221 181
0 221 181
0 222 181
0 222 181
0 221 181
0 221 181
0 221 181
0 221 181
0 221 181
0 221 181
0 222 181
0 221 181
0 221 181
0 222 181
0 221 181
0 222 181
0 221 180
0 221 181
0 222 181
0 221 181
0 221 181
0 221 181
0 221 181
0 221 181
0 221 181
0 221 181
0 220 180
0 221 181
0 221 180
0 221 181
0 221 181
0 221 181
0 221 181
0 221 181
0 221 181
0 221 181
0 222 181
0 221 181
0 221 181
0 221 181
0 221 181
0 222 181
0 222 181
0 222 181
0 221 181
0 220 181
0 221 181
0 222 181
0 221 181
0 220 181
0 222 181
0 221 181
0 222 181
0 222 181
0 221 181
0 222 181
0 221 181
0 221 181
0 221 181
0 221 181
0 221 181
0 222 180
0 222 181
0 221 181
0 221 181
0 222 181
0 221 181
0 221 181
0 221 181
0 221 181
0 221 181
0 221 181
0 221 181
0 221 181
0 220 180
0 222 181
0 221 181
0 222 181
0 221 181
0 221 181
0 221 181
0 221 181
0 220 181
0 221 181
0 222 181
0 222 181
0 222 181
0 222 181
0 221 181
0 221 181
0 220 181
0 221 181
0 222 181
0 222 181
0 222 181
0 221 181
0 221 181
0 222 181
0 221 181
0 221 181
0 221 181
0 221 181
0 222 181
0 222 181
0 221 181
0 221 181
0 222 181
0 222 181
0 221 181
0 221 181
0 222 181
0 222 181
0 221 181
0 222 181
0 221 181
0 222 181
0 222 181
0 222 181
0 221 181
0 221 181
0 221 181
0 222 181
0 221 181
0 221 181
0 221 181
0 222 181
0 221 181
0 221 181
0 221 181
0 222 181
0 221 181
0 221 181
0 222 181
0 221 181
0 221 181
0 222 181
0 221 181
0 221 181
0 222 181
0 221 181
0 221 181
0 221 181
0 222 181
0 221 181
0 222 181
0 221 181
0 222 181
0 222 181
0 222 181
0 221 181
64 223 188
99 225 197
160 231 220
183 233 231
217 238 249
228 240 255
228 240 255
228 240 255
228 240 255
228 240 255
228 240 255
228 240 255
228 240 255
228 240 255
228 240 255
228 239 255
228 239 255
228 239 255
228 239 255
228 239 255
228 239 255
228 239 255
228 239 255
228 239 255
228 239 255
228 239 255
228 239 255
228 239 255
228 239 255
228 239 255
228 239 255
228 239 255
228 239 255
228 239 255
228 239 255
228 239 255
228 239 255
228 239 255
228 239 255
228 239 255
228 239 255
227 239 255
227 239 255
227 239 255
227 239 255
227 239 255
227 239 255
227 239 255
227 239 255
227 239 255
227 239 255
227 239 255
227 239 255
227 239 255
227 239 255
227 239 255
227 239 255
227 239 255
227 239 255
227 239 255
227 239 255
227 239 255
227 239 255
227 239 255
227 239 255
227 239 255
227 239 255
227 239 255
227 239 255
227 239 255
227 239 255
227 239 255
227 239 255
227 239 255
227 239 255
227 239 255
227 239 255
227 239 255
227 239 255
227 239 255
227 239 255
227 239 255
227 239 255
227 239 255
227 239 255
227 239 255
227 239 255
227 239 255
227 239 255
227 239 255
227 239 255
227 239 255
227 239 255
227 239 255
227 239 255
227 239 255
227 239 255
227 239 255
227 239 255
227 239 255
227 239 255
227 239 255
227 239 255
227 239 255
227 239 255
227 239 255
227 239 255
227 239 255
227 239 255
227 239 255
228 239 255
228 239 255
228 239 255
228 239 255
228 239 255
228 239 255
228 239 255
228 239 255
228 239 255
228 239 255
228 239 255
228 239 255
228 239 255
228 239 255
228 239 255
228 239 255
228 239 255
228 239 255
228 239 255
228 239 255
228 239 255
228 239 255
228 239 255
228 239 255
228 239 255
228 239 255
228 239 255
228 240 255
228 240 255
228 240 255
228 240 255
228 240 255
228 240 255
228 240 255
228 240 255
228 240 255
228 240 255
226 239 254
204 236 242
190 234 235
151 230 217
119 227 203
45 223 184
0 221 181
0 223 181
0 221 181
0 222 181
0 222 181
0 221 181
0 222 181
0 221 181
0 221 181
0 221 181
0 222 181
0 222 181
0 222 181
0 221 181
0 221 181
0 222 181
0 222 181
0 222 181
0 221 181
0 221 181
0 221 181
0 222 181
0 223 181
0 221 181
0 221 181
0 222 181
0 222 181
0 221 181
0 221 181
0 221 181
0 221 181
0 222 181
0 221 181
0 222 181
0 221 181
0 222 181
0 220 181
0 221 181
0 221 181
0 221 181
0 221 181
0 221 181
0 221 181
0 222 181
0 221 181
0 222 181
0 222 181
0 222 181
0 222 181
0 222 181
0 222 181
0 222 181
0 221 181
0 222 181
0 221 181
0 222 181
0 221 181
0 221 181
0 222 181
0 221 181
0 221 181
0 221 181
0 221 181
0 220 181
0 221 181
0 221 181
0 221 181
0 222 181
0 221 181
0 221 181
0 222 181
0 220 180
0 222 181
0 222 181
0 221 181
0 221 181
0 222 181
0 221 181
0 221 181
0 221 180
0 222 181
0 221 181
0 221 181
0 221 181
0 220 181
0 221 180
0 221 181
0 221 181
0 221 181
0 222 181
0 222 181
0 221 181
0 220 181
0 221 181
0 222 181
0 221 181
0 222 181
0 220 181
0 221 181
0 221 180
0 221 181
0 220 180
0 221 181
0 221 181
0 220 181
0 222 181
0 220 180
0 221 181
0 222 181
0 221 181
0 221 181
0 221 181
0 221 181
0 221 181
0 220 181
0 221 181
0 221 181
0 222 181
0 221 181
0 221 181
0 222 180
0 221 181
0 221 181
0 221 180
0 221 180
0 221 181
0 222 181
0 221 181
0 222 181
0 220 180
0 220 180
0 222 181
0 221 181
0 221 181
0 221 180
0 221 181
0 220 181
0 222 181
0 221 181
0 221 181
0 222 181
0 222 181
0 222 181
0 221 181
0 220 181
0 221 181
0 221 181
0 220 181
0 221 181
0 220 181
0 221 181
0 221 181
0 221 180
0 222 181
0 220 181
0 221 181
0 221 181
0 221 181
0 221 181
0 221 181
0 221 181
0 221 180
0 220 181
0 221 181
0 221 181
0 221 181
0 221 181
0 222 181
0 222 181
0 221 181
0 222 181
0 222 181
0 221 181
0 220 181
0 221 181
0 222 181
0 220 180
0 222 181
0 222 181
0 222 181
0 221 181
0 222 181
0 222 181
0 221 181
0 221 181
0 221 181
0 222 181
0 221 181
0 221 181
0 221 181
0 221 181
0 221 181
0 222 181
0 220 181
0 221 181
0 220 181
0 221 181
0 222 181
0 220 181
0 222 181
0 221 181
0 221 181
0 221 181
0 221 181
0 221 181
0 222 181
0 220 181
0 222 181
0 221 181
0 221 181
0 221 181
0 221 181
0 222 181
0 222 181
0 222 181
0 221 181
0 221 181
0 221 181
0 221 181
0 221 181
0 221 181
0 221 181
0 222 181
0 221 181
0 221 181
0 221 181
0 222 181
0 222 181
0 221 181
0 221 181
0 221 181
0 222 181
0 222 181
0 221 181
0 221 181
0 221 181
0 222 181
0 222 181
0 221 181
0 221 181
0 222 181
0 221 181
0 221 181
0 221 181
0 221 181
0 221 181
0 221 181
0 222 181
0 223 181
0 222 181
0 221 181
0 221 181
60 224 187
114 227 202
148 229 215
178 233 229
211 237 246
227 239 255
228 240 255
228 240 255
228 240 255
228 240 255
228 240 255
228 240 255
228 240 255
228 240 255
228 240 255
228 240 255
228 239 255
228 239 255
228 239 255
228 239 255
228 239 255
228 239 255
228 239 255
228 239 255
228 239 255
228 239 255
228 239 255
228 239 255
228 239 255
228 239 255
228 239 255
228 239 255
228 239 255
228 239 255
228 239 255
228 239 255
228 239 255
228 239 255
228 239 255
228 239 255
228 239 255
228 239 255
227 239 255
227 239 255
227 239 255
227 239 255
227 239 255
227 239 255
227 239 255
227 239 255
227 239 255
227 239 255
227 239 255
227 239 255
227 239 255
227 239 255
227 239 255
227 239 255
227 239 255
227 239 255
227 239 255
227 239 255
227 239 255
227 239 255
227 239 255
227 239 255
227 239 255
227 239 255
227 239 255
227 239 255
227 239 255
227 239 255
227 239 255
227 239 255
227 239 255
227 239 255
227 239 255
227 239 255
227 239 255
227 239 255
227 239 255
227 239 255
227 239 255
227 239 255
227 239 255
227 239 255
227 239 255
227 239 255
227 239 255
227 239 255
227 239 255
227 239 255
227 239 255
227 239 255
227 239 255
227 239 255
227 239 255
227 239 255
227 239 255
227 239 255
228 239 255
228 239 255
228 239 255
228 239 255
228 239 255
228 239 255
228 239 255
228 239 255
228 239 255
228 239 255
228 239 255
228 239 255
228 239 255
228 239 255
228 239 255
228 239 255
228 239 255
228 239 255
228 239 255
228 239 255
228 239 255
228 239 255
228 239 255
228 239 255
228 239 255
228 239 255
228 240 255
228 240 255
228 240 255
228 240 255
228 240 255
228 240 255
228 240 255
228 240 255
228 240 255
228 240 255
229 240 255
226 239 254
206 236 243
183 233 231
135 228 210
116 227 203
39 222 183
0 221 181
0 222 181
0 221 181
0 221 181
0 221 181
0 222 181
0 221 181
0 221 181
0 222 181
0 222 181
0 222 181
0 220 181
0 221 181
0 221 181
0 221 181
0 221 181
0 221 181
0 222 181
0 222 181
0 221 181
0 222 181
0 222 181
0 221 181
0 221 181
0 221 181
0 221 181
0 221 181
0 221 181
0 221 181
0 221 181
0 221 181
0 221 181
0 222 181
0 221 181
0 222 181
0 222 181
0 221 181
0 222 181
0 221 181
0 221 181
0 221 181
0 221 181
0 221 181
0 222 181
0 222 181
0 221 181
0 221 181
0 221 181
0 222 181
0 221 181
0 221 181
0 220 181
0 222 181
0 221 181
0 222 181
0 222 181
0 221 181
0 220 181
0 221 181
0 222 181
0 221 181
0 221 181
0 221 181
0 221 180
0 222 181
0 221 181
0 222 181
0 222 181
0 221 181
0 222 181
0 222 181
0 222 181
0 221 181
0 222 181
0 221 181
0 220 181
0 222 181
0 222 181
0 221 181
0 221 180
0 222 181
0 222 181
0 221 181
0 222 181
0 221 180
0 221 181
0 219 180
0 222 181
0 221 181
0 220 180
0 220 181
0 222 181
0 221 181
0 220 181
0 221 181
0 221 181
0 222 181
0 222 181
0 221 181
0 221 181
0 221 181
0 221 181
0 220 181
0 222 181
0 221 181
0 221 181
0 222 181
0 220 181
0 220 181
0 221 180
0 221 181
0 221 181
0 221 181
0 221 181
0 221 181
0 221 180
0 221 181
0 221 181
0 221 181
0 221 181
0 222 181
0 221 181
0 221 181
0 220 181
0 221 180
0 221 181
0 221 181
0 220 181
0 221 181
0 221 181
0 221 181
0 221 181
0 221 181
0 221 181
0 221 181
0 221 181
0 221 181
0 220 181
0 220 181
0 221 181
0 221 181
0 221 181
0 221 180
0 221 181
0 221 181
0 221 180
0 221 181
0 221 181
0 221 181
0 221 181
0 222 181
0 221 181
0 220 181
0 221 181
0 220 180
0 221 180
0 221 181
0 220 181
0 221 181
0 221 181
0 221 181
0 221 181
0 221 181
0 220 180
0 220 181
0 219 180
0 221 180
0 221 181
0 221 181
0 221 181
0 221 181
0 221 181
0 221 181
0 221 181
0 220 180
0 221 181
0 221 181
0 221 181
0 221 181
0 221 181
0 221 181
0 221 181
0 222 181
0 222 181
0 222 181
0 220 181
0 222 181
0 220 180
0 221 181
0 221 181
0 221 181
0 221 181
0 222 181
0 220 181
0 221 181
0 222 181
0 221 181
0 221 181
0 221 181
0 222 181
0 221 181
0 221 181
0 221 181
0 221 181
0 221 181
0 221 181
0 222 181
0 222 181
0 220 181
0 220 181
0 221 181
0 222 181
0 221 181
0 221 181
0 221 181
0 221 181
0 221 181
0 221 181
0 222 181
0 222 181
0 222 181
0 222 181
0 221 181
0 221 181
0 221 181
0 221 181
0 221 181
0 222 181
0 221 181
0 220 181
0 222 181
0 220 181
0 222 181
0 220 181
0 221 181
0 222 181
0 220 181
0 221 181
0 221 181
0 221 181
0 221 181
0 221 181
0 220 181
0 221 181
0 222 181
0 222 181
0 222 181
0 222 181
0 221 181
0 222 181
0 221 181
0 221 181
0 221 181
0 222 181
0 221 181
0 222 181
0 221 181
0 221 181
0 221 181
0 221 181
0 221 181
0 221 181
51 222 185
99 225 197
157 230 219
177 233 228
198 235 239
226 239 254
228 240 255
228 240 255
228 240 255
228 240 255
228 240 255
228 240 255
228 240 255
228 240 255
228 240 255
228 240 255
228 239 255
228 239 255
228 239 255
228 239 255
228 239 255
228 239 255
228 239 255
228 239 255
228 239 255
228 239 255
228 239 255
228 239 255
228 239 255
228 239 255
228 239 255
228 239 255
228 239 255
228 239 255
228 239 255
228 239 255
228 239 255
228 239 255
228 239 255
228 239 255
228 239 255
228 239 255
228 239 255
227 239 255
227 239 255
227 239 255
227 239 255
227 239 255
227 239 255
227 239 255
227 239 255
227 239 255
227 239 255
227 239 255
227 239 255
227 239 255
227 239 255
227 239 255
227 239 255
227 239 255
227 239 255
227 239 255
227 239 255
227 239 255
227 239 255
227 239 255
227 239 255
227 239 255
227 239 255
227 239 255
227 239 255
227 239 255
227 239 255
227 239 255
227 239 255
227 239 255
227 239 255
227 239 255
227 239 255
227 239 255
227 239 255
227 239 255
227 239 255
227 239 255
227 239 255
227 239 255
227 239 255
227 239 255
227 239 255
228 239 255
228 239 255
228 239 255
228 239 255
228 239 255
228 239 255
228 239 255
228 239 255
228 239 255
228 239 255
228 239 255
228 239 255
228 239 255
228 239 255
228 239 255
228 239 255
228 239 255
228 239 255
228 239 255
228 239 255
228 239 255
228 239 255
228 239 255
228 239 255
228 239 255
228 239 255
228 239 255
228 240 255
228 240 255
228 240 255
228 240 255
228 240 255
228 240 255
228 240 255
228 240 255
228 240 255
228 240 255
229 240 255
223 239 252
208 236 244
181 233 231
144 229 214
85 224 193
51 222 185
0 221 181
0 222 181
0 222 181
0 222 181
0 221 181
0 222 181
0 221 181
0 222 181
0 221 181
0 221 181
0 222 181
0 221 181
0 221 181
0 221 181
0 221 181
0 222 181
0 222 181
0 222 181
0 221 181
0 221 181
0 222 181
0 221 181
0 222 181
0 221 181
0 222 181
0 221 181
0 221 181
0 221 181
0 222 181
0 221 181
0 222 181
0 221 181
0 221 181
0 221 181
0 221 181
0 222 181
0 221 181
0 222 181
0 221 180
0 221 181
0 221 181
0 220 181
0 221 181
0 221 181
0 221 181
0 221 181
0 222 181
0 221 181
0 221 181
0 221 181
0 221 181
0 222 181
0 221 181
0 220 181
0 221 181
0 222 181
0 222 181
0 221 181
0 221 181
0 222 181
0 221 181
0 221 181
0 221 181
0 220 181
0 222 181
0 221 181
0 221 181
0 221 181
0 221 181
0 221 181
0 220 181
0 221 181
0 222 181
0 222 181
0 221 181
0 221 181
0 222 181
0 222 181
0 221 181
0 222 181
0 222 181
0 221 181
0 222 181
0 222 181
0 220 181
0 220 181
0 221 180
0 220 180
0 221 181
0 222 181
0 221 181
0 221 181
0 221 181
0 220 181
0 222 181
0 221 181
0 221 181
0 222 181
0 221 181
0 221 181
0 221 181
0 221 181
0 221 181
0 222 181
0 219 180
0 222 181
0 222 181
0 220 180
0 221 181
0 221 181
0 221 181
0 221 181
0 221 181
0 221 181
0 221 181
0 221 180
0 222 181
0 221 181
0 220 180
0 221 180
0 222 181
0 221 181
0 221 180
0 222 181
0 220 181
0 221 181
0 221 181
0 221 181
0 222 181
0 221 181
0 221 181
0 220 180
0 221 181
0 220 181
0 221 181
0 223 181
0 221 181
0 222 181
0 221 181
0 221 181
0 222 181
0 222 181
0 222 181
0 221 181
0 221 181
0 221 181
0 221 181
0 220 181
0 222 181
0 221 181
0 222 181
0 221 180
0 222 181
0 221 181
0 221 180
0 221 181
0 220 181
0 221 181
0 221 181
0 221 181
0 221 181
0 221 181
0 221 181
0 222 181
0 221 181
0 221 181
0 220 181
0 222 181
0 221 181
0 221 180
0 221 181
0 222 181
0 220 181
0 220 181
0 221 181
0 221 181
0 222 181
0 221 181
0 222 181
0 223 181
0 222 181
0 222 181
0 222 181
0 221 181
0 220 180
0 222 181
0 221 181
0 221 181
0 221 181
0 220 181
0 221 181
0 221 180
0 222 181
0 222 181
0 220 181
0 221 181
0 221 180
0 221 181
0 221 181
0 222 181
0 222 181
0 222 181
0 220 181
0 221 181
0 222 181
0 221 181
0 221 181
0 221 181
0 221 181
0 221 181
0 221 181
0 221 181
0 223 181
0 222 181
0 221 181
0 221 181
0 220 181
0 221 181
0 221 181
0 221 181
0 221 181
0 222 181
0 220 181
0 221 181
0 222 181
0 221 181
0 221 181
0 222 181
0 221 181
0 220 181
0 220 181
0 221 181
0 222 181
0 222 181
0 222 181
0 221 181
0 222 181
0 222 181
0 222 181
0 221 181
0 222 181
0 221 181
0 222 181
0 221 181
0 222 181
0 221 181
0 222 181
0 221 181
0 222 181
0 222 181
0 221 181
0 221 181
0 222 181
0 221 181
0 221 181
0 222 181
0 222 181
0 222 181
0 222 181
0 221 181
0 222 181
0 222 181
0 221 181
0 221 181
0 221 181
0 221 181
0 222 181
0 222 181
0 221 181
0 222 181
0 221 181
0 222 181
39 223 183
107 225 199
129 227 207
171 232 226
209 237 245
225 239 254
229 240 255
228 240 255
228 240 255
228 240 255
228 240 255
228 240 255
228 240 255
228 240 255
228 240 255
228 240 255
228 240 255
228 239 255
228 239 255
228 239 255
228 239 255
228 239 255
228 239 255
228 239 255
228 239 255
228 239 255
228 239 255
228 239 255
228 239 255
228 239 255
228 239 255
228 239 255
228 239 255
228 239 255
228 239 255
228 239 255
228 239 255
228 239 255
228 239 255
228 239 255
228 239 255
228 239 255
228 239 255
228 239 255
227 239 255
227 239 255
227 239 255
227 239 255
227 239 255
227 239 255
227 239 255
227 239 255
227 239 255
227 239 255
227 239 255
227 239 255
227 239 255
227 239 255
227 239 255
227 239 255
227 239 255
227 239 255
227 239 255
227 239 255
227 239 255
227 239 255
227 239 255
227 239 255
227 239 255
227 239 255
227 239 255
227 239 255
227 239 255
227 239 255
227 239 255
227 239 255
227 239 255
227 239 255
228 239 255
228 239 255
228 239 255
228 239 255
228 239 255
228 239 255
228 239 255
228 239 255
228 239 255
228 239 255
228 239 255
228 239 255
228 239 255
228 239 255
228 239 255
228 239 255
228 239 255
228 239 255
228 239 255
228 239 255
228 239 255
228 239 255
228 239 255
228 239 255
228 239 255
228 239 255
228 239 255
228 240 255
228 240 255
228 240 255
228 240 255
228 240 255
228 240 255
228 240 255
228 240 255
228 240 255
228 240 255
229 240 255
229 240 255
227 240 255
201 235 240
174 233 227
146 229 214
102 226 198
39 222 183
0 221 181
0 222 181
0 222 181
0 221 181
0 220 181
0 221 181
0 221 181
0 222 181
0 220 181
0 222 181
0 222 181
0 221 181
0 221 181
0 221 181
0 222 181
0 222 181
0 221 181
0 221 181
0 221 181
0 221 181
0 222 181
0 221 181
0 221 181
0 221 181
0 222 181
0 222 181
0 222 180
0 221 181
0 221 181
0 221 181
0 222 181
0 220 181
0 221 181
0 221 181
0 221 181
0 221 181
0 220 181
0 221 181
0 222 181
0 222 181
0 222 181
0 221 181
0 221 181
0 222 181
0 222 181
0 221 181
0 221 181
0 221 181
0 221 181
0 222 181
0 221 181
0 222 181
0 222 181
0 220 181
0 220 181
0 222 181
0 221 181
0 221 181
0 221 181
0 222 181
0 222 181
0 222 181
0 221 181
0 220 180
0 220 181
0 220 181
0 221 181
0 222 181
0 222 181
0 222 181
0 222 181
0 222 181
0 221 181
0 221 181
0 222 181
0 221 181
0 221 181
0 221 181
0 221 181
0 221 181
0 221 181
0 222 181
0 222 181
0 221 181
0 221 181
0 221 181
0 220 181
0 221 181
0 220 180
0 221 180
0 221 181
0 221 181
0 222 181
0 221 181
0 222 181
0 221 181
0 220 180
0 221 181
0 222 181
0 221 181
0 222 181
0 221 181
0 221 181
0 220 180
0 221 181
0 220 181
0 221 181
0 221 181
0 221 180
0 221 181
0 221 181
0 222 181
0 220 181
0 221 181
0 221 181
0 220 180
0 222 181
0 221 181
0 220 179
0 221 181
0 222 181
0 221 181
0 221 180
0 220 181
0 221 181
0 222 181
0 221 180
0 221 181
0 221 181
0 221 181
0 221 181
0 221 181
0 220 181
0 221 181
0 222 181
0 219 179
0 221 181
0 223 181
0 219 181
0 221 181
0 221 181
0 222 181
0 221 181
0 221 181
0 221 181
0 221 181
0 221 181
0 220 181
0 222 181
0 221 180
0 221 181
0 222 181
0 222 181
0 221 181
0 221 181
0 221 181
0 220 181
0 221 181
0 221 181
0 222 181
0 221 181
0 220 179
0 220 181
0 220 179
0 221 181
0 221 181
0 222 181
0 221 180
0 221 181
0 221 181
0 222 181
0 221 181
0 221 181
0 220 180
0 221 181
0 221 181
0 221 180
0 221 181
0 220 180
0 220 181
0 221 181
0 222 181
0 220 180
0 220 180
0 221 181
0 222 181
0 221 181
0 221 181
0 222 181
0 222 181
0 222 181
0 222 181
0 222 181
0 221 181
0 221 181
0 221 181
0 221 181
0 221 181
0 221 181
0 221 181
0 221 181
0 221 181
0 221 181
0 221 181
0 221 181
0 221 181
0 222 181
0 221 181
0 222 181
0 221 181
0 221 181
0 221 181
0 222 181
0 221 181
0 220 181
0 221 181
0 221 181
0 221 181
0 221 181
0 220 181
0 221 181
0 221 181
0 221 181
0 221 181
0 222 181
0 221 181
0 220 181
0 221 181
0 221 181
0 221 181
0 221 181
0 221 181
0 221 181
0 221 181
0 222 181
0 221 181
0 221 181
0 221 181
0 221 181
0 222 181
0 221 181
0 221 181
0 222 181
0 221 181
0 222 181
0 221 181
0 220 181
0 222 181
0 222 181
0 221 181
0 221 181
0 221 181
0 222 181
0 222 181
0 221 181
0 222 181
0 221 181
0 221 181
0 222 181
0 222 181
0 221 181
0 221 181
0 221 181
0 221 181
0 221 181
0 221 181
0 221 181
0 222 181
0 221 181
0 222 181
0 221 181
0 221 181
0 221 181
0 222 181
0 221 181
0 222 181
0 221 181
0 221 181
0 221 181
0 221 181
0 222 181
0 221 181
22 222 181
121 227 204
137 228 211
174 232 227
207 236 244
229 240 255
229 240 255
229 240 255
228 240 255
228 240 255
228 240 255
228 240 255
228 240 255
228 240 255
228 240 255
228 240 255
228 240 255
228 240 255
228 239 255
228 239 255
228 239 255
228 239 255
228 239 255
228 239 255
228 239 255
228 239 255
228 239 255
228 239 255
228 239 255
228 239 255
228 239 255
228 239 255
228 239 255
228 239 255
228 239 255
228 239 255
228 239 255
228 239 255
228 239 255
228 239 255
228 239 255
228 239 255
228 239 255
228 239 255
228 239 255
227 239 255
227 239 255
227 239 255
227 239 255
227 239 255
227 239 255
227 239 255
227 239 255
227 239 255
227 239 255
227 239 255
227 239 255
227 239 255
227 239 255
227 239 255
227 239 255
227 239 255
227 239 255
227 239 255
227 239 255
227 239 255
227 239 255
227 239 255
228 239 255
228 239 255
228 239 255
228 239 255
228 239 255
228 239 255
228 239 255
228 239 255
228 239 255
228 239 255
228 239 255
228 239 255
228 239 255
228 239 255
228 239 255
228 239 255
228 239 255
228 239 255
228 239 255
228 239 255
228 239 255
228 239 255
228 239 255
228 239 255
228 239 255
228 239 255
228 239 255
228 240 255
228 240 255
228 240 255
228 240 255
228 240 255
228 240 255
228 240 255
228 240 255
228 240 255
228 240 255
229 240 255
229 240 255
229 240 255
209 237 245
181 233 231
158 230 220
116 225 203
32 222 182
0 221 181
0 222 181
0 222 181
0 221 181
0 221 181
0 221 181
0 222 181
0 221 181
0 222 181
0 222 181
0 221 181
0 222 181
0 221 181
0 222 181
0 222 181
0 221 181
0 221 181
0 222 181
0 221 181
0 220 181
0 221 181
0 221 181
0 221 181
0 222 181
0 221 181
0 220 181
0 221 181
0 222 181
0 223 181
0 221 181
0 221 181
0 221 181
0 220 181
0 221 181
0 221 181
0 222 181
0 222 181
0 221 181
0 221 181
0 221 181
0 221 181
0 221 181
0 221 181
0 221 181
0 221 181
0 221 181
0 222 181
0 221 181
0 221 181
0 221 181
0 221 181
0 221 181
0 222 181
0 221 181
0 221 181
0 221 181
0 221 181
0 221 181
0 222 181
0 222 181
0 221 181
0 222 181
0 221 181
0 221 181
0 221 181
0 222 181
0 222 181
0 221 181
0 220 181
0 222 181
0 222 181
0 222 181
0 221 181
0 221 181
0 221 181
0 222 181
0 221 181
0 221 181
0 221 181
0 221 180
0 221 181
0 221 181
0 220 180
0 221 181
0 222 181
0 222 181
0 222 181
0 222 181
0 220 180
0 222 181
0 222 181
0 221 181
0 222 181
0 221 181
0 221 181
0 221 181
0 222 181
0 222 181
0 221 181
0 221 181
0 222 181
0 222 181
0 222 181
0 222 181
0 222 181
0 222 181
0 221 180
0 221 181
0 220 180
0 222 180
0 221 181
0 222 181
0 221 181
0 221 181
0 221 181
0 221 180
0 222 181
0 221 181
0 221 181
0 220 181
0 221 181
0 222 181
0 221 181
0 221 181
0 221 181
0 221 181
0 221 180
0 220 181
0 221 181
0 222 181
0 222 181
0 222 181
0 222 181
0 221 181
0 222 181
0 221 179
0 220 180
0 221 181
0 221 181
0 221 181
0 221 181
0 221 180
0 222 181
0 221 180
0 222 181
0 222 181
0 221 181
0 220 181
0 221 181
0 221 181
0 222 181
0 222 181
0 220 180
0 221 181
0 221 179
0 222 181
0 221 181
0 221 181
0 221 181
0 222 181
0 222 181
0 221 181
0 221 180
0 221 180
0 222 181
0 221 181
0 221 181
0 221 181
0 220 180
0 221 181
0 221 181
0 222 181
0 222 181
0 221 181
0 221 181
0 222 181
0 221 181
0 221 181
0 221 181
0 221 181
0 221 181
0 221 181
0 222 181
0 221 181
0 221 181
0 221 181
0 221 181
0 221 181
0 220 180
0 221 180
0 221 181
0 221 181
0 221 181
0 221 181
0 221 181
0 221 181
0 221 181
0 221 181
0 221 181
0 221 181
0 221 181
0 221 181
0 221 181
0 222 181
0 221 181
0 221 181
0 220 179
0 221 181
0 221 181
0 222 181
0 222 181
0 221 181
0 221 181
0 222 181
0 222 181
0 221 181
0 220 181
0 220 181
0 222 181
0 221 181
0 222 181
0 221 181
0 221 181
0 222 181
0 221 181
0 221 181
0 221 181
0 221 181
0 221 181
0 221 181
0 222 181
0 221 181
0 221 181
0 221 181
0 221 181
0 222 181
0 222 181
0 221 181
0 222 181
0 221 181
0 221 181
0 222 181
0 221 181
0 222 181
0 221 181
0 221 181
0 221 181
0 221 181
0 223 181
0 222 181
0 221 181
0 221 181
0 221 181
0 221 181
0 221 181
0 222 181
0 221 181
0 222 181
0 222 181
0 221 181
0 221 181
0 220 181
0 221 181
0 221 181
0 221 181
0 221 181
0 222 181
0 222 181
0 221 181
0 222 181
0 221 181
0 221 181
0 222 181
0 221 181
0 222 181
0 222 181
0 221 181
0 221 181
0 221 181
0 221 181
0 221 181
0 222 181
0 221 181
0 222 181
0 221 181
0 221 181
0 221 181
0 221 181
0 221 181
0 221 181
0 221 181
0 222 181
64 224 188
116 226 203
157 230 219
184 234 232
216 238 248
229 240 255
229 240 255
229 240 255
228 240 255
228 240 255
228 240 255
228 240 255
228 240 255
228 240 255
228 240 255
228 240 255
228 240 255
228 240 255
228 239 255
228 239 255
228 239 255
228 239 255
228 239 255
228 239 255
228 239 255
228 239 255
228 239 255
228 239 255
228 239 255
228 239 255
228 239 255
228 239 255
228 239 255
228 239 255
228 239 255
228 239 255
228 239 255
228 239 255
228 239 255
228 239 255
228 239 255
228 239 255
228 239 255
228 239 255
228 239 255
228 239 255
227 239 255
227 239 255
227 239 255
227 239 255
227 239 255
227 239 255
227 239 255
227 239 255
227 239 255
227 239 255
227 239 255
228 239 255
228 239 255
228 239 255
228 239 255
228 239 255
228 239 255
228 239 255
228 239 255
228 239 255
228 239 255
228 239 255
228 239 255
228 239 255
228 239 255
228 239 255
228 239 255
228 239 255
228 239 255
228 239 255
228 239 255
228 239 255
228 239 255
228 239 255
228 239 255
228 239 255
228 239 255
228 239 255
228 239 255
228 240 255
228 240 255
228 240 255
228 240 255
228 240 255
228 240 255
228 240 255
228 240 255
228 240 255
228 240 255
229 240 255
229 240 255
229 240 255
222 239 252
195 235 238
133 227 209
127 227 207
64 223 188
0 222 181
0 222 181
0 222 181
0 222 181
0 222 181
0 221 181
0 222 181
0 222 181
0 221 181
0 222 181
0 222 181
0 221 181
0 221 181
0 221 181
0 222 181
0 220 181
0 222 181
0 221 181
0 221 181
0 222 181
0 222 181
0 221 181
0 221 181
0 221 181
0 221 181
0 221 181
0 221 181
0 221 181
0 222 181
0 221 181
0 221 181
0 221 181
0 221 181
0 221 181
0 222 181
0 221 181
0 223 181
0 221 181
0 222 181
0 222 181
0 221 181
0 222 181
0 222 181
0 222 181
0 221 181
0 222 181
0 222 181
0 222 181
0 221 181
0 221 181
0 221 181
0 221 181
0 221 181
0 221 181
0 220 181
0 222 181
0 222 181
0 222 181
0 221 181
0 221 181
0 222 181
0 221 181
0 221 181
0 222 181
0 221 181
0 221 181
0 221 181
0 222 181
0 221 181
0 220 181
0 221 181
0 221 181
0 221 181
0 221 181
0 222 181
0 222 181
0 220 181
0 221 181
0 221 181
0 221 181
0 222 181
0 222 181
0 221 181
0 222 181
0 222 181
0 222 181
0 221 181
0 221 181
0 221 181
0 220 181
0 221 181
0 220 181
0 222 181
0 222 181
0 221 181
0 221 181
0 222 181
0 221 181
0 222 181
0 221 181
0 222 181
0 221 181
0 222 181
0 222 181
0 219 180
0 221 181
0 220 180
0 222 181
0 221 181
0 221 181
0 222 181
0 222 181
0 221 181
0 221 181
0 220 179
0 222 181
0 221 181
0 220 181
0 222 181
0 221 181
0 221 181
0 220 180
0 222 181
0 221 181
0 222 181
0 220 181
0 221 181
0 221 181
0 222 181
0 221 181
0 222 180
0 221 180
0 219 180
0 222 181
0 220 180
0 221 181
0 221 181
0 220 180
0 220 180
0 221 181
0 221 181
0 222 181
0 222 181
0 220 180
0 222 181
0 220 181
0 223 181
0 221 180
0 221 181
0 222 180
0 220 180
0 221 181
0 222 181
0 221 181
0 220 180
0 222 181
0 222 181
0 221 180
0 221 181
0 221 181
0 221 181
0 221 181
0 221 181
0 221 181
0 221 181
0 221 180
0 221 181
0 221 181
0 222 181
0 219 180
0 222 181
0 220 180
0 221 181
0 221 181
0 221 181
0 221 181
0 222 181
0 222 181
0 221 181
0 222 181
0 220 180
0 221 181
0 221 181
0 221 181
0 221 181
0 222 181
0 221 181
0 222 181
0 222 181
0 221 181
0 221 181
0 221 181
0 222 181
0 221 181
0 221 181
0 220 179
0 222 181
0 222 181
0 221 181
0 221 181
0 221 181
0 221 181
0 222 181
0 221 180
0 221 181
0 221 181
0 221 181
0 222 181
0 221 181
0 221 181
0 221 181
0 221 181
0 222 181
0 221 181
0 222 181
0 222 181
0 221 181
0 222 181
0 221 181
0 222 181
0 221 181
0 221 180
0 222 181
0 222 181
0 222 181
0 221 181
0 222 181
0 222 181
0 221 180
0 222 181
0 221 181
0 222 181
0 221 181
0 221 181
0 221 181
0 222 181
0 221 181
0 222 181
0 221 181
0 221 181
0 222 181
0 222 181
0 222 181
0 221 181
0 221 181
0 221 181
0 221 181
0 221 181
0 220 181
0 222 181
0 221 181
0 221 181
0 222 181
0 222 181
0 221 181
0 221 181
0 221 181
0 220 181
0 221 181
0 221 181
0 220 181
0 221 181
0 221 181
0 220 181
0 221 181
0 221 181
0 221 181
0 222 181
0 221 181
0 221 181
0 222 181
0 222 181
0 221 181
0 221 181
0 222 181
0 221 181
0 221 181
0 221 181
0 221 181
0 222 181
0 221 181
0 221 181
0 221 181
0 221 181
0 222 181
0 222 181
0 221 181
0 221 181
0 222 181
0 221 181
0 222 181
0 220 181
0 222 181
0 221 181
0 222 181
0 221 181
0 222 181
0 222 181
0 221 181
0 221 181
0 222 181
0 221 181
64 223 188
123 227 205
166 231 223
181 233 231
226 239 254
229 240 255
229 240 255
229 240 255
228 240 255
228 240 255
228 240 255
228 240 255
228 240 255
228 240 255
228 240 255
228 240 255
228 240 255
228 240 255
228 239 255
228 239 255
228 239 255
228 239 255
228 239 255
228 239 255
228 239 255
228 239 255
228 239 255
228 239 255
228 239 255
228 239 255
228 239 255
228 239 255
228 239 255
228 239 255
228 239 255
228 239 255
228 239 255
228 239 255
228 239 255
228 239 255
228 239 255
228 239 255
228 239 255
228 239 255
228 239 255
228 239 255
228 239 255
227 239 255
227 239 255
228 239 255
228 239 255
228 239 255
228 239 255
228 239 255
228 239 255
228 239 255
228 239 255
228 239 255
228 239 255
228 239 255
228 239 255
228 239 255
228 239 255
228 239 255
228 239 255
228 239 255
228 239 255
228 239 255
228 239 255
228 239 255
228 239 255
228 239 255
228 239 255
228 239 255
228 240 255
228 240 255
228 240 255
228 240 255
228 240 255
228 240 255
228 240 255
228 240 255
228 240 255
228 240 255
229 240 255
229 240 255
229 240 255
229 240 255
225 239 254
193 235 236
173 232 226
139 228 211
72 223 189
0 221 181
0 222 181
0 221 181
0 221 181
0 221 181
0 221 181
0 221 181
0 222 181
0 221 181
0 222 181
0 222 181
0 221 181
0 221 181
0 222 181
0 222 181
0 222 181
0 221 181
0 221 181
0 222 181
0 222 181
0 221 180
0 222 181
0 221 181
0 221 181
0 221 181
0 222 181
0 221 181
0 220 181
0 221 181
0 223 181
0 222 181
0 222 181
0 221 181
0 222 181
0 222 181
0 222 181
0 221 181
0 221 181
0 222 181
0 221 181
0 220 181
0 220 181
0 221 181
0 221 181
0 221 181
0 222 181
0 222 181
0 221 181
0 223 181
0 221 181
0 221 181
0 221 181
0 222 181
0 222 181
0 220 181
0 221 181
0 221 181
0 221 181
0 221 181
0 222 181
0 222 181
0 222 181
0 222 181
0 222 181
0 221 181
0 221 181
0 221 181
0 222 181
0 221 181
0 221 181
0 221 181
0 221 181
0 221 181
0 220 180
0 222 181
0 221 181
0 221 181
0 222 181
0 221 181
0 221 181
0 221 181
0 222 181
0 221 181
0 222 181
0 221 181
0 222 181
0 222 181
0 221 181
0 222 181
0 221 181
0 221 181
0 221 181
0 221 181
0 221 181
0 220 181
0 221 181
0 220 180
0 221 180
0 221 181
0 220 181
0 221 181
0 221 181
0 221 181
0 222 181
0 222 181
0 221 181
0 221 181
0 221 181
0 222 181
0 221 181
0 221 181
0 221 181
0 220 181
0 221 181
0 221 181
0 220 180
0 221 181
0 221 181
0 222 181
0 221 181
0 222 181
0 221 180
0 221 181
0 222 181
0 222 181
0 221 181
0 221 180
0 221 181
0 221 181
0 222 181
0 222 181
0 221 181
0 221 181
0 221 181
0 222 181
0 221 180
0 221 181
0 222 181
0 221 181
0 221 181
0 221 181
0 220 181
0 222 181
0 220 181
0 221 180
0 220 180
0 219 180
0 221 181
0 220 181
0 221 181
0 221 181
0 221 181
0 220 180
0 220 179
0 221 181
0 222 181
0 220 180
0 220 181
0 222 181
0 220 179
0 221 181
0 221 180
0 221 181
0 220 180
0 221 181
0 221 181
0 221 180
0 220 180
0 222 181
0 220 180
0 221 181
0 221 180
0 221 181
0 220 181
0 221 180
0 220 180
0 221 181
0 221 181
0 221 181
0 221 181
0 221 181
0 222 181
0 220 180
0 221 181
0 221 181
0 221 181
0 222 181
0 221 181
0 221 181
0 221 181
0 222 181
0 222 181
0 221 181
0 220 181
0 221 180
0 221 181
0 222 181
0 221 181
0 222 181
0 221 181
0 220 181
0 221 181
0 221 181
0 221 181
0 220 181
0 222 181
0 222 181
0 221 181
0 220 181
0 221 181
0 220 181
0 222 181
0 221 181
0 222 181
0 222 181
0 222 181
0 222 181
0 221 181
0 221 181
0 221 181
0 222 181
0 221 181
0 221 181
0 221 181
0 221 181
0 221 181
0 222 181
0 221 181
0 222 181
0 220 181
0 219 180
0 221 181
0 222 181
0 221 181
0 221 181
0 222 181
0 221 181
0 221 181
0 222 181
0 222 181
0 222 181
0 222 181
0 221 181
0 221 181
0 221 181
0 221 181
0 222 181
0 221 181
0 222 181
0 220 181
0 222 181
0 222 181
0 220 181
0 222 181
0 220 181
0 222 181
0 221 181
0 222 181
0 221 181
0 221 181
0 221 181
0 223 181
0 221 181
0 221 181
0 222 181
0 221 181
0 221 181
0 222 181
0 220 181
0 221 181
0 221 181
0 221 181
0 221 181
0 221 181
0 221 181
0 221 181
0 222 181
0 221 181
0 221 181
0 222 181
0 222 181
0 221 181
0 221 181
0 221 181
0 220 181
0 221 181
0 221 181
0 222 181
0 221 181
0 221 181
0 221 181
0 222 181
0 221 181
0 221 181
0 220 181
0 222 181
0 221 181
0 221 181
0 222 181
0 222 181
0 221 181
0 221 181
0 221 181
0 222 181
0 222 181
0 221 181
0 221 181
0 221 181
0 221 181
0 221 181
0 221 181
0 221 181
85 225 193
144 229 214
177 233 228
204 236 242
225 239 254
229 240 255
229 240 255
229 240 255
229 240 255
228 240 255
228 240 255
228 240 255
228 240 255
228 240 255
228 240 255
228 240 255
228 240 255
228 240 255
228 240 255
228 239 255
228 239 255
228 239 255
228 239 255
228 239 255
228 239 255
228 239 255
228 239 255
228 239 255
228 239 255
228 239 255
228 239 255
228 239 255
228 239 255
228 239 255
228 239 255
228 239 255
228 239 255
228 239 255
228 239 255
228 239 255
228 239 255
228 239 255
228 239 255
228 239 255
228 239 255
228 239 255
228 239 255
228 239 255
228 239 255
228 239 255
228 239 255
228 239 255
228 239 255
228 239 255
228 239 255
228 239 255
228 239 255
228 239 255
228 239 255
228 239 255
228 239 255
228 239 255
228 239 255
228 239 255
228 240 255
228 240 255
228 240 255
228 240 255
228 240 255
228 240 255
228 240 255
228 240 255
228 240 255
228 240 255
228 240 255
229 240 255
229 240 255
229 240 255
229 240 255
212 237 246
188 235 234
139 228 211
112 226 201
51 223 185
0 222 181
0 222 181
0 221 181
0 221 181
0 221 181
0 222 181
0 222 181
0 221 181
0 221 181
0 222 181
0 221 181
0 222 181
0 221 181
0 221 181
0 221 181
0 221 181
0 221 181
0 222 181
0 221 181
0 222 181
0 222 181
0 221 181
0 222 181
0 221 181
0 223 181
0 222 181
0 221 181
0 222 181
0 222 181
0 222 181
0 221 181
0 221 181
0 222 181
0 221 181
0 222 181
0 221 181
0 222 181
0 221 181
0 221 181
0 221 181
0 221 181
0 221 181
0 221 181
0 220 181
0 221 181
0 220 181
0 221 181
0 221 181
0 221 181
0 222 181
0 221 181
0 221 181
0 221 181
0 221 181
0 221 181
0 221 181
0 222 181
0 221 181
0 221 181
0 221 181
0 221 181
0 221 181
0 223 181
0 222 181
0 221 181
0 221 181
0 221 181
0 221 181
0 221 181
0 221 181
0 222 181
0 221 181
0 221 181
0 221 181
0 221 181
0 221 181
0 221 181
0 221 181
0 221 181
0 221 181
0 221 181
0 222 181
0 221 181
0 222 181
0 221 181
0 221 180
0 222 181
0 220 180
0 221 181
0 222 181
0 222 181
0 222 181
0 221 181
0 222 181
0 221 181
0 220 181
0 222 181
0 221 181
0 219 180
0 222 181
0 221 181
0 220 181
0 221 181
0 221 181
0 221 181
0 221 181
0 221 181
0 221 181
0 221 181
0 221 180
0 221 181
0 222 181
0 221 181
0 221 181
0 221 181
0 221 181
0 222 181
0 222 181
0 221 181
0 221 181
0 220 181
0 221 181
0 221 181
0 219 180
0 221 181
0 221 180
0 222 181
0 221 181
0 221 181
0 221 181
0 222 181
0 221 181
0 219 179
0 221 181
0 220 180
0 221 181
0 221 181
0 221 180
0 221 181
0 221 181
0 221 181
0 221 181
0 221 181
0 220 180
0 221 180
0 221 180
0 221 181
0 219 179
0 221 181
0 222 180
0 221 181
0 220 180
0 221 181
0 220 180
0 221 180
0 221 180
0 222 180
0 220 181
0 220 181
0 221 180
0 221 180
0 221 181
0 221 181
0 221 181
0 222 181
0 221 181
0 220 180
0 221 181
0 222 181
0 221 180
0 222 181
0 221 180
0 221 181
0 221 180
0 222 181
0 222 181
0 221 181
0 221 181
0 221 180
0 220 180
0 221 181
0 221 180
0 221 181
0 221 181
0 221 181
0 221 181
0 221 181
0 222 181
0 221 181
0 221 181
0 219 179
0 221 181
0 222 181
0 221 181
0 221 181
0 221 181
0 221 181
0 221 181
0 222 181
0 221 180
0 221 181
0 222 181
0 220 179
0 220 181
0 220 180
0 221 181
0 221 181
0 222 181
0 221 181
0 222 181
0 221 181
0 222 181
0 221 181
0 221 181
0 222 181
0 221 181
0 221 181
0 221 180
0 221 181
0 220 180
0 221 181
0 221 181
0 221 181
0 221 181
0 221 181
0 222 181
0 220 180
0 220 181
0 220 181
0 220 180
0 221 181
0 222 181
0 220 181
0 220 181
0 221 181
0 221 181
0 221 181
0 221 181
0 221 181
0 222 181
0 221 181
0 221 181
0 220 181
0 221 181
0 221 181
0 222 181
0 221 181
0 221 181
0 220 181
0 222 181
0 220 181
0 222 181
0 222 181
0 221 181
0 222 181
0 222 181
0 221 181
0 221 181
0 221 181
0 221 181
0 221 181
0 221 181
0 221 181
0 222 181
0 221 181
0 221 181
0 221 181
0 221 181
0 221 181
0 221 181
0 222 181
0 221 181
0 222 181
0 221 181
0 221 181
0 221 181
0 222 181
0 221 181
0 221 181
0 222 181
0 221 181
0 221 181
0 221 181
0 221 181
0 222 181
0 222 181
0 223 181
0 221 181
0 221 181
0 221 181
0 221 181
0 220 181
0 221 181
0 222 181
0 221 181
0 221 181
0 221 181
0 221 181
0 221 181
0 222 181
0 222 181
0 222 181
0 222 181
0 221 181
0 220 181
0 222 181
0 221 181
0 221 181
0 221 181
0 220 181
0 221 181
0 221 181
0 222 181
0 222 181
0 221 181
0 222 181
0 221 181
0 222 181
0 221 181
0 222 181
32 223 182
97 225 196
131 227 208
177 233 228
207 237 244
229 240 255
229 240 255
229 240 255
229 240 255
229 240 255
228 240 255
228 240 255
228 240 255
228 240 255
228 240 255
228 240 255
228 240 255
228 240 255
228 240 255
228 240 255
228 239 255
228 239 255
228 239 255
228 239 255
228 239 255
228 239 255
228 239 255
228 239 255
228 239 255
228 239 255
228 239 255
228 239 255
228 239 255
228 239 255
228 239 255
228 239 255
228 239 255
228 239 255
228 239 255
228 239 255
228 239 255
228 239 255
228 239 255
228 239 255
228 239 255
228 239 255
228 239 255
228 239 255
228 239 255
228 239 255
228 239 255
228 239 255
228 239 255
228 239 255
228 239 255
228 240 255
228 240 255
228 240 255
228 240 255
228 240 255
228 240 255
228 240 255
228 240 255
228 240 255
228 240 255
229 240 255
229 240 255
229 240 255
229 240 255
229 240 255
224 239 253
198 235 239
168 232 224
116 226 203
56 223 186
0 222 181
0 222 181
0 221 181
0 222 181
0 221 181
0 222 181
0 221 181
0 221 181
0 222 181
0 222 181
0 222 181
0 223 181
0 222 181
0 220 181
0 221 181
0 222 181
0 221 181
0 222 181
0 222 181
0 221 181
0 221 181
0 221 181
0 220 181
0 220 181
0 221 181
0 222 181
0 222 181
0 221 181
0 221 181
0 221 181
0 222 181
0 222 181
0 222 181
0 221 181
0 221 181
0 222 181
0 221 181
0 220 181
0 221 181
0 221 181
0 221 181
0 220 181
0 221 181
0 222 181
0 222 181
0 221 181
0 220 181
0 221 181
0 221 181
0 220 181
0 221 181
0 221 181
0 222 181
0 221 181
0 220 181
0 220 181
0 221 181
0 222 181
0 221 181
0 221 181
0 222 181
0 221 181
0 221 181
0 221 181
0 221 181
0 222 181
0 221 181
0 222 181
0 221 181
0 221 181
0 222 181
0 221 181
0 221 181
0 221 181
0 222 181
0 222 181
0 221 181
0 222 181
0 221 181
0 221 181
0 222 181
0 221 181
0 221 180
0 221 181
0 222 181
0 221 181
0 222 181
0 222 181
0 220 180
0 221 181
0 221 181
0 222 181
0 221 181
0 223 181
0 222 181
0 221 181
0 221 181
0 220 180
0 221 181
0 221 181
0 222 181
0 221 181
0 222 181
0 222 180
0 221 181
0 222 181
0 222 181
0 220 181
0 221 181
0 221 181
0 221 181
0 222 181
0 220 181
0 221 181
0 221 181
0 222 181
0 221 180
0 221 181
0 221 180
0 222 181
0 221 181
0 222 180
0 219 180
0 221 181
0 221 181
0 221 181
0 221 181
0 221 181
0 221 181
0 220 181
0 220 180
0 220 180
0 222 181
0 220 180
0 221 181
0 220 181
0 220 179
0 221 181
0 221 181
0 221 181
0 220 179
0 222 181
0 220 180
0 220 179
0 221 180
0 221 181
0 222 181
0 221 181
0 221 180
0 218 178
0 221 181
0 222 181
0 221 181
0 221 181
0 220 181
0 221 181
0 222 181
0 222 181
0 219 180
0 221 181
0 221 181
0 220 180
0 220 179
0 222 181
0 221 181
0 220 180
0 221 180
0 221 181
0 221 180
0 221 180
0 221 181
0 220 181
0 222 181
0 221 181
0 219 180
0 220 180
0 222 181
0 221 180
0 222 181
0 221 180
0 222 181
0 221 181
0 222 181
0 221 181
0 222 181
0 221 181
0 221 181
0 222 181
0 221 181
0 221 181
0 222 181
0 221 180
0 222 181
0 221 181
0 222 181
0 221 180
0 222 181
0 221 180
0 222 181
0 221 181
0 220 180
0 221 181
0 221 181
0 221 181
0 221 181
0 221 181
0 222 181
0 221 181
0 222 181
0 220 180
0 221 181
0 220 181
0 221 181
0 220 180
0 222 181
0 221 181
0 221 181
0 221 181
0 222 181
0 220 180
0 222 181
0 222 181
0 222 181
0 220 180
0 221 181
0 222 180
0 221 181
0 220 180
0 221 181
0 222 181
0 221 181
0 221 181
0 222 181
0 220 181
0 221 181
0 221 181
0 221 181
0 221 181
0 221 181
0 221 181
0 220 181
0 220 181
0 222 181
0 221 181
0 222 181
0 221 181
0 221 181
0 220 181
0 221 181
0 221 181
0 222 181
0 221 181
0 222 181
0 221 181
0 221 181
0 221 181
0 221 181
0 221 181
0 222 181
0 221 181
0 222 181
0 221 181
0 221 181
0 221 181
0 221 181
0 223 181
0 221 181
0 221 181
0 220 181
0 221 181
0 221 181
0 222 181
0 222 181
0 222 181
0 221 181
0 222 181
0 221 181
0 221 181
0 222 181
0 221 181
0 222 181
0 221 181
0 222 181
0 221 181
0 222 181
0 222 181
0 221 181
0 221 181
0 221 181
0 221 181
0 220 181
0 221 181
0 221 181
0 222 181
0 222 181
0 222 181
0 221 181
0 222 181
0 221 181
0 221 181
0 221 181
0 221 181
0 222 181
0 223 181
0 222 181
0 221 181
0 222 181
0 221 181
0 222 181
0 221 181
0 221 181
0 222 181
0 222 181
0 221 181
0 221 181
0 222 181
0 221 181
0 223 181
0 222 181
0 221 181
0 221 181
0 221 181
0 222 181
0 221 181
0 221 181
0 221 181
0 221 181
0 220 181
0 221 181
0 221 181
51 223 185
125 227 206
148 230 215
195 235 238
222 239 252
229 240 255
229 240 255
229 240 255
229 240 255
229 240 255
228 240 255
228 240 255
228 240 255
228 240 255
228 240 255
228 240 255
228 240 255
228 240 255
228 240 255
228 240 255
228 239 255
228 239 255
228 239 255
228 239 255
228 239 255
228 239 255
228 239 255
228 239 255
228 239 255
228 239 255
228 239 255
228 239 255
228 239 255
228 239 255
228 239 255
228 239 255
228 239 255
228 239 255
228 239 255
228 239 255
228 239 255
228 239 255
228 239 255
228 239 255
228 239 255
228 240 255
228 240 255
228 240 255
228 240 255
228 240 255
228 240 255
228 240 255
228 240 255
228 240 255
228 240 255
229 240 255
229 240 255
229 240 255
229 240 255
229 240 255
225 239 254
210 237 245
171 232 226
129 228 207
94 224 195
0 222 181
0 221 181
0 222 181
0 223 181
0 222 181
0 222 181
0 221 181
0 222 181
0 221 181
0 222 181
0 220 181
0 221 181
0 221 181
0 221 181
0 222 181
0 222 181
0 220 181
0 222 181
0 220 181
0 221 181
0 222 181
0 221 181
0 222 181
0 221 181
0 222 181
0 221 181
0 220 181
0 221 181
0 222 181
0 222 181
0 222 181
0 220 181
0 222 181
0 222 181
0 223 181
0 222 181
0 221 181
0 222 181
0 221 181
0 222 181
0 222 181
0 221 181
0 221 180
0 221 181
0 222 181
0 222 181
0 221 181
0 222 181
0 221 181
0 222 181
0 221 181
0 221 181
0 221 181
0 221 181
0 221 181
0 221 181
0 222 181
0 221 181
0 222 181
0 221 181
0 221 181
0 221 181
0 220 181
0 221 181
0 221 181
0 221 181
0 221 181
0 222 181
0 221 181
0 222 181
0 222 181
0 222 181
0 222 181
0 221 181
0 222 181
0 221 181
0 221 181
0 221 181
0 222 181
0 222 181
0 222 181
0 221 181
0 221 181
0 221 181
0 221 181
0 220 181
0 221 181
0 222 181
0 221 181
0 221 181
0 221 181
0 221 181
0 221 181
0 221 181
0 222 181
0 221 181
0 222 181
0 221 181
0 221 181
0 221 181
0 221 181
0 220 181
0 221 181
0 220 180
0 221 181
0 222 181
0 221 181
0 221 181
0 220 181
0 221 181
0 222 181
0 221 181
0 222 181
0 220 181
0 221 180
0 221 181
0 221 181
0 220 181
0 222 181
0 221 181
0 221 181
0 222 181
0 221 181
0 220 180
0 220 180
0 222 181
0 220 180
0 222 181
0 221 180
0 220 180
0 221 181
0 221 181
0 222 181
0 222 181
0 220 179
0 222 181
0 220 180
0 222 181
0 220 181
0 220 181
0 221 181
0 221 180
0 221 181
0 221 181
0 221 181
0 220 181
0 222 181
0 220 181
0 221 181
0 221 181
0 219 179
0 221 180
0 221 181
0 221 181
0 220 179
0 220 181
0 220 179
0 222 181
0 221 180
0 222 181
0 221 181
0 221 179
0 222 181
0 222 180
0 221 181
0 221 180
0 220 180
0 221 181
0 220 179
0 220 180
0 221 180
0 221 181
0 220 180
0 220 180
0 220 181
0 221 180
0 220 180
0 222 181
0 219 179
0 221 181
0 221 179
0 220 180
0 221 181
0 222 180
0 220 180
0 222 181
0 221 181
0 220 181
0 221 181
0 222 181
0 221 181
0 222 181
0 220 179
0 222 181
0 222 181
0 221 181
0 220 180
0 222 181
0 222 181
0 222 181
0 220 181
0 221 181
0 221 181
0 222 181
0 221 181
0 222 181
0 221 181
0 221 181
0 221 181
0 221 180
0 221 181
0 221 181
0 222 181
0 222 181
0 221 181
0 222 181
0 221 180
0 220 181
0 222 181
0 221 181
0 221 181
0 222 181
0 222 181
0 221 180
0 221 181
0 221 181
0 220 181
0 219 180
0 221 181
0 221 181
0 222 181
0 221 181
0 221 181
0 222 181
0 222 181
0 221 181
0 221 181
0 221 181
0 221 181
0 221 181
0 221 181
0 221 181
0 222 181
0 221 181
0 221 181
0 221 181
0 222 181
0 221 181
0 220 181
0 222 181
0 221 181
0 221 181
0 220 180
0 222 181
0 221 181
0 221 181
0 222 181
0 222 181
0 221 181
0 221 181
0 222 181
0 222 181
0 221 181
0 221 181
0 221 181
0 221 181
0 221 181
0 221 181
0 221 181
0 222 181
0 221 181
0 221 181
0 221 181
0 221 181
0 221 181
0 221 181
0 221 181
0 221 181
0 221 181
0 222 181
0 221 181
0 222 181
0 221 181
0 222 181
0 221 181
0 221 181
0 221 181
0 222 181
0 222 181
0 221 181
0 221 181
0 221 181
0 221 181
0 222 181
0 221 181
0 222 181
0 220 181
0 222 181
0 221 181
0 221 181
0 221 181
0 222 181
0 221 181
0 221 181
0 222 181
0 221 181
0 221 181
0 221 181
0 220 181
0 221 181
0 221 181
0 221 181
0 220 181
0 222 181
0 220 181
0 222 181
0 221 181
0 221 181
0 222 181
0 222 181
0 221 181
0 220 181
0 221 181
0 220 181
0 222 181
0 222 181
0 221 181
0 221 181
0 220 181
0 222 181
0 222 181
0 221 181
0 222 181
0 221 181
0 222 181
0 221 181
0 221 181
0 221 181
0 220 181
22 221 181
94 224 195
141 229 212
178 233 229
207 237 244
227 240 255
229 240 255
229 240 255
229 240 255
229 240 255
229 240 255
228 240 255
228 240 255
228 240 255
228 240 255
228 240 255
228 240 255
228 240 255
228 240 255
228 240 255
228 240 255
228 239 255
228 239 255
228 239 255
228 239 255
228 239 255
228 239 255
228 239 255
228 239 255
228 239 255
228 239 255
228 239 255
228 239 255
228 239 255
228 239 255
228 239 255
228 240 255
228 240 255
228 240 255
228 240 255
228 240 255
228 240 255
228 240 255
228 240 255
228 240 255
228 240 255
229 240 255
229 240 255
229 240 255
229 240 255
229 240 255
229 240 255
216 238 248
190 234 235
165 232 223
116 227 203
32 222 182
0 221 181
0 221 181
0 222 181
0 222 181
0 221 181
0 222 181
0 221 181
0 221 181
0 222 181
0 222 181
0 221 181
0 221 181
0 221 181
0 221 181
0 222 181
0 222 181
0 221 181
0 222 181
0 221 181
0 221 181
0 222 181
0 221 181
0 220 181
0 221 181
0 222 181
0 221 181
0 222 181
0 221 181
0 221 181
0 220 181
0 223 181
0 221 181
0 222 181
0 221 181
0 221 181
0 221 181
0 222 181
0 222 181
0 223 181
0 220 181
0 221 181
0 222 181
0 222 181
0 221 181
0 221 181
0 221 181
0 221 181
0 221 181
0 221 181
0 222 181
0 221 181
0 222 181
0 220 181
0 221 181
0 221 181
0 222 181
0 221 180
0 222 181
0 221 181
0 222 181
0 221 181
0 221 181
0 221 181
0 222 181
0 221 181
0 221 181
0 222 181
0 221 181
0 221 181
0 221 181
0 222 181
0 221 181
0 221 181
0 221 181
0 221 181
0 221 181
0 221 181
0 221 181
0 220 181
0 221 181
0 221 181
0 222 181
0 221 181
0 222 181
0 223 181
0 220 181
0 221 181
0 220 180
0 221 181
0 221 181
0 221 181
0 220 181
0 221 181
0 222 181
0 221 180
0 221 181
0 221 181
0 220 181
0 222 181
0 221 181
0 221 181
0 221 181
0 221 181
0 221 181
0 220 181
0 222 181
0 222 181
0 221 181
0 221 181
0 221 181
0 219 180
0 222 181
0 221 181
0 221 181
0 221 181
0 221 180
0 221 181
0 221 180
0 221 181
0 221 181
0 221 181
0 221 181
0 221 181
0 221 181
0 221 181
0 221 181
0 221 181
0 220 181
0 221 181
0 222 181
0 221 181
0 222 181
0 220 180
0 221 180
0 221 181
0 221 181
0 220 181
0 221 181
0 221 181
0 221 181
0 222 181
0 222 181
0 221 181
0 221 181
0 221 181
0 222 181
0 222 181
0 221 180
0 221 181
0 222 181
0 222 181
0 221 181
0 222 181
0 219 178
0 221 181
0 222 181
0 220 180
0 222 181
0 221 180
0 221 181
0 222 181
0 221 181
0 220 180
0 221 180
0 222 181
0 219 179
0 221 180
0 221 180
0 220 180
0 221 181
0 221 181
0 221 181
0 222 181
0 220 181
0 221 180
0 221 180
0 220 180
0 221 181
0 221 180
0 220 180
0 220 180
0 220 180
0 220 180
0 221 181
0 221 180
0 221 180
0 220 180
0 220 180
0 221 180
0 221 181
0 220 179
0 220 180
42 215 174
45 209 169
53 209 168
37 212 172
0 220 180
0 221 181
0 222 181
0 221 181
0 220 180
0 221 179
0 221 181
0 221 181
0 221 180
0 221 181
0 221 181
0 221 180
0 221 181
0 221 181
0 221 181
0 220 180
0 221 181
0 220 180
0 220 179
0 221 181
0 221 180
0 221 181
0 222 181
0 222 181
0 221 180
0 220 180
0 220 181
0 221 180
0 222 181
0 221 181
0 220 181
0 221 181
0 221 181
0 220 181
0 221 181
0 221 181
0 220 180
0 221 181
0 220 180
0 221 181
0 221 181
0 222 181
0 222 181
0 221 180
0 221 181
0 223 181
0 221 181
0 222 181
0 222 181
0 221 181
0 222 180
0 220 181
0 222 181
0 221 181
0 220 181
0 222 181
0 222 181
0 221 181
0 222 181
0 221 181
0 222 181
0 221 181
0 220 181
0 221 181
0 221 181
0 221 181
0 221 181
0 222 181
0 222 181
0 221 181
0 222 181
0 221 181
0 221 181
0 221 181
0 222 181
0 222 181
0 221 181
0 221 181
0 222 181
0 221 181
0 222 181
0 221 181
0 220 181
0 221 181
0 221 181
0 221 181
0 221 181
0 222 181
0 221 181
0 222 181
0 221 181
0 221 181
0 221 181
0 222 181
0 221 181
0 221 181
0 221 181
0 221 181
0 221 181
0 222 181
0 222 181
0 221 181
0 221 181
0 222 181
0 222 181
0 222 181
0 221 181
0 221 181
0 222 181
0 221 181
0 221 181
0 221 181
0 222 181
0 221 181
0 222 181
0 221 181
0 221 181
0 223 181
0 221 181
0 221 181
0 221 181
0 222 181
0 222 181
0 222 181
0 222 181
0 222 181
0 220 181
0 220 181
0 221 181
0 221 181
0 222 181
0 222 181
0 220 181
0 221 181
0 222 181
0 221 181
0 222 181
0 221 181
0 221 181
0 221 181
0 222 181
0 222 181
0 221 181
0 221 181
0 221 181
0 221 181
0 221 181
0 221 181
0 222 181
0 222 181
0 221 181
0 221 181
51 222 185
129 227 207
155 230 218
187 234 233
223 239 252
229 240 255
229 240 255
229 240 255
229 240 255
229 240 255
229 240 255
228 240 255
228 240 255
228 240 255
228 240 255
228 240 255
228 240 255
228 240 255
228 240 255
228 240 255
228 240 255
228 239 255
228 239 255
228 239 255
228 239 255
228 239 255
228 240 255
228 240 255
228 240 255
228 240 255
228 240 255
228 240 255
228 240 255
228 240 255
228 240 255
228 240 255
229 240 255
229 240 255
229 240 255
229 240 255
229 240 255
229 240 255
229 240 255
212 238 246
166 231 223
141 229 212
68 224 188
0 221 181
0 222 181
0 221 181
0 221 181
0 222 181
0 220 181
0 222 181
0 222 181
0 221 181
0 220 181
0 220 181
0 223 181
0 221 181
0 221 181
0 222 181
0 221 181
0 221 181
0 222 181
0 221 181
0 221 181
0 221 181
0 221 181
0 221 181
0 221 181
0 221 181
0 222 181
0 221 181
0 221 181
0 222 181
0 221 181
0 221 181
0 221 181
0 222 181
0 221 181
0 222 181
0 221 181
0 221 181
0 221 181
0 221 181
0 221 181
0 222 181
0 222 181
0 221 181
0 220 181
0 221 181
0 221 181
0 222 181
0 222 181
0 223 181
0 221 181
0 221 181
0 221 181
0 221 181
0 221 181
0 221 181
0 221 181
0 222 181
0 221 181
0 222 181
0 220 180
0 222 181
0 221 181
0 220 181
0 221 181
0 221 181
0 221 181
0 222 181
0 221 181
0 221 181
0 221 181
0 222 181
0 221 181
0 221 181
0 220 181
0 221 181
0 222 181
0 221 181
0 221 181
0 221 181
0 221 181
0 221 181
0 222 181
0 221 181
0 221 180
0 220 181
0 221 181
0 221 181
0 221 181
0 222 181
0 220 181
0 221 181
0 221 180
0 222 181
0 221 181
0 221 181
0 221 181
0 221 181
0 221 181
0 220 181
0 222 181
0 222 181
0 221 181
0 222 181
0 222 181
0 221 181
0 221 181
0 221 181
0 221 181
0 221 181
0 222 181
0 221 181
0 222 181
0 222 181
0 222 181
0 221 181
0 222 181
0 221 181
0 220 180
0 221 181
0 221 181
0 221 180
0 221 181
0 220 181
0 221 181
0 221 180
0 221 181
0 222 181
0 220 180
0 222 181
0 221 181
0 220 180
0 220 180
0 222 181
0 221 181
0 221 181
0 220 181
0 221 180
0 220 180
0 221 181
0 221 181
0 221 181
0 221 181
0 221 180
0 221 180
0 221 180
0 220 179
0 221 181
0 219 180
0 221 181
0 220 181
0 220 179
0 221 180
0 222 181
0 221 180
0 222 181
0 221 181
0 219 179
0 219 180
0 222 181
0 221 181
0 222 181
0 222 181
0 221 180
0 221 181
0 221 181
0 221 181
0 222 181
0 222 181
0 221 181
0 220 179
0 221 181
0 221 181
0 221 179
0 220 180
0 220 180
0 219 179
0 221 181
0 220 181
0 221 181
0 221 180
0 221 181
0 220 178
0 220 180
0 221 181
0 220 179
0 220 181
0 222 181
0 221 181
0 221 180
0 222 181
0 220 179
0 220 179
0 221 181
17 219 178
67 206 164
102 182 139
138 158 110
143 139 91
148 144 93
152 146 95
149 143 92
133 136 91
112 163 120
83 177 138
68 206 166
0 219 178
0 221 180
0 222 181
0 221 181
0 221 181
0 221 180
0 221 180
0 222 181
0 220 180
0 221 181
0 220 180
0 221 180
0 221 181
0 221 181
0 222 181
0 220 180
0 221 181
0 222 181
0 221 180
0 221 181
0 221 181
0 222 181
0 222 181
0 221 181
0 221 181
0 222 180
0 221 180
0 221 181
0 222 181
0 221 181
0 221 181
0 222 181
0 221 180
0 222 181
0 221 181
0 220 180
0 221 180
0 221 181
0 222 181
0 220 181
0 222 181
0 222 181
0 221 181
0 222 181
0 222 181
0 222 181
0 220 181
0 221 181
0 220 181
0 221 181
0 220 181
0 220 181
0 221 180
0 221 181
0 222 181
0 222 181
0 221 181
0 220 181
0 222 181
0 221 181
0 221 181
0 220 181
0 221 181
0 221 181
0 221 181
0 221 181
0 221 181
0 222 181
0 221 181
0 221 181
0 221 181
0 222 181
0 220 181
0 221 181
0 221 181
0 221 181
0 221 181
0 221 181
0 222 181
0 220 181
0 221 181
0 223 181
0 221 181
0 221 181
0 222 181
0 221 181
0 222 181
0 222 181
0 221 181
0 222 181
0 222 181
0 222 181
0 221 181
0 221 181
0 222 181
0 222 181
0 221 181
0 222 181
0 221 181
0 221 181
0 222 181
0 221 181
0 221 181
0 220 181
0 221 181
0 221 181
0 221 181
0 221 181
0 221 181
0 221 181
0 221 181
0 222 181
0 221 181
0 222 181
0 221 181
0 222 181
0 222 181
0 222 181
0 221 181
0 222 181
0 222 181
0 222 181
0 221 181
0 221 181
0 222 181
0 223 181
0 221 181
0 222 181
0 221 181
0 221 181
0 221 181
0 222 181
0 221 181
0 221 181
0 221 181
0 222 181
0 222 181
0 222 181
0 221 181
0 222 181
0 221 181
0 221 181
0 222 181
0 221 181
0 221 181
0 221 181
0 222 181
0 221 181
0 223 181
0 221 181
0 222 181
0 222 181
22 221 181
82 223 192
141 229 212
186 234 233
210 237 245
228 240 255
229 240 255
229 240 255
229 240 255
229 240 255
229 240 255
229 240 255
228 240 255
228 240 255
228 240 255
228 240 255
228 240 255
228 240 255
228 240 255
228 240 255
228 240 255
228 240 255
228 240 255
228 240 255
228 240 255
228 240 255
228 240 255
229 240 255
229 240 255
229 240 255
229 240 255
229 240 255
229 240 255
229 240 255
226 239 254
197 235 238
173 232 226
137 228 211
68 223 188
0 221 181
0 221 181
0 221 181
0 222 181
0 222 181
0 222 181
0 222 181
0 221 181
0 221 181
0 221 181
0 221 181
0 221 181
0 222 181
0 220 181
0 221 181
0 221 181
0 222 181
0 221 181
0 222 181
0 222 181
0 222 181
0 222 181
0 221 181
0 221 181
0 220 181
0 221 181
0 222 181
0 222 181
0 221 181
0 221 181
0 222 181
0 221 181
0 222 181
0 222 181
0 222 181
0 221 181
0 222 181
0 222 181
0 221 181
0 222 181
0 222 181
0 221 181
0 221 181
0 221 181
0 221 181
0 221 181
0 222 181
0 221 181
0 220 181
0 221 181
0 222 181
0 221 181
0 222 181
0 221 181
0 221 181
0 221 181
0 221 181
0 221 181
0 221 181
0 221 181
0 222 181
0 220 181
0 221 181
0 221 181
0 221 181
0 220 180
0 221 181
0 221 181
0 222 181
0 222 181
0 222 181
0 221 181
0 221 181
0 222 181
0 221 181
0 222 181
0 221 181
0 221 181
0 222 181
0 222 181
0 220 181
0 222 181
0 222 181
0 222 181
0 220 181
0 221 181
0 222 181
0 220 181
0 222 181
0 221 181
0 221 181
0 221 181
0 220 181
0 221 181
0 221 181
0 221 181
0 222 181
0 221 181
0 221 181
0 221 181
0 220 181
0 221 181
0 221 181
0 221 181
0 221 181
0 222 181
0 221 181
0 220 181
0 221 181
0 221 181
0 222 181
0 221 181
0 222 181
0 221 181
0 221 181
0 221 181
0 222 181
0 221 180
0 222 181
0 221 181
0 222 181
0 221 181
0 221 181
0 220 180
0 220 181
0 221 181
0 221 181
0 220 181
0 220 181
0 221 181
0 222 181
0 221 180
0 221 181
0 221 181
0 221 181
0 222 181
0 220 180
0 221 181
0 222 181
0 221 181
0 222 181
0 221 181
0 221 181
0 221 181
0 221 181
0 222 181
0 221 181
0 220 181
0 221 181
0 220 180
0 220 181
0 219 179
0 221 181
0 220 180
0 221 181
0 222 181
0 219 178
0 221 181
0 221 181
0 221 181
0 220 180
0 221 180
0 220 181
0 220 180
0 222 181
0 220 181
0 221 179
0 219 180
0 222 181
0 221 181
0 220 181
0 221 181
0 219 178
0 222 181
0 219 179
0 219 179
0 218 178
0 220 180
0 221 181
0 221 180
0 222 181
0 220 181
0 217 177
0 221 181
0 219 180
0 219 179
0 220 180
0 221 181
0 222 180
0 222 181
0 221 181
0 222 181
0 220 179
0 219 179
0 222 181
32 217 177
76 191 148
137 147 96
135 133 87
149 147 96
156 151 99
146 140 91
160 155 102
159 153 101
154 149 99
142 138 91
148 142 93
151 146 95
146 144 91
108 156 115
66 202 162
0 222 181
0 218 176
0 222 181
0 220 179
0 221 180
0 221 179
0 219 178
0 221 180
0 222 181
0 221 180
0 221 181
0 221 181
0 221 180
0 222 181
0 221 181
0 221 181
0 221 180
0 220 180
0 221 181
0 221 181
0 220 178
0 221 181
0 221 181
0 221 180
0 221 181
0 222 181
0 221 180
0 221 181
0 221 181
0 221 181
0 221 180
0 221 181
0 220 181
0 221 181
0 221 181
0 221 181
0 221 181
0 222 181
0 221 181
0 221 181
0 220 180
0 223 181
0 221 181
0 221 181
0 222 181
0 221 181
0 221 181
0 221 180
0 221 181
0 221 181
0 221 181
0 222 181
0 221 181
0 220 181
0 221 181
0 221 181
0 222 181
0 221 181
0 221 181
0 221 181
0 221 181
0 222 181
0 221 181
0 221 181
0 220 181
0 222 181
0 221 181
0 222 181
0 221 181
0 222 181
0 222 181
0 221 181
0 221 181
0 222 181
0 221 181
0 222 181
0 221 181
0 221 181
0 222 181
0 221 181
0 220 181
0 221 181
0 221 181
0 221 181
0 222 181
0 221 181
0 221 181
0 221 181
0 222 181
0 220 181
0 221 181
0 221 181
0 221 181
0 220 181
0 223 181
0 222 181
0 221 181
0 221 181
0 221 181
0 221 181
0 221 181
0 222 181
0 221 181
0 222 181
0 222 181
0 221 181
0 220 181
0 221 181
0 222 181
0 221 181
0 222 181
0 220 181
0 221 181
0 221 181
0 221 181
0 221 181
0 222 181
0 222 181
0 221 181
0 222 181
0 222 181
0 221 181
0 221 181
0 222 181
0 221 181
0 222 181
0 221 181
0 222 181
0 221 181
0 221 181
0 222 181
0 222 181
0 222 181
0 221 181
0 221 181
0 221 181
0 222 181
0 221 181
0 221 181
0 221 181
0 221 181
0 223 181
0 222 181
0 221 181
0 221 181
0 223 181
0 221 181
0 221 181
0 220 181
0 221 181
0 221 181
0 221 181
0 222 181
0 221 181
0 221 181
60 223 187
129 227 207
168 231 224
193 235 236
221 239 251
229 240 255
229 240 255
229 240 255
229 240 255
229 240 255
229 240 255
228 240 255
228 240 255
228 240 255
228 240 255
228 240 255
228 240 255
228 240 255
229 240 255
229 240 255
229 240 255
229 240 255
229 240 255
229 240 255
229 240 255
218 238 250
179 232 229
152 230 217
102 225 198
32 222 182
0 222 181
0 221 181
0 221 181
0 221 181
0 222 181
0 222 181
0 222 181
0 221 181
0 221 181
0 221 181
0 222 181
0 221 181
0 221 181
0 221 181
0 221 181
0 222 181
0 222 181
0 222 181
0 222 181
0 222 181
0 221 181
0 222 181
0 221 181
0 221 181
0 221 181
0 221 181
0 221 181
0 221 181
0 221 181
0 222 181
0 221 181
0 221 181
0 222 181
0 222 181
0 222 181
0 221 181
0 221 181
0 221 181
0 221 181
0 221 181
0 221 181
0 222 181
0 221 181
0 220 181
0 221 181
0 221 181
0 222 181
0 221 181
0 222 181
0 221 181
0 222 181
0 222 181
0 221 181
0 222 181
0 220 181
0 222 181
0 220 181
0 221 181
0 221 181
0 222 181
0 221 181
0 221 181
0 219 181
0 221 181
0 221 181
0 221 181
0 221 181
0 222 181
0 221 181
0 220 180
0 221 181
0 221 181
0 220 180
0 221 181
0 220 180
0 221 181
0 221 181
0 221 181
0 222 181
0 221 181
0 221 181
0 221 181
0 222 181
0 221 181
0 221 181
0 222 181
0 222 181
0 221 181
0 222 181
0 221 181
0 221 181
0 221 181
0 221 181
0 221 181
0 221 181
0 221 181
0 222 181
0 221 181
0 221 181
0 221 181
0 221 181
0 222 181
0 222 181
0 221 181
0 221 181
0 222 181
0 221 181
0 221 181
0 222 181
0 221 181
0 222 181
0 220 181
0 222 181
0 220 181
0 221 181
0 220 181
0 220 180
0 221 180
0 221 181
0 220 181
0 221 181
0 222 181
0 221 181
0 222 181
0 221 181
0 221 180
0 221 181
0 221 181
0 221 180
0 222 181
0 221 181
0 221 180
0 221 181
0 220 180
0 220 180
0 222 181
0 221 181
0 221 181
0 222 181
0 222 181
0 221 181
0 222 181
0 219 178
0 221 181
0 220 180
0 222 181
0 220 180
0 221 181
0 222 181
0 221 180
0 221 181
0 222 181
0 220 180
0 221 180
0 221 180
0 219 179
0 222 181
0 220 180
0 219 180
0 220 180
0 221 180
0 221 181
0 221 181
0 220 179
0 221 180
0 221 181
0 220 179
0 221 180
0 221 181
0 220 181
0 220 179
0 219 179
0 219 180
0 221 181
0 221 181
0 219 179
0 221 180
0 220 180
0 219 179
0 220 181
0 221 180
0 221 181
0 220 179
0 220 180
0 221 181
0 222 181
0 218 178
0 221 181
0 220 179
0 221 181
0 220 180
0 221 181
0 219 178
0 220 181
0 220 181
0 220 181
0 220 180
0 222 181
59 205 162
122 153 106
139 145 91
147 149 95
156 154 101
155 153 100
154 151 100
161 158 104
155 153 103
159 156 104
154 151 101
157 153 102
156 151 100
149 145 95
148 144 95
141 141 91
142 144 91
87 173 133
0 221 181
0 221 181
0 220 180
0 220 181
0 222 181
0 220 180
0 221 181
0 221 181
0 221 179
0 221 180
0 221 181
0 222 181
0 221 181
0 222 180
0 220 181
0 220 180
0 222 181
0 221 181
0 221 181
0 222 181
0 222 181
0 221 181
0 221 181
0 220 180
0 221 181
0 221 181
0 221 181
0 222 181
0 220 180
0 219 180
0 221 181
0 221 181
0 222 180
0 220 181
0 221 181
0 222 181
0 221 181
0 221 181
0 221 181
0 222 181
0 221 181
0 222 181
0 220 180
0 222 181
0 222 181
0 221 181
0 222 181
0 221 181
0 221 181
0 221 181
0 222 180
0 222 181
0 221 180
0 221 181
0 222 181
0 221 181
0 221 181
0 222 181
0 221 181
0 221 181
0 222 181
0 220 181
0 221 181
0 222 181
0 221 181
0 220 181
0 221 181
0 222 181
0 221 181
0 221 181
0 221 181
0 220 181
0 221 181
0 221 181
0 221 181
0 221 181
0 222 181
0 221 181
0 221 181
0 221 181
0 222 181
0 221 181
0 221 181
0 221 181
0 220 181
0 221 181
0 220 180
0 221 181
0 221 181
0 222 181
0 221 181
0 221 181
0 221 181
0 221 181
0 221 181
0 221 181
0 221 181
0 222 181
0 222 181
0 222 181
0 221 181
0 221 181
0 221 181
0 221 181
0 222 181
0 222 181
0 222 181
0 222 181
0 222 181
0 221 181
0 221 181
0 221 180
0 220 181
0 221 181
0 221 181
0 222 181
0 222 181
0 222 181
0 223 181
0 221 181
0 221 181
0 221 181
0 221 181
0 222 181
0 222 181
0 221 181
0 222 181
0 221 181
0 221 181
0 221 181
0 221 181
0 222 181
0 221 181
0 220 181
0 222 181
0 222 181
0 221 181
0 221 181
0 222 181
0 221 181
0 222 181
0 222 181
0 222 181
0 221 181
0 222 181
0 221 181
0 222 181
0 222 181
0 221 181
0 221 181
0 221 181
0 222 181
0 221 181
0 221 181
0 222 181
0 221 181
0 222 181
0 222 181
0 221 181
102 225 198
146 229 214
190 234 235
219 238 250
229 240 255
229 240 255
229 240 255
229 240 255
229 240 255
229 240 255
229 240 255
228 240 255
229 240 255
229 240 255
229 240 255
229 240 255
210 237 245
181 233 231
143 229 213
45 221 184
0 222 181
0 222 181
0 221 181
0 221 181
0 221 181
0 222 181
0 221 181
0 222 181
0 221 181
0 221 181
0 221 181
0 222 181
0 221 181
0 222 181
0 221 181
0 221 181
0 221 181
0 222 181
0 222 181
0 222 181
0 222 181
0 222 181
0 221 181
0 221 181
0 221 181
0 222 181
0 222 181
0 220 181
0 222 181
0 222 181
0 221 181
0 221 181
0 221 181
0 221 181
0 222 181
0 220 181
0 222 181
0 221 181
0 222 181
0 221 181
0 222 181
0 221 181
0 221 181
0 220 181
0 221 181
0 221 181
0 221 181
0 222 181
0 221 181
0 223 181
0 221 181
0 222 181
0 223 181
0 222 181
0 222 181
0 222 181
0 221 181
0 221 181
0 221 181
0 220 181
0 222 181
0 221 181
0 222 181
0 221 181
0 221 181
0 221 181
0 222 181
0 222 181
0 221 181
0 220 181
0 221 181
0 221 180
0 221 181
0 221 181
0 222 181
0 221 181
0 222 181
0 221 181
0 221 181
0 221 181
0 221 181
0 221 181
0 222 181
0 221 181
0 220 181
0 221 181
0 221 181
0 221 181
0 220 181
0 220 180
0 221 181
0 220 181
0 220 181
0 222 181
0 221 181
0 221 181
0 221 181
0 221 181
0 221 181
0 222 181
0 222 181
0 223 181
0 221 181
0 222 181
0 221 181
0 222 181
0 220 181
0 222 181
0 221 181
0 221 181
0 222 181
0 221 181
0 220 181
0 221 181
0 221 181
0 221 181
0 222 181
0 222 181
0 221 181
0 221 181
0 222 181
0 221 181
0 221 181
0 221 181
0 221 181
0 221 180
0 221 181
0 221 181
0 221 181
0 222 181
0 221 181
0 221 181
0 221 181
0 221 180
0 221 181
0 221 181
0 219 179
0 221 181
0 221 181
0 220 180
0 220 181
0 222 181
0 222 181
0 221 181
0 221 181
0 221 181
0 221 181
0 220 180
0 220 180
0 221 180
0 220 181
0 221 181
0 221 181
0 220 180
0 222 181
0 219 180
0 221 181
0 220 180
0 219 180
0 221 181
0 221 181
0 222 181
0 218 178
0 221 181
0 221 180
0 220 180
0 220 180
0 220 179
0 222 181
0 222 180
0 221 181
0 219 179
0 221 180
0 220 180
0 221 181
0 221 180
0 220 180
0 221 181
0 222 180
0 219 178
0 220 178
0 220 179
0 221 181
0 221 180
0 220 180
0 218 178
0 221 180
0 221 181
0 221 180
0 220 179
0 220 179
0 219 179
0 221 181
0 219 179
0 220 179
0 221 180
0 222 181
0 221 180
0 221 180
0 221 180
0 221 181
0 221 181
75 197 154
124 138 86
144 143 92
151 148 96
157 154 101
152 149 98
161 158 104
155 152 101
153 151 101
154 151 101
153 151 101
151 149 99
160 158 105
163 159 106
153 151 101
147 143 94
156 152 100
145 145 93
140 144 91
107 163 120
27 220 179
0 219 179
0 221 180
0 221 181
0 221 181
0 221 180
0 220 179
0 220 181
0 220 179
0 221 181
0 219 181
0 222 180
0 222 180
0 221 181
0 222 181
0 221 180
0 221 180
0 220 180
0 221 181
0 221 181
0 221 181
0 221 181
0 221 181
0 221 181
0 221 181
0 220 181
0 221 181
0 220 180
0 221 181
0 222 181
0 221 181
0 222 181
0 222 181
0 221 181
0 222 181
0 221 181
0 221 181
0 221 181
0 222 180
0 221 181
0 221 181
0 221 181
0 222 181
0 220 181
0 221 181
0 222 181
0 222 181
0 221 181
0 222 181
0 221 181
0 222 181
0 222 181
0 220 180
0 222 181
0 221 181
0 221 181
0 221 181
0 222 181
0 221 181
0 221 181
0 221 181
0 221 181
0 222 181
0 222 181
0 220 180
0 221 181
0 221 181
0 221 180
0 221 181
0 221 181
0 221 180
0 221 181
0 221 181
0 221 181
0 221 180
0 221 181
0 221 181
0 221 181
0 221 181
0 221 181
0 221 181
0 221 181
0 222 181
0 221 181
0 221 181
0 221 181
0 222 181
0 221 181
0 221 181
0 222 181
0 222 181
0 221 181
0 221 181
0 221 181
0 221 181
0 221 181
0 221 181
0 221 181
0 221 181
0 221 181
0 221 181
0 222 181
0 221 181
0 221 181
0 222 181
0 221 181
0 221 181
0 222 181
0 221 181
0 221 181
0 222 181
0 221 181
0 221 181
0 222 181
0 221 181
0 221 181
0 222 181
0 222 181
0 222 181
0 222 181
0 221 181
0 222 181
0 220 181
0 222 181
0 221 181
0 222 181
0 222 181
0 221 181
0 221 181
0 221 181
0 222 181
0 220 181
0 221 181
0 222 181
0 222 181
0 221 181
0 221 181
0 221 181
0 221 181
0 222 181
0 222 181
0 222 181
0 221 181
0 221 181
0 221 181
0 222 181
0 221 181
0 222 181
0 221 181
0 222 181
0 221 181
0 221 181
0 222 181
0 222 181
0 221 181
0 222 181
0 221 181
0 222 181
0 221 181
0 221 181
0 221 181
0 221 181
76 223 190
119 227 203
173 232 226
213 238 247
228 240 255
229 240 255
229 240 255
229 240 255
197 235 238
158 230 220
121 227 204
45 222 184
0 222 181
0 221 181
0 221 181
0 222 181
0 221 181
0 221 181
0 222 181
0 222 181
0 221 181
0 221 181
0 220 181
0 221 181
0 221 181
0 222 181
0 221 181
0 221 181
0 221 181
0 221 181
0 221 181
0 221 181
0 222 181
0 220 181
0 221 181
0 222 181
0 222 181
0 222 181
0 222 181
0 220 181
0 221 181
0 221 181
0 221 181
0 222 181
0 221 181
0 222 181
0 221 181
0 221 181
0 222 181
0 221 181
0 222 181
0 221 181
0 220 181
0 222 181
0 221 181
0 221 181
0 222 181
0 221 181
0 223 181
0 222 181
0 221 181
0 221 181
0 221 181
0 220 181
0 222 181
0 222 181
0 221 181
0 221 181
0 221 181
0 220 181
0 222 181
0 221 181
0 221 181
0 222 181
0 221 181
0 222 181
0 222 181
0 221 181
0 221 181
0 221 181
0 221 181
0 221 181
0 222 181
0 222 181
0 221 181
0 221 181
0 221 181
0 221 181
0 221 181
0 221 181
0 221 181
0 222 181
0 222 181
0 221 181
0 221 181
0 221 181
0 220 180
0 221 181
0 221 181
0 221 181
0 221 181
0 221 181
0 222 181
0 221 181
0 221 181
0 221 181
0 222 181
0 222 181
0 221 181
0 221 181
0 221 181
0 220 181
0 220 181
0 221 181
0 221 181
0 221 181
0 222 181
0 221 181
0 222 181
0 221 181
0 220 181
0 221 181
0 221 181
0 220 181
0 221 181
0 221 181
0 222 181
0 221 181
0 220 181
0 221 181
0 222 181
0 221 181
0 221 181
0 221 181
0 221 181
0 221 181
0 219 179
0 220 181
0 221 181
0 221 181
0 222 181
0 221 181
0 220 180
0 221 181
0 221 181
0 221 181
0 220 180
0 222 181
0 222 181
0 219 180
0 221 181
0 221 180
0 222 181
0 220 180
0 221 180
0 220 180
0 222 181
0 222 181
0 221 181
0 222 181
0 220 179
0 221 180
0 222 181
0 220 180
0 220 180
0 220 180
0 220 180
0 220 180
0 219 179
0 221 180
0 219 179
0 220 180
0 222 181
0 221 181
0 220 180
0 222 181
0 219 179
0 222 181
0 222 181
0 221 181
0 219 179
0 221 181
0 221 181
0 220 179
0 220 180
0 220 180
0 221 180
0 221 180
0 220 180
0 220 181
0 219 179
0 220 180
0 222 181
0 220 179
0 220 180
0 218 178
0 221 181
0 219 179
0 219 180
0 221 181
0 220 180
0 221 181
0 219 180
0 222 181
0 221 180
0 220 179
0 220 179
0 220 179
0 218 178
0 219 178
0 220 179
0 219 178
0 220 178
0 219 180
0 217 176
0 219 178
0 221 180
70 184 143
136 137 87
154 155 99
137 143 91
155 153 100
162 161 105
157 154 102
161 159 105
165 161 107
159 156 104
168 166 111
161 160 107
155 152 101
165 162 108
162 158 105
165 161 107
153 150 99
156 152 100
148 148 97
141 144 92
150 150 96
93 174 130
0 220 181
0 220 180
0 221 180
0 219 178
0 220 178
0 221 181
0 221 181
0 220 181
0 221 181
0 219 177
0 220 180
0 221 180
0 221 180
0 220 180
0 220 180
0 221 181
0 222 180
0 221 180
0 220 179
0 220 178
0 221 180
0 221 181
0 220 181
0 222 181
0 220 178
0 221 181
0 220 180
0 221 181
0 221 181
0 223 181
0 221 181
0 222 181
0 221 181
0 221 181
0 222 181
0 221 181
0 221 181
0 221 181
0 221 181
0 221 181
0 222 181
0 222 181
0 222 181
0 221 181
0 221 180
0 222 181
0 221 181
0 222 181
0 222 181
0 221 181
0 220 180
0 220 181
0 221 181
0 221 181
0 222 181
0 220 181
0 221 181
0 221 181
0 222 181
0 221 181
0 222 181
0 222 181
0 221 181
0 222 181
0 221 181
0 221 181
0 221 181
0 221 181
0 221 181
0 220 181
0 221 181
0 221 181
0 221 181
0 221 181
0 221 181
0 221 181
0 222 181
0 219 181
0 222 181
0 221 181
0 221 181
0 222 181
0 221 181
0 221 181
0 220 181
0 222 181
0 223 181
0 221 181
0 222 181
0 220 181
0 221 181
0 222 181
0 222 181
0 221 181
0 222 181
0 221 181
0 221 181
0 220 181
0 222 181
0 221 181
0 221 181
0 221 181
0 222 181
0 221 181
0 221 181
0 222 181
0 222 181
0 222 181
0 221 181
0 221 181
0 221 181
0 222 181
0 221 181
0 221 181
0 222 181
0 221 181
0 222 181
0 221 181
0 221 181
0 221 181
0 221 181
0 222 181
0 222 181
0 221 181
0 222 181
0 220 181
0 221 181
0 221 181
0 222 181
0 221 181
0 221 181
0 222 181
0 221 181
0 221 181
0 221 181
0 221 181
0 221 181
0 222 181
0 221 181
0 221 181
0 222 181
0 221 181
0 221 181
0 221 181
0 221 181
0 222 181
0 222 181
0 221 181
0 221 181
0 221 181
0 222 181
0 222 181
0 222 181
0 221 181
0 221 181
0 221 181
0 222 181
0 222 181
0 221 181
0 222 181
0 222 181
0 222 181
0 221 181
0 221 181
0 222 181
51 222 185
129 227 207
165 231 223
197 235 238
0 222 181
0 222 181
0 221 181
0 222 181
0 221 181
0 221 181
0 221 181
0 220 181
0 222 181
0 221 181
0 220 181
0 221 181
0 221 181
0 221 181
0 222 181
0 221 181
0 222 181
0 221 181
0 221 181
0 222 181
0 221 181
0 221 181
0 222 181
0 222 181
0 222 181
0 220 181
0 222 181
0 221 181
0 221 181
0 221 181
0 220 181
0 221 181
0 221 181
0 221 181
0 221 181
0 221 181
0 222 181
0 222 181
0 221 181
0 222 181
0 220 181
0 222 181
0 222 181
0 221 181
0 222 181
0 221 181
0 222 181
0 220 180
0 222 181
0 221 181
0 221 181
0 220 181
0 221 181
0 221 181
0 221 181
0 221 181
0 222 181
0 221 181
0 222 181
0 221 181
0 221 181
0 221 181
0 222 181
0 221 181
0 221 181
0 221 181
0 221 181
0 221 181
0 221 180
0 221 181
0 222 181
0 222 181
0 221 181
0 221 181
0 221 181
0 222 181
0 221 181
0 221 181
0 222 181
0 222 181
0 222 181
0 222 181
0 221 181
0 221 181
0 221 181
0 222 181
0 221 181
0 221 181
0 221 181
0 222 181
0 222 181
0 221 181
0 221 180
0 222 181
0 221 181
0 222 181
0 220 181
0 221 181
0 220 180
0 221 181
0 221 181
0 221 181
0 221 181
0 221 181
0 222 181
0 222 181
0 222 181
0 221 181
0 221 181
0 220 181
0 221 181
0 222 181
0 221 181
0 221 181
0 222 181
0 221 181
0 221 181
0 221 181
0 220 181
0 221 181
0 222 181
0 221 180
0 221 181
0 221 181
0 220 180
0 221 181
0 221 181
0 221 181
0 221 181
0 221 181
0 221 181
0 222 181
0 222 181
0 221 181
0 220 181
0 220 180
0 222 181
0 221 180
0 221 181
0 220 181
0 221 181
0 221 180
0 220 181
0 221 181
0 221 181
0 221 181
0 221 181
0 219 179
0 221 181
0 221 181
0 220 180
0 220 180
0 221 181
0 221 181
0 219 180
0 221 181
0 222 181
0 222 181
0 220 180
0 221 180
0 220 179
0 220 180
0 222 181
0 221 181
0 221 181
0 221 181
0 220 180
0 220 180
0 221 181
0 220 180
0 218 177
0 221 180
0 220 180
0 221 181
0 221 180
0 220 180
0 221 179
0 220 180
0 218 178
0 218 178
0 218 177
0 218 178
0 221 180
0 219 178
0 218 178
0 221 180
0 221 181
0 219 178
0 220 180
0 219 178
0 222 181
0 221 180
0 220 181
0 221 180
0 220 179
0 220 179
0 220 180
0 221 180
0 220 180
0 220 179
0 221 181
0 217 178
0 219 178
0 221 181
0 220 180
0 220 180
0 218 178
0 217 176
48 201 160
141 149 92
139 146 92
154 154 100
147 148 97
162 159 104
159 158 104
169 165 110
159 157 104
168 165 109
159 157 105
166 164 109
164 161 108
161 159 106
164 160 106
162 159 106
163 162 108
160 157 104
157 153 100
163 158 104
156 153 101
151 151 97
139 145 90
92 178 133
0 221 181
0 219 179
0 221 181
0 222 181
0 223 181
0 220 178
0 220 179
0 220 180
0 220 180
0 220 181
0 221 180
0 221 180
0 220 180
0 220 178
0 222 180
0 221 180
0 221 181
0 220 181
0 222 181
0 222 181
0 221 180
0 221 180
0 220 180
0 221 181
0 221 181
0 221 180
0 220 180
0 221 181
0 222 180
0 220 180
0 221 181
0 221 180
0 221 181
0 221 181
0 222 181
0 221 181
0 220 180
0 221 181
0 222 181
0 221 181
0 221 181
0 222 181
0 221 181
0 222 181
0 221 181
0 223 181
0 221 181
0 221 180
0 221 181
0 221 181
0 222 181
0 221 181
0 221 181
0 220 181
0 221 181
0 221 181
0 221 181
0 221 181
0 222 180
0 221 181
0 221 181
0 221 181
0 221 181
0 221 181
0 221 181
0 221 181
0 220 180
0 221 181
0 220 181
0 221 181
0 223 181
0 221 181
0 221 181
0 222 181
0 222 181
0 223 181
0 222 181
0 222 181
0 221 181
0 221 181
0 221 181
0 221 181
0 221 181
0 221 181
0 220 181
0 222 181
0 221 181
0 221 181
0 222 181
0 222 181
0 221 181
0 222 181
0 221 181
0 222 181
0 221 181
0 221 181
0 222 181
0 222 181
0 221 181
0 221 181
0 222 181
0 222 181
0 221 181
0 222 181
0 222 181
0 221 181
0 220 181
0 222 181
0 221 181
0 221 181
0 221 181
0 221 181
0 222 181
0 222 181
0 222 181
0 221 181
0 221 181
0 221 181
0 221 181
0 222 181
0 221 181
0 221 181
0 221 181
0 221 181
0 221 181
0 222 181
0 221 181
0 222 181
0 221 181
0 221 181
0 220 181
0 221 181
0 221 181
0 222 181
0 221 181
0 221 181
0 221 181
0 221 181
0 221 181
0 221 181
0 221 181
0 221 181
0 222 181
0 221 181
0 220 181
0 221 181
0 221 181
0 222 181
0 222 181
0 220 181
0 222 181
0 221 181
0 222 181
0 221 181
0 222 181
0 222 181
0 221 181
0 221 181
0 221 181
0 221 181
0 221 181
0 221 181
0 221 181
0 221 181
0 222 181
0 221 181
0 221 181
0 222 181
0 220 181
0 221 181
0 221 181
0 221 181
0 220 181
0 221 181
0 222 181
0 220 181
0 221 181
0 220 181
0 221 181
0 222 181
0 220 181
0 221 181
0 221 181
0 221 181
0 222 181
0 222 181
0 222 181
0 221 181
0 222 181
0 221 181
0 221 181
0 221 181
0 222 181
0 221 181
0 221 181
0 222 181
0 221 181
0 221 181
0 221 181
0 221 181
0 221 181
0 221 181
0 220 181
0 222 181
0 221 181
0 221 181
0 222 181
0 222 181
0 222 181
0 221 181
0 221 181
0 222 181
0 223 181
0 221 181
0 222 181
0 222 181
0 221 181
0 221 181
0 221 181
0 222 181
0 222 181
0 221 181
0 222 181
0 221 181
0 221 181
0 222 181
0 222 181
0 221 181
0 221 181
0 220 181
0 221 181
0 221 181
0 221 181
0 221 181
0 223 181
0 221 181
0 222 181
0 222 181
0 221 181
0 221 181
0 222 181
0 221 181
0 221 181
0 221 181
0 222 181
0 221 181
0 221 181
0 221 181
0 221 181
0 221 181
0 221 181
0 220 181
0 222 181
0 221 181
0 221 181
0 221 181
0 222 181
0 222 181
0 221 181
0 221 181
0 221 181
0 221 181
0 221 181
0 220 180
0 221 181
0 221 181
0 221 181
0 221 181
0 222 181
0 221 181
0 221 181
0 221 181
0 220 181
0 222 181
0 222 181
0 221 181
0 221 181
0 220 180
0 222 181
0 221 181
0 221 181
0 222 181
0 222 181
0 221 181
0 221 181
0 221 181
0 221 181
0 221 180
0 222 181
0 221 181
0 221 181
0 221 181
0 220 181
0 222 181
0 221 181
0 221 181
0 221 181
0 220 181
0 221 181
0 220 181
0 222 181
0 222 181
0 220 181
0 220 179
0 222 181
0 221 181
0 220 180
0 222 181
0 221 181
0 220 181
0 221 181
0 221 181
0 222 181
0 222 181
0 221 181
0 220 180
0 221 181
0 221 180
0 222 181
0 221 181
0 222 181
0 221 181
0 220 180
0 219 180
0 221 181
0 221 180
0 221 181
0 220 180
0 222 181
0 221 181
0 220 180
0 219 179
0 220 180
0 221 181
0 220 179
0 221 181
0 221 181
0 220 181
0 221 180
0 220 180
0 220 180
0 220 180
0 219 179
0 220 180
0 218 177
0 219 180
0 221 180
0 219 179
0 221 180
0 220 179
0 220 179
0 220 180
0 221 181
0 221 181
0 222 181
0 219 179
0 219 178
0 221 181
0 222 181
0 221 181
0 220 180
0 220 180
0 217 176
0 219 178
0 219 180
0 221 180
0 220 180
0 219 180
0 219 178
0 221 179
0 217 177
0 221 180
0 220 180
0 218 178
0 219 177
26 217 177
100 146 97
142 150 94
136 145 92
145 147 96
155 157 101
157 153 102
161 159 105
162 158 105
166 163 109
167 164 110
169 166 110
167 165 110
168 166 110
160 158 106
170 167 111
168 165 110
168 164 109
156 156 103
164 161 107
163 160 105
150 153 98
149 150 95
144 145 93
123 148 89
62 200 159
0 220 179
0 221 181
0 219 178
0 221 180
0 221 181
0 221 179
0 220 179
0 220 180
0 221 180
0 221 180
0 220 179
0 220 181
0 221 180
0 222 180
0 222 181
0 220 179
0 221 181
0 222 181
0 221 181
0 221 180
0 220 180
0 220 180
0 221 181
0 221 181
0 222 181
0 221 181
0 222 181
0 221 181
0 221 180
0 220 181
0 221 181
0 221 181
0 223 181
0 221 181
0 220 180
0 221 181
0 221 181
0 221 181
0 222 181
0 220 181
0 222 181
0 221 181
0 221 181
0 221 181
0 221 181
0 221 181
0 221 181
0 221 180
0 220 181
0 221 181
0 222 180
0 221 181
0 221 181
0 222 181
0 221 181
0 222 181
0 222 181
0 221 181
0 221 181
0 221 181
0 221 181
0 221 181
0 222 181
0 222 181
0 222 181
0 220 181
0 221 180
0 221 181
0 220 181
0 221 181
0 221 181
0 221 181
0 222 181
0 223 181
0 222 181
0 222 181
0 221 181
0 222 181
0 222 181
0 222 181
0 220 181
0 221 181
0 221 181
0 221 181
0 221 180
0 222 181
0 222 181
0 221 181
0 222 181
0 221 181
0 221 181
0 221 181
0 221 181
0 222 181
0 221 181
0 221 181
0 221 181
0 221 181
0 221 181
0 220 181
0 221 181
0 221 180
0 222 181
0 222 181
0 221 181
0 220 181
0 222 181
0 221 181
0 221 181
0 221 181
0 221 181
0 222 181
0 221 181
0 221 181
0 222 181
0 221 180
0 221 181
0 221 181
0 222 181
0 220 181
0 222 181
0 221 181
0 223 181
0 221 181
0 221 181
0 221 181
0 222 181
0 222 181
0 221 181
0 221 181
0 221 181
0 221 181
0 221 181
0 221 181
0 222 181
0 222 181
0 221 181
0 221 181
0 222 181
0 221 181
0 222 181
0 221 181
0 221 181
0 221 181
0 223 181
0 221 181
0 221 181
0 221 181
0 222 181
0 221 181
0 222 181
0 221 181
0 222 181
0 221 181
0 221 181
0 221 181
0 222 181
0 221 181
0 221 181
0 221 181
0 222 181
0 221 181
0 222 181
0 222 181
0 222 181
0 221 181
0 221 181
0 221 181
0 221 181
0 222 181
0 221 181
0 221 181
0 221 181
0 222 181
0 221 181
0 221 181
0 221 181
0 221 181
0 221 181
0 221 181
0 221 181
0 222 181
0 221 181
0 221 181
0 221 181
0 221 181
0 222 181
0 221 181
0 221 181
0 221 181
0 221 181
0 221 181
0 221 181
0 221 181
0 222 181
0 222 181
0 221 181
0 221 181
0 221 181
0 221 181
0 221 181
0 221 181
0 221 181
0 220 181
0 222 181
0 221 181
0 221 181
0 221 181
0 221 181
0 221 181
0 221 181
0 221 181
0 221 181
0 222 181
0 221 181
0 221 181
0 221 181
0 221 181
0 222 181
0 221 181
0 222 181
0 221 181
0 221 181
0 221 181
0 221 181
0 221 181
0 221 181
0 221 181
0 220 181
0 221 181
0 221 181
0 222 181
0 221 181
0 221 181
0 221 181
0 221 181
0 222 181
0 222 181
0 221 181
0 221 181
0 221 181
0 222 181
0 222 181
0 221 181
0 222 181
0 222 181
0 222 181
0 221 181
0 221 181
0 221 181
0 220 181
0 222 181
0 221 181
0 221 181
0 221 181
0 221 181
0 222 181
0 222 181
0 222 181
0 221 181
0 220 181
0 221 181
0 222 181
0 222 181
0 221 181
0 221 181
0 220 181
0 221 181
0 221 181
0 221 181
0 222 181
0 222 181
0 221 180
0 221 181
0 221 181
0 220 181
0 221 181
0 222 181
0 221 181
0 222 181
0 222 181
0 221 181
0 222 181
0 222 181
0 220 180
0 221 181
0 221 181
0 220 180
0 221 181
0 221 181
0 221 181
0 222 181
0 221 181
0 221 181
0 221 180
0 222 181
0 221 181
0 221 181
0 220 180
0 219 179
0 221 181
0 222 181
0 220 180
0 222 181
0 221 181
0 221 181
0 220 181
0 219 179
0 220 180
0 220 180
0 221 181
0 221 181
0 221 180
0 221 181
0 222 181
0 221 181
0 221 181
0 221 181
0 220 179
0 221 181
0 220 180
0 221 181
0 221 181
0 221 180
0 221 181
0 219 179
0 220 180
0 222 181
0 221 181
0 221 181
0 222 181
0 219 179
0 218 178
0 221 180
0 221 180
0 220 180
0 219 180
0 219 179
0 222 181
0 220 180
0 221 181
0 220 180
0 221 180
0 219 179
0 220 180
0 220 179
0 220 180
0 220 180
0 220 180
0 220 179
0 219 179
0 220 180
0 220 180
0 221 180
0 220 180
0 218 178
0 218 179
31 194 178
46 161 179
50 147 178
56 129 180
60 102 181
62 101 181
61 105 181
56 130 181
50 151 179
45 167 178
22 207 179
0 221 181
0 216 176
0 218 178
0 221 181
0 219 179
0 219 179
87 185 138
122 135 82
143 150 96
150 152 97
147 148 98
157 157 104
164 160 106
160 157 104
156 155 103
160 157 105
163 161 108
170 167 111
165 162 109
169 166 110
167 165 110
170 167 112
171 168 112
164 160 106
168 165 109
163 161 106
170 167 109
158 160 103
154 157 100
137 146 90
131 152 91
100 168 122
0 221 180
0 221 180
0 221 181
0 219 179
0 221 181
0 220 180
0 221 181
0 221 180
0 220 179
0 221 179
0 220 180
0 221 180
0 221 181
0 220 178
0 221 180
0 221 181
0 220 179
0 219 180
0 221 181
0 222 181
0 221 181
0 221 180
0 220 179
0 221 180
0 221 181
0 221 181
0 221 181
0 221 181
0 221 180
0 221 181
0 220 180
0 221 181
0 221 181
0 220 181
0 221 181
0 220 180
0 221 181
0 222 181
0 222 181
0 221 181
0 221 181
0 221 181
0 222 181
0 221 181
0 221 181
0 222 181
0 221 180
0 222 181
0 221 181
0 221 180
0 221 181
0 222 181
0 221 181
0 220 180
0 221 181
0 222 181
0 222 181
0 221 181
0 220 181
0 221 181
0 220 179
0 221 181
0 221 180
0 222 181
0 220 180
0 221 181
0 222 181
0 222 181
0 222 181
0 223 181
0 221 181
0 221 181
0 221 181
0 221 181
0 221 181
0 220 180
0 222 181
0 221 181
0 221 181
0 221 181
0 221 181
0 221 181
0 220 181
0 221 181
0 221 181
0 221 181
0 222 181
0 222 181
0 221 181
0 222 181
0 220 181
0 220 181
0 221 181
0 221 180
0 220 181
0 221 181
0 221 181
0 221 181
0 221 181
0 221 181
0 221 181
0 222 181
0 221 181
0 222 181
0 221 181
0 220 181
0 221 181
0 221 181
0 221 181
0 221 181
0 221 181
0 222 181
0 222 181
0 221 181
0 221 180
0 221 181
0 221 181
0 221 181
0 221 181
0 223 181
0 221 181
0 222 181
0 221 181
0 222 181
0 221 181
0 222 181
0 221 181
0 221 181
0 221 181
0 222 181
0 221 181
0 221 181
0 222 181
0 220 181
0 222 181
0 222 181
0 221 181
0 221 181
0 221 181
0 222 181
0 221 181
0 222 181
0 222 181
0 221 181
0 221 181
0 222 181
0 223 181
0 222 181
0 222 181
0 221 181
0 221 181
0 221 181
0 221 181
0 221 181
0 221 181
0 222 181
0 222 181
0 222 181
0 221 181
0 222 181
0 221 181
0 221 181
0 222 181
0 221 181
0 222 181
0 221 181
0 222 181
0 222 181
0 222 181
0 221 181
0 222 181
0 222 181
0 222 181
0 221 181
0 222 181
0 221 181
0 221 181
0 221 181
0 221 181
0 222 181
0 221 181
0 221 181
0 223 181
0 222 181
0 221 181
0 221 181
0 222 181
0 222 181
0 221 181
0 221 181
0 221 181
0 222 181
0 221 181
0 221 181
0 222 181
0 221 181
0 221 181
0 221 181
0 222 181
0 220 181
0 221 181
0 221 181
0 221 181
0 222 181
0 222 181
0 222 181
0 219 181
0 222 181
0 222 181
0 221 181
0 222 181
0 220 181
0 222 181
0 222 181
0 221 181
0 221 181
0 221 181
0 222 181
0 221 181
0 221 181
0 221 181
0 222 181
0 223 181
0 222 181
0 221 181
0 222 181
0 220 181
0 222 181
0 221 181
0 222 181
0 221 181
0 221 181
0 221 181
0 221 181
0 221 181
0 222 181
0 221 181
0 222 181
0 221 181
0 221 181
0 220 180
0 221 181
0 221 181
0 220 181
0 221 181
0 220 181
0 220 180
0 222 181
0 221 181
0 222 181
0 221 181
0 222 181
0 221 181
0 222 181
0 221 181
0 222 181
0 221 181
0 221 181
0 221 181
0 221 181
0 222 181
0 221 181
0 221 181
0 221 181
0 221 181
0 221 181
0 221 181
0 221 181
0 221 181
0 221 181
0 221 181
0 220 180
0 221 181
0 221 181
0 222 181
0 222 181
0 222 181
0 223 181
0 221 181
0 222 181
0 221 181
0 222 181
0 222 181
0 221 181
0 221 181
0 221 181
0 222 181
0 222 181
0 221 181
0 220 181
0 221 181
0 221 181
0 221 181
0 221 181
0 221 181
0 222 180
0 221 181
0 222 181
0 221 181
0 221 181
0 220 180
0 220 180
0 220 180
0 221 181
0 222 181
0 221 181
0 221 181
0 220 180
0 221 181
0 221 181
0 222 181
0 220 180
0 221 181
0 220 180
0 222 181
0 221 180
0 221 181
0 221 181
0 220 181
0 221 181
0 221 181
0 221 181
0 220 180
0 221 181
0 220 180
0 219 178
0 220 180
0 219 178
0 222 181
0 221 180
0 220 180
0 221 180
0 221 181
0 221 180
0 219 180
0 221 181
0 219 179
0 220 180
0 220 180
0 221 181
0 221 180
0 220 181
0 219 180
0 221 180
0 221 180
0 219 179
0 220 180
0 221 181
0 219 178
0 220 180
0 219 177
0 221 180
0 221 181
0 217 177
0 219 178
38 184 179
57 125 181
62 99 181
62 99 181
62 99 181
61 98 181
61 99 181
61 98 181
61 98 181
62 99 181
62 99 181
62 99 178
61 99 181
51 144 179
37 183 178
6 219 179
0 219 179
0 218 176
27 214 174
127 149 92
126 143 87
134 143 92
144 144 96
136 144 93
145 147 98
152 153 102
165 163 108
163 162 108
162 160 107
167 165 110
163 161 108
165 164 110
168 165 109
171 168 111
174 170 113
170 167 110
173 170 112
169 165 108
165 165 108
163 162 106
157 160 103
153 156 100
140 151 93
134 146 89
127 149 88
50 201 161
0 221 181
0 220 179
0 222 181
0 221 181
0 219 180
0 221 180
0 221 181
0 220 180
0 220 179
0 219 179
0 221 179
0 221 180
0 221 180
0 221 180
0 219 179
0 222 180
0 221 181
0 221 181
0 220 180
0 221 181
0 220 180
0 221 180
0 220 181
0 221 181
0 221 180
0 221 180
0 220 180
0 221 179
0 221 180
0 221 181
0 221 180
0 222 181
0 221 181
0 222 181
0 221 181
0 222 181
0 221 180
0 220 180
0 222 181
0 220 181
0 221 181
0 220 181
0 221 181
0 222 181
0 222 181
0 221 181
0 221 181
0 221 180
0 221 180
0 220 181
0 219 178
0 220 180
0 221 181
0 220 179
0 222 181
0 221 181
0 221 181
0 222 181
0 221 181
0 221 181
0 221 181
0 221 181
0 222 181
0 221 181
0 222 181
0 221 181
0 222 181
0 221 181
0 222 181
0 222 181
0 221 181
0 222 181
0 220 181
0 222 181
0 222 181
0 221 181
0 221 181
0 221 181
0 221 181
0 221 181
0 221 181
0 222 181
0 221 181
0 221 181
0 222 181
0 221 181
0 222 181
0 222 181
0 220 181
0 220 181
0 222 181
0 221 181
0 221 181
0 221 181
0 221 181
0 221 181
0 221 181
0 222 181
0 222 181
0 222 181
0 222 181
0 221 181
0 221 181
0 222 181
0 220 181
0 221 181
0 221 181
0 221 181
0 221 181
0 221 181
0 222 181
0 222 181
0 221 181
0 222 181
0 221 181
0 221 181
0 221 181
0 221 180
0 221 181
0 221 181
0 221 181
0 221 181
0 220 181
0 221 181
0 220 181
0 221 181
0 221 181
0 222 181
0 222 181
0 221 181
0 221 181
0 222 181
0 222 181
0 221 181
0 221 181
0 221 181
0 222 181
0 221 181
0 220 181
0 222 181
0 221 181
0 221 181
0 221 181
0 220 181
0 221 181
0 221 181
0 222 181
0 221 181
0 221 181
0 222 181
0 221 181
0 221 181
0 222 181
0 222 181
0 221 181
0 220 181
0 222 181
0 221 181
0 221 181
0 220 181
0 222 181
0 221 181
0 221 181
0 220 181
0 220 181
0 222 181
0 221 181
0 221 181
0 221 181
0 222 181
0 221 181
0 222 181
0 221 181
0 221 181
0 220 181
0 221 181
0 221 181
0 221 181
0 221 181
0 221 181
0 222 181
0 221 181
0 222 181
0 221 181
0 221 181
0 221 181
0 221 181
0 221 181
0 221 181
0 221 181
0 222 181
0 221 181
0 220 181
0 220 181
0 221 181
0 220 181
0 220 181
0 222 181
0 221 181
0 221 181
0 221 181
0 222 181
0 221 181
0 220 181
0 222 181
0 222 181
0 220 181
0 221 181
0 221 181
0 220 181
0 221 181
0 221 181
0 221 181
0 221 181
0 221 181
0 221 181
0 221 181
0 220 181
0 222 181
0 221 181
0 221 181
0 221 181
0 222 181
0 221 181
0 221 181
0 221 181
0 220 181
0 220 181
0 221 181
0 221 181
0 220 181
0 221 181
0 221 181
0 221 181
0 221 181
0 222 181
0 221 181
0 221 181
0 222 181
0 220 181
0 221 181
0 221 181
0 220 181
0 221 181
0 221 181
0 221 181
0 221 181
0 222 181
0 222 181
0 221 181
0 221 181
0 221 181
0 221 181
0 221 181
0 222 181
0 222 181
0 221 180
0 222 180
0 222 181
0 222 181
0 221 181
0 221 181
0 222 181
0 221 181
0 221 181
0 222 181
0 221 181
0 222 181
0 221 181
0 221 181
0 222 181
0 221 181
0 221 181
0 222 181
0 221 181
0 221 181
0 221 181
0 220 181
0 221 181
0 222 181
0 221 181
0 221 181
0 221 181
0 221 181
0 221 181
0 221 181
0 221 181
0 221 181
0 220 181
0 221 181
0 221 181
0 221 181
0 221 181
0 221 181
0 220 181
0 219 179
0 220 181
0 221 181
0 222 181
0 221 181
0 221 180
0 221 181
0 220 181
0 220 180
0 221 181
0 220 180
0 221 181
0 221 180
0 220 180
0 220 180
0 221 181
0 218 178
0 220 180
0 222 181
0 221 181
0 220 180
0 221 181
0 222 181
0 221 181
0 221 181
0 221 180
0 222 181
0 221 180
0 221 181
0 223 181
0 222 181
0 221 180
0 219 179
0 220 180
0 221 180
0 220 180
0 219 179
0 220 181
0 221 180
0 221 181
0 220 179
0 221 180
0 220 180
0 220 180
0 221 180
0 220 179
0 220 179
0 217 177
0 220 179
0 219 179
0 219 178
0 219 179
0 220 179
0 218 178
0 217 176
0 220 180
0 217 178
32 193 178
53 132 177
62 100 180
61 99 180
61 99 181
62 99 181
61 99 181
61 98 181
62 99 181
62 99 181
61 99 181
61 98 181
62 99 181
61 99 181
61 99 179
61 98 178
62 98 176
53 135 176
25 203 177
0 219 178
69 189 149
119 137 83
126 138 85
127 129 85
125 134 88
143 143 95
144 146 99
157 156 104
156 154 103
164 161 108
158 156 105
166 166 111
169 168 111
171 167 111
171 169 112
171 169 112
173 170 112
165 164 109
169 166 109
156 160 104
163 164 106
166 167 108
152 162 102
147 154 97
152 159 99
146 155 96
136 147 90
79 176 130
0 220 179
0 221 179
0 219 178
0 220 178
0 219 177
0 221 179
0 218 177
0 220 178
0 219 179
0 221 181
0 221 180
0 221 181
0 220 180
0 221 181
0 220 181
0 219 179
0 221 181
0 220 180
0 220 181
0 221 180
0 221 181
0 220 181
0 221 180
0 219 180
0 221 181
0 221 181
0 222 180
0 221 180
0 222 181
0 221 180
0 221 181
0 220 180
0 222 181
0 220 180
0 222 181
0 221 181
0 220 181
0 221 181
0 221 181
0 221 181
0 222 181
0 221 181
0 219 180
0 220 180
0 222 181
0 221 181
0 222 181
0 221 181
0 221 180
0 222 181
0 221 181
0 221 181
0 220 181
0 222 181
0 220 181
0 222 181
0 221 181
0 222 181
0 220 181
0 221 181
0 222 181
0 221 180
0 220 181
0 222 181
0 221 181
0 220 181
0 221 181
0 221 181
0 221 181
0 221 181
0 221 181
0 221 181
0 220 180
0 220 181
0 222 181
0 222 181
0 222 181
0 221 181
0 221 181
0 221 181
0 222 181
0 221 181
0 220 181
0 222 181
0 221 181
0 220 181
0 221 181
0 222 181
0 221 181
0 222 181
0 221 181
0 221 181
0 221 181
0 222 181
0 222 181
0 220 180
0 222 181
0 221 181
0 221 181
0 221 181
0 222 181
0 221 181
0 221 181
0 222 181
0 221 181
0 222 181
0 221 181
0 222 181
0 222 181
0 221 181
0 221 181
0 220 181
0 222 181
0 222 181
0 222 181
0 221 181
0 221 181
0 220 181
0 222 181
0 221 181
0 221 181
0 220 181
0 223 181
0 221 181
0 222 181
0 221 181
0 221 181
0 221 181
0 221 181
0 221 181
0 221 181
0 221 181
0 221 181
0 222 181
0 222 181
0 221 181
0 221 181
0 221 181
0 221 181
0 222 181
0 222 181
0 221 181
0 222 181
0 221 181
0 221 181
0 221 181
0 222 181
0 220 181
0 221 181
0 221 181
0 221 181
0 222 181
0 221 181
0 222 181
0 222 181
0 221 181
0 221 181
0 222 181
0 221 181
0 220 181
0 221 181
0 221 181
0 221 181
0 221 181
0 220 181
0 221 181
0 222 181
0 221 181
0 222 181
0 222 181
0 222 181
0 221 181
0 221 181
0 222 181
0 221 181
0 222 181
0 221 181
0 221 181
0 222 181
0 221 181
0 222 181
0 221 181
0 220 181
0 220 181
0 222 181
0 221 181
0 222 181
0 221 181
0 222 181
0 221 181
0 222 181
0 221 181
0 221 181
0 220 181
0 221 181
0 222 181
0 221 181
0 221 181
0 222 181
0 222 181
0 222 181
0 220 181
0 221 181
0 222 181
0 222 181
0 221 181
0 222 181
0 221 181
0 222 181
0 221 181
0 221 181
0 222 181
0 222 181
0 221 181
0 221 181
0 221 181
0 222 181
0 221 181
0 221 181
0 221 181
0 222 181
0 221 181
0 221 181
0 222 181
0 220 181
0 222 181
0 220 180
0 221 181
0 222 181
0 221 181
0 222 181
0 221 181
0 221 181
0 221 181
0 221 181
0 221 181
0 221 181
0 221 181
0 221 181
0 221 181
0 221 181
0 221 181
0 221 181
0 222 181
0 222 181
0 221 181
0 220 181
0 222 181
0 221 181
0 222 181
0 221 181
0 221 181
0 222 181
0 221 181
0 221 181
0 221 181
0 222 181
0 222 181
0 222 181
0 222 181
0 222 181
0 220 181
0 221 181
0 221 181
0 220 181
0 221 181
0 221 181
0 221 181
0 220 180
0 221 181
0 221 181
0 221 181
0 221 181
0 221 181
0 221 181
0 221 180
0 221 181
0 221 181
0 221 181
0 221 181
0 220 179
0 220 180
0 221 181
0 221 181
0 221 181
0 221 181
0 221 180
0 220 181
0 222 181
0 222 181
0 222 181
0 221 181
0 221 180
0 221 180
0 222 181
0 221 181
0 220 181
0 221 181
0 220 179
0 220 180
0 219 179
0 220 180
0 222 181
0 221 181
0 222 181
0 222 181
0 221 181
0 222 181
0 222 181
0 219 179
0 221 181
0 221 181
0 220 179
0 221 180
0 221 181
0 221 181
0 220 180
0 220 180
0 221 181
0 221 181
0 222 181
0 222 180
0 219 179
0 221 180
0 220 180
0 221 181
0 219 179
0 219 177
0 221 181
0 221 179
0 221 180
0 218 179
0 219 178
0 219 179
0 222 180
0 221 181
0 217 178
0 219 178
0 221 179
0 221 181
0 220 178
0 220 180
0 218 178
0 218 179
0 220 181
0 217 178
0 218 179
0 217 178
0 221 181
0 221 180
0 219 179
41 177 178
61 101 180
61 99 180
62 99 180
62 99 181
62 99 181
62 99 180
61 99 181
61 99 181
61 99 181
61 98 181
62 99 181
62 99 180
61 99 181
62 99 181
62 99 179
61 99 180
61 99 178
61 98 176
59 108 174
40 177 177
104 162 107
116 138 84
133 139 88
126 130 86
134 139 93
130 134 92
142 143 96
144 143 98
156 155 105
162 160 108
161 160 108
164 162 108
170 167 111
169 168 111
173 171 113
170 170 111
171 170 111
169 167 110
170 169 110
162 168 108
169 170 110
154 159 101
155 163 103
154 164 102
142 153 95
137 148 91
125 150 89
98 146 98
0 221 180
0 219 180
0 220 180
0 220 179
0 219 179
0 220 180
0 219 178
0 218 177
0 220 181
0 218 179
0 221 180
0 221 179
0 220 179
0 221 181
0 220 180
0 221 179
0 219 179
0 220 179
0 220 180
0 220 181
0 220 180
0 219 179
0 219 180
0 221 181
0 220 179
0 221 181
0 220 179
0 220 180
0 221 181
0 222 181
0 221 181
0 220 180
0 222 181
0 220 180
0 221 181
0 221 180
0 220 181
0 222 181
0 222 181
0 221 181
0 221 180
0 221 180
0 221 181
0 222 181
0 220 180
0 221 181
0 221 181
0 220 180
0 222 181
0 222 181
0 221 181
0 220 181
0 221 181
0 221 181
0 221 181
0 222 181
0 220 180
0 221 181
0 222 181
0 221 181
0 221 181
0 221 181
0 221 181
0 221 181
0 221 181
0 222 181
0 221 181
0 221 181
0 221 181
0 222 181
0 221 181
0 221 181
0 222 181
0 222 181
0 221 181
0 221 181
0 221 181
0 222 181
0 221 180
0 221 181
0 221 181
0 221 181
0 221 181
0 221 181
0 221 181
0 222 181
0 221 181
0 221 181
0 222 180
0 222 181
0 221 181
0 221 181
0 221 181
0 220 181
0 221 181
0 221 181
0 221 181
0 221 181
0 221 181
0 222 180
0 221 181
0 221 181
0 221 181
0 221 181
0 220 181
0 221 181
0 221 181
0 222 181
0 221 181
0 222 181
0 221 181
0 221 181
0 220 181
0 220 181
0 221 181
0 221 181
0 221 181
0 221 181
0 222 181
0 221 181
0 221 181
0 221 181
0 221 181
0 221 181
0 220 181
0 221 181
0 221 181
0 221 181
0 222 181
0 222 181
0 222 181
0 220 181
0 221 181
0 221 181
0 221 181
0 222 181
0 221 181
0 221 181
0 221 181
0 221 181
0 222 181
0 221 181
0 221 181
0 220 181
0 221 181
0 221 181
0 221 181
0 222 181
0 221 181
0 221 181
0 221 181
0 222 181
0 221 181
0 220 181
0 220 181
0 222 181
0 220 181
0 221 181
0 221 181
0 221 181
0 222 181
0 222 181
0 221 181
0 221 181
0 222 181
0 221 181
0 221 181
0 221 181
0 221 181
0 222 181
0 221 181
0 222 181
0 222 181
0 221 181
0 221 181
0 221 181
0 221 181
0 221 181
0 221 181
0 222 181
0 222 181
0 221 181
0 221 181
0 220 181
0 221 181
0 221 181
0 221 181
0 222 181
0 222 181
0 221 181
0 222 181
0 222 181
0 222 181
0 222 181
0 222 181
0 222 181
0 220 181
0 220 181
0 221 181
0 221 181
0 222 181
0 221 181
0 222 181
0 221 181
0 220 181
0 222 181
0 221 181
0 221 181
0 221 181
0 221 181
0 221 181
0 221 181
0 221 181
0 221 181
0 221 181
0 221 181
0 221 181
0 221 181
0 221 181
0 221 181
0 220 181
0 222 181
0 222 181
0 221 181
0 221 181
0 221 181
0 222 181
0 222 181
0 221 181
0 221 181
0 221 181
0 222 181
0 221 181
0 222 181
0 221 181
0 221 181
0 221 181
0 222 181
0 221 181
0 221 181
0 221 181
0 222 181
0 221 181
0 221 181
0 221 181
0 221 181
0 222 181
0 221 181
0 221 181
0 221 181
0 221 181
0 221 181
0 221 181
0 220 181
0 221 181
0 222 181
0 221 181
0 222 181
0 221 181
0 222 181
0 223 181
0 221 181
0 221 181
0 222 181
0 221 181
0 222 181
0 221 181
0 221 181
0 221 181
0 220 181
0 222 181
0 222 181
0 221 181
0 221 181
0 221 181
0 221 181
0 221 181
0 222 181
0 221 181
0 221 181
0 221 181
0 220 180
0 221 181
0 221 181
0 221 181
0 221 181
0 221 181
0 222 181
0 221 180
0 220 179
0 221 181
0 220 179
0 221 181
0 219 179
0 222 181
0 220 180
0 221 181
0 219 180
0 221 181
0 220 179
0 221 180
0 222 180
0 222 181
0 221 181
0 221 181
0 220 181
0 221 181
0 221 180
0 221 181
0 222 181
0 221 181
0 220 180
0 221 180
0 221 181
0 221 181
0 221 181
0 221 180
0 221 181
0 222 181
0 221 181
0 220 180
0 220 180
0 220 180
0 221 179
0 220 180
0 220 179
0 221 180
0 220 180
0 220 180
0 221 181
0 219 179
0 222 181
0 221 181
0 220 181
0 220 179
0 220 178
0 218 178
0 221 181
0 221 181
0 217 178
0 220 179
0 219 179
0 220 179
0 220 180
0 219 179
0 219 179
0 220 179
0 218 178
0 221 181
0 217 177
43 170 178
61 100 178
61 99 179
62 99 181
62 99 180
62 99 181
61 99 180
61 99 181
62 99 181
61 99 180
62 99 181
62 99 181
62 99 181
61 99 181
61 99 180
61 99 180
61 99 179
62 99 180
61 99 178
61 98 177
61 99 178
60 97 169
86 120 127
115 132 81
116 127 81
128 132 89
126 131 91
127 129 90
136 138 93
142 143 99
145 147 99
155 156 104
153 158 105
155 158 106
164 165 109
168 166 111
171 170 112
171 171 111
168 171 110
168 171 110
166 171 110
165 170 109
161 167 107
160 165 105
153 163 102
142 158 97
142 157 95
138 152 93
141 154 94
107 131 78
32 211 171
0 217 175
0 220 179
0 220 179
0 221 180
0 220 179
0 219 179
0 221 181
0 221 178
0 218 177
0 221 180
0 221 181
0 220 179
0 220 180
0 218 178
0 219 178
0 221 181
0 219 179
0 222 181
0 222 181
0 220 180
0 221 180
0 221 180
0 219 178
0 221 180
0 220 180
0 221 181
0 220 179
0 221 181
0 222 181
0 219 180
0 221 180
0 219 178
0 221 181
0 220 180
0 221 180
0 221 181
0 222 181
0 221 180
0 220 180
0 221 181
0 221 181
0 221 181
0 222 181
0 219 180
0 222 181
0 221 181
0 220 179
0 221 180
0 221 181
0 221 181
0 222 181
0 221 181
0 221 181
0 220 181
0 221 181
0 221 181
0 221 181
0 221 181
0 221 181
0 223 181
0 221 181
0 221 180
0 221 181
0 222 181
0 222 181
0 222 181
0 221 181
0 221 181
0 221 181
0 221 181
0 220 180
0 221 181
0 222 181
0 221 181
0 221 181
0 222 181
0 221 181
0 222 181
0 220 181
0 221 181
0 221 181
0 221 181
0 222 181
0 221 181
0 222 181
0 222 181
0 221 181
0 221 181
0 221 181
0 221 181
0 222 181
0 222 181
0 221 181
0 221 181
0 221 181
0 222 181
0 222 181
0 221 181
0 221 181
0 222 181
0 221 181
0 221 181
0 221 181
0 221 181
0 221 181
0 219 181
0 221 181
0 221 181
0 222 181
0 222 181
0 220 181
0 221 181
0 221 181
0 222 181
0 221 181
0 221 181
0 222 180
0 222 181
0 220 181
0 222 181
0 221 181
0 221 181
0 222 181
0 222 181
0 221 181
0 221 181
0 222 181
0 222 181
0 222 181
0 222 181
0 221 181
0 221 181
0 222 181
0 221 181
0 221 181
0 221 181
0 222 181
0 220 181
0 222 181
0 222 181
0 221 181
0 221 181
0 221 181
0 221 181
0 221 181
0 222 181
0 222 181
0 221 181
0 221 181
0 220 181
0 222 181
0 222 181
0 221 181
0 221 181
0 222 181
0 221 181
0 223 181
0 221 181
0 221 181
0 221 181
0 222 181
0 222 181
0 221 181
0 221 181
0 222 181
0 221 181
0 222 181
0 222 181
0 221 181
0 222 181
0 221 181
0 222 181
0 221 181
0 221 181
0 220 181
0 220 181
0 222 181
0 222 181
0 222 181
0 221 181
0 223 181
0 221 181
0 221 181
0 222 181
0 221 181
0 221 181
0 221 181
0 221 181
0 221 181
0 221 181
0 221 181
0 222 181
0 221 181
0 221 181
0 221 181
0 222 181
0 221 181
0 220 181
0 221 181
0 222 181
0 222 181
0 222 181
0 221 181
0 222 181
0 222 181
0 222 181
0 221 181
0 221 181
0 221 181
0 220 181
0 221 181
0 221 181
0 220 181
0 221 181
0 221 181
0 221 181
0 221 181
0 222 181
0 220 181
0 221 181
0 222 181
0 221 181
0 221 181
0 221 181
0 222 181
0 221 181
0 221 181
0 221 181
0 221 181
0 222 181
0 221 181
0 221 181
0 221 181
0 221 181
0 222 181
0 220 181
0 221 181
0 222 181
0 222 181
0 221 181
0 221 181
0 222 181
0 221 181
0 221 181
0 221 181
0 221 181
0 221 181
0 221 181
0 221 181
0 221 181
0 222 181
0 222 181
0 222 181
0 222 181
0 222 181
0 222 181
0 220 181
0 221 181
0 221 181
0 221 181
0 221 181
0 222 181
0 221 181
0 221 181
0 221 181
0 222 181
0 221 181
0 222 181
0 220 181
0 221 181
0 220 181
0 222 181
0 221 181
0 219 179
0 221 181
0 221 180
0 221 179
0 222 181
0 222 181
0 221 181
0 222 181
0 219 180
0 219 180
0 220 180
0 221 181
0 220 180
0 221 181
0 221 181
0 222 181
0 221 180
0 222 181
0 221 181
0 222 181
0 221 180
0 219 179
0 222 181
0 221 181
0 222 181
0 221 181
0 220 181
0 220 180
0 221 181
0 222 181
0 221 181
0 221 181
0 221 181
0 221 181
0 220 180
0 221 181
0 221 180
0 221 181
0 221 181
0 222 181
0 221 180
0 218 180
0 220 179
0 220 180
0 218 179
0 220 180
0 219 180
0 220 180
0 221 180
0 219 179
0 219 179
0 219 179
0 220 179
0 219 178
0 219 180
0 217 177
0 222 181
0 220 180
0 219 179
0 220 179
0 220 180
0 220 178
0 219 179
0 220 180
0 219 178
0 221 181
0 216 176
0 219 179
0 220 179
0 217 178
0 219 179
0 221 181
0 217 177
0 220 180
0 218 178
47 153 177
62 100 179
60 99 179
62 100 180
62 99 181
61 99 180
62 100 180
62 99 181
61 99 180
61 99 181
62 99 181
61 99 181
61 99 180
62 99 181
61 99 180
62 99 181
61 99 180
60 99 177
61 99 179
61 99 179
61 99 179
61 98 177
61 98 176
60 96 170
79 104 112
110 121 79
96 110 75
113 119 82
123 124 87
131 135 92
129 133 92
136 142 96
159 159 106
151 155 103
153 160 105
156 161 106
173 171 112
160 171 108
167 169 110
158 167 106
168 171 108
169 171 109
168 168 108
159 165 105
160 166 105
163 168 106
149 163 101
140 157 96
136 156 93
136 155 93
104 136 78
38 205 162
0 219 178
0 219 178
0 218 177
0 218 177
0 219 177
0 218 176
0 220 179
0 218 177
0 221 181
0 220 179
0 219 178
0 220 181
0 220 180
0 220 179
0 219 180
0 221 179
0 219 178
0 220 179
0 221 180
0 222 180
0 221 180
0 220 180
0 222 181
0 219 178
0 219 180
0 222 181
0 221 181
0 220 179
0 221 180
0 220 180
0 221 180
0 221 179
0 222 181
0 221 181
0 222 181
0 221 181
0 221 181
0 220 180
0 221 181
0 221 181
0 222 181
0 221 181
0 221 181
0 221 181
0 222 181
0 220 181
0 222 181
0 221 181
0 220 180
0 221 180
0 220 181
0 221 181
0 222 181
0 221 181
0 221 181
0 222 181
0 220 180
0 221 180
0 221 181
0 221 180
0 222 181
0 221 181
0 221 181
0 221 181
0 221 181
0 219 179
0 221 181
0 222 181
0 221 181
0 222 181
0 222 181
0 220 180
0 221 181
0 222 181
0 221 181
0 221 180
0 221 181
0 222 181
0 221 181
0 222 181
0 221 181
0 221 181
0 222 181
0 221 181
0 221 181
0 219 180
0 222 181
0 221 181
0 221 181
0 221 181
0 221 181
0 220 181
0 221 181
0 220 181
0 222 181
0 221 181
0 221 181
0 221 181
0 222 181
0 222 181
0 221 181
0 222 181
0 221 181
0 222 181
0 221 181
0 222 181
0 221 181
0 222 181
0 222 181
0 221 181
0 221 181
0 221 181
0 221 181
0 221 181
0 221 181
0 222 181
0 221 181
0 221 181
0 221 181
0 221 181
0 221 181
0 221 181
0 221 181
0 220 181
0 221 181
0 221 181
0 221 181
0 221 181
0 221 181
0 221 181
0 221 181
0 222 181
0 221 181
0 222 181
0 222 181
0 222 181
0 222 181
0 221 181
0 222 181
0 221 181
0 222 181
0 221 181
0 219 180
0 222 181
0 221 181
0 221 181
0 221 181
0 221 181
0 221 181
0 221 181
0 223 181
0 221 181
0 221 181
0 222 181
0 220 181
0 221 181
0 222 181
0 220 181
0 221 181
0 222 181
0 222 181
0 222 181
0 221 181
0 222 181
0 221 181
0 221 181
0 221 181
0 222 181
0 222 181
0 221 181
0 221 181
0 222 181
0 221 181
0 221 181
0 221 181
0 221 181
0 221 181
0 222 181
0 221 181
0 221 181
0 221 181
0 221 181
0 221 181
0 222 181
0 222 181
0 220 181
0 223 181
0 221 181
0 221 181
0 221 181
0 222 181
0 222 181
0 222 181
0 221 181
0 221 181
0 221 181
0 222 181
0 221 181
0 221 181
0 222 181
0 222 181
0 221 181
0 221 181
0 220 181
0 222 181
0 221 181
0 221 181
0 221 181
0 222 181
0 222 181
0 222 181
0 220 181
0 221 181
0 221 181
0 220 181
0 221 181
0 221 181
0 221 181
0 220 181
0 220 181
0 220 181
0 221 180
0 221 181
0 222 181
0 221 181
0 221 181
0 221 181
0 221 181
0 221 181
0 221 181
0 221 181
0 221 181
0 221 181
0 222 181
0 221 181
0 222 181
0 222 181
0 222 181
0 221 180
0 221 181
0 221 181
0 220 181
0 221 181
0 221 181
0 221 181
0 222 181
0 221 181
0 221 181
0 221 181
0 222 181
0 221 180
0 221 181
0 220 180
0 221 181
0 221 181
0 221 181
0 222 181
0 221 181
0 222 181
0 221 181
0 222 181
0 222 181
0 223 181
0 221 181
0 221 181
0 221 181
0 220 180
0 221 181
0 220 181
0 221 181
0 221 181
0 221 181
0 219 179
0 221 181
0 222 181
0 221 181
0 221 181
0 221 181
0 221 181
0 221 181
0 221 181
0 221 181
0 221 180
0 222 181
0 222 181
0 221 181
0 222 181
0 219 180
0 220 180
0 221 181
0 222 181
0 220 180
0 219 180
0 221 181
0 222 181
0 220 180
0 221 179
0 219 180
0 219 179
0 221 181
0 221 181
0 220 181
0 221 181
0 220 180
0 221 181
0 220 181
0 220 180
0 219 180
0 219 180
0 220 180
0 220 180
0 222 181
0 220 180
0 221 181
0 222 181
0 221 181
0 220 179
0 221 181
0 221 181
0 221 180
0 222 181
0 220 179
0 220 180
0 217 179
0 221 181
0 219 179
0 219 180
0 220 179
0 218 179
0 220 180
0 218 178
0 218 178
0 218 179
0 221 179
0 218 179
0 219 178
0 220 179
0 218 178
0 221 180
0 216 177
0 216 176
0 219 178
0 217 178
0 221 180
0 219 178
0 217 178
0 219 179
34 180 174
61 100 177
61 99 178
62 99 180
61 100 179
61 99 180
60 99 178
62 99 180
62 99 180
62 99 180
61 99 180
62 99 181
62 99 180
61 99 179
62 99 181
61 99 179
62 99 180
61 100 178
60 99 177
61 99 179
60 99 178
60 99 178
61 99 177
60 99 176
59 99 173
58 97 168
83 99 97
105 110 77
107 111 77
112 113 80
121 125 88
129 130 91
128 132 93
143 152 100
143 151 100
143 152 99
164 170 109
165 169 110
162 171 108
161 167 107
165 172 108
169 171 110
163 172 107
161 171 106
159 171 107
155 167 103
143 163 98
136 163 97
148 157 97
121 155 88
122 147 86
92 128 72
57 199 155
0 217 176
0 220 178
0 219 177
0 220 179
0 218 177
0 220 178
0 216 173
0 222 180
0 220 179
0 217 177
0 218 177
0 220 179
0 220 179
0 218 177
0 220 181
0 221 180
0 219 178
0 222 181
0 221 180
0 221 181
0 221 180
0 220 179
0 222 181
0 221 181
0 222 181
0 220 179
0 221 181
0 221 181
0 221 181
0 222 181
0 221 181
0 221 180
0 220 180
0 220 180
0 221 180
0 220 181
0 221 181
0 221 181
0 221 181
0 221 181
0 222 180
0 221 181
0 222 181
0 222 180
0 220 181
0 221 180
0 221 181
0 222 181
0 222 181
0 221 181
0 221 181
0 222 181
0 220 181
0 221 181
0 221 181
0 221 181
0 222 181
0 220 181
0 221 180
0 221 180
0 222 181
0 221 180
0 221 180
0 222 181
0 221 180
0 222 181
0 221 181
0 222 181
0 221 181
0 222 181
0 220 180
0 221 181
0 221 181
0 220 181
0 221 181
0 222 181
0 223 181
0 222 181
0 221 181
0 222 181
0 221 181
0 220 181
0 221 181
0 221 180
0 221 180
0 222 181
0 221 181
0 220 181
0 221 181
0 222 181
0 222 181
0 221 181
0 221 181
0 222 181
0 221 181
0 221 181
0 221 181
0 221 181
0 221 181
0 221 181
0 222 181
0 222 181
0 222 181
0 221 181
0 222 181
0 221 181
0 221 181
0 221 181
0 222 181
0 221 181
0 223 181
0 222 181
0 222 181
0 221 181
0 221 181
0 220 181
0 222 181
0 222 181
0 222 181
0 221 181
0 221 181
0 222 181
0 220 181
0 220 181
0 221 181
0 221 181
0 221 181
0 222 181
0 221 181
0 221 181
0 221 181
0 222 181
0 221 181
0 220 181
0 222 181
0 221 181
0 221 181
0 221 181
0 221 181
0 221 181
0 221 181
0 220 181
0 221 181
0 221 181
0 222 181
0 220 181
0 221 181
0 221 181
0 221 181
0 222 181
0 222 181
0 223 181
0 221 181
0 222 181
0 223 181
0 222 181
0 222 181
0 221 181
0 222 181
0 222 181
0 222 181
0 221 181
0 221 181
0 221 181
0 222 181
0 221 181
0 221 181
0 221 181
0 222 181
0 221 181
0 221 181
0 221 181
0 221 181
0 221 181
0 220 181
0 221 181
0 222 181
0 222 181
0 222 181
0 221 181
0 221 181
0 221 181
0 221 181
0 222 181
0 221 181
0 221 181
0 222 181
0 221 181
0 221 181
0 221 181
0 222 181
0 222 181
0 222 181
0 221 181
0 221 181
0 221 181
0 222 181
0 221 181
0 221 181
0 220 181
0 221 181
0 222 181
0 222 181
0 221 181
0 221 181
0 221 181
0 221 181
0 220 181
0 221 181
0 221 181
0 222 181
0 221 181
0 221 181
0 221 181
0 222 181
0 222 181
0 220 181
0 220 180
0 221 181
0 221 180
0 222 181
0 221 181
0 222 181
0 220 181
0 220 181
0 221 181
0 222 181
0 221 181
0 221 181
0 222 181
0 221 181
0 222 181
0 221 181
0 221 181
0 221 181
0 221 181
0 221 181
0 221 180
0 221 181
0 221 181
0 221 181
0 221 181
0 221 181
0 222 181
0 220 180
0 221 181
0 222 181
0 221 181
0 222 181
0 221 180
0 221 181
0 221 181
0 221 181
0 221 181
0 222 181
0 222 181
0 220 180
0 221 181
0 222 181
0 222 181
0 221 181
0 220 180
0 221 181
0 221 181
0 222 181
0 221 181
0 221 181
0 220 181
0 222 181
0 219 179
0 222 181
0 220 180
0 221 181
0 222 181
0 220 179
0 221 181
0 220 181
0 221 181
0 220 180
0 221 181
0 221 181
0 222 181
0 220 181
0 221 181
0 221 181
0 221 181
0 221 180
0 221 181
0 221 181
0 221 180
0 221 181
0 221 181
0 221 181
0 222 181
0 218 178
0 221 181
0 221 181
0 220 180
0 221 181
0 220 180
0 222 179
0 221 181
0 220 180
0 221 180
0 221 181
0 220 180
0 221 180
0 222 181
0 221 181
0 219 178
0 221 181
0 220 180
0 221 181
0 221 180
0 222 181
0 219 180
0 218 178
0 221 180
0 217 177
0 221 181
0 221 180
0 219 178
0 220 180
0 220 180
0 219 180
0 219 178
0 221 179
0 219 179
0 222 181
0 219 179
0 219 179
0 220 179
0 221 180
0 219 179
0 218 180
0 216 176
0 220 180
0 220 179
0 219 178
0 217 176
0 219 179
0 220 180
0 218 178
0 216 176
0 213 176
0 213 175
18 209 177
56 112 175
60 99 177
60 99 176
61 100 177
61 99 179
61 99 178
61 99 180
61 99 179
61 99 180
62 99 180
61 99 180
62 99 180
61 100 178
61 99 179
61 99 180
62 100 180
61 99 180
61 99 179
60 99 177
62 99 180
61 99 179
61 99 179
61 100 177
57 97 171
59 99 176
57 96 168
62 94 159
81 92 69
94 98 71
97 104 74
94 101 75
129 134 92
128 135 93
138 145 96
138 151 99
153 157 102
144 156 100
154 167 105
153 167 104
156 170 105
153 171 105
153 170 105
160 167 105
149 167 102
153 163 101
155 165 102
152 163 100
139 161 96
127 155 91
134 160 94
111 149 84
114 143 81
42 203 161
0 216 174
0 217 177
0 218 176
0 217 176
0 219 178
0 220 178
0 220 177
0 221 180
0 219 178
0 219 178
0 220 179
0 219 179
0 220 181
0 220 178
0 220 180
0 220 178
0 220 180
0 220 178
0 221 181
0 221 181
0 222 181
0 221 181
0 221 181
0 220 180
0 221 180
0 222 180
0 220 180
0 221 179
0 219 180
0 220 180
0 221 180
0 221 181
0 220 180
0 221 181
0 220 181
0 221 181
0 222 180
0 222 181
0 219 180
0 221 181
0 221 181
0 220 180
0 221 181
0 221 181
0 220 181
0 220 181
0 221 179
0 221 181
0 221 181
0 221 181
0 220 180
0 219 179
0 221 181
0 221 181
0 221 181
0 221 181
0 221 181
0 220 180
0 221 181
0 221 181
0 220 179
0 222 181
0 221 181
0 222 181
0 222 181
0 221 180
0 221 181
0 220 181
0 222 181
0 222 181
0 221 181
0 221 181
0 221 181
0 222 181
0 221 181
0 221 181
0 221 180
0 221 181
0 222 181
0 222 181
0 222 181
0 221 181
0 222 181
0 221 181
0 221 181
0 221 181
0 222 181
0 221 181
0 221 181
0 221 181
0 221 181
0 222 181
0 222 181
0 221 181
0 223 181
0 222 181
0 221 181
0 222 181
0 221 181
0 221 181
0 222 181
0 221 181
0 222 181
0 221 181
0 221 181
0 220 181
0 221 181
0 222 181
0 221 181
0 221 181
0 221 181
0 222 181
0 221 181
0 221 180
0 221 181
0 220 181
0 221 181
0 221 181
0 221 181
0 221 181
0 221 181
0 222 181
0 221 181
0 220 181
0 221 181
0 221 181
0 221 181
0 221 181
0 220 181
0 221 181
0 222 181
0 220 181
0 221 181
0 222 181
0 222 181
0 222 181
0 221 181
0 221 181
0 222 181
0 221 181
0 221 181
0 221 181
0 221 181
0 222 181
0 222 181
0 222 181
0 221 181
0 221 181
0 222 181
0 220 181
0 221 181
0 220 181
0 221 181
0 222 181
0 221 181
0 221 181
0 222 181
0 221 181
0 221 181
0 222 181
0 221 181
0 221 181
0 222 181
0 221 181
0 221 181
0 221 181
0 221 181
0 222 181
0 221 181
0 222 181
0 222 181
0 222 181
0 222 181
0 221 181
0 221 181
0 221 181
0 221 181
0 222 181
0 221 181
0 220 181
0 221 181
0 221 181
0 221 181
0 221 181
0 221 181
0 221 181
0 221 181
0 222 181
0 221 181
0 222 181
0 221 181
0 221 181
0 222 181
0 221 181
0 222 181
0 221 181
0 222 181
0 221 181
0 221 181
0 222 181
0 221 181
0 221 181
0 221 181
0 221 181
0 221 181
0 221 181
0 220 181
0 222 181
0 222 181
0 221 181
0 222 181
0 222 181
0 221 181
0 221 181
0 222 181
0 221 181
0 220 180
0 221 181
0 220 181
0 221 181
0 221 181
0 221 181
0 221 181
0 220 181
0 221 181
0 221 181
0 222 181
0 221 181
0 221 181
0 221 181
0 221 181
0 221 181
0 221 181
0 222 181
0 221 181
0 221 181
0 220 181
0 222 181
0 221 181
0 220 181
0 221 181
0 222 181
0 221 181
0 221 181
0 222 181
0 221 181
0 220 181
0 221 181
0 221 181
0 221 181
0 221 181
0 220 181
0 220 181
0 221 181
0 221 181
0 221 181
0 221 180
0 220 181
0 221 181
0 221 181
0 222 181
0 221 181
0 221 181
0 222 181
0 221 181
0 222 181
0 221 181
0 220 181
0 221 181
0 221 181
0 221 181
0 221 181
0 221 181
0 221 181
0 219 179
0 221 181
0 221 181
0 221 181
0 221 181
0 221 181
0 220 180
0 220 179
0 222 181
0 221 181
0 221 179
0 221 181
0 219 180
0 221 181
0 221 181
0 221 181
0 221 180
0 220 180
0 222 181
0 220 181
0 219 179
0 221 181
0 221 181
0 221 180
0 221 181
0 221 181
0 219 179
0 220 180
0 221 181
0 221 181
0 220 180
0 221 181
0 220 179
0 220 180
0 218 178
0 221 181
0 217 179
0 221 180
0 219 179
0 221 181
0 220 180
0 221 180
0 221 181
0 221 181
0 220 180
0 220 179
0 219 180
0 220 180
0 221 181
0 222 181
0 220 180
0 221 180
0 220 179
0 218 178
0 220 180
0 218 179
0 218 179
0 218 178
0 221 179
0 220 180
0 219 176
0 216 178
0 217 177
0 219 179
0 217 178
0 217 176
0 219 179
0 219 179
0 217 177
0 218 177
0 217 177
0 221 180
45 159 176
58 100 172
59 99 175
60 99 178
61 100 177
62 100 179
61 99 178
61 99 179
61 100 179
62 99 180
61 99 179
62 99 180
62 99 180
60 99 178
62 100 179
62 99 181
60 99 178
63 100 180
62 99 180
61 99 179
62 100 179
61 99 178
61 99 177
62 100 179
60 100 175
60 99 177
58 98 170
59 97 170
62 82 110
73 79 58
79 88 63
105 114 79
113 120 82
119 133 87
121 138 91
141 153 99
136 158 98
139 163 101
155 165 105
155 167 104
167 172 110
159 170 106
154 173 105
153 169 104
149 171 103
147 167 100
147 168 100
141 167 99
132 159 93
128 157 91
121 158 90
111 147 83
94 136 74
0 207 167
0 218 177
0 219 178
0 218 176
0 218 177
0 217 175
0 216 177
0 220 178
0 218 177
0 220 179
0 221 179
0 219 178
0 219 177
0 219 178
0 218 177
0 221 178
0 220 180
0 220 180
0 221 181
0 219 180
0 219 178
0 221 181
0 219 178
0 221 180
0 219 178
0 221 181
0 220 179
0 220 179
0 221 181
0 220 180
0 221 180
0 221 180
0 220 180
0 221 181
0 220 180
0 221 180
0 222 181
0 220 179
0 219 179
0 221 181
0 221 181
0 221 181
0 221 181
0 222 181
0 219 180
0 221 180
0 221 181
0 222 181
0 222 181
0 220 180
0 221 181
0 221 181
0 220 180
0 220 180
0 220 181
0 222 181
0 221 181
0 222 181
0 220 181
0 221 181
0 222 181
0 221 181
0 222 181
0 221 181
0 221 181
0 222 181
0 221 181
0 220 181
0 221 181
0 220 181
0 221 181
0 222 181
0 221 181
0 221 181
0 221 181
0 220 181
0 220 181
0 221 180
0 221 181
0 221 181
0 221 181
0 221 181
0 220 181
0 221 181
0 221 181
0 221 181
0 221 181
0 221 181
0 221 181
0 222 181
0 221 181
0 221 181
0 221 181
0 221 181
0 220 181
0 221 181
0 221 181
0 221 180
0 221 181
0 221 181
0 222 181
0 221 181
0 220 181
0 222 181
0 222 181
0 221 181
0 221 181
0 222 181
0 222 181
0 221 181
0 221 181
0 221 181
0 222 181
0 221 181
0 222 181
0 222 181
0 221 181
0 221 181
0 222 181
0 221 181
0 221 181
0 220 181
0 221 181
0 221 181
0 221 181
0 221 181
0 221 181
0 222 181
0 222 181
0 221 181
0 221 181
0 221 181
0 221 181
0 221 181
0 221 181
0 221 181
0 220 181
0 222 181
0 222 181
0 221 181
0 221 181
0 222 181
0 220 181
0 221 181
0 222 181
0 221 181
0 222 181
0 220 181
0 222 181
0 222 181
0 221 181
0 222 181
0 222 181
0 221 181
0 222 181
0 221 181
0 220 181
0 221 181
0 222 181
0 221 181
0 221 181
0 222 181
0 222 181
0 221 181
0 221 181
0 221 181
0 222 181
0 220 181
0 221 181
0 222 181
0 221 181
0 221 181
0 221 181
0 221 181
0 221 181
0 221 181
0 221 181
0 221 181
0 220 181
0 221 181
0 222 181
0 221 181
0 221 181
0 221 181
0 221 181
0 221 181
0 221 181
0 221 181
0 221 181
0 222 181
0 221 181
0 222 181
0 221 181
0 221 181
0 221 181
0 221 181
0 220 181
0 222 181
0 222 181
0 223 181
0 221 181
0 221 181
0 221 181
0 221 181
0 222 181
0 221 181
0 222 181
0 221 181
0 221 181
0 221 181
0 222 181
0 222 181
0 221 181
0 221 181
0 221 181
0 221 181
0 221 181
0 221 181
0 222 181
0 221 181
0 222 181
0 222 181
0 221 181
0 221 181
0 222 181
0 221 181
0 221 181
0 221 181
0 221 181
0 221 180
0 221 181
0 222 181
0 221 181
0 222 181
0 220 181
0 220 181
0 222 181
0 222 181
0 222 181
0 221 181
0 222 181
0 222 181
0 222 181
0 220 180
0 222 181
0 221 181
0 222 181
0 222 181
0 222 181
0 221 181
0 221 181
0 221 181
0 221 181
0 222 181
0 222 181
0 221 181
0 222 180
0 222 181
0 222 181
0 220 181
0 221 181
0 221 181
0 221 181
0 220 180
0 221 181
0 221 181
0 221 181
0 222 181
0 221 181
0 220 180
0 222 181
0 221 181
0 221 181
0 221 181
0 222 181
0 220 181
0 221 181
0 221 181
0 221 181
0 221 180
0 222 181
0 220 180
0 218 179
0 221 180
0 222 181
0 220 180
0 222 181
0 222 181
0 220 180
0 219 180
0 218 178
0 222 180
0 221 181
0 221 181
0 221 181
0 221 180
0 221 181
0 221 181
0 220 181
0 220 180
0 221 180
0 221 181
0 219 179
0 219 180
0 221 181
0 220 180
0 221 181
0 221 180
0 220 181
0 220 180
0 222 181
0 221 181
0 220 180
0 220 181
0 221 180
0 218 178
0 220 179
0 221 180
0 220 180
0 219 179
0 218 179
0 219 179
0 219 178
0 219 180
0 220 179
0 220 179
0 219 179
0 220 179
0 215 177
0 220 179
0 218 177
0 220 179
0 219 179
0 220 180
0 220 180
0 220 180
0 218 179
0 218 178
0 216 177
0 219 179
0 220 179
0 219 178
0 216 177
0 219 179
0 218 178
0 219 179
17 210 178
57 102 172
59 100 175
59 99 175
59 99 176
61 99 178
61 99 179
60 100 176
62 100 179
61 99 180
61 99 179
62 99 180
62 100 180
61 100 178
62 100 179
61 100 178
62 100 179
61 99 178
60 99 177
61 100 179
60 100 176
61 100 177
61 100 177
60 100 176
59 100 175
60 99 176
60 100 175
58 98 169
58 97 169
56 95 161
62 72 64
74 79 59
69 89 61
90 106 75
120 134 89
104 125 84
117 148 91
132 155 97
127 155 94
144 161 100
151 165 103
146 168 102
140 169 99
149 172 103
152 170 103
145 170 101
148 165 101
139 163 97
127 165 93
122 160 91
128 160 93
110 146 82
117 147 83
94 141 82
0 216 173
0 217 176
0 219 176
0 218 176
0 217 176
0 220 180
0 218 176
0 219 177
0 219 177
0 219 178
0 221 180
0 218 177
0 220 178
0 220 178
0 220 179
0 220 179
0 219 179
0 220 179
0 219 178
0 220 179
0 219 179
0 220 179
0 220 180
0 219 179
0 219 177
0 220 180
0 220 180
0 221 181
0 218 177
0 222 180
0 221 181
0 219 180
0 220 180
0 221 181
0 220 179
0 219 179
0 220 179
0 220 181
0 220 181
0 222 181
0 221 181
0 221 181
0 221 180
0 220 181
0 220 180
0 221 181
0 221 181
0 220 180
0 222 181
0 221 181
0 221 181
0 221 181
0 221 180
0 221 181
0 221 181
0 221 181
0 221 181
0 221 181
0 221 181
0 221 181
0 222 181
0 222 181
0 219 180
0 221 181
0 222 181
0 220 180
0 221 181
0 221 181
0 221 181
0 221 181
0 221 181
0 221 181
0 222 181
0 221 181
0 220 180
0 220 180
0 222 181
0 220 181
0 221 181
0 220 181
0 221 181
0 222 181
0 222 181
0 221 181
0 221 181
0 222 181
0 221 181
0 221 181
0 222 181
0 220 180
0 222 181
0 221 181
0 221 181
0 221 181
0 221 181
0 222 181
0 221 181
0 221 181
0 221 181
0 221 181
0 221 181
0 221 181
0 220 180
0 221 181
0 221 181
0 223 181
0 221 181
0 222 181
0 220 181
0 222 181
0 221 181
0 222 181
0 222 181
0 221 181
0 221 181
0 222 181
0 221 181
0 221 181
0 221 181
0 222 181
0 221 181
0 222 181
0 222 181
0 221 181
0 220 180
0 221 181
0 221 181
0 221 181
0 222 181
0 221 180
0 221 181
0 222 181
0 222 181
0 222 181
0 221 181
0 222 181
0 221 181
0 222 181
0 221 181
0 222 181
0 221 181
0 221 181
0 221 181
0 222 181
0 221 181
0 221 181
0 220 181
0 222 181
0 222 181
0 221 181
0 221 181
0 222 181
0 222 181
0 221 181
0 220 181
0 221 181
0 222 181
0 221 181
0 221 181
0 221 181
0 222 181
0 220 181
0 222 181
0 222 181
0 221 181
0 221 181
0 221 181
0 221 181
0 222 181
0 221 181
0 221 181
0 222 181
0 223 181
0 220 181
0 221 181
0 221 181
0 220 181
0 221 181
0 221 181
0 221 181
0 221 181
0 220 181
0 221 181
0 222 181
0 220 181
0 221 181
0 221 181
0 220 181
0 222 181
0 222 181
0 221 181
0 222 181
0 222 181
0 221 181
0 221 181
0 221 181
0 222 181
0 221 181
0 221 181
0 221 181
0 221 181
0 221 181
0 221 181
0 220 181
0 222 181
0 221 181
0 221 181
0 221 181
0 221 181
0 221 181
0 222 181
0 221 181
0 221 181
0 220 181
0 221 181
0 221 181
0 220 180
0 221 181
0 221 181
0 220 181
0 222 181
0 221 181
0 222 181
0 222 181
0 221 181
0 221 181
0 222 180
0 222 181
0 222 181
0 221 181
0 221 181
0 221 181
0 221 181
0 221 181
0 221 181
0 221 181
0 221 181
0 221 181
0 221 181
0 221 180
0 220 180
0 221 181
0 221 181
0 220 181
0 221 181
0 220 181
0 221 181
0 222 181
0 221 181
0 221 181
0 221 181
0 220 181
0 221 181
0 221 181
0 222 181
0 221 181
0 222 181
0 222 181
0 221 180
0 221 181
0 221 181
0 222 181
0 220 181
0 221 181
0 220 180
0 221 181
0 221 181
0 220 180
0 221 181
0 220 181
0 220 181
0 220 180
0 221 181
0 221 181
0 221 181
0 221 181
0 219 179
0 221 181
0 219 180
0 221 181
0 221 180
0 221 181
0 222 181
0 221 181
0 221 181
0 221 181
0 221 181
0 220 180
0 220 179
0 222 181
0 221 180
0 221 181
0 220 180
0 221 181
0 222 181
0 221 181
0 217 178
0 219 180
0 221 181
0 221 181
0 221 181
0 223 181
0 221 181
0 222 181
0 219 179
0 221 180
0 219 179
0 221 181
0 220 181
0 220 180
0 222 181
0 220 179
0 221 180
0 221 181
0 220 179
0 220 181
0 221 180
0 219 178
0 219 180
0 219 179
0 220 181
0 219 179
0 217 178
0 219 179
0 219 179
0 219 179
0 219 179
0 221 180
0 219 178
0 220 180
0 221 180
0 218 178
0 218 179
0 218 179
0 220 179
0 219 179
0 220 180
0 219 179
0 218 178
0 218 177
0 221 179
0 217 178
0 213 175
0 216 177
0 218 178
0 212 172
39 172 175
59 100 174
60 100 175
61 100 178
60 100 176
58 100 174
61 100 178
60 100 177
60 99 177
61 99 179
61 99 179
61 99 179
60 99 178
61 100 178
61 99 179
61 100 179
60 99 177
62 100 179
60 100 177
60 99 177
60 100 177
60 100 176
58 99 175
59 99 176
59 99 175
59 100 174
60 98 174
59 99 175
57 97 167
55 95 161
49 72 105
54 69 51
62 85 60
81 102 68
83 105 71
111 135 85
120 144 89
109 146 88
129 157 94
138 160 97
143 166 99
134 163 98
137 167 99
149 172 102
140 167 98
139 170 100
130 164 94
140 165 98
128 159 92
122 156 90
112 146 83
99 152 82
86 133 72
68 164 112
0 218 176
0 217 174
0 215 172
0 216 173
0 218 175
0 219 177
0 219 177
0 218 177
0 219 178
0 218 178
0 219 178
0 218 177
0 220 179
0 217 174
0 219 178
0 220 179
0 221 180
0 221 181
0 221 180
0 221 180
0 219 179
0 221 181
0 220 179
0 221 181
0 220 179
0 219 180
0 220 178
0 221 181
0 221 181
0 221 180
0 221 180
0 219 177
0 222 181
0 221 181
0 221 181
0 222 181
0 220 181
0 222 181
0 220 180
0 220 181
0 222 181
0 221 181
0 221 181
0 221 181
0 220 179
0 222 181
0 222 181
0 223 181
0 221 181
0 221 181
0 222 180
0 222 180
0 221 180
0 221 181
0 221 181
0 221 181
0 221 181
0 222 181
0 222 181
0 220 180
0 220 179
0 221 181
0 220 180
0 221 181
0 221 181
0 220 181
0 221 181
0 221 181
0 221 181
0 221 181
0 221 181
0 221 180
0 221 181
0 220 180
0 220 181
0 222 181
0 221 181
0 220 181
0 221 181
0 222 181
0 221 180
0 220 181
0 221 181
0 221 181
0 222 181
0 220 181
0 222 181
0 221 181
0 221 181
0 222 181
0 222 181
0 221 181
0 222 181
0 221 181
0 221 181
0 223 181
0 221 181
0 220 181
0 222 181
0 221 181
0 222 181
0 222 181
0 221 181
0 222 181
0 221 181
0 221 181
0 220 181
0 221 181
0 222 181
0 221 181
0 221 181
0 222 181
0 221 181
0 221 181
0 222 181
0 221 181
0 220 180
0 222 181
0 221 181
0 221 181
0 222 181
0 220 180
0 220 181
0 221 181
0 221 181
0 220 180
0 222 181
0 220 181
0 221 181
0 222 181
0 221 181
0 221 181
0 221 181
0 221 181
0 221 180
0 222 181
0 221 181
0 222 181
0 220 181
0 222 181
0 221 181
0 221 181
0 221 181
0 222 181
0 222 181
0 221 181
0 221 181
0 221 181
0 220 181
0 221 181
0 221 181
0 221 181
0 222 181
0 221 181
0 221 181
0 220 181
0 221 181
0 221 181
0 221 181
0 221 181
0 223 181
0 221 181
0 222 181
0 222 181
0 221 181
0 221 181
0 222 181
0 221 181
0 221 181
0 222 181
0 222 181
0 221 181
0 222 181
0 222 181
0 222 181
0 222 181
0 223 181
0 222 181
0 221 181
0 222 181
0 222 181
0 222 181
0 222 181
0 221 181
0 221 181
0 221 181
0 221 181
0 222 181
0 222 181
0 222 181
0 221 181
0 220 181
0 222 181
0 221 181
0 221 181
0 221 181
0 222 181
0 222 181
0 221 181
0 221 181
0 221 181
0 220 181
0 221 181
0 221 181
0 221 181
0 221 181
0 222 181
0 221 181
0 222 181
0 222 181
0 222 181
0 222 181
0 222 181
0 222 181
0 221 181
0 221 181
0 221 181
0 221 181
0 221 181
0 221 181
0 222 181
0 221 181
0 221 181
0 221 181
0 222 181
0 221 181
0 222 181
0 221 181
0 222 181
0 221 181
0 222 181
0 221 181
0 222 181
0 222 181
0 222 181
0 220 181
0 221 181
0 221 180
0 221 181
0 222 181
0 221 181
0 221 181
0 221 181
0 220 181
0 220 181
0 221 181
0 222 181
0 221 181
0 220 181
0 221 180
0 221 181
0 221 181
0 220 180
0 221 181
0 221 181
0 220 181
0 221 181
0 220 180
0 221 181
0 222 181
0 221 181
0 221 181
0 221 181
0 221 181
0 221 181
0 222 181
0 222 181
0 221 181
0 222 181
0 221 181
0 221 181
0 220 180
0 222 181
0 221 180
0 222 181
0 221 181
0 222 181
0 221 181
0 221 181
0 220 180
0 221 181
0 219 179
0 221 181
0 220 180
0 221 181
0 221 181
0 222 181
0 222 181
0 220 180
0 222 181
0 220 181
0 220 180
0 221 180
0 220 181
0 221 180
0 221 181
0 222 181
0 221 180
0 221 180
0 220 180
0 220 180
0 219 180
0 221 181
0 220 180
0 221 181
0 220 180
0 221 179
0 219 179
0 221 181
0 220 180
0 221 181
0 222 181
0 220 180
0 221 180
0 221 181
0 221 179
0 220 180
0 222 181
0 221 181
0 218 177
0 221 180
0 220 180
0 220 180
0 220 179
0 220 180
0 220 179
0 217 177
0 216 177
0 218 179
0 220 180
0 219 179
0 220 179
0 218 179
0 217 178
0 216 177
0 219 179
0 216 178
0 219 178
0 218 178
0 219 178
0 219 180
0 217 176
0 218 178
0 217 178
0 213 174
0 213 176
51 140 175
58 100 172
55 99 170
55 99 170
60 100 176
59 100 175
61 100 179
60 100 176
60 99 178
61 100 178
60 100 176
59 99 176
61 99 178
61 100 177
61 100 178
61 99 179
60 99 178
57 99 174
61 100 179
61 100 178
61 100 177
59 100 175
59 99 175
60 99 176
58 100 173
59 99 175
59 100 173
57 99 172
54 98 164
58 99 169
45 82 127
39 64 41
67 91 63
69 95 64
90 113 75
80 115 72
104 137 84
116 146 87
125 156 93
130 162 95
128 161 94
132 163 96
131 163 95
129 163 94
132 168 97
137 168 98
126 165 93
120 163 91
120 161 91
119 158 89
110 158 86
118 147 84
91 148 78
51 193 149
0 214 171
0 216 175
0 212 169
0 214 171
0 218 174
0 217 175
0 215 173
0 221 179
0 216 176
0 218 177
0 219 177
0 221 180
0 220 179
0 219 178
0 221 180
0 220 179
0 218 177
0 220 179
0 220 179
0 220 179
0 220 180
0 221 181
0 220 180
0 221 178
0 221 181
0 219 179
0 220 178
0 219 179
0 219 179
0 221 180
0 221 181
0 220 180
0 220 181
0 220 179
0 222 181
0 221 181
0 220 179
0 219 178
0 221 181
0 221 180
0 221 181
0 222 181
0 220 180
0 220 180
0 221 181
0 222 181
0 221 181
0 221 181
0 222 181
0 221 181
0 220 179
0 222 181
0 221 181
0 221 181
0 221 180
0 221 179
0 222 181
0 221 180
0 220 180
0 220 181
0 220 180
0 221 181
0 222 181
0 220 181
0 221 181
0 222 181
0 221 180
0 221 181
0 221 181
0 221 181
0 221 181
0 222 181
0 222 181
0 221 181
0 221 181
0 222 181
0 221 181
0 221 181
0 222 181
0 221 181
0 221 181
0 221 181
0 221 181
0 221 180
0 222 181
0 221 181
0 221 181
0 222 181
0 221 181
0 222 181
0 222 181
0 221 181
0 222 181
0 221 181
0 222 181
0 221 181
0 221 181
0 221 181
0 220 181
0 221 181
0 221 181
0 220 181
0 221 181
0 221 181
0 221 181
0 222 181
0 221 181
0 221 181
0 222 181
0 221 180
0 221 181
0 222 181
0 221 181
0 220 181
0 222 181
0 221 181
0 221 181
0 221 181
0 222 181
0 221 181
0 221 181
0 221 181
0 222 181
0 221 181
0 222 181
0 221 181
0 221 181
0 220 181
0 221 181
0 222 181
0 221 181
0 222 181
0 221 181
0 220 180
0 223 181
0 221 181
0 221 181
0 220 181
0 222 180
0 222 181
0 222 181
0 221 181
0 222 181
0 222 181
0 220 180
0 221 181
0 222 181
0 221 181
0 221 181
0 222 181
0 222 181
0 221 181
0 221 181
0 220 181
0 220 181
0 222 181
0 221 181
0 221 181
0 221 181
0 222 181
0 221 181
0 222 181
0 221 181
0 222 181
0 221 181
0 221 181
0 221 181
0 221 181
0 221 181
0 221 181
0 221 181
0 222 181
0 222 181
0 221 181
0 221 181
0 222 181
0 221 181
0 222 181
0 222 181
0 222 181
0 221 181
0 220 181
0 222 181
0 221 181
0 221 181
0 221 181
0 221 181
0 221 181
0 222 181
0 221 181
0 221 181
0 221 181
0 221 181
0 222 181
0 222 181
0 220 181
0 221 181
0 221 181
0 221 181
0 221 181
0 221 181
0 222 181
0 221 181
0 221 181
0 222 181
0 220 181
0 220 181
0 222 181
0 222 181
0 221 181
0 221 181
0 221 181
0 221 181
0 223 181
0 221 181
0 220 181
0 222 181
0 222 181
0 221 181
0 220 180
0 221 181
0 222 181
0 220 181
0 221 181
0 221 181
0 221 181
0 221 181
0 220 181
0 221 181
0 221 181
0 221 181
0 222 181
0 221 180
0 222 181
0 221 181
0 222 181
0 221 181
0 221 181
0 221 181
0 221 181
0 221 181
0 222 181
0 220 181
0 221 181
0 221 181
0 222 181
0 221 181
0 221 181
0 221 181
0 221 181
0 220 181
0 221 181
0 221 180
0 221 181
0 222 181
0 221 181
0 221 181
0 221 181
0 221 181
0 220 181
0 221 181
0 221 181
0 222 181
0 222 181
0 220 181
0 221 181
0 221 181
0 220 181
0 220 180
0 221 181
0 222 181
0 220 179
0 222 181
0 222 181
0 221 181
0 222 181
0 222 181
0 220 180
0 221 180
0 221 181
0 221 181
0 221 181
0 222 181
0 222 181
0 221 180
0 221 181
0 221 181
0 222 181
0 220 180
0 220 181
0 221 180
0 221 181
0 221 181
0 220 179
0 221 181
0 221 181
0 221 181
0 221 181
0 220 180
0 220 180
0 221 180
0 219 179
0 220 180
0 222 181
0 222 181
0 219 180
0 221 181
0 221 181
0 217 178
0 219 178
0 220 179
0 222 181
0 219 179
0 219 180
0 220 179
0 220 179
0 221 179
0 219 179
0 220 180
0 219 179
0 219 180
0 220 180
0 219 179
0 221 181
0 220 180
0 219 179
0 220 178
0 219 179
0 218 178
0 219 179
0 219 178
0 215 177
0 220 178
0 219 179
0 219 179
0 215 176
0 219 178
0 216 177
0 219 179
0 218 178
0 217 178
0 217 177
0 213 175
0 214 175
0 215 176
19 203 174
55 101 168
59 100 173
58 99 174
59 99 176
58 100 174
58 100 173
59 100 175
60 100 177
60 99 177
60 99 178
58 99 174
61 100 178
60 100 176
60 99 178
61 100 179
59 99 175
61 100 176
59 99 175
61 100 178
60 99 177
60 100 175
58 99 174
58 99 174
59 100 175
59 100 175
58 99 174
56 99 171
54 99 166
57 100 171
54 98 165
57 93 153
39 69 47
54 84 53
69 98 62
79 114 71
96 126 76
88 131 76
90 136 80
118 152 88
125 161 92
127 157 92
118 159 90
128 167 95
121 164 92
115 165 92
114 159 88
126 163 93
106 151 84
104 156 85
97 153 81
92 143 77
88 143 76
83 138 79
19 209 166
0 213 167
0 217 174
0 214 171
0 216 172
0 215 171
0 218 175
0 216 174
0 218 177
0 219 176
0 217 176
0 220 179
0 217 176
0 221 179
0 218 177
0 221 180
0 220 179
0 220 180
0 219 178
0 218 178
0 220 179
0 220 179
0 220 177
0 221 179
0 220 180
0 220 180
0 220 179
0 219 178
0 221 180
0 220 180
0 221 180
0 220 179
0 221 180
0 221 180
0 218 178
0 221 179
0 221 180
0 222 181
0 221 181
0 222 180
0 220 179
0 220 178
0 221 181
0 220 180
0 221 180
0 220 180
0 222 181
0 221 180
0 221 181
0 222 181
0 223 181
0 221 180
0 221 181
0 221 181
0 222 181
0 221 180
0 221 181
0 221 181
0 222 181
0 221 180
0 222 181
0 222 181
0 221 180
0 221 181
0 220 180
0 222 181
0 221 181
0 222 181
0 221 181
0 221 181
0 221 181
0 222 181
0 220 181
0 220 181
0 221 181
0 223 181
0 221 181
0 221 181
0 220 181
0 221 181
0 221 181
0 222 181
0 221 181
0 221 181
0 220 180
0 222 181
0 221 181
0 222 181
0 221 181
0 222 181
0 221 181
0 221 181
0 221 180
0 221 181
0 221 181
0 222 181
0 221 181
0 221 181
0 221 181
0 221 181
0 221 181
0 221 181
0 221 181
0 222 181
0 221 181
0 221 181
0 222 181
0 220 181
0 221 181
0 222 181
0 222 181
0 221 181
0 220 181
0 221 181
0 221 181
0 221 180
0 221 181
0 221 181
0 222 181
0 222 181
0 222 181
0 222 181
0 221 181
0 221 181
0 221 181
0 221 181
0 221 181
0 221 181
0 222 181
0 222 181
0 222 181
0 221 181
0 221 181
0 221 181
0 222 181
0 221 181
0 221 181
0 221 181
0 221 181
0 221 181
0 221 180
0 221 181
0 221 181
0 222 181
0 222 181
0 221 181
0 221 181
0 221 181
0 221 181
0 222 181
0 221 181
0 221 181
0 221 181
0 222 181
0 221 181
0 221 181
0 221 181
0 222 181
0 221 181
0 220 181
0 221 181
0 221 181
0 221 181
0 222 181
0 222 181
0 222 181
0 222 181
0 221 181
0 221 181
0 222 181
0 221 181
0 221 181
0 222 181
0 221 181
0 221 181
0 221 181
0 222 181
0 222 181
0 221 181
0 221 181
0 221 181
0 221 181
0 222 181
0 222 181
0 222 181
0 221 181
0 221 181
0 222 181
0 222 181
0 221 181
0 220 181
0 221 181
0 221 181
0 221 181
0 221 181
0 221 181
0 221 181
0 220 181
0 222 181
0 221 181
0 221 181
0 221 180
0 221 181
0 221 181
0 221 181
0 221 181
0 221 181
0 221 181
0 222 181
0 221 181
0 222 181
0 221 181
0 221 181
0 221 181
0 221 181
0 221 181
0 222 181
0 220 181
0 221 181
0 220 181
0 220 181
0 221 181
0 222 181
0 221 181
0 222 181
0 222 181
0 221 181
0 220 181
0 221 181
0 222 181
0 221 181
0 221 181
0 220 180
0 221 181
0 221 181
0 221 180
0 219 179
0 221 181
0 220 181
0 222 181
0 222 181
0 221 181
0 220 181
0 221 181
0 221 181
0 221 181
0 221 181
0 221 181
0 222 181
0 220 181
0 222 181
0 221 181
0 221 181
0 221 181
0 222 181
0 222 181
0 221 180
0 221 181
0 221 181
0 222 181
0 222 181
0 221 181
0 221 181
0 221 181
0 220 181
0 220 180
0 221 181
0 220 181
0 220 181
0 222 181
0 221 180
0 222 181
0 221 180
0 222 181
0 221 181
0 221 181
0 219 179
0 222 181
0 220 180
0 220 181
0 221 181
0 219 180
0 220 180
0 220 181
0 221 181
0 221 181
0 221 181
0 220 180
0 220 180
0 221 181
0 221 181
0 222 181
0 221 181
0 222 181
0 221 181
0 222 181
0 220 180
0 219 180
0 221 181
0 221 181
0 220 180
0 222 181
0 221 180
0 220 180
0 221 180
0 220 180
0 220 180
0 220 180
0 222 181
0 222 181
0 218 179
0 220 179
0 220 180
0 219 180
0 221 180
0 221 180
0 219 179
0 221 181
0 218 179
0 220 180
0 220 180
0 222 181
0 218 178
0 221 179
0 219 179
0 218 178
0 220 180
0 220 180
0 218 179
0 217 178
0 218 178
0 217 177
0 215 177
0 219 180
0 217 178
0 217 178
0 217 177
0 221 180
0 220 179
0 215 176
0 213 174
0 220 179
0 215 176
0 216 177
0 216 175
0 215 176
25 186 170
58 101 172
57 100 172
61 99 177
57 100 173
58 100 174
59 100 174
60 100 176
59 100 175
60 100 175
60 100 176
61 100 178
59 100 175
59 100 175
59 100 176
60 100 176
60 100 177
58 100 173
58 100 174
60 99 177
60 100 176
60 100 176
57 99 173
61 100 177
58 100 174
58 100 173
60 100 176
57 99 171
57 99 171
56 99 169
54 99 165
55 96 160
23 79 58
35 83 47
51 101 56
60 111 64
92 119 72
80 133 74
77 132 74
95 148 82
101 153 84
102 153 86
114 160 88
107 165 88
105 162 87
111 161 88
110 161 88
116 162 90
109 158 86
116 152 86
94 150 80
101 144 78
83 134 70
58 182 133
0 210 166
0 212 168
0 217 176
0 218 175
0 214 172
0 216 172
0 216 174
0 215 174
0 216 174
0 219 178
0 218 178
0 216 175
0 221 180
0 215 175
0 218 177
0 221 179
0 218 177
0 220 177
0 221 180
0 218 178
0 220 178
0 219 179
0 220 178
0 219 178
0 219 178
0 219 178
0 222 181
0 220 180
0 219 180
0 220 178
0 218 177
0 221 181
0 220 180
0 220 178
0 220 178
0 218 178
0 223 181
0 220 180
0 220 179
0 221 181
0 221 181
0 221 181
0 221 180
0 221 181
0 222 180
0 221 181
0 220 180
0 221 181
0 220 179
0 221 181
0 220 181
0 221 181
0 220 181
0 220 180
0 221 181
0 221 181
0 221 181
0 221 181
0 221 181
0 222 181
0 220 179
0 221 179
0 221 181
0 222 181
0 221 181
0 221 181
0 222 181
0 220 181
0 220 180
0 221 181
0 220 181
0 221 180
0 221 181
0 221 181
0 222 181
0 222 181
0 219 180
0 222 181
0 222 181
0 221 180
0 222 181
0 221 181
0 221 181
0 222 181
0 221 181
0 221 180
0 221 180
0 221 181
0 222 181
0 222 181
0 221 181
0 221 181
0 222 181
0 221 181
0 221 181
0 222 181
0 221 181
0 221 181
0 222 181
0 222 181
0 221 181
0 221 181
0 222 181
0 221 181
0 221 181
0 221 181
0 221 181
0 221 181
0 222 181
0 222 181
0 222 181
0 222 181
0 222 181
0 220 180
0 221 181
0 222 181
0 221 181
0 221 181
0 221 181
0 221 181
0 222 181
0 221 181
0 222 181
0 222 181
0 221 181
0 221 181
0 221 181
0 221 181
0 221 181
0 221 181
0 222 181
0 221 181
0 221 181
0 221 181
0 221 181
0 222 181
0 221 181
0 221 181
0 221 181
0 222 181
0 220 181
0 222 181
0 222 181
0 221 181
0 221 181
0 221 181
0 222 181
0 221 181
0 221 181
0 221 181
0 221 181
0 221 181
0 223 181
0 221 181
0 221 181
0 222 181
0 222 181
0 222 181
0 222 181
0 221 181
0 221 181
0 221 181
0 221 181
0 221 181
0 220 181
0 221 181
0 222 181
0 221 181
0 220 181
0 221 181
0 222 181
0 221 181
0 220 181
0 221 181
0 221 181
0 222 181
0 221 181
0 222 181
0 221 181
0 221 181
0 222 181
0 223 181
0 221 181
0 221 181
0 221 181
0 222 181
0 221 181
0 221 181
0 222 181
0 222 181
0 221 181
0 222 181
0 221 181
0 221 181
0 222 181
0 221 181
0 222 181
0 222 181
0 221 181
0 221 181
0 221 181
0 222 181
0 222 181
0 221 181
0 222 181
0 221 181
0 221 181
0 221 181
0 221 181
0 221 181
0 221 181
0 221 181
0 220 181
0 221 181
0 221 181
0 221 181
0 221 181
0 222 181
0 221 181
0 221 181
0 220 181
0 220 181
0 221 181
0 220 181
0 220 181
0 223 181
0 221 181
0 221 181
0 223 181
0 221 181
0 222 181
0 221 181
0 220 180
0 220 180
0 221 181
0 221 181
0 221 180
0 221 181
0 221 181
0 222 181
0 221 181
0 221 181
0 222 181
0 221 181
0 220 181
0 221 180
0 221 181
0 221 181
0 222 181
0 221 181
0 220 181
0 221 181
0 221 181
0 221 181
0 220 181
0 221 181
0 221 181
0 220 180
0 222 181
0 221 181
0 222 181
0 221 181
0 221 181
0 221 181
0 221 180
0 220 180
0 222 181
0 222 181
0 221 181
0 221 181
0 219 180
0 221 181
0 220 180
0 221 180
0 221 180
0 222 181
0 220 181
0 220 181
0 220 179
0 220 180
0 219 180
0 220 180
0 221 181
0 222 181
0 221 181
0 220 180
0 220 180
0 220 180
0 219 179
0 221 180
0 220 180
0 221 181
0 221 180
0 221 181
0 221 181
0 220 180
0 220 180
0 222 181
0 221 181
0 221 181
0 218 178
0 221 181
0 221 181
0 221 181
0 218 179
0 220 180
0 219 180
0 219 179
0 220 180
0 222 181
0 219 179
0 220 180
0 221 181
0 218 178
0 220 180
0 220 179
0 220 179
0 222 181
0 220 180
0 219 179
0 219 179
0 219 179
0 220 180
0 220 180
0 219 179
0 218 178
0 219 180
0 218 178
0 220 180
0 215 176
0 220 180
0 218 178
0 218 178
0 220 180
0 215 177
0 214 176
0 220 180
0 216 176
0 217 178
0 212 174
0 218 177
0 212 173
0 215 177
0 213 174
0 214 176
0 215 176
33 181 173
57 99 169
55 100 169
57 99 172
59 100 174
59 100 175
61 100 178
57 100 172
61 100 176
59 100 176
58 100 173
58 100 173
58 100 174
60 99 176
60 99 177
57 100 173
57 99 172
58 100 174
59 100 175
59 100 175
59 100 175
60 100 175
58 100 173
56 100 170
58 100 173
57 100 171
58 100 173
58 100 172
57 100 172
55 99 167
56 99 166
50 97 155
28 86 88
27 91 47
39 92 51
56 99 59
81 130 71
96 138 78
88 140 77
97 148 82
104 160 87
108 149 83
105 156 84
90 152 81
93 158 84
113 159 88
102 160 85
100 154 83
95 152 80
93 147 78
86 147 76
81 142 73
63 147 86
0 210 166
0 209 168
0 209 163
0 212 165
0 212 166
0 213 168
0 217 174
0 211 169
0 215 172
0 214 170
0 216 172
0 216 176
0 216 176
0 220 178
0 220 180
0 221 180
0 219 178
0 217 176
0 216 175
0 219 178
0 219 179
0 218 179
0 220 177
0 220 178
0 217 176
0 220 180
0 220 178
0 221 181
0 222 181
0 221 180
0 222 181
0 220 180
0 220 181
0 221 181
0 220 181
0 220 179
0 221 179
0 219 180
0 220 180
0 222 181
0 220 180
0 221 181
0 220 180
0 221 181
0 221 180
0 220 180
0 221 181
0 222 181
0 221 180
0 220 180
0 222 181
0 221 180
0 221 181
0 220 179
0 221 180
0 221 181
0 221 181
0 222 181
0 221 181
0 221 181
0 221 181
0 222 181
0 221 181
0 221 181
0 221 181
0 221 180
0 221 180
0 221 181
0 221 181
0 221 181
0 221 181
0 221 181
0 222 181
0 222 181
0 222 181
0 221 181
0 221 181
0 220 180
0 220 180
0 220 181
0 221 181
0 221 181
0 221 181
0 222 181
0 222 181
0 221 181
0 222 181
0 220 181
0 221 181
0 222 181
0 221 181
0 221 181
0 220 180
0 222 181
0 222 181
0 221 181
0 221 181
0 221 181
0 222 181
0 221 181
0 221 181
0 221 181
0 221 181
0 222 181
0 221 181
0 221 181
0 222 181
0 221 181
0 221 181
0 222 181
0 220 181
0 221 181
0 221 181
0 222 181
0 221 181
0 221 181
0 221 181
0 220 180
0 221 181
0 221 181
0 220 181
0 221 181
0 221 181
0 222 181
0 222 181
0 222 181
0 222 181
0 220 181
0 221 181
0 222 181
0 221 181
0 221 181
0 222 181
0 222 181
0 221 181
0 221 181
0 221 181
0 221 181
0 221 180
0 221 181
0 222 181
0 222 181
0 221 180
0 221 181
0 220 181
0 221 181
0 221 181
0 222 181
0 221 181
0 221 181
0 222 181
0 220 181
0 222 181
0 221 181
0 222 181
0 222 181
0 222 181
0 221 181
0 221 181
0 222 181
0 221 181
0 222 181
0 220 181
0 220 181
0 220 181
0 222 181
0 222 181
0 222 181
0 221 181
0 222 181
0 221 181
0 222 181
0 221 181
0 220 181
0 221 181
0 221 181
0 221 181
0 222 181
0 222 181
0 222 181
0 221 181
0 221 181
0 221 181
0 221 181
0 221 181
0 221 181
0 222 181
0 221 181
0 222 181
0 221 181
0 221 181
0 221 181
0 221 181
0 221 180
0 221 181
0 221 181
0 222 181
0 220 181
0 221 181
0 222 181
0 221 181
0 221 181
0 221 181
0 221 181
0 222 181
0 221 181
0 221 181
0 221 181
0 221 181
0 221 181
0 221 181
0 222 181
0 221 181
0 221 181
0 221 181
0 221 181
0 220 181
0 221 181
0 221 181
0 222 181
0 222 181
0 222 181
0 221 181
0 222 181
0 221 181
0 221 181
0 221 181
0 220 181
0 222 181
0 221 181
0 221 181
0 221 181
0 221 181
0 222 181
0 221 181
0 221 180
0 221 181
0 221 181
0 221 181
0 220 181
0 222 181
0 222 181
0 222 181
0 221 181
0 221 181
0 221 181
0 221 181
0 221 181
0 220 180
0 221 181
0 222 181
0 222 181
0 221 181
0 222 181
0 221 181
0 221 181
0 221 181
0 220 180
0 222 181
0 221 181
0 221 181
0 221 181
0 220 181
0 221 181
0 221 180
0 221 180
0 221 181
0 221 181
0 222 181
0 221 180
0 221 181
0 221 181
0 222 181
0 220 179
0 220 181
0 220 180
0 221 181
0 221 181
0 220 180
0 221 180
0 221 181
0 222 181
0 222 181
0 222 181
0 223 181
0 221 181
0 221 181
0 219 179
0 221 181
0 221 181
0 221 180
0 221 181
0 220 180
0 221 180
0 222 180
0 220 181
0 220 180
0 221 181
0 221 181
0 221 181
0 221 181
0 221 181
0 222 181
0 220 179
0 220 180
0 220 180
0 220 179
0 221 180
0 221 180
0 221 181
0 220 180
0 220 181
0 220 180
0 220 179
0 219 180
0 220 180
0 219 179
0 219 180
0 219 179
0 218 178
0 221 180
0 220 179
0 220 179
0 222 181
0 220 179
0 222 181
0 215 176
0 221 181
0 220 180
0 216 178
0 218 178
0 219 180
0 219 179
0 213 176
0 214 176
0 215 176
0 216 178
0 219 179
0 215 177
0 215 177
0 216 176
0 213 175
0 211 173
0 214 176
0 207 170
0 213 174
0 211 173
27 183 170
56 99 171
57 99 172
58 100 174
59 100 174
58 100 173
58 99 174
59 100 174
60 100 176
58 99 175
61 100 177
57 99 173
58 99 173
60 100 177
57 100 173
57 100 172
57 99 173
58 100 174
59 100 175
60 100 175
61 101 176
58 100 173
60 100 175
55 99 170
56 99 171
57 100 171
56 100 170
58 100 173
57 100 171
57 99 168
52 98 160
52 96 158
27 90 91
24 90 44
16 95 48
41 112 57
53 121 63
68 133 70
69 134 72
90 143 79
90 143 77
97 153 82
86 147 77
92 151 79
99 151 80
94 157 83
89 152 79
103 156 83
75 146 74
85 148 77
62 134 66
65 137 73
27 199 151
0 206 162
0 206 164
0 211 164
0 214 169
0 216 173
0 210 165
0 215 170
0 214 172
0 213 170
0 213 171
0 211 169
0 217 175
0 218 176
0 216 172
0 218 177
0 218 176
0 217 174
0 218 176
0 217 176
0 218 176
0 219 178
0 220 178
0 221 180
0 220 180
0 218 178
0 220 179
0 220 178
0 222 181
0 220 179
0 219 179
0 221 181
0 221 181
0 218 176
0 219 177
0 221 180
0 220 179
0 220 179
0 221 180
0 220 180
0 222 181
0 221 181
0 221 181
0 221 181
0 221 181
0 221 180
0 220 180
0 220 181
0 221 181
0 221 179
0 221 181
0 221 181
0 221 181
0 219 179
0 220 180
0 219 180
0 220 179
0 221 181
0 220 181
0 222 180
0 221 180
0 222 181
0 221 181
0 222 181
0 220 179
0 221 181
0 221 181
0 222 181
0 219 180
0 221 181
0 221 181
0 220 180
0 221 181
0 221 180
0 221 181
0 221 181
0 221 180
0 221 181
0 220 181
0 222 181
0 221 181
0 221 181
0 221 180
0 222 181
0 221 181
0 221 181
0 221 181
0 222 181
0 221 181
0 222 181
0 221 181
0 220 180
0 221 181
0 222 181
0 222 181
0 222 181
0 221 181
0 220 181
0 221 181
0 221 181
0 221 181
0 221 181
0 221 181
0 221 181
0 221 180
0 220 181
0 221 181
0 221 181
0 222 181
0 221 181
0 221 181
0 220 181
0 222 181
0 221 181
0 221 181
0 222 181
0 221 181
0 221 181
0 222 181
0 220 181
0 222 181
0 221 181
0 221 181
0 222 181
0 221 181
0 222 181
0 222 181
0 222 181
0 221 180
0 221 181
0 221 181
0 221 181
0 222 181
0 223 181
0 221 181
0 220 180
0 222 181
0 220 181
0 221 181
0 222 181
0 222 181
0 221 181
0 222 181
0 221 181
0 222 181
0 222 181
0 221 181
0 221 181
0 221 181
0 222 181
0 221 181
0 221 181
0 222 181
0 221 181
0 222 181
0 221 181
0 221 181
0 221 181
0 222 181
0 221 181
0 221 181
0 222 181
0 220 181
0 221 181
0 220 180
0 222 181
0 220 181
0 221 181
0 221 181
0 221 181
0 221 181
0 221 181
0 221 181
0 221 181
0 222 181
0 221 181
0 221 181
0 221 181
0 220 181
0 221 181
0 222 181
0 222 181
0 222 181
0 222 181
0 221 181
0 221 181
0 222 181
0 222 181
0 221 181
0 221 181
0 221 181
0 221 181
0 222 181
0 221 181
0 221 181
0 221 181
0 221 181
0 222 181
0 221 181
0 221 181
0 223 181
0 220 181
0 222 181
0 222 181
0 221 181
0 221 181
0 220 181
0 222 181
0 222 181
0 221 181
0 220 181
0 222 181
0 222 181
0 221 181
0 223 181
0 221 181
0 220 181
0 221 181
0 220 181
0 221 181
0 221 181
0 221 181
0 222 181
0 221 181
0 220 180
0 222 181
0 222 181
0 221 181
0 222 181
0 221 181
0 221 181
0 221 181
0 221 181
0 221 181
0 221 181
0 222 181
0 221 181
0 221 181
0 223 181
0 222 181
0 221 181
0 220 180
0 221 181
0 221 181
0 221 180
0 220 181
0 221 181
0 220 181
0 221 181
0 222 181
0 221 181
0 221 181
0 221 181
0 221 181
0 221 181
0 221 181
0 221 181
0 221 180
0 221 181
0 222 181
0 222 181
0 222 181
0 221 181
0 221 181
0 221 181
0 222 181
0 221 181
0 221 181
0 220 180
0 221 181
0 223 181
0 220 180
0 221 181
0 221 181
0 222 181
0 221 181
0 222 181
0 222 181
0 220 180
0 221 181
0 222 181
0 221 180
0 220 181
0 221 180
0 220 180
0 221 180
0 221 181
0 220 180
0 220 181
0 221 181
0 221 181
0 221 181
0 221 180
0 221 181
0 220 180
0 220 180
0 222 181
0 221 180
0 222 181
0 221 180
0 222 181
0 219 179
0 217 178
0 221 181
0 219 179
0 219 180
0 219 180
0 220 180
0 219 179
0 218 179
0 220 179
0 220 180
0 220 178
0 218 180
0 218 179
0 219 178
0 222 181
0 218 178
0 221 180
0 219 179
0 217 177
0 219 179
0 221 181
0 218 178
0 220 180
0 221 179
0 220 180
0 217 178
0 217 178
0 218 179
0 216 178
0 220 179
0 215 177
0 215 176
0 216 177
0 218 179
0 217 179
0 221 180
63 222 187
105 224 199
117 225 203
125 226 207
110 224 200
50 223 185
0 218 178
0 219 179
0 214 176
6 212 173
24 185 167
42 151 169
52 101 165
54 100 167
57 100 171
57 99 173
59 100 174
57 100 172
58 100 174
56 100 171
57 100 172
56 99 170
57 100 171
57 100 172
57 100 172
58 99 174
60 101 175
58 100 173
56 99 172
56 99 171
57 100 172
58 100 173
59 100 175
55 100 168
57 100 173
56 100 169
56 100 169
55 100 168
56 100 168
57 99 168
53 98 165
51 94 153
33 93 88
13 87 42
23 103 50
31 102 51
28 110 55
51 124 64
76 129 69
65 136 70
74 138 71
75 136 71
75 134 70
87 147 77
86 151 78
81 150 76
57 138 67
66 149 73
69 141 70
57 140 68
63 134 67
26 175 125
0 205 158
0 211 170
0 212 167
0 209 164
0 208 162
0 212 170
0 214 169
0 215 170
0 216 175
0 215 170
0 217 175
0 217 175
0 216 173
0 214 173
0 221 179
0 213 172
0 219 177
0 219 176
0 220 178
0 219 178
0 218 176
0 219 178
0 221 180
0 218 178
0 220 179
0 220 179
0 217 176
0 220 178
0 221 180
0 219 177
0 219 178
0 221 181
0 221 180
0 219 178
0 220 179
0 218 178
0 220 180
0 220 178
0 221 181
0 221 181
0 220 180
0 220 178
0 220 180
0 220 179
0 220 180
0 219 179
0 221 181
0 221 181
0 221 181
0 222 181
0 220 179
0 221 180
0 221 180
0 220 179
0 221 180
0 221 181
0 221 180
0 220 181
0 221 181
0 221 181
0 221 181
0 221 181
0 221 181
0 221 181
0 221 181
0 220 181
0 222 181
0 220 178
0 222 181
0 222 181
0 221 181
0 220 181
0 222 181
0 221 181
0 221 181
0 221 181
0 222 181
0 222 181
0 222 181
0 221 180
0 221 181
0 221 180
0 221 181
0 222 181
0 221 181
0 221 181
0 220 181
0 222 181
0 221 181
0 221 181
0 221 181
0 221 180
0 221 181
0 221 181
0 220 181
0 221 181
0 221 181
0 221 181
0 221 181
0 221 181
0 222 181
0 222 181
0 221 181
0 222 181
0 221 181
0 221 181
0 221 181
0 220 180
0 220 181
0 222 181
0 221 181
0 222 181
0 221 181
0 220 181
0 221 181
0 221 181
0 221 181
0 221 181
0 223 181
0 222 181
0 221 181
0 222 181
0 221 181
0 221 181
0 222 181
0 221 181
0 221 181
0 221 181
0 221 181
0 221 180
0 222 181
0 220 181
0 222 181
0 221 181
0 221 181
0 222 181
0 221 181
0 222 181
0 221 181
0 222 181
0 221 181
0 220 181
0 221 181
0 221 181
0 221 181
0 221 181
0 221 181
0 221 181
0 221 181
0 221 181
0 221 181
0 220 181
0 222 181
0 221 181
0 221 181
0 221 181
0 221 181
0 221 181
0 222 181
0 222 181
0 222 181
0 221 181
0 222 181
0 220 181
0 221 181
0 222 181
0 221 181
0 221 181
0 221 181
0 221 181
0 222 181
0 221 181
0 221 180
0 221 181
0 221 181
0 222 181
0 221 181
0 220 181
0 221 181
0 220 181
0 222 181
0 222 181
0 221 181
0 221 181
0 222 181
0 220 181
0 221 181
0 221 181
0 221 181
0 221 181
0 221 181
0 221 181
0 221 181
0 221 181
0 221 181
0 222 181
0 222 181
0 221 181
0 221 181
0 221 181
0 221 181
0 222 181
0 221 181
0 220 181
0 221 181
0 221 181
0 221 181
0 222 181
0 221 181
0 221 181
0 221 181
0 221 181
0 221 181
0 221 181
0 221 181
0 222 181
0 220 181
0 222 181
0 221 181
0 221 181
0 222 181
0 221 181
0 221 181
0 221 181
0 222 181
0 220 180
0 221 181
0 221 181
0 221 181
0 221 181
0 221 181
0 221 181
0 221 181
0 221 181
0 221 181
0 222 181
0 222 181
0 221 181
0 221 181
0 222 181
0 222 181
0 220 180
0 221 181
0 222 181
0 222 181
0 221 181
0 220 181
0 220 180
0 222 181
0 221 181
0 221 181
0 221 181
0 221 180
0 221 181
0 222 181
0 221 181
0 222 181
0 221 181
0 221 181
0 222 181
0 221 181
0 222 181
0 221 181
0 221 181
0 221 181
0 221 181
0 221 181
0 221 181
0 221 181
0 222 181
0 222 181
0 221 181
0 221 181
0 221 181
0 220 180
0 219 180
0 221 181
0 221 181
0 220 181
0 221 180
0 220 181
0 221 181
0 221 181
0 220 181
0 222 181
0 219 179
0 220 180
0 221 181
0 219 179
0 220 181
0 220 180
0 221 181
0 220 179
0 221 181
0 220 180
0 220 180
0 220 179
0 221 181
0 219 180
0 221 181
0 218 179
0 219 179
0 219 179
0 219 179
0 220 180
0 221 180
0 220 180
0 222 181
0 221 181
0 220 181
0 219 180
0 221 180
0 221 180
0 217 178
0 221 181
0 222 181
0 220 180
0 219 179
0 219 179
0 217 178
0 218 179
0 218 179
0 218 179
0 221 180
0 220 179
0 217 178
0 220 178
0 215 175
0 218 179
0 220 180
0 218 177
0 216 177
0 216 177
0 221 180
22 221 181
129 227 208
187 232 236
214 235 251
221 235 255
219 235 255
219 234 255
219 234 255
219 234 255
221 235 255
213 234 250
183 232 234
138 227 210
81 137 180
58 100 173
52 101 164
42 137 163
50 125 168
56 99 171
57 100 172
57 99 172
58 100 172
56 99 171
56 99 171
57 100 172
58 100 173
59 100 174
59 100 175
58 100 172
58 100 172
56 100 170
59 99 174
59 100 174
56 99 171
57 99 172
58 100 173
56 99 170
58 99 172
55 99 171
56 100 170
54 100 168
53 99 165
54 100 166
50 98 161
52 99 163
51 96 155
31 93 83
5 95 42
12 102 49
11 100 47
21 116 55
35 113 56
40 122 62
40 126 63
43 137 67
65 137 69
72 144 73
72 147 72
67 142 71
72 143 72
54 142 68
61 133 65
65 133 65
38 123 63
0 176 125
0 201 150
0 200 150
0 200 153
0 206 158
0 209 165
0 213 170
0 210 165
0 209 164
0 218 175
0 215 172
0 215 173
0 217 173
0 212 168
0 217 176
0 216 174
0 216 173
0 217 174
0 216 174
0 219 178
0 214 174
0 220 178
0 219 177
0 221 178
0 217 177
0 217 177
0 220 178
0 220 179
0 219 178
0 221 180
0 219 178
0 220 178
0 221 179
0 221 179
0 219 178
0 220 180
0 220 180
0 221 180
0 218 178
0 221 180
0 219 179
0 220 181
0 220 180
0 219 180
0 220 181
0 219 178
0 220 180
0 221 180
0 220 180
0 221 181
0 220 181
0 221 180
0 222 181
0 220 180
0 221 181
0 221 181
0 220 180
0 220 180
0 222 181
0 220 179
0 219 180
0 220 180
0 220 179
0 221 181
0 220 181
0 221 181
0 221 180
0 221 181
0 221 181
0 222 181
0 220 181
0 221 181
0 221 181
0 220 181
0 221 181
0 221 181
0 221 181
0 221 181
0 221 181
0 221 181
0 220 181
0 220 180
0 222 181
0 222 181
0 221 180
0 221 181
0 222 181
0 221 181
0 222 181
0 223 181
0 221 180
0 221 181
0 221 181
0 222 181
0 221 181
0 221 181
0 222 181
0 220 180
0 221 181
0 220 180
0 221 181
0 220 181
0 221 181
0 222 181
0 221 181
0 221 181
0 222 181
0 221 180
0 221 181
0 221 181
0 221 181
0 220 180
0 222 181
0 221 181
0 222 181
0 221 181
0 221 180
0 221 181
0 221 181
0 221 180
0 220 181
0 221 181
0 222 181
0 221 181
0 221 181
0 221 181
0 222 181
0 221 181
0 221 181
0 221 181
0 220 181
0 220 180
0 221 181
0 222 181
0 221 181
0 222 181
0 222 181
0 220 181
0 220 181
0 222 181
0 221 181
0 222 181
0 220 181
0 221 181
0 222 181
0 221 181
0 221 181
0 221 181
0 222 181
0 222 181
0 221 181
0 222 181
0 222 181
0 222 181
0 222 181
0 221 181
0 221 181
0 222 181
0 221 181
0 221 181
0 221 181
0 222 181
0 222 181
0 222 181
0 220 181
0 222 181
0 222 181
0 221 181
0 221 181
0 222 181
0 221 181
0 221 181
0 222 181
0 221 181
0 222 181
0 221 181
0 221 181
0 220 181
0 222 181
0 222 181
0 221 181
0 221 181
0 221 181
0 222 181
0 222 181
0 221 181
0 221 181
0 221 181
0 221 181
0 220 181
0 221 181
0 221 181
0 221 181
0 220 181
0 221 181
0 221 181
0 221 181
0 223 181
0 221 181
0 222 181
0 222 181
0 222 181
0 221 181
0 221 181
0 221 181
0 221 180
0 221 181
0 221 181
0 221 181
0 221 181
0 221 180
0 220 181
0 221 181
0 221 181
0 221 181
0 222 181
0 222 181
0 221 181
0 220 181
0 221 181
0 220 181
0 222 181
0 222 181
0 220 181
0 222 181
0 221 181
0 221 181
0 221 181
0 221 181
0 221 181
0 222 181
0 221 181
0 221 181
0 221 181
0 222 181
0 222 181
0 221 181
0 220 181
0 221 181
0 221 181
0 221 181
0 221 181
0 221 181
0 221 181
0 221 181
0 221 181
0 221 181
0 221 181
0 222 181
0 221 181
0 221 181
0 222 181
0 221 181
0 221 181
0 220 180
0 222 181
0 221 181
0 221 181
0 221 181
0 222 181
0 221 181
0 220 180
0 221 181
0 222 181
0 220 180
0 220 181
0 220 181
0 220 181
0 221 181
0 220 180
0 220 181
0 220 180
0 222 181
0 221 181
0 221 181
0 221 181
0 220 180
0 221 181
0 222 181
0 221 181
0 220 181
0 223 181
0 219 179
0 221 181
0 221 181
0 217 178
0 222 181
0 220 181
0 221 181
0 221 180
0 220 180
0 221 181
0 221 181
0 220 179
0 221 181
0 222 181
0 221 181
0 219 180
0 220 180
0 220 180
0 222 181
0 220 181
0 221 181
0 221 181
0 220 180
0 221 181
0 220 180
0 222 181
0 221 181
0 220 180
0 219 179
0 219 179
0 217 177
0 220 181
0 219 180
0 219 180
0 221 181
0 220 179
0 218 179
0 220 179
0 220 179
0 220 179
0 219 179
0 216 178
0 219 178
0 218 178
0 217 177
0 219 179
0 220 179
0 219 179
0 218 179
0 214 176
0 220 180
0 219 179
59 222 186
166 231 225
215 235 252
218 234 255
216 233 255
214 231 255
212 231 255
212 230 255
212 230 255
212 231 255
212 231 255
213 231 255
214 231 255
217 233 255
219 234 255
189 206 234
66 103 177
57 99 171
56 100 170
56 99 170
48 115 163
52 102 165
55 99 169
53 99 165
58 100 173
55 99 169
57 100 173
57 99 172
58 100 173
59 100 175
60 100 174
57 99 171
57 99 171
55 99 169
57 99 171
57 100 170
55 100 168
57 100 172
53 98 166
57 100 171
57 100 172
56 100 169
54 99 167
56 100 169
55 99 168
50 99 161
52 98 161
50 97 158
14 113 80
0 94 44
7 107 50
5 119 54
20 100 47
28 118 54
30 115 54
34 121 55
27 129 60
27 125 58
43 135 64
44 134 64
58 144 68
48 139 65
33 126 58
55 130 63
38 142 84
28 185 130
0 202 150
0 202 151
0 195 148
0 203 157
0 205 158
0 207 163
0 214 168
0 203 158
0 209 168
0 214 172
0 215 173
0 214 171
0 216 172
0 215 172
0 214 170
0 216 174
0 217 173
0 216 173
0 219 178
0 218 176
0 219 177
0 217 175
0 219 178
0 219 177
0 219 178
0 219 178
0 217 176
0 220 178
0 219 177
0 219 178
0 219 177
0 220 179
0 220 178
0 216 175
0 221 181
0 219 179
0 220 179
0 221 181
0 221 180
0 221 180
0 220 180
0 221 180
0 219 178
0 222 180
0 222 181
0 220 180
0 220 180
0 221 181
0 220 180
0 220 179
0 219 178
0 221 181
0 220 180
0 221 181
0 220 181
0 221 180
0 221 180
0 220 181
0 222 181
0 221 181
0 221 179
0 221 181
0 222 181
0 221 180
0 221 180
0 221 181
0 219 180
0 221 181
0 221 181
0 222 181
0 222 181
0 221 181
0 221 181
0 222 181
0 221 181
0 220 179
0 221 180
0 221 181
0 221 181
0 222 181
0 220 181
0 221 180
0 221 180
0 222 181
0 221 181
0 221 181
0 221 181
0 221 180
0 221 180
0 220 180
0 220 180
0 221 181
0 221 181
0 222 181
0 221 181
0 220 180
0 221 180
0 222 181
0 221 180
0 222 181
0 221 181
0 222 181
0 221 181
0 220 181
0 221 181
0 222 181
0 221 181
0 221 181
0 221 181
0 221 181
0 222 181
0 221 180
0 221 181
0 221 181
0 220 181
0 221 181
0 221 181
0 221 181
0 221 181
0 221 181
0 221 181
0 221 181
0 221 181
0 221 181
0 221 181
0 221 181
0 221 181
0 221 181
0 222 181
0 221 181
0 222 181
0 221 181
0 221 181
0 221 181
0 222 181
0 220 181
0 220 181
0 222 181
0 222 181
0 221 181
0 221 181
0 221 181
0 222 181
0 221 181
0 222 181
0 221 181
0 222 181
0 220 181
0 222 181
0 222 181
0 221 181
0 222 181
0 222 181
0 221 181
0 221 181
0 221 181
0 221 181
0 222 181
0 221 181
0 220 181
0 221 181
0 221 181
0 221 181
0 221 181
0 222 181
0 221 181
0 221 181
0 221 181
0 222 181
0 222 181
0 221 181
0 220 181
0 221 181
0 221 181
0 221 181
0 221 181
0 221 181
0 221 181
0 221 181
0 222 181
0 221 181
0 222 181
0 221 181
0 221 181
0 222 181
0 221 181
0 221 181
0 221 181
0 222 181
0 222 181
0 222 181
0 221 181
0 222 181
0 221 181
0 220 180
0 220 181
0 220 180
0 222 181
0 220 181
0 220 181
0 221 181
0 220 181
0 221 181
0 221 181
0 222 181
0 222 181
0 222 181
0 222 181
0 222 181
0 222 181
0 222 181
0 220 181
0 221 181
0 221 181
0 222 181
0 221 181
0 222 181
0 221 181
0 221 181
0 222 181
0 221 181
0 220 181
0 222 181
0 222 181
0 221 181
0 222 181
0 220 181
0 221 181
0 221 181
0 221 181
0 222 181
0 221 181
0 221 180
0 221 181
0 222 181
0 221 181
0 220 180
0 220 180
0 220 181
0 221 181
0 222 181
0 221 181
0 222 181
0 221 181
0 220 180
0 221 181
0 221 180
0 221 180
0 221 181
0 221 181
0 222 181
0 220 180
0 222 181
0 221 181
0 222 181
0 221 181
0 221 181
0 220 181
0 221 181
0 220 181
0 221 181
0 222 181
0 221 181
0 222 181
0 220 180
0 221 181
0 221 181
0 222 181
0 222 181
0 222 181
0 222 181
0 220 180
0 221 181
0 222 181
0 222 181
0 220 180
0 220 180
0 221 181
0 221 181
0 221 181
0 220 180
0 221 181
0 221 180
0 220 180
0 221 181
0 221 181
0 220 180
0 221 181
0 221 180
0 221 181
0 222 181
0 220 180
0 220 180
0 219 179
0 220 180
0 222 181
0 222 181
0 221 181
0 219 179
0 220 180
0 221 180
0 221 180
0 220 180
0 221 180
0 221 180
0 219 179
0 220 181
0 219 179
0 220 180
0 221 181
0 221 181
0 219 180
0 221 180
0 219 179
0 217 178
0 220 180
0 217 177
0 217 178
0 221 181
0 218 179
0 218 179
0 219 179
0 221 180
0 217 178
0 220 179
0 219 180
0 218 179
0 218 178
0 219 179
0 217 178
0 216 175
0 219 179
0 220 180
129 227 208
216 235 252
218 234 255
215 232 255
212 230 255
213 231 255
217 233 255
211 233 250
184 231 235
175 231 230
166 230 225
159 229 222
188 231 237
189 232 238
211 232 252
216 233 255
216 232 255
155 175 218
61 100 179
58 100 175
56 99 171
55 100 169
52 107 166
51 100 163
54 100 166
55 100 170
55 100 169
55 98 169
53 99 167
57 100 171
56 100 169
53 100 166
55 99 168
55 100 168
57 100 170
56 100 169
56 101 169
59 101 173
55 100 168
55 99 168
56 100 168
56 100 169
54 100 167
53 100 165
57 100 170
53 99 164
49 99 158
48 97 155
46 99 149
0 139 94
0 126 75
0 97 40
0 97 42
0 89 40
0 111 48
0 110 49
6 101 44
28 126 58
0 123 55
28 126 58
27 110 50
0 122 55
28 118 52
19 125 60
33 158 95
0 185 128
0 196 140
0 189 138
0 195 148
0 198 142
0 203 155
0 208 164
0 208 162
0 208 160
0 211 166
0 211 167
0 209 167
0 210 164
0 216 176
0 214 171
0 216 176
0 214 171
0 212 170
0 215 174
0 217 177
0 218 177
0 219 179
0 218 176
0 220 179
0 215 170
0 218 177
0 214 172
0 219 180
0 218 177
0 221 180
0 217 176
0 220 178
0 218 179
0 219 178
0 220 180
0 220 179
0 219 178
0 220 180
0 218 177
0 219 178
0 216 176
0 219 179
0 220 179
0 221 179
0 219 179
0 221 179
0 220 180
0 218 178
0 220 179
0 222 180
0 221 181
0 221 181
0 221 181
0 221 181
0 221 181
0 221 180
0 221 181
0 221 181
0 220 180
0 220 181
0 221 180
0 221 180
0 220 179
0 223 181
0 222 181
0 220 181
0 221 180
0 221 181
0 219 180
0 221 181
0 221 181
0 220 180
0 220 181
0 221 181
0 221 181
0 221 181
0 219 178
0 222 181
0 221 181
0 220 181
0 221 181
0 221 180
0 221 181
0 221 180
0 221 181
0 221 181
0 221 181
0 220 180
0 221 181
0 222 181
0 221 181
0 221 181
0 221 181
0 220 181
0 221 181
0 222 181
0 222 181
0 221 181
0 222 181
0 220 180
0 220 181
0 221 181
0 222 181
0 221 181
0 221 181
0 221 181
0 222 181
0 222 181
0 222 181
0 221 181
0 221 181
0 220 180
0 221 181
0 222 181
0 223 181
0 221 181
0 221 181
0 221 181
0 220 181
0 222 181
0 222 181
0 221 181
0 221 181
0 221 181
0 221 181
0 221 181
0 220 180
0 221 181
0 222 181
0 221 181
0 221 181
0 221 181
0 221 181
0 221 181
0 222 181
0 220 180
0 221 181
0 221 181
0 221 181
0 221 181
0 220 181
0 221 181
0 221 181
0 222 181
0 220 181
0 221 181
0 221 181
0 222 181
0 222 181
0 222 181
0 221 181
0 220 180
0 221 181
0 223 181
0 221 181
0 222 181
0 222 181
0 222 181
0 221 181
0 221 181
0 221 181
0 221 181
0 221 181
0 222 181
0 221 181
0 221 181
0 221 181
0 221 181
0 222 181
0 221 181
0 221 181
0 221 181
0 221 181
0 221 181
0 222 181
0 222 181
0 222 181
0 220 181
0 221 181
0 221 181
0 221 181
0 222 181
0 222 181
0 221 181
0 221 181
0 220 181
0 221 181
0 221 180
0 220 181
0 221 181
0 222 181
0 222 181
0 222 181
0 221 181
0 221 181
0 221 181
0 221 181
0 221 181
0 221 181
0 221 181
0 222 181
0 221 181
0 221 181
0 221 181
0 221 181
0 221 181
0 222 181
0 222 181
0 221 181
0 221 181
0 220 180
0 221 181
0 222 181
0 221 181
0 221 181
0 221 181
0 221 181
0 222 181
0 221 181
0 221 181
0 222 181
0 222 181
0 221 181
0 221 181
0 221 181
0 222 181
0 221 181
0 221 181
0 221 181
0 222 181
0 221 181
0 221 181
0 221 181
0 222 181
0 220 181
0 221 181
0 221 181
0 221 181
0 220 181
0 221 181
0 221 181
0 222 181
0 220 180
0 221 181
0 221 181
0 221 181
0 221 181
0 221 180
0 221 181
0 221 181
0 221 181
0 221 181
0 222 181
0 221 181
0 221 181
0 222 181
0 220 181
0 221 181
0 221 181
0 221 181
0 221 180
0 221 181
0 220 179
0 221 181
0 219 180
0 220 181
0 222 181
0 221 181
0 221 181
0 221 181
0 221 181
0 221 181
0 221 181
0 221 181
0 222 181
0 221 181
0 221 180
0 221 181
0 221 181
0 222 181
0 220 180
0 222 181
0 221 180
0 221 181
0 222 181
0 221 181
0 222 181
0 221 181
0 219 179
0 220 180
0 221 181
0 220 180
0 220 181
0 220 181
0 222 181
0 220 180
0 221 181
0 221 181
0 221 180
0 221 181
0 221 181
0 221 181
0 221 181
0 220 181
0 220 180
0 220 180
0 219 181
0 221 180
0 219 180
0 222 181
0 221 181
0 220 180
0 219 179
0 219 180
0 220 180
0 221 181
0 222 181
0 220 180
0 221 180
0 221 180
0 221 181
0 218 178
0 221 180
0 218 178
0 219 178
0 219 178
0 221 181
0 218 179
0 217 178
0 218 178
0 217 178
0 214 176
0 218 179
50 222 185
183 232 233
220 235 255
215 232 255
213 231 255
218 233 255
194 232 240
133 227 210
78 222 190
0 220 180
0 220 179
0 221 180
0 219 178
0 218 177
0 221 181
0 222 181
0 221 181
81 144 181
95 125 186
159 180 220
131 155 206
61 100 178
58 99 173
58 100 173
56 99 169
50 101 162
54 100 167
54 99 168
53 97 166
56 99 169
54 100 167
54 99 167
55 100 169
54 99 166
57 100 171
56 100 170
54 99 168
56 100 168
54 99 166
53 100 165
56 100 170
53 100 166
54 99 166
55 101 168
52 100 165
54 100 165
53 100 164
48 99 158
50 99 161
53 98 161
31 105 124
0 139 98
0 128 76
0 122 73
0 113 67
0 112 63
0 115 65
0 107 44
0 101 40
0 109 46
19 107 46
19 112 50
28 118 57
19 148 90
0 154 92
0 158 99
0 180 125
0 181 125
0 188 135
0 188 136
0 197 150
0 197 147
0 204 154
0 203 153
0 207 161
0 205 158
0 209 163
0 212 167
0 212 167
0 213 168
0 216 171
0 215 173
0 218 176
0 212 168
0 213 170
0 218 176
0 216 174
0 218 177
0 217 176
0 213 172
0 219 176
0 218 176
0 216 175
0 219 177
0 218 176
0 219 179
0 219 178
0 219 177
0 219 177
0 219 179
0 219 177
0 218 177
0 221 179
0 221 180
0 219 177
0 222 181
0 221 181
0 220 178
0 219 179
0 220 180
0 221 180
0 219 180
0 219 179
0 221 181
0 221 180
0 219 178
0 222 181
0 220 179
0 221 180
0 220 179
0 219 179
0 221 181
0 222 181
0 220 180
0 221 180
0 220 179
0 222 181
0 220 179
0 221 180
0 220 180
0 222 181
0 221 181
0 221 181
0 221 181
0 221 180
0 219 179
0 223 181
0 221 181
0 221 181
0 222 181
0 222 181
0 220 179
0 221 181
0 220 180
0 220 181
0 221 181
0 221 180
0 222 181
0 222 181
0 220 181
0 221 181
0 221 181
0 220 181
0 221 181
0 221 181
0 221 181
0 222 181
0 221 180
0 220 180
0 221 181
0 219 178
0 220 181
0 221 181
0 221 181
0 221 181
0 222 181
0 220 179
0 221 181
0 221 181
0 222 180
0 222 181
0 222 181
0 220 180
0 221 181
0 222 181
0 221 180
0 222 181
0 221 181
0 221 181
0 221 181
0 221 181
0 221 181
0 221 181
0 222 181
0 220 181
0 222 181
0 220 181
0 221 181
0 221 181
0 222 181
0 221 181
0 222 181
0 221 181
0 222 181
0 221 181
0 221 181
0 221 181
0 221 181
0 221 181
0 222 181
0 221 181
0 222 181
0 221 181
0 221 181
0 220 181
0 221 181
0 221 181
0 222 181
0 221 181
0 221 181
0 222 181
0 221 181
0 221 181
0 221 181
0 221 181
0 221 181
0 222 181
0 221 181
0 222 181
0 221 181
0 220 181
0 222 181
0 221 181
0 222 181
0 222 181
0 220 181
0 220 181
0 222 181
0 222 181
0 221 181
0 222 181
0 222 181
0 221 181
0 222 181
0 222 181
0 221 181
0 221 181
0 221 181
0 221 181
0 221 181
0 221 181
0 221 181
0 221 181
0 221 181
0 221 181
0 221 181
0 222 181
0 222 181
0 222 181
0 221 181
0 221 181
0 221 181
0 222 181
0 220 181
0 221 181
0 222 181
0 222 181
0 221 181
0 221 181
0 222 181
0 221 181
0 220 181
0 221 181
0 222 181
0 222 181
0 221 181
0 222 181
0 220 181
0 221 181
0 222 181
0 221 181
0 221 181
0 221 181
0 220 181
0 220 181
0 220 181
0 221 181
0 221 181
0 220 180
0 221 181
0 221 181
0 221 181
0 222 181
0 222 181
0 221 181
0 221 181
0 222 181
0 221 181
0 221 181
0 220 180
0 221 181
0 222 181
0 220 181
0 221 181
0 221 181
0 221 181
0 222 181
0 222 181
0 222 181
0 220 181
0 221 181
0 222 181
0 222 181
0 221 181
0 222 181
0 221 181
0 221 181
0 222 181
0 221 181
0 221 181
0 222 181
0 221 181
0 221 181
0 220 181
0 220 181
0 221 181
0 221 181
0 222 181
0 221 181
0 221 180
0 221 181
0 222 181
0 220 180
0 221 180
0 220 180
0 221 181
0 220 180
0 221 181
0 221 181
0 222 181
0 220 180
0 221 181
0 221 181
0 222 180
0 222 181
0 220 181
0 222 180
0 222 181
0 220 180
0 222 181
0 220 180
0 222 180
0 221 181
0 221 181
0 221 181
0 221 181
0 220 180
0 221 181
0 221 181
0 220 181
0 222 181
0 219 179
0 221 181
0 220 181
0 221 180
0 221 180
0 221 181
0 222 181
0 221 181
0 221 181
0 220 180
0 221 181
0 221 181
0 220 180
0 220 180
0 221 180
0 220 180
0 220 180
0 221 181
0 219 179
0 219 179
0 221 180
0 222 181
0 222 181
0 221 180
0 223 181
0 220 180
0 220 179
0 219 179
0 219 180
0 220 178
0 221 181
0 221 179
0 219 180
0 219 179
0 220 180
0 220 179
0 220 180
0 218 178
0 220 178
0 218 178
0 221 181
0 220 180
0 220 179
0 219 180
0 214 176
0 218 178
0 216 176
0 219 179
81 223 192
196 233 240
219 234 255
214 232 255
214 233 254
177 231 231
59 223 187
0 221 181
0 219 179
0 219 179
0 221 181
0 217 177
0 219 177
0 215 176
0 216 176
0 219 179
0 221 180
0 210 172
46 132 165
56 99 170
55 100 169
83 116 183
60 100 177
62 100 179
58 100 173
56 100 171
59 100 174
51 99 161
54 100 167
50 97 161
55 100 169
54 100 167
54 99 167
55 99 167
53 99 167
55 99 167
57 100 170
51 100 163
53 100 164
52 100 165
54 100 166
51 100 164
53 100 166
54 100 167
53 100 165
55 99 165
54 100 165
49 99 159
51 98 160
46 98 154
46 98 152
19 121 102
0 144 95
0 126 82
0 125 82
0 129 79
0 124 72
0 132 80
0 136 81
0 142 82
0 125 62
0 131 80
0 140 84
0 160 98
0 155 98
0 163 106
0 165 110
0 175 115
0 182 128
0 189 139
0 187 134
0 195 146
0 194 148
0 200 147
0 206 157
0 201 153
0 203 159
0 208 164
0 209 164
0 211 168
0 215 171
0 212 169
0 216 171
0 211 167
0 217 175
0 215 172
0 213 169
0 215 173
0 212 170
0 215 170
0 216 174
0 216 175
0 217 175
0 219 177
0 217 176
0 219 178
0 220 180
0 221 181
0 215 174
0 220 179
0 219 177
0 221 180
0 221 179
0 220 180
0 219 180
0 220 179
0 220 177
0 220 178
0 221 179
0 219 177
0 217 177
0 220 180
0 220 181
0 221 181
0 221 181
0 220 179
0 220 180
0 221 181
0 220 180
0 219 178
0 221 181
0 220 180
0 219 178
0 222 181
0 220 180
0 220 180
0 221 180
0 220 180
0 221 178
0 221 179
0 221 181
0 222 181
0 221 181
0 221 181
0 221 181
0 220 181
0 221 181
0 221 180
0 221 181
0 221 179
0 220 180
0 221 181
0 222 181
0 222 181
0 220 181
0 221 181
0 221 181
0 221 181
0 221 181
0 220 181
0 221 181
0 222 181
0 221 181
0 221 181
0 221 181
0 221 181
0 221 181
0 220 181
0 219 179
0 222 181
0 221 181
0 220 181
0 222 180
0 222 180
0 220 180
0 221 181
0 221 181
0 220 180
0 221 181
0 221 181
0 222 181
0 222 181
0 221 181
0 221 181
0 219 180
0 221 181
0 222 181
0 221 181
0 221 180
0 221 181
0 222 181
0 222 181
0 221 181
0 221 181
0 221 181
0 220 181
0 223 181
0 222 181
0 222 181
0 222 181
0 221 181
0 221 181
0 221 181
0 221 181
0 222 181
0 222 181
0 221 181
0 220 181
0 221 181
0 222 181
0 221 181
0 221 181
0 220 180
0 222 181
0 222 181
0 222 181
0 221 180
0 222 181
0 221 181
0 221 180
0 221 181
0 221 181
0 221 181
0 222 181
0 220 180
0 221 181
0 222 181
0 221 181
0 221 181
0 221 181
0 221 181
0 221 181
0 221 181
0 221 181
0 221 181
0 222 181
0 221 181
0 221 181
0 221 181
0 221 181
0 221 180
0 222 181
0 222 181
0 222 181
0 220 181
0 222 181
0 221 181
0 220 181
0 221 181
0 221 181
0 222 181
0 222 181
0 221 181
0 222 181
0 221 181
0 220 181
0 221 181
0 222 181
0 221 181
0 222 181
0 222 181
0 221 181
0 221 181
0 221 181
0 222 181
0 221 181
0 222 181
0 222 181
0 222 181
0 222 181
0 221 181
0 221 181
0 221 181
0 222 181
0 222 181
0 221 181
0 222 181
0 221 181
0 220 180
0 221 180
0 221 181
0 221 181
0 221 181
0 222 181
0 221 181
0 220 181
0 221 181
0 222 181
0 222 181
0 221 181
0 221 181
0 221 181
0 221 181
0 221 181
0 221 181
0 221 181
0 222 181
0 221 181
0 221 181
0 223 181
0 221 181
0 221 181
0 220 180
0 221 181
0 221 181
0 221 181
0 221 181
0 221 181
0 221 181
0 222 181
0 221 181
0 221 181
0 221 181
0 220 180
0 221 181
0 221 181
0 221 181
0 222 181
0 220 180
0 222 181
0 221 181
0 220 180
0 223 181
0 220 180
0 222 181
0 221 181
0 221 181
0 220 181
0 220 180
0 222 181
0 221 181
0 221 181
0 221 181
0 221 181
0 221 181
0 221 181
0 221 181
0 222 181
0 221 181
0 221 181
0 221 181
0 219 179
0 221 181
0 221 181
0 221 180
0 222 181
0 221 181
0 221 180
0 222 181
0 221 181
0 220 181
0 222 181
0 221 181
0 221 181
0 221 181
0 221 181
0 220 180
0 220 181
0 221 181
0 221 181
0 221 180
0 220 181
0 220 181
0 222 181
0 221 180
0 221 180
0 220 180
0 220 180
0 220 181
0 221 181
0 220 180
0 221 181
0 220 180
0 220 179
0 220 180
0 221 181
0 221 180
0 220 180
0 220 180
0 220 180
0 221 181
0 219 179
0 220 179
0 220 180
0 220 181
0 219 179
0 221 181
0 220 180
0 218 179
0 221 181
0 218 179
0 220 180
0 221 180
0 221 181
0 220 180
0 221 180
0 220 180
0 216 177
0 220 180
0 217 178
0 221 181
0 218 179
0 217 177
0 218 179
0 221 180
0 219 179
0 217 178
0 218 178
0 221 180
45 221 184
200 234 242
219 234 255
215 232 255
197 232 242
98 224 196
0 220 180
0 220 180
0 217 177
0 220 179
0 218 178
0 216 177
0 218 178
0 216 176
0 210 171
0 213 175
0 216 178
0 216 176
0 215 175
29 178 168
50 98 160
52 98 163
56 100 169
56 100 169
60 99 177
60 99 177
57 100 171
57 100 171
51 99 162
51 98 162
50 102 161
51 98 164
51 99 164
53 99 165
51 99 164
53 100 165
52 99 165
50 100 163
52 100 163
55 100 169
52 99 165
51 100 163
51 99 161
49 99 160
49 98 159
52 99 162
47 100 157
52 100 163
48 98 157
44 99 153
42 96 146
44 103 148
11 130 98
0 139 97
0 164 119
0 147 103
0 136 91
0 141 97
0 140 89
0 143 90
0 134 81
0 149 103
0 152 98
0 153 98
0 162 106
0 165 109
0 175 123
0 179 123
0 186 137
0 188 136
0 189 136
0 188 140
0 201 150
0 197 151
0 202 156
0 206 157
0 203 158
0 191 143
0 208 166
0 213 171
0 211 167
0 210 166
0 211 170
0 210 166
0 211 168
0 212 167
0 211 166
0 213 169
0 214 173
0 214 170
0 214 175
0 218 175
0 216 175
0 215 173
0 218 177
0 219 177
0 218 176
0 215 174
0 219 177
0 221 180
0 218 177
0 219 178
0 220 178
0 217 175
0 221 180
0 217 176
0 219 178
0 218 176
0 217 177
0 218 178
0 220 180
0 221 181
0 221 181
0 220 178
0 220 178
0 220 181
0 221 180
0 218 177
0 220 180
0 221 180
0 218 178
0 219 179
0 219 180
0 220 179
0 219 180
0 220 179
0 221 181
0 220 179
0 221 180
0 221 180
0 220 180
0 220 180
0 220 181
0 221 181
0 221 181
0 220 179
0 219 178
0 221 181
0 221 180
0 218 179
0 220 179
0 222 180
0 219 179
0 220 179
0 221 181
0 221 181
0 221 181
0 221 180
0 222 181
0 221 181
0 221 181
0 221 181
0 221 181
0 222 181
0 221 181
0 220 180
0 221 181
0 222 181
0 221 181
0 222 181
0 221 181
0 221 181
0 222 181
0 221 181
0 220 180
0 221 181
0 222 181
0 222 181
0 221 181
0 222 181
0 220 180
0 222 181
0 221 181
0 220 180
0 222 181
0 221 181
0 222 181
0 222 181
0 221 181
0 221 181
0 222 181
0 221 181
0 222 181
0 221 181
0 221 180
0 221 181
0 222 181
0 222 181
0 221 181
0 221 181
0 221 181
0 221 181
0 221 181
0 221 181
0 221 181
0 221 181
0 221 181
0 222 181
0 221 181
0 221 181
0 222 181
0 222 181
0 219 180
0 220 181
0 221 181
0 222 181
0 221 181
0 221 181
0 221 181
0 222 181
0 221 181
0 221 181
0 221 181
0 220 181
0 221 181
0 221 181
0 221 181
0 222 181
0 221 181
0 221 181
0 221 181
0 222 181
0 221 181
0 222 181
0 221 181
0 221 181
0 221 181
0 222 181
0 221 181
0 222 181
0 221 181
0 220 181
0 221 181
0 221 181
0 222 181
0 221 181
0 221 181
0 223 181
0 220 181
0 221 181
0 221 181
0 222 181
0 222 181
0 221 181
0 222 181
0 221 181
0 221 181
0 222 181
0 222 181
0 221 181
0 221 181
0 221 181
0 221 181
0 222 181
0 221 181
0 221 181
0 222 181
0 221 181
0 220 181
0 221 180
0 220 181
0 220 181
0 221 181
0 222 181
0 221 181
0 222 181
0 221 181
0 220 181
0 221 181
0 222 181
0 223 181
0 222 181
0 221 181
0 221 181
0 221 181
0 222 181
0 222 181
0 221 181
0 222 181
0 221 181
0 221 181
0 222 181
0 221 180
0 220 181
0 221 181
0 222 181
0 221 181
0 222 181
0 221 181
0 220 181
0 221 181
0 222 181
0 221 181
0 221 181
0 221 181
0 221 181
0 222 181
0 222 181
0 222 181
0 221 181
0 220 181
0 221 181
0 221 181
0 221 181
0 221 181
0 222 181
0 222 181
0 222 181
0 220 181
0 221 181
0 221 181
0 222 181
0 219 179
0 221 180
0 221 181
0 220 181
0 222 181
0 220 181
0 222 181
0 220 181
0 222 181
0 222 181
0 221 181
0 221 181
0 221 181
0 221 181
0 221 180
0 221 181
0 220 181
0 221 181
0 220 180
0 220 181
0 220 181
0 221 181
0 220 181
0 220 180
0 221 181
0 220 180
0 220 181
0 221 181
0 221 181
0 221 181
0 221 181
0 219 179
0 221 181
0 222 181
0 222 181
0 221 181
0 221 181
0 221 181
0 222 181
0 221 181
0 220 181
0 221 181
0 220 180
0 219 180
0 220 180
0 220 180
0 222 181
0 221 181
0 220 180
0 221 180
0 222 181
0 219 180
0 220 180
0 221 181
0 220 179
0 220 180
0 220 181
0 221 181
0 219 180
0 221 181
0 221 181
0 220 180
0 218 179
0 219 179
0 220 179
0 220 180
0 219 179
0 220 180
0 220 180
0 221 180
0 221 180
0 220 179
0 220 179
0 217 178
0 219 179
0 219 179
0 220 180
0 218 179
0 217 178
0 221 181
0 219 179
0 217 179
0 219 179
0 216 178
0 221 180
0 216 176
0 219 179
0 221 181
175 231 229
219 234 255
216 232 255
171 230 228
31 221 181
0 221 181
0 218 178
0 218 179
0 212 174
0 218 179
0 218 178
0 217 178
0 217 178
0 214 175
0 214 175
0 214 176
0 217 176
0 204 167
0 209 171
0 210 172
43 117 158
47 99 158
53 98 163
56 99 171
51 98 164
56 100 170
58 100 173
57 100 171
54 98 167
45 98 155
47 100 158
53 99 165
48 98 158
50 98 160
51 100 162
49 100 161
50 99 161
49 98 158
51 99 161
53 100 165
54 100 166
53 99 163
52 99 164
52 100 164
52 99 162
47 100 157
50 99 161
51 99 161
49 98 158
47 97 154
43 94 146
27 128 127
0 154 110
0 162 119
0 158 111
0 144 105
0 156 107
0 147 102
0 160 113
0 152 97
0 157 111
0 167 115
0 172 115
0 170 117
0 177 122
0 185 135
0 182 127
0 177 127
0 181 128
0 183 132
0 197 147
0 191 142
0 198 147
0 202 154
0 207 162
0 199 155
0 206 159
0 202 157
0 203 159
0 214 168
0 205 161
0 215 173
0 211 165
0 213 169
0 213 168
0 210 168
0 215 172
0 216 173
0 218 175
0 215 171
0 220 179
0 215 173
0 216 173
0 219 178
0 213 171
0 220 179
0 212 170
0 217 175
0 219 178
0 220 177
0 214 173
0 221 180
0 218 176
0 218 177
0 218 177
0 219 179
0 221 180
0 221 179
0 219 179
0 220 179
0 219 180
0 221 180
0 221 181
0 220 179
0 219 179
0 219 178
0 221 181
0 220 180
0 220 179
0 220 180
0 221 181
0 221 181
0 220 180
0 220 180
0 221 180
0 222 181
0 220 180
0 219 178
0 220 180
0 221 181
0 221 181
0 221 181
0 220 179
0 221 179
0 221 180
0 222 181
0 221 181
0 221 180
0 220 180
0 219 179
0 221 181
0 221 181
0 221 181
0 219 180
0 220 179
0 219 179
0 220 181
0 221 181
0 221 181
0 221 181
0 220 180
0 221 181
0 220 181
0 221 181
0 220 180
0 222 180
0 220 180
0 221 180
0 221 181
0 221 181
0 221 180
0 221 181
0 221 181
0 222 181
0 221 181
0 221 181
0 222 181
0 221 181
0 221 181
0 220 181
0 222 181
0 222 181
0 222 181
0 221 181
0 221 181
0 221 181
0 222 181
0 221 181
0 222 181
0 221 181
0 222 181
0 221 180
0 221 181
0 222 181
0 220 181
0 221 181
0 221 181
0 221 181
0 222 181
0 221 181
0 221 181
0 222 181
0 221 181
0 221 181
0 221 181
0 221 181
0 222 181
0 220 181
0 222 181
0 221 181
0 221 181
0 221 181
0 221 181
0 221 181
0 223 181
0 221 181
0 221 180
0 223 181
0 221 180
0 221 181
0 221 181
0 221 181
0 220 181
0 222 181
0 222 181
0 222 181
0 222 181
0 222 181
0 222 181
0 221 181
0 221 181
0 223 181
0 222 181
0 222 181
0 221 181
0 221 181
0 222 181
0 221 181
0 223 181
0 220 181
0 221 181
0 221 181
0 221 181
0 221 181
0 220 181
0 221 181
0 222 181
0 222 181
0 221 181
0 220 181
0 221 181
0 221 181
0 221 181
0 221 181
0 220 181
0 222 181
0 221 181
0 221 181
0 221 181
0 221 181
0 221 181
0 222 181
0 221 181
0 222 181
0 222 181
0 221 181
0 221 181
0 222 181
0 222 181
0 221 181
0 221 181
0 221 181
0 222 181
0 221 181
0 222 181
0 222 181
0 221 181
0 221 181
0 220 181
0 222 181
0 222 181
0 221 181
0 221 181
0 221 181
0 221 181
0 221 181
0 221 181
0 222 181
0 220 181
0 221 181
0 222 181
0 220 180
0 220 180
0 221 181
0 221 181
0 222 181
0 221 181
0 222 181
0 221 181
0 221 181
0 221 181
0 221 181
0 221 181
0 221 181
0 221 181
0 221 181
0 221 181
0 222 181
0 221 181
0 221 180
0 221 181
0 221 181
0 220 180
0 222 181
0 221 181
0 221 181
0 221 181
0 221 181
0 221 181
0 221 181
0 221 181
0 221 181
0 222 181
0 221 181
0 222 181
0 221 181
0 222 181
0 221 181
0 221 181
0 220 180
0 220 180
0 221 181
0 221 181
0 221 181
0 221 181
0 221 181
0 222 181
0 221 181
0 220 181
0 221 181
0 221 181
0 218 179
0 222 181
0 222 181
0 221 181
0 221 181
0 221 181
0 222 181
0 220 181
0 221 181
0 221 181
0 221 181
0 222 181
0 220 180
0 221 181
0 221 181
0 220 180
0 221 181
0 221 181
0 221 181
0 219 180
0 221 180
0 220 180
0 219 180
0 220 180
0 220 181
0 222 181
0 220 179
0 221 181
0 221 181
0 220 180
0 221 181
0 221 181
0 221 181
0 221 181
0 220 180
0 220 180
0 220 180
0 221 180
0 220 180
0 221 181
0 221 180
0 219 179
0 220 179
0 222 181
0 219 180
0 220 181
0 220 181
0 219 180
0 220 179
0 221 181
0 221 181
0 221 181
0 220 180
0 220 180
0 216 177
0 220 180
0 218 178
0 219 180
0 218 179
0 218 178
0 220 180
0 219 179
0 217 177
0 219 179
0 219 180
0 217 178
0 220 180
0 220 180
127 227 207
221 235 255
216 233 255
156 228 220
0 219 180
0 220 179
0 219 178
0 221 180
0 218 179
0 216 177
0 218 179
0 214 177
0 212 175
0 217 177
0 217 178
0 216 177
0 211 175
0 211 174
0 207 169
0 210 172
0 208 170
28 179 167
39 99 148
48 99 159
49 99 162
52 99 163
54 99 167
56 99 170
54 99 169
53 99 165
51 100 162
49 99 159
50 102 162
46 97 154
50 100 161
53 99 164
51 99 162
48 98 157
50 97 159
52 100 164
47 100 157
53 100 165
50 100 161
51 100 162
48 100 157
48 98 157
45 98 155
47 99 157
42 98 151
47 99 157
44 96 150
35 99 132
0 157 119
0 162 125
0 158 117
0 154 112
0 131 89
0 152 105
0 159 115
0 156 112
0 158 114
0 174 128
0 160 114
0 161 105
0 170 118
0 175 126
0 176 125
0 183 132
0 189 140
0 186 137
0 187 140
0 187 138
0 188 139
0 194 145
0 201 153
0 203 154
0 200 154
0 203 155
0 200 156
0 201 156
0 206 163
0 207 163
0 210 167
0 213 169
0 214 172
0 219 177
0 214 172
0 213 170
0 212 170
0 216 173
0 216 174
0 216 172
0 219 177
0 218 178
0 214 173
0 217 175
0 217 174
0 218 176
0 217 177
0 218 177
0 217 175
0 219 178
0 219 178
0 218 177
0 218 177
0 217 178
0 221 179
0 219 179
0 220 180
0 220 181
0 220 179
0 221 181
0 220 178
0 222 181
0 222 181
0 221 180
0 219 177
0 221 181
0 221 180
0 222 180
0 221 180
0 220 180
0 219 178
0 221 181
0 221 179
0 220 180
0 222 181
0 221 181
0 221 180
0 221 181
0 220 180
0 220 180
0 221 179
0 220 179
0 219 180
0 221 181
0 222 181
0 222 181
0 222 181
0 221 181
0 222 181
0 222 181
0 221 181
0 221 181
0 221 181
0 220 180
0 221 181
0 221 181
0 221 180
0 222 181
0 222 181
0 221 181
0 221 181
0 221 181
0 222 181
0 221 181
0 222 181
0 221 181
0 220 180
0 220 181
0 223 181
0 221 181
0 221 181
0 220 180
0 221 180
0 221 181
0 221 181
0 221 181
0 221 181
0 221 181
0 221 181
0 222 181
0 222 181
0 221 181
0 221 181
0 222 181
0 220 181
0 221 181
0 220 180
0 221 181
0 221 181
0 221 180
0 221 181
0 221 181
0 221 180
0 221 181
0 221 181
0 222 181
0 220 181
0 223 181
0 221 181
0 220 180
0 221 181
0 220 181
0 221 181
0 221 181
0 220 181
0 221 181
0 222 181
0 221 181
0 222 181
0 221 181
0 221 181
0 221 181
0 221 181
0 222 181
0 221 180
0 222 181
0 221 180
0 221 181
0 222 181
0 221 181
0 222 181
0 222 181
0 221 181
0 221 181
0 221 180
0 222 181
0 221 181
0 220 181
0 221 181
0 221 181
0 221 181
0 222 181
0 220 181
0 221 181
0 221 181
0 221 181
0 221 181
0 221 181
0 221 181
0 221 181
0 221 181
0 223 181
0 221 181
0 221 181
0 221 181
0 221 181
0 221 181
0 221 181
0 221 181
0 221 181
0 222 181
0 222 181
0 221 181
0 221 181
0 220 181
0 222 181
0 221 181
0 221 181
0 222 181
0 221 181
0 221 181
0 221 181
0 221 181
0 222 181
0 222 181
0 222 181
0 222 181
0 221 181
0 221 181
0 222 181
0 222 181
0 221 181
0 221 181
0 221 181
0 222 181
0 221 181
0 222 181
0 221 181
0 221 181
0 221 181
0 221 181
0 221 181
0 221 181
0 222 181
0 221 181
0 221 181
0 221 181
0 222 181
0 221 180
0 221 181
0 221 181
0 221 181
0 221 181
0 221 181
0 222 181
0 222 181
0 221 181
0 221 181
0 222 181
0 221 181
0 221 181
0 222 181
0 222 181
0 221 180
0 221 181
0 222 181
0 222 181
0 222 181
0 221 181
0 221 180
0 221 181
0 221 181
0 220 180
0 222 181
0 222 181
0 221 181
0 221 181
0 221 181
0 221 181
0 221 181
0 222 181
0 222 181
0 220 180
0 221 180
0 221 181
0 220 180
0 221 181
0 221 181
0 221 181
0 220 181
0 221 181
0 222 181
0 221 181
0 220 180
0 220 180
0 222 181
0 220 181
0 222 181
0 221 181
0 220 180
0 222 181
0 221 181
0 221 181
0 220 180
0 220 179
0 221 181
0 220 180
0 221 180
0 221 181
0 221 181
0 220 180
0 222 181
0 220 181
0 221 181
0 221 181
0 221 181
0 221 180
0 221 180
0 221 181
0 220 181
0 221 181
0 222 181
0 221 181
0 221 181
0 222 181
0 221 181
0 221 181
0 220 180
0 220 181
0 221 181
0 220 180
0 219 179
0 221 181
0 221 180
0 221 181
0 220 180
0 220 180
0 220 179
0 218 178
0 221 181
0 220 180
0 220 181
0 222 181
0 219 180
0 220 180
0 221 180
0 220 180
0 220 180
0 218 179
0 222 181
0 220 179
0 218 178
0 218 179
0 219 179
0 221 180
0 219 179
0 217 177
0 219 179
0 219 179
0 219 179
0 219 179
0 215 176
0 218 178
0 219 179
0 220 179
0 218 178
0 220 180
31 222 182
214 235 250
218 234 255
155 228 220
0 221 180
0 219 179
0 219 179
0 218 178
0 217 179
0 219 179
0 219 178
0 215 176
0 215 176
0 213 175
0 212 175
0 213 175
0 212 175
0 206 170
0 199 167
0 209 172
0 207 171
0 199 162
0 202 167
33 131 148
48 99 157
46 98 156
50 98 161
50 98 160
52 99 165
52 99 166
54 100 167
54 99 166
55 100 168
44 106 155
47 100 156
50 97 158
45 99 155
52 99 163
49 100 160
50 99 160
49 99 158
46 97 155
50 100 160
49 100 160
48 98 157
47 99 156
49 99 158
45 98 153
49 98 157
44 96 148
47 98 155
43 97 144
13 149 124
0 144 111
0 160 124
0 170 132
0 162 122
0 150 114
0 157 116
0 162 121
0 159 118
0 174 134
0 163 116
0 172 130
0 179 133
0 173 124
0 181 139
0 181 135
0 190 139
0 190 146
0 191 136
0 188 140
0 192 143
0 199 152
0 197 147
0 195 147
0 201 155
0 207 159
0 204 158
0 207 162
0 210 166
0 207 162
0 206 161
0 214 169
0 210 168
0 213 172
0 215 171
0 205 162
0 219 176
0 211 168
0 216 173
0 217 175
0 220 178
0 215 175
0 218 177
0 215 174
0 218 174
0 218 176
0 220 179
0 217 178
0 218 177
0 219 177
0 218 178
0 220 179
0 218 177
0 219 179
0 221 178
0 221 180
0 219 178
0 220 180
0 221 181
0 221 181
0 221 180
0 222 181
0 218 176
0 221 180
0 219 179
0 220 179
0 219 177
0 221 180
0 221 180
0 220 179
0 220 180
0 219 179
0 221 180
0 218 179
0 221 180
0 220 180
0 220 180
0 221 181
0 222 181
0 221 180
0 221 181
0 220 181
0 221 180
0 220 179
0 220 181
0 219 178
0 220 180
0 221 181
0 221 181
0 222 181
0 221 181
0 221 180
0 218 178
0 221 180
0 222 181
0 220 181
0 222 181
0 221 180
0 220 180
0 220 181
0 221 180
0 220 178
0 221 181
0 221 181
0 221 181
0 222 181
0 221 181
0 221 181
0 221 181
0 221 181
0 222 181
0 222 181
0 221 181
0 221 181
0 221 181
0 222 181
0 221 181
0 221 181
0 222 181
0 221 180
0 221 180
0 221 181
0 221 181
0 220 181
0 220 181
0 221 181
0 222 181
0 222 181
0 221 181
0 221 181
0 221 181
0 221 181
0 221 181
0 220 180
0 220 181
0 220 180
0 222 181
0 221 181
0 221 181
0 221 181
0 221 181
0 222 181
0 220 181
0 222 181
0 221 181
0 222 181
0 221 181
0 220 181
0 220 181
0 221 181
0 220 181
0 222 181
0 221 181
0 222 181
0 222 181
0 222 181
0 221 181
0 221 181
0 222 181
0 221 181
0 221 181
0 221 181
0 222 181
0 222 181
0 222 181
0 220 181
0 221 181
0 221 181
0 221 181
0 222 181
0 221 181
0 221 181
0 222 181
0 221 181
0 221 181
0 220 181
0 221 181
0 221 181
0 221 181
0 222 181
0 221 181
0 221 181
0 222 181
0 221 181
0 222 181
0 222 181
0 221 181
0 221 181
0 221 181
0 221 181
0 221 181
0 221 181
0 221 181
0 221 181
0 222 181
0 221 181
0 222 181
0 221 181
0 221 181
0 221 181
0 221 181
0 220 181
0 222 181
0 220 181
0 221 181
0 221 181
0 222 181
0 220 181
0 221 180
0 220 181
0 221 181
0 221 181
0 222 181
0 221 181
0 221 181
0 220 181
0 221 181
0 222 181
0 221 180
0 220 181
0 221 181
0 221 181
0 221 181
0 221 181
0 221 181
0 220 180
0 222 181
0 222 181
0 221 181
0 221 181
0 220 180
0 221 181
0 221 181
0 221 181
0 221 181
0 221 181
0 220 180
0 220 181
0 221 180
0 222 181
0 221 181
0 221 181
0 221 181
0 220 181
0 221 181
0 221 181
0 221 181
0 220 181
0 221 181
0 220 180
0 221 181
0 220 181
0 222 181
0 222 181
0 220 180
0 221 181
0 222 181
0 221 181
0 222 181
0 222 181
0 221 181
0 222 181
0 221 181
0 221 181
0 222 181
0 221 181
0 221 181
0 220 180
0 221 181
0 221 181
0 222 181
0 222 180
0 221 181
0 222 181
0 221 181
0 221 181
0 220 180
0 221 181
0 220 180
0 221 181
0 220 180
0 221 181
0 221 181
0 219 180
0 221 180
0 222 181
0 221 181
0 220 180
0 222 181
0 222 181
0 220 180
0 221 181
0 221 181
0 220 181
0 221 181
0 221 181
0 219 179
0 220 180
0 220 180
0 221 181
0 221 181
0 221 181
0 219 179
0 220 180
0 221 181
0 220 180
0 220 180
0 222 181
0 221 180
0 220 180
0 221 181
0 220 179
0 221 181
0 220 180
0 220 180
0 221 181
0 220 180
0 219 178
0 220 179
0 219 180
0 221 180
0 220 180
0 219 180
0 221 181
0 219 179
0 221 181
0 221 181
0 219 179
0 219 178
0 216 177
0 220 180
0 218 178
0 219 179
0 219 179
0 219 178
0 218 179
0 219 178
0 220 180
0 220 180
0 220 179
0 218 178
0 218 179
0 220 180
0 219 179
0 219 178
0 218 179
0 217 178
0 220 180
147 228 216
221 235 255
174 230 231
0 219 180
0 219 180
0 219 179
0 220 179
0 218 177
0 216 176
0 219 179
0 218 178
0 213 175
0 213 173
0 209 171
0 210 174
0 204 167
0 214 176
0 208 172
0 204 169
0 203 169
0 200 166
0 196 164
0 191 159
9 176 152
45 102 154
41 96 147
44 97 152
44 98 153
51 100 163
52 100 163
54 100 167
51 99 163
49 99 160
47 97 156
44 108 154
51 99 160
49 100 160
43 96 149
49 99 158
49 99 159
48 98 157
47 99 156
49 97 157
48 99 158
47 97 154
46 98 155
47 99 155
45 99 154
46 98 155
44 97 152
42 101 151
23 130 124
0 158 125
0 153 117
0 167 129
0 171 131
0 155 118
0 168 129
0 168 129
0 165 121
0 168 128
0 167 128
0 167 127
0 180 135
0 177 130
0 180 130
0 187 140
0 191 148
0 187 140
0 195 148
0 195 150
0 201 155
0 200 152
0 199 152
0 201 155
0 203 158
0 193 149
0 205 161
0 200 156
0 200 159
0 211 168
0 207 165
0 211 168
0 210 169
0 216 174
0 212 170
0 208 166
0 214 172
0 213 173
0 211 169
0 212 168
0 213 170
0 216 176
0 216 176
0 217 173
0 219 178
0 219 178
0 215 172
0 219 179
0 221 178
0 219 178
0 219 178
0 219 176
0 215 173
0 218 177
0 219 178
0 221 180
0 220 178
0 219 178
0 219 178
0 219 179
0 220 180
0 221 180
0 220 180
0 219 179
0 221 180
0 220 180
0 219 177
0 219 178
0 222 181
0 221 179
0 219 178
0 221 180
0 220 180
0 220 180
0 221 180
0 219 178
0 221 181
0 220 180
0 220 179
0 221 181
0 218 177
0 220 180
0 221 181
0 221 181
0 220 179
0 221 180
0 221 181
0 219 179
0 221 179
0 221 181
0 220 179
0 221 180
0 221 181
0 220 180
0 221 181
0 220 180
0 221 181
0 221 181
0 221 180
0 222 181
0 221 181
0 221 181
0 220 181
0 220 180
0 221 181
0 220 181
0 220 180
0 222 181
0 221 181
0 222 181
0 220 181
0 221 181
0 221 181
0 221 180
0 219 180
0 221 181
0 222 181
0 222 181
0 222 181
0 221 181
0 221 181
0 222 181
0 221 180
0 221 181
0 221 180
0 221 181
0 220 181
0 222 180
0 221 181
0 221 181
0 221 181
0 221 181
0 220 180
0 220 181
0 220 181
0 221 181
0 221 181
0 221 181
0 219 179
0 222 181
0 221 181
0 222 181
0 221 180
0 221 181
0 221 181
0 221 181
0 220 181
0 221 181
0 221 181
0 221 181
0 221 180
0 222 180
0 220 181
0 222 181
0 222 181
0 222 181
0 222 181
0 220 181
0 222 181
0 221 181
0 222 181
0 221 181
0 221 181
0 222 181
0 221 181
0 220 181
0 221 181
0 221 181
0 220 181
0 220 181
0 222 181
0 222 181
0 221 180
0 222 181
0 221 181
0 221 181
0 221 181
0 222 181
0 221 181
0 221 181
0 220 181
0 221 181
0 221 181
0 221 181
0 222 181
0 221 181
0 221 181
0 222 181
0 221 181
0 222 181
0 221 181
0 222 181
0 220 181
0 221 181
0 221 180
0 221 181
0 220 181
0 221 181
0 221 181
0 221 181
0 223 181
0 222 181
0 221 181
0 220 181
0 221 181
0 220 181
0 221 181
0 221 181
0 222 181
0 222 181
0 222 181
0 222 181
0 222 181
0 222 181
0 221 181
0 223 181
0 221 181
0 222 181
0 221 181
0 221 181
0 221 181
0 222 181
0 222 181
0 221 181
0 221 181
0 221 181
0 222 181
0 221 181
0 222 181
0 222 181
0 220 181
0 221 181
0 221 181
0 221 181
0 221 181
0 221 181
0 221 181
0 221 181
0 222 181
0 221 181
0 222 181
0 221 181
0 222 181
0 221 181
0 221 181
0 221 181
0 220 180
0 222 181
0 220 180
0 221 181
0 221 181
0 221 181
0 222 181
0 220 181
0 221 181
0 221 181
0 221 181
0 222 181
0 220 180
0 221 181
0 222 181
0 221 181
0 220 181
0 221 181
0 221 181
0 220 181
0 221 181
0 221 181
0 221 181
0 220 180
0 222 181
0 221 181
0 221 181
0 220 180
0 221 181
0 221 180
0 221 181
0 222 181
0 220 181
0 221 181
0 220 180
0 221 180
0 221 181
0 220 181
0 221 181
0 222 180
0 219 179
0 220 180
0 223 181
0 221 181
0 221 181
0 220 180
0 221 181
0 221 180
0 221 181
0 219 180
0 220 181
0 221 181
0 221 180
0 218 179
0 221 180
0 221 181
0 222 181
0 221 181
0 221 181
0 221 181
0 222 181
0 222 181
0 219 180
0 221 180
0 222 181
0 220 179
0 222 181
0 218 179
0 220 180
0 219 180
0 220 180
0 221 181
0 221 180
0 219 179
0 220 179
0 222 181
0 218 179
0 220 180
0 221 180
0 220 181
0 218 179
0 217 178
0 221 180
0 219 179
0 220 180
0 219 179
0 219 180
0 219 179
0 219 179
0 219 180
0 220 180
0 220 179
0 217 178
0 216 177
0 219 180
0 220 180
0 219 179
0 218 179
0 221 181
0 219 179
0 216 178
0 218 179
0 221 181
194 233 239
204 233 246
71 223 189
0 219 180
0 221 180
0 217 178
0 217 179
0 218 179
0 215 176
0 219 178
0 213 176
0 211 173
0 213 176
0 210 173
0 211 174
0 214 176
0 212 174
0 214 176
0 211 174
0 208 172
0 203 168
0 201 168
0 193 161
0 196 162
19 161 150
39 99 146
45 97 154
40 98 148
46 98 154
42 98 152
48 99 159
53 100 165
48 98 157
49 100 158
39 107 147
43 97 151
45 97 153
45 99 153
43 97 151
50 98 159
46 99 156
50 100 159
45 98 154
46 96 154
42 98 149
43 99 151
41 97 148
42 98 148
45 97 151
41 99 146
23 125 120
0 135 106
0 156 119
0 163 126
0 158 122
0 176 139
0 174 137
0 180 139
0 173 138
0 166 127
0 174 137
0 175 134
0 186 143
0 189 145
0 187 142
0 186 143
0 188 141
0 193 150
0 199 155
0 199 151
0 185 137
0 193 151
0 195 147
0 197 148
0 207 162
0 201 157
0 206 162
0 201 157
0 204 163
0 209 166
0 213 169
0 211 167
0 208 166
0 213 171
0 210 167
0 215 173
0 212 171
0 212 171
0 210 169
0 216 175
0 214 173
0 213 171
0 214 170
0 219 177
0 217 176
0 217 174
0 218 176
0 218 176
0 218 176
0 216 175
0 218 178
0 218 177
0 219 179
0 220 179
0 220 179
0 216 176
0 220 180
0 221 180
0 215 176
0 218 175
0 217 176
0 219 177
0 218 178
0 220 180
0 219 177
0 221 179
0 220 179
0 220 179
0 220 180
0 220 181
0 220 180
0 221 181
0 220 179
0 219 178
0 221 181
0 219 180
0 222 181
0 221 180
0 221 181
0 222 181
0 221 179
0 218 178
0 221 181
0 221 181
0 220 179
0 221 180
0 219 179
0 221 181
0 221 181
0 221 181
0 222 181
0 221 181
0 221 180
0 221 181
0 221 180
0 220 180
0 221 181
0 220 179
0 221 179
0 221 181
0 221 181
0 220 179
0 221 181
0 221 181
0 222 181
0 221 180
0 221 180
0 221 181
0 221 181
0 221 180
0 221 181
0 222 181
0 220 181
0 221 181
0 222 181
0 220 179
0 221 181
0 220 180
0 222 180
0 221 181
0 221 181
0 220 181
0 221 181
0 221 181
0 221 181
0 221 181
0 221 181
0 222 181
0 221 181
0 221 181
0 220 181
0 220 181
0 221 181
0 222 181
0 222 181
0 221 181
0 220 180
0 222 181
0 220 180
0 221 181
0 219 180
0 222 181
0 221 181
0 220 181
0 221 181
0 223 181
0 221 181
0 222 181
0 221 181
0 220 180
0 221 181
0 222 181
0 221 181
0 221 181
0 221 181
0 221 181
0 221 181
0 221 181
0 221 181
0 222 180
0 220 180
0 221 181
0 220 181
0 221 181
0 221 181
0 221 181
0 221 181
0 221 181
0 221 181
0 222 181
0 221 181
0 222 181
0 221 181
0 220 181
0 220 180
0 221 181
0 223 181
0 221 181
0 220 181
0 222 181
0 221 181
0 221 181
0 221 181
0 223 181
0 221 181
0 222 181
0 221 181
0 221 181
0 222 181
0 222 181
0 221 181
0 222 181
0 221 181
0 221 181
0 221 181
0 221 181
0 222 181
0 221 181
0 221 181
0 221 181
0 221 181
0 223 181
0 221 181
0 221 181
0 222 181
0 222 181
0 221 181
0 221 181
0 221 181
0 222 181
0 222 181
0 221 181
0 221 181
0 220 181
0 221 181
0 222 181
0 222 181
0 221 181
0 221 181
0 222 181
0 221 181
0 222 181
0 220 181
0 222 181
0 221 181
0 221 181
0 221 181
0 221 181
0 221 181
0 222 181
0 222 180
0 221 181
0 222 181
0 221 181
0 220 181
0 221 181
0 221 181
0 221 181
0 222 181
0 221 181
0 221 181
0 222 181
0 221 181
0 221 181
0 222 181
0 221 181
0 221 181
0 221 181
0 222 181
0 220 181
0 221 181
0 221 181
0 221 181
0 222 181
0 221 181
0 220 180
0 221 181
0 220 180
0 221 181
0 221 181
0 222 181
0 221 181
0 221 181
0 221 181
0 222 181
0 222 181
0 221 180
0 221 181
0 221 181
0 222 181
0 221 181
0 220 180
0 221 181
0 221 181
0 221 181
0 222 181
0 221 181
0 222 181
0 221 180
0 222 181
0 223 181
0 221 181
0 221 181
0 221 181
0 222 181
0 221 181
0 221 181
0 220 180
0 222 181
0 221 181
0 221 181
0 221 181
0 222 181
0 221 181
0 221 181
0 221 181
0 221 181
0 221 180
0 222 181
0 220 180
0 221 181
0 221 181
0 222 181
0 221 181
0 221 181
0 218 178
0 222 180
0 221 181
0 222 181
0 219 179
0 220 180
0 221 181
0 221 180
0 221 181
0 221 181
0 221 181
0 220 180
0 220 181
0 220 179
0 220 179
0 219 179
0 221 181
0 220 180
0 219 179
0 220 179
0 219 179
0 217 179
0 220 180
0 219 179
0 218 179
0 219 179
0 218 178
0 218 179
0 219 180
0 219 180
0 217 178
0 219 179
0 218 178
0 218 179
0 220 180
0 219 179
0 217 178
0 217 178
0 217 178
0 217 178
0 215 177
0 217 177
0 220 180
0 219 179
71 224 189
221 236 255
134 227 211
0 221 181
0 220 180
0 220 179
0 219 179
0 215 178
0 213 175
0 215 176
0 213 175
0 214 176
0 211 174
0 215 175
0 215 176
0 212 174
0 210 172
0 206 170
0 207 172
0 211 173
0 201 167
0 199 165
0 201 165
0 192 160
0 180 152
0 194 159
21 146 140
37 96 142
40 95 146
42 97 150
43 98 152
49 99 158
50 100 161
48 100 159
45 98 153
38 105 146
37 110 145
42 96 147
42 98 150
45 98 152
40 96 146
40 96 145
40 96 146
40 98 148
42 97 149
41 96 148
38 96 144
32 97 139
38 94 140
31 99 135
21 130 116
0 149 115
0 142 111
0 155 124
0 163 130
0 167 133
0 168 136
0 161 127
0 163 131
0 186 147
0 173 134
0 179 138
0 176 137
0 177 139
0 188 144
0 191 149
0 192 151
0 192 144
0 197 155
0 197 153
0 193 151
0 194 152
0 199 148
0 194 153
0 206 165
0 200 160
0 192 150
0 208 161
0 206 162
0 208 165
0 211 167
0 206 163
0 212 168
0 215 172
0 211 168
0 216 174
0 210 169
0 215 175
0 214 172
0 213 170
0 216 176
0 215 174
0 214 173
0 218 177
0 215 175
0 219 177
0 215 173
0 219 176
0 217 176
0 219 178
0 218 178
0 215 175
0 220 180
0 219 178
0 220 177
0 220 179
0 219 179
0 221 181
0 217 176
0 218 178
0 220 178
0 216 177
0 218 177
0 218 178
0 220 179
0 216 175
0 221 181
0 220 181
0 220 180
0 219 179
0 221 180
0 221 179
0 221 179
0 220 179
0 221 180
0 220 179
0 219 179
0 221 181
0 220 180
0 220 181
0 222 180
0 220 179
0 221 181
0 221 180
0 221 179
0 219 178
0 220 180
0 221 181
0 221 180
0 220 179
0 222 181
0 221 181
0 221 181
0 219 180
0 221 179
0 221 181
0 221 180
0 221 179
0 222 181
0 221 181
0 220 178
0 220 180
0 221 181
0 221 181
0 221 180
0 221 181
0 221 181
0 221 180
0 221 180
0 220 181
0 221 181
0 222 181
0 221 181
0 221 180
0 222 181
0 222 181
0 220 180
0 220 180
0 220 180
0 220 180
0 220 180
0 220 180
0 222 181
0 221 181
0 221 180
0 221 181
0 221 181
0 221 181
0 221 181
0 221 181
0 222 180
0 221 181
0 221 181
0 221 181
0 221 181
0 221 181
0 220 181
0 220 180
0 221 181
0 219 180
0 221 181
0 221 181
0 222 181
0 221 181
0 222 181
0 221 181
0 221 181
0 221 180
0 221 181
0 221 181
0 222 181
0 221 181
0 222 181
0 221 181
0 222 181
0 222 181
0 221 181
0 222 181
0 220 180
0 221 181
0 221 181
0 221 181
0 221 181
0 221 180
0 221 181
0 222 181
0 223 181
0 221 181
0 223 181
0 221 181
0 222 181
0 222 181
0 221 181
0 221 181
0 222 181
0 221 181
0 222 181
0 222 181
0 221 181
0 222 181
0 221 181
0 222 181
0 221 181
0 222 181
0 221 181
0 221 181
0 221 181
0 222 181
0 222 181
0 221 181
0 221 181
0 221 181
0 221 181
0 221 181
0 222 181
0 221 181
0 221 181
0 221 181
0 221 181
0 221 181
0 220 181
0 223 181
0 221 181
0 222 181
0 222 181
0 221 181
0 221 181
0 221 181
0 221 181
0 221 181
0 221 181
0 222 181
0 221 181
0 221 181
0 221 181
0 221 181
0 221 181
0 221 181
0 221 181
0 221 181
0 221 181
0 221 181
0 221 181
0 221 181
0 221 181
0 222 181
0 222 181
0 220 181
0 221 181
0 222 181
0 221 181
0 221 181
0 221 181
0 221 181
0 221 181
0 221 181
0 221 181
0 221 181
0 220 181
0 222 181
0 222 181
0 221 181
0 220 181
0 221 181
0 221 181
0 222 181
0 222 181
0 221 181
0 221 181
0 222 181
0 222 181
0 222 181
0 222 181
0 222 181
0 221 181
0 221 181
0 220 181
0 221 181
0 221 181
0 221 181
0 220 181
0 220 181
0 222 181
0 221 181
0 222 181
0 220 181
0 220 181
0 221 181
0 220 181
0 220 181
0 220 180
0 221 181
0 222 181
0 222 181
0 221 181
0 221 181
0 221 181
0 221 181
0 221 181
0 221 181
0 221 181
0 221 181
0 221 181
0 222 181
0 222 181
0 221 181
0 221 181
0 220 180
0 221 181
0 221 181
0 220 181
0 221 180
0 221 181
0 221 181
0 221 181
0 221 181
0 221 181
0 221 181
0 221 181
0 222 181
0 220 181
0 219 180
0 222 181
0 220 180
0 220 180
0 221 181
0 222 181
0 219 179
0 221 181
0 221 181
0 221 181
0 220 180
0 220 180
0 221 180
0 221 181
0 221 181
0 221 181
0 219 180
0 220 180
0 221 181
0 221 181
0 221 181
0 218 179
0 218 179
0 222 181
0 219 180
0 221 180
0 219 180
0 220 180
0 219 179
0 220 180
0 217 178
0 218 179
0 219 180
0 220 180
0 222 181
0 221 181
0 219 179
0 220 180
0 219 179
0 217 178
0 219 179
0 219 178
0 219 179
0 218 178
0 217 177
0 221 181
0 214 176
0 220 180
0 221 181
125 226 207
205 234 246
38 221 183
0 219 180
0 219 178
0 218 178
0 220 180
0 214 177
0 217 177
0 218 178
0 214 175
0 208 171
0 216 178
0 216 177
0 209 171
0 214 174
0 208 171
0 211 174
0 202 168
0 196 163
0 205 168
0 192 159
0 205 169
0 195 161
0 179 150
0 174 146
0 158 133
23 133 136
29 95 134
40 95 143
41 95 146
48 98 156
53 111 140
49 99 158
43 97 150
40 98 147
30 122 141
38 95 142
38 96 143
40 94 144
38 96 143
45 97 151
38 95 142
39 95 144
37 94 140
40 98 146
40 94 143
41 95 144
30 110 124
9 141 116
0 144 118
0 144 117
0 158 128
0 142 115
0 167 134
0 158 127
0 165 134
0 169 135
0 182 145
0 175 139
0 177 140
0 188 148
0 182 144
0 188 151
0 194 155
0 186 141
0 194 153
0 191 143
0 191 150
0 199 156
0 202 157
0 198 154
0 197 156
0 199 160
0 206 164
0 205 162
0 203 163
0 209 166
0 201 161
0 209 167
0 210 166
0 210 168
0 208 168
0 213 169
0 212 170
0 214 170
0 211 168
0 211 170
0 217 176
0 210 168
0 208 166
0 214 171
0 215 173
0 218 177
0 208 166
0 216 174
0 217 176
0 216 175
0 215 175
0 220 179
0 218 176
0 218 177
0 218 176
0 220 178
0 217 177
0 217 176
0 218 179
0 220 177
0 219 178
0 220 179
0 219 176
0 219 178
0 217 178
0 221 180
0 220 180
0 221 180
0 222 180
0 219 179
0 221 179
0 221 180
0 220 180
0 220 179
0 222 180
0 221 180
0 220 180
0 221 181
0 221 180
0 220 180
0 220 178
0 219 178
0 221 180
0 220 178
0 220 180
0 221 180
0 219 178
0 222 181
0 220 181
0 220 180
0 220 180
0 220 179
0 220 181
0 221 181
0 222 181
0 222 181
0 221 181
0 220 181
0 220 180
0 221 180
0 222 181
0 221 181
0 221 181
0 221 181
0 221 181
0 221 181
0 221 181
0 221 180
0 221 181
0 222 181
0 221 181
0 221 181
0 222 181
0 220 181
0 222 181
0 221 180
0 221 181
0 221 181
0 221 181
0 221 181
0 221 181
0 221 181
0 221 180
0 221 181
0 221 181
0 221 180
0 220 181
0 221 181
0 222 181
0 221 181
0 221 180
0 221 181
0 221 181
0 221 181
0 220 180
0 220 180
0 221 181
0 222 181
0 220 181
0 221 181
0 221 181
0 221 181
0 222 181
0 222 181
0 222 181
0 221 181
0 221 181
0 221 181
0 221 180
0 221 181
0 222 181
0 221 181
0 222 181
0 221 181
0 222 181
0 223 181
0 221 181
0 221 181
0 222 181
0 222 181
0 221 181
0 222 181
0 221 181
0 222 181
0 221 181
0 221 181
0 222 181
0 221 181
0 222 181
0 222 181
0 221 181
0 221 181
0 221 181
0 221 181
0 222 181
0 221 181
0 220 181
0 221 181
0 221 181
0 221 181
0 221 181
0 220 180
0 222 181
0 221 181
0 221 181
0 221 181
0 222 181
0 221 181
0 221 181
0 221 181
0 221 181
0 221 181
0 221 180
0 221 181
0 221 181
0 221 181
0 221 181
0 222 181
0 221 181
0 221 181
0 222 181
0 221 181
0 221 181
0 222 181
0 221 181
0 221 181
0 221 181
0 221 181
0 221 181
0 221 181
0 221 181
0 222 181
0 222 181
0 221 181
0 221 181
0 221 181
0 221 181
0 221 181
0 221 180
0 221 180
0 221 181
0 220 181
0 221 181
0 222 181
0 221 181
0 221 181
0 222 181
0 221 181
0 222 181
0 221 181
0 220 180
0 220 181
0 220 180
0 222 181
0 221 181
0 221 181
0 221 181
0 221 181
0 221 181
0 222 181
0 222 181
0 221 181
0 222 181
0 222 181
0 220 181
0 222 181
0 219 180
0 221 181
0 220 180
0 221 181
0 221 181
0 220 180
0 222 181
0 220 180
0 221 181
0 220 179
0 222 181
0 221 181
0 222 181
0 220 181
0 221 181
0 221 180
0 220 181
0 221 181
0 221 181
0 221 181
0 221 181
0 222 181
0 220 180
0 221 181
0 221 181
0 222 181
0 220 180
0 222 181
0 221 181
0 221 181
0 221 181
0 220 181
0 222 181
0 221 181
0 221 181
0 221 181
0 221 181
0 221 181
0 220 181
0 222 181
0 221 181
0 221 181
0 221 181
0 221 181
0 221 181
0 222 181
0 222 181
0 221 181
0 221 181
0 221 181
0 220 180
0 221 180
0 222 181
0 221 181
0 221 181
0 220 180
0 221 181
0 221 181
0 221 181
0 221 181
0 220 180
0 221 181
0 219 180
0 222 181
0 221 181
0 218 180
0 221 181
0 221 181
0 221 181
0 221 180
0 221 181
0 219 180
0 218 179
0 221 181
0 220 180
0 220 180
0 219 179
0 220 180
0 219 179
0 220 180
0 221 181
0 220 179
0 219 180
0 219 179
0 221 181
0 220 180
0 219 180
0 220 179
0 220 180
0 221 180
0 214 175
0 219 180
0 218 179
0 219 179
0 217 178
0 219 179
0 216 177
0 220 179
0 219 180
0 217 179
0 218 178
0 220 180
0 219 179
0 214 176
0 221 181
0 221 181
140 228 213
146 228 216
0 222 181
0 220 181
0 218 178
0 217 178
0 217 177
0 218 179
0 214 175
0 215 177
0 217 178
0 210 174
0 210 172
0 213 176
0 212 174
0 209 172
0 211 175
0 207 170
0 206 170
0 205 168
0 203 169
0 199 165
0 194 161
0 197 163
0 187 154
0 176 145
0 167 139
0 141 123
17 108 117
29 94 133
35 95 139
37 94 140
40 125 149
33 139 137
42 97 150
38 95 142
26 122 134
31 93 134
36 94 139
39 96 144
29 94 134
37 94 139
34 93 137
35 95 139
39 94 142
33 94 130
22 113 122
11 127 113
0 133 109
0 134 113
0 137 111
0 148 118
0 162 132
0 162 132
0 165 132
0 185 152
0 172 139
0 168 129
0 187 148
0 183 146
0 183 145
0 181 146
0 185 147
0 188 150
0 198 160
0 195 158
0 190 147
0 193 153
0 204 162
0 200 161
0 203 160
0 203 164
0 201 158
0 189 148
0 207 163
0 201 163
0 202 158
0 211 167
0 205 166
0 212 174
0 208 164
0 210 168
0 208 166
0 213 171
0 215 172
0 212 173
0 208 167
0 214 172
0 215 174
0 218 177
0 219 178
0 212 170
0 215 174
0 218 174
0 218 178
0 218 177
0 218 176
0 215 174
0 216 177
0 216 175
0 217 177
0 219 179
0 219 179
0 220 178
0 216 176
0 218 178
0 216 175
0 219 178
0 218 174
0 216 175
0 218 177
0 220 180
0 220 178
0 221 181
0 220 180
0 220 179
0 220 179
0 218 178
0 221 181
0 221 180
0 221 180
0 220 179
0 219 178
0 220 179
0 220 179
0 220 180
0 221 180
0 221 180
0 221 180
0 220 181
0 220 180
0 221 180
0 221 181
0 220 180
0 219 180
0 220 180
0 219 180
0 222 181
0 221 180
0 221 181
0 221 181
0 221 181
0 221 180
0 221 181
0 221 181
0 221 181
0 220 179
0 221 181
0 219 179
0 221 180
0 220 179
0 220 180
0 221 180
0 221 181
0 221 181
0 220 180
0 220 179
0 222 181
0 222 181
0 222 180
0 221 181
0 220 180
0 222 181
0 219 180
0 220 179
0 222 181
0 221 181
0 221 181
0 220 179
0 220 180
0 220 180
0 221 181
0 222 181
0 221 181
0 222 181
0 222 181
0 220 180
0 220 180
0 221 181
0 221 181
0 221 180
0 221 181
0 221 181
0 221 181
0 221 181
0 222 181
0 222 181
0 221 180
0 221 181
0 221 181
0 222 181
0 220 181
0 221 181
0 222 181
0 222 181
0 222 181
0 221 180
0 221 181
0 221 181
0 222 181
0 221 181
0 221 181
0 222 181
0 222 181
0 222 181
0 222 181
0 220 181
0 221 181
0 221 181
0 221 181
0 222 181
0 222 181
0 221 181
0 222 181
0 222 181
0 221 181
0 222 181
0 221 181
0 222 181
0 221 181
0 222 181
0 221 181
0 222 181
0 221 181
0 221 181
0 220 181
0 222 181
0 222 181
0 222 181
0 221 180
0 222 181
0 221 181
0 222 181
0 222 181
0 220 181
0 221 181
0 221 181
0 221 181
0 221 181
0 222 181
0 221 181
0 221 181
0 221 181
0 222 181
0 221 181
0 222 181
0 221 181
0 222 181
0 221 181
0 222 181
0 221 181
0 222 181
0 220 181
0 222 181
0 221 181
0 221 181
0 222 181
0 222 181
0 221 181
0 222 181
0 221 181
0 222 181
0 220 181
0 221 181
0 220 181
0 220 180
0 221 181
0 221 181
0 221 181
0 221 181
0 221 181
0 222 181
0 221 181
0 221 181
0 222 181
0 220 181
0 220 181
0 221 181
0 222 181
0 222 181
0 221 181
0 221 181
0 221 181
0 219 180
0 221 181
0 221 181
0 221 181
0 221 181
0 222 181
0 221 180
0 222 181
0 221 181
0 221 181
0 222 181
0 221 181
0 222 181
0 222 181
0 222 181
0 220 181
0 221 181
0 221 181
0 222 181
0 221 181
0 221 181
0 221 181
0 221 181
0 221 181
0 221 181
0 221 181
0 220 181
0 222 181
0 221 181
0 221 181
0 221 181
0 222 181
0 221 181
0 221 181
0 222 181
0 222 180
0 221 181
0 222 181
0 221 180
0 221 181
0 222 181
0 220 181
0 221 181
0 220 181
0 220 180
0 222 181
0 222 181
0 221 181
0 220 181
0 221 181
0 222 181
0 221 180
0 219 179
0 221 181
0 219 178
0 221 181
0 220 180
0 221 181
0 221 181
0 222 181
0 221 181
0 222 181
0 220 180
0 221 181
0 221 181
0 221 181
0 222 181
0 220 181
0 221 181
0 222 181
0 221 181
0 221 181
0 221 181
0 220 181
0 221 181
0 221 181
0 221 181
0 220 180
0 221 181
0 221 181
0 220 181
0 220 180
0 220 181
0 221 180
0 221 181
0 220 181
0 221 181
0 221 181
0 219 179
0 221 181
0 221 181
0 220 180
0 221 181
0 219 178
0 220 180
0 218 178
0 218 179
0 221 181
0 219 180
0 221 181
0 218 179
0 219 180
0 218 178
0 217 178
0 222 181
0 222 181
0 216 177
0 218 178
0 217 178
0 217 178
0 218 178
0 221 180
0 216 177
0 216 177
0 220 179
0 220 181
0 220 180
151 229 217
102 222 198
0 221 180
0 218 178
0 216 178
0 218 179
0 213 175
0 217 179
0 219 180
0 214 176
0 214 176
0 216 176
0 213 175
0 211 175
0 214 175
0 207 171
0 212 174
0 204 168
0 208 171
0 200 165
0 198 164
0 197 165
0 193 159
0 179 151
0 185 155
0 183 152
0 179 148
0 163 136
0 142 119
18 99 103
33 95 133
34 93 135
38 119 149
6 180 135
33 113 138
36 95 140
13 138 122
19 112 116
21 99 119
23 90 114
27 104 128
21 93 116
22 99 116
23 121 122
13 100 96
0 113 93
0 140 115
0 141 116
0 143 119
0 139 113
0 157 126
0 153 125
0 174 142
0 161 132
0 178 140
0 183 149
0 182 149
0 186 150
0 186 149
0 186 152
0 181 146
0 194 158
0 180 140
0 187 149
0 199 157
0 194 155
0 205 162
0 202 161
0 200 160
0 203 165
0 197 157
0 196 155
0 203 163
0 204 163
0 208 164
0 204 165
0 207 167
0 206 164
0 204 165
0 207 168
0 210 168
0 208 166
0 208 165
0 214 172
0 212 170
0 212 169
0 215 173
0 213 171
0 214 172
0 218 177
0 214 172
0 213 170
0 215 175
0 214 170
0 218 178
0 211 171
0 214 172
0 216 175
0 218 177
0 218 178
0 216 176
0 220 177
0 216 176
0 219 179
0 220 179
0 216 176
0 220 180
0 220 179
0 218 177
0 217 177
0 219 177
0 216 175
0 220 179
0 218 178
0 218 177
0 216 177
0 220 178
0 221 180
0 218 176
0 220 180
0 220 178
0 221 180
0 220 180
0 220 178
0 220 180
0 219 178
0 220 179
0 219 180
0 221 181
0 221 181
0 219 179
0 222 181
0 221 180
0 221 181
0 219 180
0 221 180
0 221 181
0 220 180
0 221 181
0 221 180
0 221 180
0 222 181
0 222 181
0 219 178
0 221 181
0 221 181
0 222 180
0 221 181
0 221 181
0 222 180
0 221 181
0 221 181
0 221 180
0 222 181
0 221 181
0 222 181
0 220 181
0 221 181
0 220 181
0 221 181
0 219 179
0 222 181
0 220 179
0 220 181
0 221 181
0 221 181
0 222 180
0 221 181
0 222 181
0 220 181
0 221 180
0 220 180
0 221 181
0 221 181
0 221 180
0 221 181
0 222 181
0 221 181
0 221 181
0 221 181
0 222 181
0 221 180
0 221 181
0 220 180
0 222 181
0 221 181
0 221 181
0 221 179
0 221 181
0 221 181
0 221 181
0 221 181
0 221 181
0 221 181
0 222 181
0 221 181
0 220 181
0 221 181
0 221 181
0 221 181
0 220 181
0 221 181
0 222 181
0 220 181
0 221 181
0 222 181
0 221 181
0 222 181
0 220 181
0 222 181
0 222 181
0 220 180
0 221 181
0 222 181
0 221 181
0 221 181
0 221 181
0 221 180
0 222 181
0 222 181
0 221 181
0 221 181
0 220 180
0 221 181
0 220 181
0 221 181
0 220 181
0 221 181
0 220 181
0 221 181
0 222 181
0 221 180
0 222 181
0 222 181
0 222 181
0 221 181
0 221 181
0 220 181
0 221 181
0 221 181
0 221 181
0 222 181
0 221 181
0 221 181
0 220 180
0 222 181
0 221 181
0 222 181
0 221 181
0 221 181
0 221 181
0 222 181
0 221 181
0 221 181
0 222 181
0 222 181
0 221 181
0 222 181
0 220 181
0 222 181
0 221 181
0 221 181
0 221 181
0 222 181
0 221 181
0 220 181
0 221 181
0 222 181
0 221 181
0 222 181
0 222 181
0 221 181
0 221 181
0 221 181
0 221 181
0 222 181
0 220 181
0 221 181
0 221 181
0 222 181
0 220 180
0 221 181
0 221 181
0 220 181
0 221 181
0 221 181
0 221 180
0 222 181
0 221 181
0 221 181
0 221 181
0 221 181
0 222 181
0 221 181
0 221 181
0 220 180
0 221 181
0 221 181
0 221 180
0 221 181
0 222 181
0 221 181
0 222 181
0 219 180
0 221 180
0 222 181
0 222 181
0 221 181
0 221 181
0 221 181
0 221 181
0 221 181
0 222 181
0 221 181
0 220 180
0 221 181
0 221 180
0 221 179
0 222 181
0 221 181
0 222 181
0 221 180
0 220 180
0 221 181
0 221 181
0 221 181
0 221 181
0 220 180
0 220 180
0 220 180
0 220 181
0 220 180
0 221 181
0 221 181
0 222 181
0 222 181
0 221 181
0 220 181
0 221 181
0 221 181
0 221 181
0 221 181
0 221 181
0 222 180
0 220 180
0 221 180
0 221 180
0 221 180
0 220 180
0 222 181
0 220 180
0 221 181
0 220 180
0 221 181
0 220 180
0 221 181
0 221 181
0 222 181
0 220 180
0 219 179
0 221 181
0 220 180
0 221 181
0 222 181
0 220 180
0 219 180
0 219 180
0 222 181
0 220 181
0 220 179
0 219 180
0 222 180
0 221 180
0 220 180
0 221 180
0 221 180
0 221 181
0 218 178
0 220 181
0 218 179
0 219 180
0 220 180
0 220 180
0 219 179
0 221 180
0 218 179
0 220 179
0 220 180
0 219 179
0 217 177
0 219 179
0 217 178
0 218 179
0 221 180
0 218 178
0 219 179
0 215 177
0 216 177
0 222 181
0 221 181
131 227 209
0 220 181
0 218 178
0 219 179
0 219 179
0 215 177
0 213 176
0 217 177
0 215 176
0 212 175
0 211 174
0 213 174
0 212 175
0 215 176
0 210 173
0 209 172
0 205 169
0 198 165
0 205 170
0 204 169
0 204 166
0 194 161
0 195 162
0 187 155
0 186 154
0 181 152
0 182 151
0 167 139
0 173 143
0 134 113
11 111 102
24 102 117
22 127 128
0 193 151
0 160 131
21 111 114
0 140 116
0 136 111
0 129 109
0 134 109
0 131 109
0 127 105
0 134 109
0 145 121
0 132 112
0 132 112
0 148 121
0 139 114
0 135 113
0 160 130
0 156 131
0 169 137
0 175 144
0 169 136
0 177 144
0 179 144
0 185 151
0 188 150
0 179 145
0 189 153
0 192 156
0 194 156
0 192 150
0 198 160
0 197 158
0 195 157
0 203 162
0 203 165
0 199 159
0 202 163
0 201 162
0 205 164
0 199 158
0 209 170
0 202 162
0 210 165
0 208 165
0 209 168
0 212 172
0 209 168
0 205 164
0 205 163
0 213 171
0 211 170
0 216 176
0 215 173
0 212 171
0 214 173
0 212 171
0 214 172
0 213 171
0 214 173
0 218 177
0 216 178
0 218 176
0 217 179
0 219 178
0 217 176
0 216 175
0 217 177
0 218 177
0 218 176
0 214 171
0 219 178
0 218 177
0 218 176
0 218 177
0 220 179
0 219 178
0 220 179
0 220 178
0 218 177
0 218 177
0 217 177
0 220 179
0 221 180
0 220 180
0 221 180
0 219 179
0 219 178
0 219 180
0 220 179
0 220 179
0 220 181
0 221 181
0 219 179
0 221 178
0 221 180
0 220 181
0 221 180
0 221 181
0 221 180
0 220 180
0 221 181
0 221 180
0 220 179
0 220 180
0 222 181
0 220 181
0 220 179
0 221 180
0 220 180
0 220 180
0 220 181
0 220 180
0 221 181
0 222 181
0 221 180
0 220 180
0 220 179
0 221 180
0 220 180
0 220 179
0 221 181
0 220 181
0 220 180
0 221 181
0 220 180
0 221 181
0 220 179
0 221 181
0 221 181
0 221 181
0 221 181
0 222 181
0 221 181
0 221 181
0 221 181
0 221 180
0 222 181
0 221 180
0 221 181
0 221 181
0 221 180
0 221 181
0 221 181
0 221 181
0 221 181
0 220 180
0 221 181
0 222 181
0 221 181
0 221 181
0 220 180
0 221 181
0 222 181
0 221 181
0 221 181
0 221 181
0 221 181
0 222 181
0 221 181
0 222 181
0 221 180
0 221 181
0 220 180
0 221 181
0 221 181
0 221 181
0 221 181
0 221 180
0 221 181
0 221 181
0 220 181
0 221 181
0 222 181
0 222 181
0 221 181
0 222 181
0 222 181
0 221 181
0 221 181
0 222 181
0 221 181
0 221 181
0 221 181
0 222 181
0 221 181
0 221 181
0 221 181
0 222 181
0 221 181
0 221 181
0 221 180
0 222 181
0 222 181
0 221 181
0 222 181
0 222 181
0 222 181
0 222 181
0 222 181
0 221 181
0 222 181
0 221 181
0 221 181
0 221 181
0 221 181
0 220 181
0 222 181
0 222 181
0 222 181
0 221 181
0 223 181
0 223 181
0 223 181
0 221 181
0 221 181
0 221 181
0 221 181
0 222 181
0 221 181
0 222 181
0 221 181
0 221 181
0 222 181
0 222 181
0 221 181
0 222 181
0 222 181
0 221 181
0 221 180
0 221 181
0 221 181
0 220 181
0 223 181
0 220 181
0 222 180
0 221 181
0 221 181
0 221 181
0 221 181
0 220 181
0 221 181
0 221 181
0 220 181
0 221 180
0 222 181
0 221 181
0 221 181
0 221 180
0 221 181
0 221 181
0 220 181
0 221 181
0 221 181
0 220 181
0 221 181
0 221 181
0 222 181
0 221 181
0 222 181
0 221 181
0 222 181
0 220 181
0 221 181
0 222 181
0 221 181
0 221 181
0 221 181
0 222 181
0 221 181
0 221 181
0 221 181
0 220 180
0 222 181
0 221 181
0 221 181
0 221 181
0 220 180
0 222 181
0 220 180
0 221 181
0 221 181
0 221 181
0 221 181
0 220 181
0 221 181
0 220 180
0 221 180
0 221 181
0 222 181
0 221 181
0 221 181
0 220 181
0 221 181
0 221 181
0 221 181
0 222 181
0 221 181
0 222 181
0 221 180
0 222 180
0 222 181
0 221 180
0 221 181
0 221 181
0 222 181
0 221 181
0 221 181
0 221 181
0 220 180
0 221 181
0 221 181
0 221 181
0 221 181
0 221 180
0 222 181
0 222 181
0 222 181
0 222 181
0 221 181
0 219 179
0 219 180
0 222 181
0 221 180
0 222 180
0 222 181
0 221 181
0 219 179
0 222 181
0 221 181
0 220 180
0 221 180
0 219 179
0 220 180
0 221 181
0 220 181
0 221 180
0 219 179
0 221 181
0 219 180
0 219 179
0 221 181
0 222 181
0 221 180
0 221 179
0 217 178
0 220 180
0 219 179
0 219 179
0 221 180
0 219 179
0 219 179
0 217 178
0 219 179
0 219 180
0 218 179
0 221 180
0 218 178
0 219 179
0 220 180
0 220 179
0 219 179
0 220 180
0 216 177
0 216 177
0 219 179
0 220 180
0 221 181
39 221 183
0 221 181
0 216 177
0 218 178
0 216 178
0 212 174
0 214 177
0 210 172
0 213 176
0 215 176
0 212 174
0 213 175
0 208 171
0 216 176
0 206 170
0 210 173
0 209 172
0 207 171
0 202 164
0 210 174
0 200 166
0 194 161
0 192 159
0 202 167
0 195 161
0 186 152
0 171 142
0 178 146
0 177 144
0 155 129
0 150 124
0 144 119
0 148 125
0 187 150
0 173 143
0 134 114
0 155 129
0 140 118
0 146 122
0 149 123
0 137 113
0 138 115
0 151 125
0 141 117
0 154 126
0 153 126
0 153 130
0 151 126
0 163 133
0 159 133
0 171 136
0 176 145
0 167 134
0 180 147
0 173 140
0 177 145
0 182 148
0 181 148
0 187 153
0 197 159
0 191 154
0 196 159
0 186 149
0 199 161
0 189 154
0 196 155
0 196 157
0 196 156
0 201 160
0 191 154
0 204 163
0 201 163
0 205 165
0 206 168
0 207 167
0 200 160
0 205 165
0 208 168
0 209 167
0 208 166
0 212 168
0 206 169
0 210 170
0 213 171
0 209 169
0 209 171
0 210 169
0 213 173
0 215 172
0 214 175
0 213 172
0 217 178
0 216 175
0 213 173
0 214 174
0 217 176
0 217 176
0 219 177
0 216 175
0 217 176
0 218 176
0 216 174
0 218 177
0 218 177
0 218 178
0 217 175
0 215 174
0 218 178
0 218 178
0 217 177
0 219 177
0 217 177
0 219 178
0 219 179
0 218 179
0 220 179
0 220 178
0 219 179
0 220 179
0 219 178
0 220 180
0 219 179
0 220 181
0 221 181
0 222 180
0 220 180
0 220 179
0 222 181
0 218 177
0 221 179
0 221 181
0 220 181
0 221 180
0 217 177
0 219 179
0 221 179
0 221 180
0 220 180
0 221 181
0 222 181
0 221 181
0 221 181
0 221 181
0 220 181
0 221 178
0 220 179
0 221 181
0 221 181
0 221 180
0 220 179
0 222 181
0 221 180
0 220 180
0 221 181
0 221 181
0 220 181
0 219 180
0 222 181
0 220 180
0 220 179
0 222 181
0 222 181
0 220 181
0 220 181
0 222 181
0 222 181
0 221 180
0 220 181
0 221 181
0 220 181
0 222 181
0 221 181
0 221 181
0 221 181
0 220 180
0 222 181
0 221 181
0 221 181
0 221 181
0 221 180
0 222 181
0 222 181
0 221 181
0 221 180
0 222 181
0 221 181
0 221 181
0 220 180
0 220 181
0 222 181
0 221 181
0 222 181
0 221 181
0 220 181
0 222 181
0 221 181
0 220 180
0 221 181
0 220 181
0 221 181
0 221 181
0 222 181
0 221 181
0 222 181
0 222 181
0 221 181
0 222 181
0 222 181
0 221 181
0 221 181
0 221 181
0 222 181
0 221 181
0 221 180
0 221 181
0 222 181
0 222 181
0 222 181
0 221 181
0 221 181
0 222 181
0 221 181
0 222 181
0 222 181
0 221 181
0 222 181
0 222 181
0 221 181
0 221 181
0 220 180
0 221 181
0 221 181
0 221 181
0 221 181
0 221 181
0 222 181
0 220 181
0 222 181
0 222 181
0 221 181
0 222 181
0 221 181
0 220 181
0 221 181
0 221 181
0 221 181
0 221 181
0 221 181
0 221 181
0 220 181
0 221 181
0 221 181
0 221 181
0 221 181
0 221 181
0 221 181
0 221 181
0 221 181
0 221 180
0 222 181
0 220 181
0 220 180
0 221 181
0 221 181
0 222 181
0 221 181
0 221 181
0 221 181
0 221 181
0 221 181
0 222 181
0 222 181
0 221 181
0 222 181
0 221 181
0 221 181
0 221 179
0 221 181
0 221 181
0 219 180
0 220 181
0 220 181
0 222 181
0 222 181
0 222 181
0 221 181
0 221 181
0 222 180
0 221 181
0 221 181
0 221 181
0 220 181
0 221 181
0 221 181
0 221 181
0 222 180
0 221 181
0 221 181
0 221 181
0 220 181
0 221 181
0 221 181
0 220 180
0 222 181
0 221 181
0 221 181
0 221 181
0 221 181
0 221 181
0 221 181
0 220 180
0 222 181
0 222 181
0 221 181
0 220 181
0 221 181
0 221 181
0 221 181
0 221 181
0 221 181
0 220 180
0 222 181
0 221 181
0 220 180
0 221 181
0 222 181
0 222 181
0 220 180
0 221 181
0 221 181
0 220 180
0 220 181
0 221 180
0 221 181
0 221 181
0 220 180
0 221 181
0 220 181
0 221 181
0 220 180
0 221 181
0 220 181
0 221 181
0 221 181
0 221 181
0 220 180
0 221 180
0 221 181
0 221 181
0 222 181
0 220 180
0 221 181
0 222 181
0 221 180
0 221 181
0 221 181
0 220 180
0 221 180
0 220 181
0 221 180
0 222 181
0 220 179
0 219 180
0 220 180
0 222 181
0 220 180
0 220 180
0 221 180
0 219 180
0 221 180
0 220 181
0 218 178
0 219 179
0 219 180
0 216 178
0 222 181
0 221 181
0 220 180
0 217 178
0 219 179
0 218 178
0 219 180
0 219 179
0 220 180
0 219 180
0 218 180
0 220 181
0 220 179
0 219 180
0 219 180
0 220 180
0 216 177
0 220 179
0 217 178
0 215 177
0 217 178
0 215 176
0 220 180
0 222 181
0 222 181
0 222 181
0 221 181
0 221 179
0 215 176
0 220 180
0 220 179
0 216 177
0 217 178
0 213 175
0 214 175
0 218 178
0 213 175
0 205 168
0 205 168
0 211 174
0 211 173
0 206 170
0 204 166
0 206 169
0 205 168
0 200 163
0 201 166
0 196 163
0 205 166
0 187 155
0 182 152
0 184 152
0 182 151
0 180 147
0 182 149
0 161 133
0 158 131
0 170 141
0 203 166
0 184 150
0 155 129
0 167 138
0 157 130
0 168 137
0 158 130
0 163 136
0 156 131
0 154 129
0 157 130
0 162 135
0 157 131
0 160 135
0 172 142
0 174 143
0 168 142
0 167 137
0 176 144
0 169 138
0 183 152
0 174 142
0 182 150
0 180 145
0 199 165
0 189 154
0 197 159
0 192 157
0 194 157
0 195 158
0 197 157
0 202 162
0 200 163
0 201 163
0 197 161
0 202 164
0 210 169
0 207 168
0 205 167
0 208 166
0 209 169
0 204 165
0 210 170
0 210 169
0 205 166
0 212 169
0 208 167
0 211 171
0 213 172
0 211 171
0 219 178
0 213 172
0 212 170
0 214 172
0 212 173
0 213 172
0 216 175
0 214 173
0 217 177
0 213 171
0 215 174
0 212 170
0 217 177
0 216 176
0 216 176
0 216 176
0 220 179
0 218 177
0 217 176
0 221 179
0 219 178
0 220 179
0 217 177
0 221 181
0 216 176
0 217 177
0 218 176
0 217 178
0 219 178
0 218 177
0 220 179
0 221 180
0 218 178
0 220 179
0 221 179
0 217 175
0 218 176
0 219 179
0 221 179
0 221 180
0 219 178
0 220 180
0 220 179
0 220 179
0 219 179
0 220 180
0 220 180
0 221 180
0 219 180
0 220 179
0 222 181
0 221 180
0 220 179
0 221 181
0 221 180
0 218 179
0 220 180
0 221 180
0 220 179
0 220 179
0 221 181
0 220 180
0 222 181
0 221 180
0 221 181
0 223 181
0 220 180
0 221 181
0 220 179
0 221 180
0 222 181
0 220 180
0 221 181
0 220 181
0 221 181
0 221 180
0 221 181
0 220 181
0 221 181
0 221 181
0 221 181
0 221 181
0 220 180
0 220 181
0 221 181
0 220 181
0 221 180
0 221 181
0 221 181
0 220 181
0 221 181
0 221 180
0 221 180
0 221 181
0 221 181
0 222 181
0 221 181
0 221 180
0 220 180
0 221 181
0 221 181
0 220 180
0 221 181
0 222 181
0 221 181
0 221 181
0 221 181
0 222 181
0 220 180
0 221 180
0 222 181
0 221 181
0 221 181
0 220 180
0 221 180
0 221 180
0 221 180
0 220 180
0 221 181
0 221 181
0 221 181
0 221 181
0 221 181
0 221 181
0 220 181
0 220 180
0 221 181
0 221 181
0 221 180
0 220 181
0 221 181
0 222 181
0 221 181
0 221 181
0 221 181
0 221 181
0 221 181
0 221 181
0 222 181
0 221 181
0 222 181
0 221 181
0 222 181
0 222 181
0 222 181
0 221 181
0 221 181
0 221 181
0 221 181
0 222 181
0 222 181
0 221 180
0 221 181
0 221 181
0 221 181
0 220 181
0 221 181
0 220 181
0 222 181
0 221 181
0 221 181
0 222 181
0 221 181
0 221 181
0 221 181
0 222 181
0 222 181
0 222 181
0 222 181
0 221 181
0 221 181
0 222 181
0 221 181
0 221 181
0 221 181
0 222 181
0 221 181
0 221 181
0 221 181
0 222 181
0 221 181
0 222 181
0 223 181
0 222 181
0 222 181
0 222 181
0 221 181
0 222 181
0 221 181
0 222 181
0 222 181
0 222 181
0 220 181
0 222 181
0 222 181
0 221 181
0 221 181
0 221 181
0 221 180
0 221 181
0 222 181
0 221 181
0 221 181
0 221 181
0 222 181
0 222 181
0 222 181
0 221 181
0 221 181
0 221 181
0 222 181
0 221 181
0 219 180
0 221 181
0 221 181
0 222 181
0 221 181
0 221 181
0 221 181
0 222 181
0 221 181
0 221 181
0 221 181
0 221 181
0 221 181
0 221 181
0 222 181
0 220 181
0 221 181
0 221 181
0 222 181
0 221 181
0 219 180
0 221 181
0 221 181
0 221 181
0 221 181
0 221 181
0 221 181
0 220 181
0 222 181
0 220 180
0 220 181
0 222 181
0 221 181
0 221 181
0 221 181
0 221 181
0 221 181
0 220 180
0 221 181
0 221 181
0 221 180
0 222 181
0 219 180
0 221 181
0 222 180
0 222 181
0 222 181
0 222 181
0 220 180
0 222 181
0 220 180
0 221 181
0 222 181
0 221 181
0 218 178
0 220 180
0 221 181
0 221 180
0 221 180
0 221 181
0 219 180
0 222 181
0 220 180
0 220 180
0 221 181
0 220 179
0 221 180
0 218 179
0 221 181
0 221 181
0 221 181
0 221 180
0 219 179
0 219 179
0 221 180
0 220 181
0 221 181
0 221 180
0 217 178
0 220 180
0 217 178
0 222 181
0 220 181
0 220 180
0 220 179
0 219 178
0 221 180
0 218 179
0 217 178
0 217 178
0 218 179
0 219 179
0 220 180
0 218 178
0 219 180
0 219 179
0 220 180
0 218 179
0 219 179
0 215 176
0 217 178
0 218 179
0 217 178
0 219 179
0 220 181
0 220 181
0 220 180
0 219 179
0 220 180
0 217 178
0 220 178
0 215 176
0 212 176
0 209 173
0 211 175
0 212 174
0 211 173
0 204 169
0 212 173
0 212 174
0 207 171
0 208 170
0 200 165
0 204 165
0 200 165
0 202 167
0 202 164
0 192 160
0 199 163
0 199 163
0 188 156
0 193 159
0 193 159
0 182 148
0 170 143
0 172 142
0 182 149
0 185 153
0 195 156
0 188 155
0 173 144
0 169 141
0 165 138
0 166 136
0 164 138
0 173 145
0 174 143
0 168 141
0 148 125
0 165 136
0 172 139
0 166 139
0 179 148
0 172 140
0 171 140
0 177 146
0 179 147
0 187 153
0 178 144
0 180 146
0 194 161
0 187 155
0 188 154
0 198 163
0 197 161
0 200 164
0 200 164
0 195 159
0 195 157
0 203 165
0 199 161
0 200 161
0 201 162
0 202 166
0 205 167
0 208 168
0 205 164
0 199 162
0 211 171
0 211 168
0 211 168
0 208 170
0 213 174
0 216 176
0 213 173
0 214 174
0 214 173
0 206 165
0 214 174
0 208 169
0 214 172
0 214 174
0 211 169
0 216 176
0 218 176
0 216 176
0 216 175
0 219 179
0 212 172
0 214 172
0 215 175
0 216 176
0 220 178
0 219 178
0 218 178
0 217 176
0 219 179
0 217 176
0 218 177
0 220 179
0 219 178
0 219 178
0 220 178
0 216 176
0 217 177
0 219 177
0 220 179
0 220 180
0 219 180
0 219 178
0 220 180
0 219 178
0 219 178
0 220 179
0 218 176
0 221 180
0 220 180
0 219 178
0 219 179
0 220 178
0 220 179
0 219 179
0 221 181
0 220 180
0 222 180
0 220 179
0 221 181
0 221 179
0 221 180
0 221 180
0 220 179
0 220 180
0 220 180
0 221 180
0 221 180
0 219 179
0 221 181
0 220 180
0 220 179
0 220 178
0 221 181
0 221 181
0 221 181
0 221 181
0 221 181
0 221 181
0 220 179
0 220 179
0 220 181
0 221 181
0 221 180
0 220 181
0 222 181
0 221 180
0 221 179
0 221 181
0 220 180
0 220 181
0 223 181
0 221 181
0 222 181
0 222 181
0 220 181
0 221 181
0 221 179
0 221 181
0 221 181
0 221 181
0 221 181
0 221 180
0 221 180
0 221 181
0 221 181
0 221 180
0 222 180
0 220 180
0 221 181
0 221 181
0 221 180
0 222 181
0 221 181
0 222 181
0 222 181
0 222 181
0 222 181
0 221 181
0 220 181
0 218 178
0 220 181
0 221 181
0 221 181
0 221 181
0 222 181
0 221 181
0 222 180
0 221 181
0 221 181
0 221 181
0 221 181
0 221 181
0 221 181
0 221 181
0 220 180
0 221 181
0 221 181
0 221 181
0 222 181
0 221 181
0 221 181
0 222 181
0 221 181
0 222 181
0 221 181
0 222 181
0 220 181
0 222 181
0 221 181
0 221 181
0 221 181
0 222 181
0 222 181
0 221 181
0 221 181
0 220 181
0 222 181
0 221 181
0 221 181
0 221 181
0 222 181
0 221 181
0 222 181
0 221 181
0 221 181
0 221 181
0 221 181
0 220 181
0 222 181
0 221 181
0 222 181
0 222 181
0 221 181
0 221 181
0 222 181
0 221 181
0 221 181
0 220 181
0 221 181
0 221 181
0 222 181
0 221 181
0 221 181
0 221 181
0 222 181
0 221 181
0 220 181
0 222 181
0 222 181
0 222 181
0 221 181
0 221 181
0 220 181
0 221 181
0 221 181
0 221 181
0 220 181
0 220 180
0 221 181
0 221 181
0 221 181
0 221 181
0 223 181
0 222 181
0 221 181
0 220 181
0 221 181
0 222 181
0 222 181
0 221 181
0 222 181
0 222 181
0 220 181
0 221 180
0 221 181
0 222 181
0 221 181
0 221 181
0 222 181
0 222 181
0 221 181
0 221 181
0 221 181
0 221 180
0 221 181
0 221 181
0 221 181
0 221 181
0 221 181
0 222 181
0 221 181
0 221 181
0 221 181
0 221 181
0 222 181
0 222 181
0 221 181
0 221 181
0 221 181
0 222 181
0 222 181
0 221 180
0 219 180
0 220 181
0 222 181
0 220 180
0 221 181
0 222 181
0 220 180
0 219 179
0 221 181
0 222 181
0 222 181
0 221 181
0 222 181
0 221 181
0 221 181
0 221 181
0 221 181
0 219 180
0 220 181
0 221 181
0 221 180
0 222 181
0 221 180
0 221 181
0 222 181
0 222 181
0 221 181
0 221 181
0 220 180
0 221 181
0 222 181
0 221 181
0 222 181
0 220 180
0 219 179
0 220 181
0 220 181
0 220 180
0 221 181
0 219 179
0 220 180
0 221 181
0 220 180
0 220 179
0 222 181
0 222 181
0 220 180
0 221 181
0 220 180
0 219 180
0 220 180
0 220 180
0 222 181
0 221 181
0 221 180
0 219 180
0 220 179
0 217 178
0 219 179
0 220 179
0 221 181
0 219 179
0 221 181
0 219 179
0 220 180
0 220 179
0 221 179
0 217 179
0 220 180
0 218 179
0 219 179
0 219 180
0 217 178
0 219 179
0 220 180
0 216 177
0 220 179
0 218 179
0 217 178
0 215 176
0 218 178
0 218 178
0 216 177
0 221 181
0 221 181
0 220 179
0 218 178
0 219 179
0 218 179
0 214 176
0 212 175
0 220 179
0 215 177
0 215 177
0 206 171
0 215 175
0 212 173
0 213 173
0 215 176
0 206 170
0 209 172
0 205 169
0 208 171
0 199 162
0 207 169
0 206 169
0 206 168
0 196 161
0 203 167
0 197 162
0 197 161
0 193 158
0 187 153
0 190 155
0 184 150
0 185 154
0 182 150
0 169 143
0 199 161
0 200 164
0 177 148
0 172 143
0 175 145
0 153 127
0 175 145
0 178 146
0 177 144
0 181 150
0 165 138
0 176 147
0 173 144
0 180 148
0 183 150
0 185 153
0 191 157
0 182 152
0 192 160
0 184 153
0 190 157
0 199 164
0 200 163
0 193 157
0 191 158
0 191 155
0 196 157
0 197 161
0 203 164
0 207 167
0 205 167
0 204 168
0 204 162
0 195 160
0 203 164
0 207 168
0 207 170
0 207 168
0 209 171
0 205 166
0 206 167
0 213 173
0 211 170
0 206 167
0 208 167
0 210 168
0 207 168
0 212 173
0 214 171
0 214 174
0 214 175
0 214 170
0 212 174
0 216 176
0 213 173
0 213 174
0 216 174
0 213 172
0 209 169
0 216 175
0 215 176
0 218 176
0 217 176
0 217 175
0 220 178
0 217 176
0 220 179
0 220 179
0 218 177
0 221 180
0 218 179
0 221 181
0 219 179
0 219 179
0 219 178
0 219 180
0 219 180
0 218 177
0 217 177
0 218 177
0 218 178
0 219 177
0 221 181
0 220 179
0 220 179
0 221 179
0 217 177
0 219 179
0 222 181
0 221 181
0 220 180
0 217 178
0 220 180
0 220 180
0 221 181
0 221 180
0 221 181
0 221 180
0 222 181
0 221 180
0 221 181
0 221 181
0 220 181
0 220 179
0 221 181
0 220 180
0 221 180
0 219 179
0 221 181
0 221 179
0 220 180
0 221 179
0 221 181
0 221 180
0 221 181
0 221 180
0 220 180
0 221 181
0 221 181
0 222 181
0 221 181
0 221 181
0 221 181
0 221 181
0 221 180
0 221 181
0 219 180
0 221 180
0 221 181
0 221 180
0 221 181
0 222 181
0 222 181
0 221 181
0 221 180
0 220 180
0 221 181
0 220 179
0 221 181
0 222 181
0 220 181
0 222 181
0 220 180
0 221 181
0 221 181
0 222 181
0 221 181
0 221 181
0 221 181
0 222 180
0 219 179
0 222 181
0 222 181
0 221 181
0 222 181
0 222 180
0 221 181
0 219 180
0 222 181
0 221 181
0 221 181
0 221 180
0 222 181
0 222 181
0 222 181
0 221 181
0 221 181
0 221 180
0 221 181
0 221 181
0 221 181
0 221 180
0 222 181
0 221 181
0 221 181
0 221 181
0 221 181
0 221 181
0 221 181
0 222 181
0 222 181
0 221 181
0 222 181
0 220 181
0 221 181
0 221 181
0 221 181
0 221 181
0 222 181
0 221 181
0 221 181
0 221 181
0 221 181
0 221 181
0 221 181
0 222 181
0 221 181
0 221 181
0 221 181
0 220 180
0 220 181
0 221 181
0 221 181
0 222 181
0 221 181
0 221 181
0 222 181
0 221 181
0 222 181
0 221 181
0 220 181
0 221 181
0 221 181
0 221 181
0 221 181
0 221 181
0 221 181
0 222 181
0 221 181
0 221 181
0 222 181
0 221 181
0 220 181
0 222 181
0 222 181
0 222 181
0 221 181
0 220 181
0 221 181
0 222 181
0 221 181
0 222 181
0 221 181
0 222 181
0 221 181
0 221 181
0 221 181
0 222 181
0 221 181
0 221 181
0 222 181
0 221 181
0 220 181
0 221 181
0 220 181
0 221 181
0 221 181
0 222 181
0 221 181
0 220 180
0 221 181
0 220 181
0 219 179
0 221 181
0 221 181
0 221 181
0 221 181
0 223 181
0 221 181
0 221 181
0 221 181
0 221 181
0 222 181
0 221 181
0 220 180
0 220 180
0 222 181
0 221 181
0 221 181
0 222 181
0 221 181
0 221 181
0 221 181
0 223 181
0 220 181
0 221 181
0 222 181
0 220 180
0 221 181
0 222 181
0 222 181
0 221 181
0 221 181
0 222 181
0 221 181
0 220 181
0 222 181
0 221 181
0 221 181
0 221 181
0 221 181
0 220 181
0 221 181
0 220 180
0 220 181
0 221 181
0 219 179
0 221 180
0 217 179
0 221 181
0 220 180
0 220 180
0 220 180
0 220 180
0 220 181
0 221 181
0 220 180
0 221 181
0 220 180
0 221 181
0 220 181
0 220 179
0 221 181
0 220 181
0 220 180
0 220 181
0 221 181
0 221 180
0 219 179
0 221 180
0 221 180
0 221 181
0 221 180
0 220 180
0 221 180
0 221 180
0 220 180
0 217 178
0 220 180
0 223 181
0 220 180
0 221 180
0 220 180
0 219 179
0 220 180
0 220 179
0 219 179
0 220 180
0 219 180
0 220 180
0 220 180
0 221 180
0 218 178
0 221 181
0 219 179
0 221 180
0 218 180
0 219 179
0 218 179
0 221 180
0 220 180
0 217 178
0 220 180
0 219 179
0 217 178
0 220 179
0 216 178
0 218 179
0 220 180
0 219 179
0 213 175
0 219 179
0 221 181
0 219 179
0 217 178
0 221 180
0 220 180
0 220 180
0 219 180
0 217 177
0 217 178
0 220 180
0 216 178
0 214 176
0 215 177
0 214 175
0 212 175
0 211 174
0 214 176
0 210 173
0 208 172
0 210 173
0 210 173
0 208 171
0 203 167
0 203 165
0 207 170
0 202 166
0 203 166
0 205 167
0 201 166
0 192 160
0 200 162
0 189 156
0 193 160
0 186 155
0 194 159
0 200 165
0 186 156
0 202 168
0 198 163
0 193 160
0 192 159
0 182 151
0 183 152
0 179 149
0 173 143
0 181 150
0 168 139
0 187 152
0 178 147
0 182 153
0 175 144
0 181 150
0 185 155
0 189 156
0 185 153
0 184 153
0 188 155
0 186 153
0 185 153
0 192 160
0 187 152
0 200 166
0 202 166
0 194 160
0 204 164
0 200 162
0 203 166
0 199 161
0 206 168
0 199 163
0 200 164
0 207 167
0 214 174
0 208 168
0 202 165
0 210 170
0 209 170
0 205 165
0 209 171
0 211 172
0 213 173
0 212 171
0 212 172
0 209 171
0 209 170
0 214 174
0 211 171
0 208 167
0 213 173
0 209 170
0 214 173
0 218 177
0 215 176
0 216 177
0 216 175
0 214 173
0 218 177
0 214 173
0 215 173
0 215 174
0 216 174
0 218 178
0 220 179
0 217 177
0 217 177
0 219 178
0 218 176
0 218 178
0 218 177
0 219 179
0 219 179
0 219 179
0 217 177
0 218 179
0 219 180
0 220 179
0 219 179
0 217 177
0 218 177
0 219 178
0 219 179
0 217 177
0 219 177
0 221 180
0 220 179
0 221 180
0 221 180
0 219 179
0 219 179
0 217 178
0 221 179
0 221 181
0 220 179
0 220 180
0 222 181
0 220 178
0 222 181
0 220 178
0 219 179
0 220 179
0 220 180
0 220 180
0 220 180
0 221 181
0 221 180
0 221 181
0 221 180
0 221 180
0 221 181
0 221 180
0 221 180
0 221 181
0 220 180
0 221 181
0 221 181
0 221 180
0 221 181
0 220 180
0 219 180
0 222 181
0 220 180
0 220 180
0 221 181
0 221 181
0 222 181
0 221 181
0 221 180
0 220 179
0 220 180
0 222 181
0 221 180
0 220 181
0 221 181
0 221 180
0 221 181
0 220 180
0 221 181
0 221 181
0 221 181
0 221 181
0 221 181
0 221 180
0 222 181
0 221 181
0 221 181
0 220 180
0 221 181
0 222 181
0 221 181
0 222 181
0 221 181
0 221 180
0 221 180
0 221 181
0 221 181
0 220 181
0 221 180
0 221 180
0 221 181
0 220 179
0 222 181
0 222 181
0 222 181
0 220 180
0 220 180
0 222 181
0 221 181
0 221 181
0 222 181
0 221 181
0 222 181
0 221 181
0 221 181
0 222 181
0 221 181
0 221 181
0 221 180
0 220 181
0 221 181
0 220 181
0 222 181
0 221 181
0 221 180
0 221 181
0 222 181
0 222 181
0 221 181
0 221 180
0 221 181
0 220 181
0 220 181
0 220 181
0 222 180
0 221 181
0 222 181
0 221 181
0 222 181
0 221 181
0 221 181
0 222 181
0 221 181
0 220 181
0 221 181
0 221 181
0 221 181
0 220 181
0 221 181
0 221 181
0 222 180
0 221 181
0 221 181
0 222 181
0 221 181
0 221 181
0 220 181
0 221 181
0 221 181
0 222 181
0 222 181
0 222 181
0 221 181
0 223 181
0 221 181
0 222 181
0 221 181
0 221 181
0 222 181
0 221 181
0 221 181
0 222 181
0 221 181
0 221 181
0 222 181
0 221 181
0 221 181
0 221 181
0 221 181
0 222 181
0 221 181
0 221 181
0 222 181
0 220 181
0 221 181
0 221 181
0 221 181
0 221 181
0 221 181
0 221 181
0 221 181
0 221 181
0 222 181
0 222 181
0 220 181
0 221 181
0 221 181
0 222 181
0 221 181
0 221 181
0 221 181
0 222 181
0 222 181
0 220 181
0 221 181
0 221 181
0 221 181
0 221 181
0 221 181
0 221 181
0 221 181
0 221 181
0 221 181
0 222 181
0 222 181
0 220 181
0 221 181
0 221 181
0 221 181
0 220 181
0 221 181
0 221 181
0 220 181
0 221 181
0 221 181
0 221 181
0 222 181
0 222 181
0 221 181
0 222 181
0 221 181
0 220 181
0 222 181
0 220 181
0 222 181
0 221 181
0 221 180
0 222 181
0 221 181
0 222 181
0 221 181
0 222 181
0 221 180
0 220 180
0 221 181
0 221 181
0 221 180
0 222 181
0 221 181
0 221 181
0 220 180
0 221 181
0 222 181
0 221 181
0 221 181
0 222 181
0 219 179
0 220 180
0 221 181
0 221 181
0 220 181
0 220 180
0 222 181
0 220 180
0 222 181
0 221 181
0 218 180
0 220 179
0 220 180
0 220 180
0 219 180
0 220 179
0 218 179
0 220 180
0 220 180
0 221 181
0 221 181
0 219 180
0 220 180
0 220 180
0 221 181
0 219 180
0 220 180
0 220 181
0 219 179
0 221 180
0 219 179
0 219 179
0 220 180
0 221 181
0 220 179
0 219 180
0 219 179
0 216 177
0 217 178
0 219 178
0 218 178
0 217 177
0 217 177
0 219 179
0 217 178
0 219 179
0 219 179
0 219 179
0 215 177
0 222 181
0 221 181
0 221 180
0 218 179
0 219 179
0 216 178
0 213 176
0 215 176
0 217 178
0 218 178
0 215 175
0 214 174
0 213 175
0 210 171
0 217 175
0 213 174
0 210 172
0 213 172
0 214 174
0 207 165
0 203 164
0 205 167
0 204 166
0 199 160
0 195 161
0 200 164
0 199 161
0 203 164
0 198 162
0 190 159
0 197 162
0 194 159
0 188 155
0 193 159
0 205 166
0 200 164
0 193 160
0 193 159
0 198 161
0 173 142
0 200 163
0 185 154
0 170 142
0 175 146
0 183 152
0 186 154
0 182 149
0 192 158
0 185 151
0 190 157
0 190 155
0 191 158
0 180 148
0 195 160
0 183 152
0 192 158
0 201 163
0 197 163
0 190 155
0 198 162
0 195 159
0 195 162
0 203 164
0 208 169
0 201 165
0 203 166
0 204 167
0 210 170
0 206 170
0 210 171
0 203 165
0 209 170
0 204 165
0 208 172
0 208 169
0 214 173
0 210 171
0 206 168
0 210 171
0 214 173
0 208 169
0 210 170
0 211 171
0 214 173
0 214 173
0 214 173
0 217 175
0 214 174
0 217 177
0 216 172
0 213 173
0 215 175
0 217 176
0 220 179
0 216 175
0 217 175
0 217 175
0 217 176
0 217 176
0 216 176
0 216 176
0 218 177
0 220 179
0 218 177
0 217 176
0 217 178
0 219 178
0 219 178
0 220 181
0 219 178
0 220 180
0 215 175
0 220 178
0 217 177
0 220 179
0 220 180
0 221 179
0 218 179
0 220 180
0 218 179
0 221 180
0 219 179
0 219 178
0 221 180
0 219 179
0 219 179
0 220 179
0 221 180
0 221 181
0 220 180
0 221 180
0 219 178
0 221 180
0 221 181
0 221 180
0 220 181
0 221 181
0 221 181
0 221 181
0 220 180
0 222 181
0 221 181
0 221 180
0 218 178
0 221 179
0 221 180
0 221 180
0 221 180
0 221 181
0 221 180
0 221 180
0 220 181
0 221 181
0 221 181
0 220 180
0 220 179
0 221 181
0 221 181
0 220 181
0 221 180
0 221 181
0 222 181
0 221 181
0 219 180
0 221 180
0 221 181
0 221 181
0 221 180
0 222 180
0 221 181
0 220 180
0 221 181
0 222 181
0 221 181
0 221 181
0 220 180
0 221 180
0 221 181
0 220 180
0 221 181
0 221 181
0 222 181
0 220 179
0 222 181
0 221 181
0 221 181
0 222 181
0 221 181
0 221 181
0 220 181
0 221 181
0 221 181
0 221 181
0 221 181
0 222 181
0 222 181
0 220 181
0 222 181
0 221 181
0 221 180
0 221 181
0 221 181
0 222 181
0 221 181
0 221 181
0 220 181
0 221 181
0 221 181
0 221 181
0 222 181
0 222 181
0 221 181
0 222 181
0 221 181
0 221 181
0 220 181
0 220 181
0 221 180
0 221 181
0 222 181
0 223 181
0 221 181
0 222 181
0 221 181
0 222 181
0 221 181
0 221 180
0 221 181
0 221 181
0 221 181
0 220 180
0 221 181
0 221 181
0 222 181
0 221 181
0 221 181
0 222 181
0 221 181
0 222 181
0 221 181
0 221 181
0 222 181
0 221 181
0 221 181
0 221 181
0 221 181
0 221 181
0 221 181
0 221 181
0 221 181
0 221 181
0 221 181
0 221 181
0 221 181
0 221 181
0 221 181
0 221 181
0 222 181
0 222 181
0 221 181
0 222 181
0 222 181
0 220 181
0 221 181
0 222 181
0 221 181
0 222 181
0 220 181
0 222 181
0 222 181
0 222 181
0 221 181
0 221 180
0 220 181
0 221 181
0 220 181
0 221 181
0 222 181
0 221 181
0 221 181
0 221 181
0 221 181
0 222 181
0 221 181
0 222 181
0 220 181
0 221 181
0 220 181
0 222 181
0 221 181
0 221 181
0 221 181
0 222 181
0 221 181
0 221 180
0 221 181
0 222 181
0 222 181
0 222 181
0 222 181
0 222 181
0 222 181
0 222 181
0 221 181
0 221 181
0 221 181
0 221 181
0 221 181
0 221 181
0 221 181
0 222 181
0 222 181
0 221 180
0 221 181
0 221 181
0 222 181
0 221 181
0 221 181
0 221 181
0 221 181
0 221 180
0 221 180
0 221 181
0 221 181
0 221 181
0 221 181
0 222 181
0 221 181
0 221 181
0 222 181
0 220 181
0 221 181
0 221 181
0 220 179
0 221 181
0 221 181
0 219 179
0 220 180
0 221 180
0 223 181
0 219 179
0 220 180
0 222 181
0 221 181
0 220 180
0 222 180
0 220 180
0 220 179
0 221 180
0 220 180
0 221 181
0 222 181
0 221 180
0 221 181
0 220 180
0 221 180
0 220 180
0 219 179
0 221 181
0 221 181
0 220 181
0 222 181
0 221 180
0 221 181
0 221 181
0 219 180
0 221 179
0 221 181
0 220 180
0 219 180
0 221 181
0 221 181
0 221 181
0 221 181
0 221 181
0 221 180
0 219 180
0 219 179
0 220 180
0 220 180
0 220 180
0 221 180
0 218 179
0 218 178
0 219 179
0 220 181
0 220 179
0 219 180
0 220 180
0 216 178
0 219 180
0 214 176
0 217 178
0 217 178
0 216 178
0 219 178
0 217 178
0 216 177
0 215 177
0 216 177
0 221 181
0 220 179
0 220 180
0 219 179
0 218 178
0 216 176
0 218 177
0 216 176
0 216 176
0 212 174
0 214 175
0 215 175
0 214 176
0 216 175
0 211 173
0 208 169
0 209 168
0 211 169
0 208 168
0 208 168
0 204 167
0 203 166
0 203 166
0 204 166
0 199 166
0 206 167
0 198 161
0 198 158
0 206 168
0 195 158
0 200 161
0 200 162
0 200 164
0 195 160
0 204 169
0 200 164
0 195 161
0 195 161
0 191 157
0 179 147
0 183 151
0 192 158
0 189 157
0 182 153
0 190 157
0 194 160
0 189 154
0 193 160
0 197 163
0 192 159
0 194 160
0 183 151
0 198 161
0 189 155
0 194 163
0 194 159
0 195 162
0 201 166
0 202 167
0 204 168
0 192 157
0 201 165
0 198 163
0 197 163
0 205 168
0 201 165
0 201 165
0 210 172
0 207 168
0 208 168
0 207 169
0 203 165
0 210 172
0 207 167
0 209 170
0 214 174
0 211 172
0 213 174
0 211 169
0 216 176
0 210 171
0 216 176
0 211 173
0 215 174
0 215 174
0 212 172
0 216 176
0 215 174
0 214 173
0 214 174
0 214 173
0 213 173
0 214 174
0 217 175
0 217 175
0 214 175
0 215 174
0 219 179
0 217 177
0 215 174
0 219 178
0 220 179
0 219 178
0 218 177
0 216 176
0 215 175
0 214 173
0 218 177
0 219 179
0 220 179
0 220 180
0 218 178
0 220 179
0 220 179
0 220 180
0 217 177
0 219 180
0 218 179
0 219 179
0 220 179
0 220 179
0 220 178
0 220 180
0 219 179
0 220 180
0 219 179
0 221 180
0 220 179
0 220 180
0 220 180
0 220 180
0 218 178
0 220 180
0 221 180
0 222 181
0 220 180
0 221 180
0 220 179
0 221 180
0 221 180
0 219 179
0 221 181
0 222 181
0 219 179
0 220 180
0 221 181
0 220 180
0 220 180
0 219 179
0 220 180
0 219 179
0 220 180
0 220 180
0 221 181
0 221 181
0 222 181
0 221 181
0 220 180
0 220 179
0 220 179
0 220 179
0 221 181
0 221 181
0 221 180
0 221 180
0 222 181
0 221 181
0 221 181
0 219 179
0 219 178
0 221 181
0 221 180
0 221 180
0 221 181
0 220 179
0 221 181
0 222 181
0 221 181
0 221 181
0 222 181
0 221 181
0 221 181
0 221 181
0 221 181
0 222 181
0 221 181
0 221 181
0 220 180
0 222 181
0 221 181
0 220 181
0 220 181
0 221 181
0 222 181
0 221 181
0 221 181
0 222 181
0 221 181
0 221 181
0 221 180
0 222 181
0 222 181
0 220 181
0 222 181
0 220 181
0 221 181
0 221 181
0 222 181
0 221 181
0 222 181
0 221 180
0 221 181
0 221 181
0 222 181
0 221 181
0 221 181
0 221 181
0 220 181
0 222 181
0 220 181
0 221 180
0 221 181
0 221 180
0 221 181
0 221 181
0 220 180
0 221 180
0 220 180
0 221 181
0 221 181
0 221 181
0 222 181
0 221 181
0 222 181
0 221 181
0 221 181
0 221 181
0 221 181
0 221 181
0 222 181
0 221 180
0 221 180
0 222 181
0 221 181
0 221 181
0 221 181
0 221 181
0 221 181
0 221 181
0 221 181
0 221 181
0 221 181
0 221 180
0 221 181
0 221 181
0 221 181
0 220 181
0 220 181
0 220 180
0 221 181
0 222 181
0 222 181
0 222 181
0 221 181
0 221 181
0 222 181
0 221 181
0 221 181
0 221 181
0 221 181
0 221 181
0 222 181
0 221 181
0 221 181
0 221 181
0 221 181
0 221 181
0 222 181
0 221 181
0 221 181
0 221 181
0 222 181
0 221 180
0 221 181
0 220 181
0 221 181
0 221 181
0 221 181
0 222 181
0 222 181
0 221 181
0 220 180
0 219 181
0 221 181
0 221 181
0 221 181
0 221 181
0 222 181
0 220 180
0 221 181
0 221 181
0 221 180
0 221 181
0 223 181
0 221 181
0 222 181
0 220 180
0 222 181
0 219 180
0 222 181
0 221 181
0 221 181
0 222 181
0 221 181
0 222 181
0 221 181
0 222 180
0 222 181
0 221 181
0 221 181
0 221 181
0 222 181
0 221 180
0 220 181
0 222 181
0 222 181
0 221 180
0 221 181
0 222 181
0 222 181
0 221 181
0 221 180
0 221 181
0 223 181
0 220 181
0 220 179
0 221 181
0 222 181
0 223 181
0 221 181
0 221 180
0 221 180
0 219 180
0 220 181
0 221 181
0 221 181
0 221 181
0 221 180
0 222 181
0 220 180
0 222 181
0 222 181
0 220 180
0 221 181
0 218 179
0 218 178
0 221 181
0 220 181
0 221 181
0 220 181
0 221 181
0 221 180
0 222 181
0 219 179
0 222 181
0 221 181
0 220 180
0 220 181
0 221 180
0 221 180
0 222 181
0 220 180
0 221 181
0 221 180
0 220 179
0 222 180
0 221 180
0 221 181
0 220 180
0 220 179
0 219 180
0 218 179
0 219 179
0 218 178
0 221 180
0 218 179
0 219 179
0 219 179
0 220 180
0 221 180
0 218 179
0 218 178
0 219 179
0 214 176
0 221 181
0 221 180
0 217 178
0 216 178
0 213 175
0 220 180
0 219 179
0 220 180
0 222 181
0 220 180
0 216 178
0 217 178
0 219 178
0 220 179
0 215 175
0 216 177
0 215 176
0 218 177
0 217 176
0 215 174
0 210 172
0 213 172
0 216 175
0 211 171
0 208 169
0 210 170
0 203 166
0 206 169
0 207 168
0 206 166
0 194 159
0 205 165
0 204 165
0 196 159
0 198 160
0 197 158
0 198 162
0 197 159
0 197 163
0 202 165
0 201 167
0 208 171
0 192 158
0 187 155
0 195 160
0 200 164
0 194 160
0 200 164
0 200 164
0 194 160
0 194 161
0 195 162
0 196 161
0 192 160
0 191 160
0 183 154
0 198 164
0 200 166
0 199 163
0 195 162
0 194 159
0 196 161
0 203 167
0 200 164
0 197 163
0 207 169
0 199 161
0 204 165
0 206 169
0 203 165
0 209 169
0 209 170
0 207 169
0 204 168
0 207 167
0 211 172
0 211 170
0 210 172
0 208 171
0 212 172
0 210 171
0 207 168
0 215 176
0 209 172
0 209 169
0 212 171
0 211 170
0 213 174
0 213 170
0 213 171
0 215 174
0 215 176
0 212 171
0 209 170
0 216 175
0 212 170
0 216 177
0 218 177
0 213 173
0 215 173
0 218 177
0 216 176
0 219 178
0 219 178
0 217 177
0 217 177
0 218 178
0 212 173
0 220 180
0 217 177
0 217 176
0 219 178
0 219 178
0 218 177
0 220 180
0 217 178
0 220 179
0 216 174
0 220 178
0 217 178
0 219 178
0 219 176
0 220 180
0 220 180
0 219 179
0 217 177
0 220 180
0 220 180
0 218 178
0 220 179
0 220 178
0 220 178
0 220 181
0 221 180
0 220 180
0 221 181
0 218 177
0 221 181
0 219 179
0 219 179
0 219 179
0 220 181
0 222 181
0 222 181
0 220 179
0 221 181
0 221 180
0 221 181
0 220 180
0 221 180
0 219 179
0 221 181
0 220 180
0 221 181
0 222 181
0 221 180
0 221 181
0 219 180
0 221 181
0 221 181
0 221 181
0 221 181
0 221 181
0 222 180
0 220 180
0 221 180
0 221 180
0 221 181
0 221 181
0 222 181
0 221 181
0 222 180
0 219 180
0 222 181
0 221 181
0 220 181
0 222 181
0 221 181
0 221 181
0 221 181
0 222 181
0 220 180
0 221 181
0 221 181
0 221 181
0 221 181
0 221 180
0 221 181
0 221 181
0 220 181
0 221 181
0 222 180
0 220 181
0 220 180
0 222 180
0 221 181
0 220 181
0 221 181
0 221 181
0 221 180
0 221 180
0 223 181
0 222 181
0 222 181
0 221 181
0 221 181
0 221 179
0 221 181
0 221 181
0 220 180
0 221 181
0 221 181
0 221 180
0 221 181
0 221 181
0 221 181
0 221 181
0 221 181
0 221 181
0 221 180
0 222 181
0 221 181
0 220 181
0 221 180
0 222 181
0 222 181
0 221 181
0 221 181
0 221 181
0 222 181
0 221 181
0 220 181
0 221 181
0 221 181
0 221 181
0 220 181
0 222 181
0 221 181
0 220 181
0 221 181
0 221 181
0 222 181
0 221 181
0 221 181
0 221 181
0 221 181
0 221 181
0 221 181
0 221 181
0 220 181
0 221 181
0 221 181
0 222 181
0 222 181
0 221 180
0 221 180
0 221 180
0 222 181
0 221 181
0 222 181
0 221 181
0 221 181
0 221 181
0 221 181
0 222 181
0 221 181
0 221 181
0 222 181
0 222 181
0 221 181
0 220 181
0 221 181
0 222 181
0 221 181
0 221 180
0 222 181
0 221 180
0 222 181
0 221 181
0 219 180
0 221 181
0 221 180
0 221 181
0 221 181
0 221 181
0 222 181
0 222 181
0 222 181
0 221 181
0 221 181
0 222 181
0 220 181
0 222 181
0 222 181
0 221 181
0 221 181
0 221 181
0 220 180
0 222 181
0 221 181
0 220 180
0 221 181
0 221 181
0 222 181
0 221 181
0 221 181
0 221 180
0 220 181
0 221 181
0 222 181
0 220 180
0 221 181
0 220 181
0 222 181
0 221 181
0 221 181
0 221 181
0 222 181
0 221 181
0 222 181
0 220 179
0 220 181
0 221 181
0 221 181
0 222 180
0 221 181
0 220 180
0 221 180
0 221 181
0 222 181
0 221 181
0 221 180
0 221 181
0 222 181
0 222 181
0 222 181
0 221 181
0 221 180
0 222 181
0 221 181
0 221 181
0 222 181
0 221 181
0 221 181
0 222 181
0 220 180
0 221 181
0 220 180
0 218 178
0 221 180
0 221 181
0 221 181
0 221 181
0 220 180
0 220 180
0 220 180
0 220 180
0 220 180
0 221 180
0 219 179
0 219 179
0 219 180
0 219 178
0 220 180
0 221 180
0 221 181
0 222 181
0 222 181
0 220 180
0 221 181
0 220 180
0 221 180
0 221 180
0 221 181
0 220 179
0 221 180
0 221 181
0 221 181
0 221 180
0 218 179
0 221 181
0 220 180
0 219 179
0 220 180
0 221 180
0 219 179
0 216 177
0 219 179
0 216 178
0 219 179
0 220 179
0 218 177
0 220 180
0 218 178
0 218 179
0 217 178
0 219 180
0 217 178
0 216 177
0 217 178
0 220 180
0 216 178
0 219 178
0 218 178
0 215 177
0 216 178
0 218 180
0 219 179
0 221 181
0 221 181
0 220 180
0 218 179
0 219 179
0 219 179
0 212 174
0 215 174
0 215 175
0 213 174
0 215 174
0 213 173
0 216 176
0 209 170
0 212 173
0 215 173
0 209 168
0 217 174
0 213 170
0 208 167
0 210 170
0 209 163
0 207 166
0 209 167
0 196 158
0 208 168
0 194 158
0 214 171
0 197 162
0 204 167
0 197 162
0 207 169
0 206 170
0 198 161
0 199 164
0 199 163
0 197 162
0 193 160
0 193 159
0 202 166
0 195 162
0 194 159
0 192 160
0 192 159
0 197 162
0 196 161
0 191 159
0 191 158
0 203 167
0 197 160
0 199 166
0 208 170
0 201 165
0 199 165
0 196 161
0 198 163
0 199 164
0 206 168
0 200 163
0 204 165
0 203 167
0 208 168
0 205 168
0 207 169
0 209 170
0 212 171
0 195 160
0 207 170
0 207 169
0 209 171
0 203 166
0 210 171
0 215 174
0 207 170
0 210 172
0 211 172
0 210 170
0 216 175
0 215 176
0 215 175
0 214 174
0 215 176
0 213 174
0 213 172
0 211 172
0 219 178
0 211 170
0 216 175
0 214 175
0 217 177
0 214 175
0 216 175
0 217 176
0 218 176
0 221 180
0 217 177
0 218 176
0 218 178
0 218 178
0 215 176
0 220 179
0 220 179
0 219 179
0 219 178
0 220 180
0 219 178
0 218 177
0 219 179
0 220 180
0 220 179
0 219 179
0 220 180
0 217 177
0 219 177
0 221 181
0 221 180
0 220 179
0 219 179
0 219 179
0 220 179
0 219 179
0 220 179
0 221 181
0 219 180
0 219 179
0 218 179
0 218 178
0 220 179
0 220 179
0 222 181
0 220 179
0 219 178
0 221 181
0 220 180
0 220 180
0 220 180
0 219 177
0 219 179
0 218 177
0 221 181
0 221 180
0 222 180
0 220 180
0 219 179
0 220 181
0 222 181
0 220 179
0 220 181
0 221 180
0 220 180
0 220 181
0 222 181
0 222 181
0 222 180
0 223 181
0 220 180
0 219 179
0 220 180
0 220 181
0 220 181
0 221 180
0 222 181
0 221 180
0 220 179
0 221 181
0 221 181
0 221 181
0 220 181
0 222 181
0 220 181
0 222 180
0 221 181
0 221 181
0 221 181
0 221 181
0 221 181
0 221 181
0 221 181
0 221 181
0 222 181
0 220 180
0 220 180
0 221 181
0 221 180
0 220 180
0 222 181
0 221 181
0 221 181
0 221 180
0 222 180
0 220 180
0 220 181
0 223 181
0 221 181
0 220 181
0 220 181
0 221 180
0 221 181
0 221 181
0 221 181
0 222 181
0 221 181
0 221 181
0 221 181
0 221 181
0 220 181
0 220 181
0 221 181
0 221 181
0 222 181
0 220 181
0 221 181
0 221 181
0 221 181
0 221 181
0 221 180
0 222 181
0 221 180
0 221 181
0 221 181
0 222 181
0 221 181
0 221 181
0 222 180
0 221 181
0 222 181
0 222 181
0 222 181
0 222 181
0 222 181
0 222 181
0 221 181
0 221 181
0 221 181
0 221 181
0 221 181
0 221 181
0 222 181
0 220 180
0 221 181
0 221 181
0 221 181
0 221 181
0 221 181
0 222 181
0 222 181
0 221 181
0 221 181
0 221 181
0 221 181
0 222 181
0 221 181
0 222 181
0 220 181
0 222 181
0 221 181
0 221 181
0 221 181
0 221 181
0 221 180
0 221 181
0 221 181
0 221 181
0 221 181
0 221 181
0 221 181
0 222 181
0 220 180
0 221 181
0 223 181
0 221 181
0 222 181
0 222 181
0 222 181
0 219 180
0 221 181
0 221 181
0 221 181
0 221 181
0 221 181
0 221 181
0 220 181
0 221 181
0 220 181
0 222 181
0 221 181
0 222 181
0 220 181
0 222 181
0 222 181
0 222 181
0 223 181
0 221 181
0 221 181
0 220 180
0 221 181
0 220 181
0 222 181
0 221 181
0 221 181
0 220 180
0 221 181
0 221 181
0 221 181
0 221 181
0 221 180
0 220 180
0 219 178
0 222 181
0 221 181
0 222 181
0 221 181
0 221 181
0 221 181
0 221 180
0 222 181
0 221 181
0 222 181
0 220 181
0 221 181
0 221 181
0 221 181
0 222 180
0 220 180
0 221 180
0 220 180
0 221 181
0 221 181
0 222 181
0 222 181
0 220 180
0 219 180
0 220 179
0 222 181
0 221 180
0 220 180
0 222 181
0 221 180
0 221 181
0 221 181
0 221 180
0 221 179
0 221 181
0 221 180
0 221 181
0 222 181
0 222 181
0 222 181
0 222 181
0 221 181
0 222 181
0 220 180
0 218 179
0 220 180
0 221 181
0 222 181
0 218 179
0 219 179
0 220 180
0 222 181
0 219 180
0 221 181
0 220 180
0 219 180
0 220 179
0 221 181
0 220 179
0 220 180
0 216 177
0 221 181
0 221 181
0 218 179
0 220 180
0 221 181
0 217 178
0 220 179
0 220 179
0 217 179
0 219 179
0 216 178
0 219 179
0 218 179
0 220 181
0 217 178
0 221 181
0 219 178
0 218 178
0 218 179
0 220 180
0 219 179
0 219 178
0 221 180
0 217 176
0 217 178
0 221 180
0 215 177
0 220 179
0 215 176
0 215 175
0 218 179
0 220 180
0 221 181
0 221 181
0 220 179
0 222 180
0 219 179
0 218 177
0 215 175
0 217 177
0 211 173
0 220 178
0 217 176
0 217 174
0 216 175
0 217 173
0 209 169
0 209 168
0 213 171
0 217 172
0 210 166
0 207 164
0 208 167
0 209 169
0 203 161
0 211 168
0 209 169
0 207 166
0 202 163
0 204 166
0 201 163
0 204 165
0 205 166
0 206 170
0 201 165
0 202 166
0 198 162
0 201 164
0 193 161
0 195 160
0 190 159
0 197 160
0 202 167
0 197 164
0 197 164
0 200 164
0 203 166
0 197 161
0 196 162
0 205 168
0 209 171
0 198 162
0 201 166
0 198 164
0 203 166
0 206 170
0 203 168
0 210 172
0 204 167
0 205 169
0 207 170
0 209 173
0 202 165
0 204 168
0 210 172
0 212 173
0 205 167
0 209 170
0 206 168
0 210 171
0 209 172
0 213 174
0 210 172
0 208 171
0 208 169
0 216 176
0 214 174
0 216 177
0 213 174
0 218 177
0 211 171
0 216 175
0 216 177
0 214 174
0 212 173
0 214 174
0 211 170
0 217 177
0 212 173
0 214 174
0 216 176
0 216 175
0 217 176
0 215 178
0 218 178
0 214 175
0 216 175
0 217 177
0 218 178
0 219 178
0 219 178
0 218 178
0 219 178
0 218 177
0 221 180
0 220 179
0 220 181
0 215 175
0 221 180
0 217 178
0 219 178
0 219 178
0 218 176
0 219 178
0 221 180
0 221 181
0 218 179
0 221 181
0 222 181
0 220 181
0 218 177
0 220 180
0 220 179
0 221 180
0 218 178
0 220 180
0 217 178
0 219 179
0 220 180
0 221 181
0 221 180
0 219 179
0 219 179
0 220 179
0 218 177
0 219 179
0 220 181
0 220 181
0 220 178
0 220 179
0 220 180
0 220 179
0 221 181
0 222 181
0 220 180
0 221 181
0 221 180
0 222 181
0 221 179
0 219 178
0 220 179
0 221 181
0 221 181
0 221 180
0 220 181
0 219 180
0 221 180
0 221 181
0 221 181
0 219 179
0 221 181
0 220 181
0 220 181
0 222 181
0 220 179
0 220 180
0 221 181
0 221 181
0 221 180
0 220 181
0 221 180
0 220 181
0 222 181
0 221 180
0 221 181
0 220 179
0 220 180
0 221 181
0 220 179
0 221 181
0 221 181
0 221 181
0 221 181
0 221 181
0 220 181
0 221 181
0 221 181
0 221 180
0 221 181
0 221 181
0 220 181
0 222 181
0 222 181
0 221 180
0 219 179
0 221 181
0 221 181
0 221 181
0 221 181
0 221 181
0 221 181
0 221 181
0 222 181
0 221 181
0 220 180
0 221 180
0 221 181
0 221 181
0 222 181
0 221 181
0 220 180
0 221 181
0 221 180
0 222 181
0 221 181
0 222 181
0 221 181
0 221 181
0 221 181
0 221 180
0 221 181
0 221 181
0 221 181
0 221 181
0 222 181
0 220 181
0 221 181
0 220 179
0 221 181
0 221 181
0 221 181
0 221 180
0 221 181
0 222 181
0 221 181
0 221 181
0 221 181
0 221 181
0 220 180
0 221 181
0 221 181
0 221 181
0 221 181
0 222 181
0 222 181
0 222 181
0 221 181
0 220 181
0 222 181
0 220 181
0 221 181
0 221 181
0 220 180
0 221 181
0 222 181
0 221 181
0 222 181
0 222 181
0 221 181
0 221 181
0 220 181
0 221 181
0 221 181
0 221 181
0 221 181
0 221 181
0 221 181
0 220 181
0 221 181
0 220 181
0 220 180
0 220 181
0 221 181
0 221 181
0 221 180
0 221 181
0 221 181
0 222 181
0 222 181
0 221 181
0 222 181
0 221 181
0 223 181
0 222 181
0 221 181
0 222 181
0 220 180
0 221 181
0 221 181
0 221 181
0 222 181
0 221 181
0 221 181
0 221 181
0 222 181
0 219 180
0 222 181
0 221 181
0 221 181
0 221 181
0 221 181
0 221 181
0 220 181
0 221 181
0 221 181
0 222 181
0 220 181
0 221 180
0 223 181
0 221 180
0 220 181
0 221 181
0 221 181
0 221 181
0 221 181
0 220 180
0 221 180
0 222 181
0 222 181
0 220 180
0 220 181
0 221 181
0 220 180
0 221 181
0 221 181
0 222 181
0 221 180
0 221 181
0 220 181
0 221 181
0 222 181
0 222 181
0 221 181
0 220 180
0 221 180
0 221 181
0 221 180
0 221 181
0 222 181
0 220 180
0 222 181
0 220 180
0 221 181
0 221 180
0 222 181
0 220 180
0 220 180
0 222 181
0 219 179
0 221 180
0 222 181
0 218 179
0 220 180
0 221 181
0 221 181
0 221 180
0 221 181
0 221 181
0 221 181
0 220 181
0 221 181
0 220 180
0 219 179
0 220 180
0 220 180
0 220 179
0 218 179
0 218 179
0 220 179
0 219 179
0 220 179
0 219 180
0 219 180
0 222 181
0 221 181
0 220 180
0 221 181
0 218 179
0 218 179
0 219 180
0 217 178
0 219 180
0 218 179
0 220 180
0 220 179
0 220 180
0 217 178
0 218 178
0 218 179
0 220 180
0 220 180
0 220 180
0 217 178
0 217 177
0 219 179
0 219 180
0 221 180
0 218 177
0 217 178
0 219 179
0 219 177
0 220 179
0 221 180
0 221 180
0 218 179
0 217 178
0 217 178
0 216 177
0 218 178
0 209 172
0 217 174
0 215 174
0 218 177
0 216 173
0 216 172
0 218 172
0 218 175
0 214 170
0 217 171
0 210 166
0 211 169
0 210 167
0 213 170
0 210 166
0 207 162
0 207 166
0 209 169
0 208 167
0 207 166
0 209 172
0 207 171
0 215 175
0 202 167
0 204 166
0 211 172
0 206 168
0 203 168
0 197 161
0 204 166
0 200 163
0 202 166
0 206 170
0 198 165
0 200 164
0 204 168
0 199 164
0 197 163
0 206 170
0 204 167
0 200 162
0 202 164
0 203 168
0 209 172
0 203 166
0 201 165
0 209 172
0 204 168
0 199 165
0 207 168
0 202 167
0 212 174
0 211 173
0 203 164
0 210 173
0 208 172
0 206 171
0 215 176
0 210 172
0 212 174
0 212 172
0 207 167
0 213 173
0 214 174
0 203 166
0 215 175
0 214 175
0 219 178
0 214 175
0 214 173
0 216 175
0 215 174
0 217 175
0 216 176
0 214 175
0 212 171
0 216 176
0 214 173
0 215 174
0 216 177
0 217 176
0 216 177
0 216 176
0 214 174
0 218 179
0 220 179
0 215 175
0 219 178
0 218 178
0 217 178
0 218 177
0 218 177
0 218 176
0 217 178
0 218 179
0 216 176
0 218 176
0 219 178
0 218 178
0 220 179
0 218 176
0 220 180
0 218 177
0 219 178
0 219 177
0 220 180
0 222 181
0 221 180
0 219 179
0 219 179
0 220 178
0 219 180
0 220 180
0 222 181
0 222 181
0 220 181
0 219 180
0 220 180
0 221 181
0 219 179
0 220 178
0 220 180
0 220 180
0 222 181
0 217 178
0 222 181
0 218 179
0 222 181
0 218 177
0 220 180
0 220 180
0 221 180
0 221 181
0 221 181
0 220 180
0 219 178
0 221 181
0 220 178
0 220 180
0 222 181
0 222 181
0 220 179
0 221 180
0 221 180
0 220 180
0 220 180
0 221 180
0 220 181
0 221 181
0 222 181
0 221 181
0 222 181
0 220 181
0 220 179
0 220 180
0 219 179
0 221 181
0 221 181
0 220 180
0 221 181
0 221 179
0 220 180
0 222 181
0 221 181
0 221 181
0 221 180
0 221 181
0 221 181
0 220 180
0 222 181
0 222 181
0 221 181
0 222 181
0 222 181
0 221 181
0 221 181
0 220 180
0 222 181
0 222 181
0 222 181
0 221 181
0 221 181
0 221 181
0 221 181
0 221 181
0 222 181
0 218 179
0 221 180
0 221 181
0 220 181
0 222 181
0 221 181
0 221 180
0 222 181
0 221 181
0 221 181
0 220 180
0 220 181
0 221 181
0 221 181
0 220 181
0 222 181
0 221 181
0 221 181
0 222 181
0 221 181
0 222 181
0 221 181
0 223 181
0 221 181
0 221 181
0 220 181
0 221 181
0 222 181
0 221 181
0 221 181
0 221 181
0 221 181
0 221 181
0 221 181
0 221 181
0 222 180
0 220 180
0 221 181
0 221 181
0 221 181
0 222 181
0 221 181
0 222 181
0 221 181
0 221 181
0 221 181
0 221 181
0 222 181
0 222 181
0 221 181
0 221 181
0 220 181
0 222 181
0 221 181
0 221 181
0 221 181
0 221 181
0 222 181
0 220 180
0 222 181
0 221 181
0 221 181
0 221 181
0 221 181
0 221 181
0 221 180
0 220 180
0 221 181
0 220 181
0 221 181
0 222 181
0 221 181
0 221 181
0 221 181
0 221 181
0 220 180
0 221 181
0 221 181
0 222 181
0 222 181
0 222 181
0 221 181
0 221 181
0 220 181
0 222 181
0 222 181
0 222 181
0 220 181
0 221 181
0 221 181
0 221 181
0 221 181
0 221 181
0 221 181
0 220 181
0 221 181
0 221 181
0 221 181
0 219 181
0 221 181
0 221 181
0 221 181
0 221 181
0 222 181
0 222 181
0 221 181
0 222 181
0 220 180
0 221 181
0 221 181
0 220 180
0 220 180
0 222 181
0 221 181
0 221 181
0 220 180
0 222 180
0 221 181
0 222 181
0 221 181
0 221 181
0 220 181
0 220 180
0 220 181
0 221 181
0 221 181
0 222 181
0 220 180
0 220 181
0 221 180
0 220 180
0 222 181
0 221 181
0 220 181
0 222 181
0 220 181
0 222 181
0 221 180
0 221 181
0 221 180
0 222 181
0 221 181
0 221 181
0 222 181
0 221 181
0 221 180
0 221 181
0 222 181
0 221 180
0 220 181
0 221 181
0 221 180
0 218 179
0 220 181
0 220 180
0 218 179
0 221 180
0 220 179
0 220 180
0 221 181
0 220 180
0 219 179
0 221 181
0 222 181
0 222 181
0 221 181
0 220 181
0 219 180
0 221 181
0 221 181
0 221 181
0 221 180
0 221 179
0 221 181
0 221 181
0 221 180
0 220 179
0 220 181
0 219 180
0 220 180
0 221 181
0 220 181
0 222 181
0 220 180
0 218 179
0 220 180
0 220 179
0 220 180
0 220 179
0 220 180
0 219 179
0 219 178
0 220 180
0 217 177
0 219 179
0 220 179
0 220 180
0 221 180
0 216 178
0 217 179
0 220 180
0 217 178
0 222 181
0 219 178
0 219 179
0 220 179
0 217 178
0 220 180
0 218 178
0 221 180
0 220 179
0 222 181
0 218 177
0 220 178
0 216 177
0 219 177
0 220 178
0 220 175
0 220 176
0 220 174
0 216 171
0 220 174
0 217 173
0 219 171
0 214 167
0 212 167
0 215 169
0 217 171
0 213 169
0 217 172
0 210 169
0 215 174
0 210 168
0 206 168
0 213 173
0 213 174
0 207 170
0 206 171
0 206 166
0 202 165
0 202 165
0 202 165
0 204 170
0 200 164
0 198 164
0 208 170
0 205 168
0 199 164
0 206 170
0 207 170
0 206 169
0 199 165
0 199 163
0 206 169
0 209 170
0 197 161
0 203 166
0 205 168
0 199 165
0 204 168
0 213 174
0 203 165
0 203 167
0 209 170
0 209 171
0 205 168
0 218 177
0 210 171
0 212 172
0 218 178
0 211 172
0 208 171
0 210 171
0 214 175
0 214 175
0 210 172
0 214 174
0 207 169
0 207 170
0 211 173
0 212 174
0 214 174
0 210 172
0 213 176
0 215 175
0 215 174
0 214 174
0 213 175
0 215 175
0 218 177
0 216 176
0 211 172
0 215 174
0 215 175
0 215 174
0 217 177
0 215 175
0 218 177
0 215 175
0 219 179
0 216 175
0 217 176
0 218 179
0 219 177
0 217 177
0 219 178
0 218 178
0 219 178
0 220 180
0 219 178
0 217 177
0 215 174
0 219 179
0 218 178
0 213 174
0 216 176
0 219 179
0 220 180
0 220 180
0 218 176
0 217 178
0 218 179
0 218 179
0 221 180
0 221 181
0 219 179
0 220 179
0 217 176
0 220 179
0 219 180
0 220 180
0 220 180
0 220 180
0 220 178
0 221 181
0 220 178
0 220 178
0 220 179
0 221 180
0 220 181
0 220 178
0 220 179
0 219 178
0 221 181
0 222 181
0 221 181
0 221 181
0 221 180
0 222 181
0 222 181
0 221 181
0 221 181
0 221 180
0 219 178
0 219 179
0 221 180
0 220 180
0 220 179
0 221 181
0 218 178
0 221 180
0 220 181
0 221 181
0 219 179
0 221 180
0 220 180
0 220 180
0 221 181
0 221 180
0 222 181
0 220 178
0 220 180
0 221 181
0 221 181
0 221 181
0 219 179
0 222 181
0 222 181
0 221 181
0 220 180
0 221 181
0 222 181
0 221 181
0 220 180
0 220 180
0 221 181
0 221 181
0 222 181
0 221 181
0 221 181
0 221 181
0 221 181
0 221 180
0 221 181
0 221 181
0 221 181
0 222 181
0 220 181
0 221 181
0 221 181
0 221 181
0 221 181
0 220 181
0 222 181
0 221 181
0 222 181
0 222 181
0 220 180
0 222 181
0 220 180
0 221 181
0 222 181
0 221 181
0 221 181
0 221 181
0 221 181
0 222 181
0 222 181
0 220 181
0 222 181
0 221 181
0 222 181
0 222 181
0 221 181
0 222 181
0 222 181
0 221 181
0 221 181
0 221 181
0 221 181
0 220 180
0 222 181
0 221 181
0 221 181
0 221 181
0 221 181
0 221 181
0 221 181
0 222 181
0 221 181
0 222 181
0 221 181
0 221 181
0 221 181
0 220 181
0 222 181
0 221 181
0 220 181
0 221 181
0 221 181
0 222 181
0 221 181
0 222 181
0 221 181
0 221 181
0 222 181
0 221 181
0 222 181
0 222 181
0 221 181
0 221 181
0 221 181
0 221 181
0 221 181
0 222 181
0 222 181
0 221 181
0 221 181
0 220 181
0 222 181
0 220 180
0 221 181
0 222 181
0 221 181
0 222 181
0 221 181
0 220 180
0 220 180
0 220 181
0 221 181
0 221 181
0 221 181
0 222 181
0 221 181
0 221 181
0 220 180
0 222 181
0 221 181
0 221 181
0 220 181
0 221 181
0 221 181
0 221 180
0 221 181
0 222 181
0 222 181
0 221 181
0 221 181
0 222 181
0 221 181
0 220 181
0 221 181
0 220 181
0 221 181
0 222 181
0 219 179
0 221 181
0 221 181
0 221 181
0 220 180
0 222 181
0 221 181
0 221 181
0 220 180
0 222 181
0 220 180
0 221 181
0 222 181
0 221 180
0 222 181
0 221 181
0 221 181
0 221 181
0 222 181
0 220 180
0 220 181
0 220 180
0 222 181
0 219 180
0 220 181
0 220 180
0 220 181
0 221 181
0 221 181
0 219 180
0 221 181
0 221 181
0 222 181
0 220 179
0 220 180
0 220 181
0 220 179
0 220 180
0 221 180
0 221 181
0 220 179
0 219 180
0 220 180
0 221 181
0 221 181
0 221 181
0 222 181
0 222 181
0 221 181
0 221 181
0 220 180
0 221 180
0 222 181
0 220 180
0 220 179
0 219 179
0 220 181
0 221 181
0 220 180
0 218 180
0 220 180
0 221 181
0 220 180
0 219 179
0 220 180
0 220 181
0 219 180
0 221 181
0 222 181
0 219 180
0 221 181
0 221 181
0 218 179
0 219 179
0 218 178
0 220 180
0 221 181
0 218 179
0 220 180
0 219 178
0 220 180
0 221 181
0 217 178
0 217 178
0 218 179
0 221 181
0 220 180
0 220 179
0 221 180
0 221 181
0 215 176
0 217 178
0 222 180
0 220 178
0 220 180
0 217 178
0 219 178
0 218 179
0 222 181
0 215 177
0 218 179
0 219 178
0 217 178
0 217 178
0 220 179
0 221 180
0 218 178
0 220 179
0 219 179
0 216 176
0 218 177
0 219 177
0 220 174
0 217 175
0 218 175
0 214 170
0 218 171
0 222 176
0 218 171
0 218 171
0 217 171
0 218 166
0 210 168
0 209 166
0 207 167
0 211 170
0 217 174
0 213 173
0 203 166
0 213 173
0 207 169
0 213 174
0 207 171
0 202 167
0 206 166
0 196 162
0 204 166
0 206 171
0 206 169
0 208 172
0 197 163
0 203 166
0 208 170
0 211 172
0 208 169
0 204 168
0 203 167
0 203 167
0 206 167
0 207 171
0 207 170
0 211 172
0 199 165
0 204 168
0 204 169
0 207 169
0 209 171
0 203 166
0 212 174
0 205 169
0 210 171
0 208 169
0 209 169
0 206 169
0 210 173
0 212 176
0 212 173
0 215 175
0 216 176
0 208 169
0 208 171
0 213 174
0 212 173
0 212 173
0 211 171
0 216 175
0 216 176
0 212 174
0 214 175
0 211 171
0 216 177
0 212 173
0 215 176
0 218 179
0 216 176
0 217 177
0 217 177
0 218 177
0 216 175
0 214 174
0 215 174
0 216 174
0 219 177
0 212 172
0 212 173
0 218 177
0 220 179
0 218 178
0 217 176
0 220 179
0 217 176
0 216 175
0 219 177
0 219 179
0 219 179
0 218 178
0 217 177
0 216 176
0 218 178
0 220 178
0 219 179
0 219 178
0 219 178
0 217 177
0 217 178
0 219 179
0 220 179
0 218 177
0 220 179
0 220 179
0 219 178
0 220 178
0 221 179
0 218 178
0 218 179
0 221 180
0 220 179
0 220 179
0 220 180
0 220 180
0 219 179
0 221 180
0 220 179
0 222 181
0 221 181
0 222 181
0 220 180
0 220 180
0 221 180
0 219 180
0 221 181
0 221 180
0 219 179
0 219 179
0 219 179
0 221 181
0 221 181
0 219 178
0 222 181
0 222 181
0 222 181
0 220 180
0 219 179
0 221 181
0 221 180
0 221 181
0 221 180
0 221 181
0 221 181
0 221 181
0 220 180
0 221 181
0 220 180
0 221 180
0 221 181
0 221 180
0 222 181
0 220 180
0 221 181
0 221 181
0 220 181
0 221 181
0 221 181
0 220 180
0 221 181
0 221 180
0 221 181
0 220 180
0 221 181
0 222 181
0 220 179
0 222 181
0 221 180
0 220 180
0 221 181
0 220 181
0 221 181
0 222 181
0 221 181
0 222 181
0 222 181
0 221 180
0 222 181
0 220 180
0 220 181
0 221 180
0 222 181
0 222 181
0 220 180
0 221 181
0 221 181
0 222 181
0 221 180
0 222 181
0 221 181
0 222 181
0 220 181
0 221 181
0 220 180
0 221 181
0 222 181
0 221 181
0 221 181
0 221 181
0 221 181
0 220 181
0 221 181
0 222 181
0 222 181
0 222 181
0 222 181
0 221 181
0 221 181
0 221 181
0 222 181
0 221 181
0 221 181
0 221 181
0 220 181
0 221 181
0 220 180
0 221 181
0 222 181
0 220 180
0 221 181
0 220 181
0 221 181
0 221 181
0 221 181
0 221 181
0 220 181
0 221 181
0 221 181
0 221 181
0 221 181
0 221 181
0 221 181
0 220 181
0 222 181
0 222 181
0 221 181
0 221 181
0 221 181
0 221 181
0 221 181
0 221 181
0 221 181
0 222 181
0 221 181
0 222 181
0 221 181
0 221 181
0 221 181
0 221 181
0 221 181
0 221 181
0 221 181
0 222 181
0 221 181
0 222 181
0 222 181
0 221 181
0 221 181
0 223 181
0 221 181
0 222 181
0 220 180
0 221 181
0 221 181
0 220 181
0 221 181
0 221 181
0 220 181
0 222 181
0 221 181
0 221 181
0 221 181
0 221 181
0 222 181
0 222 181
0 222 181
0 221 181
0 221 181
0 221 181
0 221 181
0 221 181
0 221 181
0 221 181
0 221 180
0 221 181
0 220 181
0 221 181
0 222 181
0 221 180
0 221 181
0 220 181
0 222 181
0 221 181
0 221 180
0 220 181
0 221 181
0 220 181
0 221 181
0 221 180
0 220 180
0 220 180
0 221 181
0 220 180
0 220 181
0 220 181
0 222 181
0 221 181
0 221 181
0 221 181
0 219 179
0 222 181
0 222 181
0 222 181
0 220 179
0 220 181
0 221 181
0 221 181
0 220 180
0 221 181
0 221 181
0 220 180
0 221 181
0 220 180
0 221 180
0 221 181
0 221 181
0 221 181
0 220 180
0 220 181
0 221 181
0 222 181
0 221 181
0 220 180
0 221 180
0 221 181
0 219 180
0 222 181
0 221 181
0 221 181
0 220 180
0 218 179
0 219 180
0 222 181
0 221 180
0 221 180
0 221 181
0 221 181
0 218 179
0 220 179
0 220 180
0 221 181
0 218 178
0 220 180
0 219 180
0 219 180
0 220 180
0 221 181
0 220 179
0 217 178
0 220 180
0 221 180
0 219 180
0 220 180
0 219 180
0 221 181
0 220 179
0 219 179
0 217 178
0 219 180
0 220 179
0 216 178
0 218 179
0 220 181
0 219 179
0 219 180
0 217 178
0 221 180
0 218 178
0 219 179
0 218 178
0 219 179
0 218 178
0 218 178
0 216 177
0 218 179
0 213 175
0 217 177
0 217 178
0 218 179
0 221 179
0 218 179
0 221 181
0 221 181
0 219 179
0 221 178
0 216 175
0 216 175
0 219 177
0 221 177
0 215 173
0 220 175
0 219 176
0 220 177
0 220 169
0 217 170
0 217 169
0 215 170
0 216 170
0 214 170
0 216 171
0 216 172
0 207 168
0 207 169
0 213 173
0 213 173
0 213 173
0 209 172
0 209 168
0 207 168
0 204 165
0 204 167
0 211 171
0 207 168
0 211 173
0 201 166
0 204 169
0 199 164
0 210 172
0 202 168
0 204 168
0 205 168
0 203 167
0 204 168
0 206 170
0 207 171
0 206 169
0 206 171
0 212 175
0 212 173
0 206 169
0 208 171
0 206 169
0 207 170
0 209 172
0 215 176
0 208 170
0 209 172
0 209 172
0 212 173
0 216 175
0 211 174
0 212 173
0 214 175
0 210 172
0 214 175
0 213 174
0 211 173
0 213 175
0 215 175
0 212 173
0 211 173
0 215 175
0 219 179
0 214 173
0 217 177
0 217 177
0 214 174
0 218 177
0 215 175
0 217 177
0 216 177
0 218 178
0 214 174
0 211 171
0 217 176
0 217 178
0 219 177
0 216 176
0 216 176
0 219 178
0 217 177
0 211 172
0 217 177
0 220 179
0 215 174
0 219 178
0 220 180
0 221 180
0 216 175
0 221 180
0 218 178
0 217 176
0 217 176
0 217 178
0 216 177
0 219 178
0 217 177
0 220 179
0 218 179
0 218 177
0 220 178
0 219 179
0 221 181
0 220 180
0 221 179
0 220 180
0 218 178
0 219 178
0 221 178
0 220 179
0 221 181
0 219 179
0 219 178
0 220 180
0 220 180
0 219 179
0 221 180
0 219 179
0 221 180
0 220 180
0 220 180
0 219 180
0 221 180
0 220 180
0 220 180
0 221 180
0 219 179
0 221 181
0 220 180
0 220 179
0 221 179
0 220 181
0 220 179
0 218 178
0 222 181
0 220 180
0 220 181
0 220 180
0 222 181
0 221 181
0 220 181
0 221 181
0 221 181
0 219 179
0 221 181
0 221 180
0 220 180
0 218 177
0 221 181
0 221 181
0 221 181
0 221 181
0 221 181
0 222 181
0 221 181
0 221 180
0 221 180
0 221 181
0 221 181
0 221 180
0 220 180
0 221 181
0 221 181
0 222 181
0 221 181
0 221 181
0 221 180
0 222 181
0 220 180
0 221 181
0 221 181
0 221 180
0 221 181
0 220 179
0 222 181
0 221 181
0 221 181
0 221 181
0 221 181
0 221 181
0 220 180
0 221 180
0 221 181
0 220 180
0 219 178
0 221 181
0 220 180
0 221 181
0 221 181
0 221 181
0 222 181
0 222 181
0 222 181
0 221 181
0 222 181
0 221 181
0 220 180
0 222 181
0 221 181
0 221 181
0 220 181
0 222 181
0 221 181
0 221 181
0 221 181
0 221 181
0 221 181
0 221 181
0 221 181
0 222 181
0 221 181
0 220 180
0 221 181
0 221 181
0 222 181
0 221 181
0 222 181
0 221 181
0 221 181
0 222 181
0 222 181
0 221 181
0 220 181
0 222 181
0 221 181
0 222 181
0 220 181
0 220 181
0 221 181
0 221 181
0 221 181
0 221 181
0 221 181
0 221 181
0 222 181
0 221 181
0 221 181
0 222 181
0 221 181
0 221 181
0 221 181
0 222 181
0 222 181
0 221 181
0 222 181
0 222 181
0 221 181
0 221 181
0 220 180
0 221 181
0 220 181
0 222 181
0 221 181
0 221 181
0 222 181
0 222 181
0 222 181
0 221 181
0 221 181
0 220 181
0 221 181
0 221 181
0 220 180
0 221 181
0 221 181
0 221 180
0 222 181
0 220 181
0 222 181
0 220 181
0 222 181
0 221 181
0 221 181
0 222 181
0 222 181
0 222 181
0 222 181
0 221 181
0 222 181
0 221 181
0 221 181
0 221 180
0 220 181
0 220 181
0 220 180
0 220 181
0 221 181
0 221 180
0 221 181
0 221 180
0 222 181
0 221 181
0 222 181
0 221 181
0 221 181
0 221 181
0 220 180
0 221 181
0 222 181
0 221 181
0 222 181
0 221 181
0 221 181
0 221 180
0 221 181
0 221 181
0 222 181
0 220 180
0 222 181
0 222 180
0 220 181
0 221 180
0 222 181
0 220 180
0 221 181
0 221 181
0 221 181
0 221 181
0 220 180
0 220 181
0 220 181
0 220 180
0 221 181
0 220 179
0 221 180
0 221 181
0 221 181
0 220 181
0 221 180
0 220 180
0 221 181
0 220 180
0 218 178
0 221 180
0 220 180
0 220 180
0 220 181
0 220 180
0 220 180
0 219 179
0 220 180
0 220 180
0 221 180
0 220 180
0 221 181
0 220 179
0 220 181
0 222 181
0 220 180
0 220 180
0 221 181
0 221 181
0 221 181
0 220 180
0 218 179
0 219 180
0 220 180
0 221 180
0 219 180
0 221 181
0 219 179
0 221 181
0 220 180
0 221 180
0 218 178
0 220 180
0 220 180
0 220 180
0 220 180
0 221 180
0 217 178
0 220 179
0 219 177
0 220 179
0 220 180
0 218 179
0 220 180
0 219 178
0 220 180
0 216 177
0 215 176
0 217 177
0 219 179
0 220 179
0 218 178
0 217 176
0 217 176
0 219 180
0 219 179
0 220 180
0 220 179
0 220 179
0 220 179
0 221 180
0 220 177
0 220 178
0 218 178
0 220 179
0 219 173
0 220 175
0 219 173
0 219 174
0 220 171
0 221 174
0 219 173
0 222 172
0 219 176
0 221 176
0 214 170
0 218 175
0 215 175
0 212 172
0 212 174
0 214 173
0 212 174
0 213 173
0 206 168
0 212 172
0 207 168
0 205 167
0 205 168
0 205 168
0 208 170
0 210 172
0 196 163
0 209 172
0 209 171
0 205 169
0 205 170
0 211 173
0 205 170
0 208 172
0 209 172
0 215 176
0 207 171
0 212 173
0 212 174
0 214 175
0 213 175
0 211 174
0 212 174
0 207 170
0 210 174
0 211 170
0 209 173
0 210 171
0 205 169
0 212 174
0 213 173
0 214 175
0 213 175
0 211 173
0 217 175
0 207 167
0 216 175
0 212 172
0 208 170
0 212 172
0 213 174
0 213 174
0 216 177
0 211 173
0 217 177
0 210 171
0 214 174
0 215 177
0 215 175
0 214 176
0 215 174
0 216 176
0 213 175
0 216 176
0 215 176
0 210 172
0 219 179
0 215 175
0 217 177
0 218 179
0 219 179
0 216 174
0 217 176
0 216 176
0 219 178
0 215 174
0 220 179
0 220 180
0 216 175
0 218 179
0 216 175
0 218 178
0 222 181
0 219 179
0 219 179
0 220 180
0 220 180
0 219 180
0 219 179
0 221 181
0 218 178
0 221 180
0 217 175
0 221 181
0 220 179
0 222 181
0 219 178
0 220 180
0 218 177
0 219 178
0 221 180
0 221 180
0 219 179
0 220 181
0 218 178
0 220 180
0 219 179
0 220 180
0 221 180
0 219 179
0 219 180
0 220 179
0 219 179
0 219 179
0 220 180
0 219 179
0 220 180
0 220 179
0 221 181
0 221 181
0 221 181
0 220 180
0 219 180
0 220 180
0 221 180
0 218 178
0 220 180
0 220 179
0 221 181
0 219 180
0 221 181
0 220 180
0 221 180
0 222 181
0 220 180
0 221 180
0 222 181
0 219 179
0 220 180
0 220 179
0 220 179
0 221 181
0 221 181
0 222 181
0 220 180
0 221 181
0 222 181
0 221 181
0 222 180
0 222 181
0 221 181
0 221 181
0 219 179
0 222 181
0 221 180
0 221 181
0 221 181
0 221 181
0 219 180
0 219 180
0 223 181
0 221 181
0 220 180
0 219 180
0 221 181
0 221 181
0 222 181
0 221 181
0 220 180
0 221 181
0 221 181
0 223 181
0 221 180
0 221 180
0 222 181
0 221 181
0 221 181
0 221 181
0 221 181
0 221 181
0 222 181
0 220 181
0 222 181
0 220 181
0 221 181
0 220 180
0 222 180
0 222 181
0 221 181
0 221 180
0 221 181
0 221 181
0 221 181
0 222 181
0 221 181
0 220 181
0 222 181
0 222 181
0 222 181
0 221 181
0 220 181
0 222 181
0 221 181
0 221 181
0 222 181
0 222 181
0 221 181
0 221 181
0 221 181
0 220 180
0 221 181
0 221 181
0 221 181
0 222 181
0 221 180
0 221 181
0 221 181
0 222 181
0 222 181
0 221 181
0 221 181
0 222 181
0 222 181
0 220 181
0 222 181
0 221 181
0 221 181
0 221 181
0 221 181
0 221 181
0 220 180
0 220 180
0 220 180
0 222 181
0 221 181
0 222 181
0 221 181
0 222 180
0 222 181
0 221 181
0 222 181
0 221 181
0 222 181
0 221 180
0 220 181
0 221 181
0 222 181
0 221 181
0 221 181
0 220 180
0 220 181
0 222 181
0 220 181
0 221 181
0 221 181
0 221 181
0 221 181
0 221 181
0 221 181
0 222 181
0 221 181
0 221 181
0 221 180
0 221 181
0 221 181
0 221 181
0 222 181
0 221 181
0 221 181
0 220 181
0 220 180
0 221 181
0 221 180
0 222 181
0 221 181
0 221 181
0 221 181
0 220 180
0 222 181
0 220 181
0 220 180
0 222 181
0 222 181
0 220 180
0 222 181
0 220 181
0 220 180
0 221 181
0 221 181
0 221 181
0 220 180
0 222 181
0 221 180
0 221 181
0 221 181
0 220 180
0 219 180
0 221 181
0 222 181
0 222 181
0 220 180
0 222 181
0 221 181
0 220 180
0 221 181
0 221 181
0 221 181
0 221 181
0 218 180
0 222 181
0 221 181
0 220 180
0 221 180
0 220 181
0 220 181
0 220 180
0 222 181
0 221 181
0 220 180
0 220 180
0 221 181
0 221 181
0 221 181
0 221 181
0 222 181
0 220 181
0 220 180
0 219 179
0 222 180
0 221 181
0 219 179
0 220 180
0 221 181
0 221 181
0 221 181
0 221 181
0 220 180
0 221 180
0 220 180
0 219 179
0 221 181
0 222 181
0 218 179
0 218 179
0 220 180
0 220 180
0 221 180
0 220 180
0 220 180
0 221 180
0 221 181
0 221 181
0 220 180
0 220 179
0 219 179
0 219 179
0 218 179
0 219 179
0 220 180
0 221 181
0 221 180
0 221 181
0 218 178
0 219 178
0 220 181
0 218 178
0 220 179
0 219 179
0 219 180
0 220 179
0 221 181
0 220 179
0 220 178
0 219 178
0 219 179
0 219 178
0 217 178
0 220 179
0 219 179
0 218 177
0 219 178
0 221 180
0 219 178
0 220 179
0 220 180
0 220 179
0 220 179
0 220 178
0 219 177
0 220 175
0 216 175
0 218 175
0 223 178
0 221 176
0 218 175
0 218 173
0 216 172
0 220 175
0 217 173
0 216 175
0 220 178
0 215 173
0 213 174
0 215 175
0 218 177
0 215 175
0 209 173
0 210 171
0 211 172
0 209 170
0 210 171
0 209 170
0 205 167
0 210 173
0 208 171
0 207 170
0 201 167
0 206 169
0 207 165
0 208 172
0 207 170
0 209 171
0 205 170
0 203 168
0 207 170
0 208 170
0 209 173
0 205 168
0 210 171
0 211 170
0 211 172
0 211 173
0 210 171
0 211 173
0 209 171
0 205 168
0 213 176
0 215 176
0 211 173
0 213 175
0 210 173
0 210 172
0 215 176
0 210 173
0 218 178
0 214 175
0 215 175
0 213 172
0 210 173
0 215 175
0 214 177
0 214 172
0 216 176
0 213 174
0 216 175
0 214 172
0 218 177
0 215 175
0 215 177
0 215 176
0 219 178
0 216 175
0 217 176
0 215 175
0 217 177
0 216 178
0 216 176
0 216 176
0 218 177
0 214 176
0 216 174
0 218 178
0 219 180
0 217 177
0 221 180
0 216 176
0 212 173
0 220 179
0 218 178
0 216 177
0 220 180
0 220 179
0 221 179
0 221 181
0 221 180
0 221 181
0 219 179
0 218 177
0 218 178
0 219 179
0 218 176
0 219 178
0 219 178
0 220 180
0 219 177
0 220 179
0 222 181
0 221 180
0 220 179
0 221 181
0 220 181
0 219 178
0 220 179
0 219 179
0 221 180
0 220 179
0 220 179
0 219 179
0 219 178
0 220 180
0 219 180
0 221 181
0 221 180
0 220 179
0 221 181
0 220 178
0 221 181
0 221 180
0 221 180
0 221 181
0 221 180
0 222 180
0 221 180
0 220 180
0 219 179
0 220 180
0 221 181
0 220 179
0 218 179
0 221 180
0 221 181
0 222 181
0 222 181
0 221 180
0 220 180
0 222 180
0 221 181
0 221 180
0 220 179
0 222 181
0 221 181
0 222 181
0 221 180
0 220 181
0 220 180
0 222 181
0 221 181
0 221 181
0 222 181
0 222 181
0 221 181
0 221 181
0 221 181
0 219 179
0 221 180
0 221 181
0 222 181
0 221 181
0 222 181
0 221 181
0 220 180
0 222 181
0 222 181
0 222 181
0 221 181
0 220 180
0 220 179
0 221 181
0 221 181
0 221 181
0 219 180
0 221 181
0 220 180
0 222 181
0 220 180
0 221 181
0 219 180
0 221 181
0 221 181
0 220 180
0 221 180
0 222 181
0 220 180
0 221 181
0 221 181
0 221 181
0 221 181
0 222 181
0 221 181
0 219 180
0 221 181
0 221 181
0 221 181
0 220 181
0 222 181
0 220 180
0 221 181
0 221 181
0 220 181
0 221 181
0 220 180
0 221 181
0 221 181
0 221 181
0 221 181
0 222 181
0 221 181
0 221 180
0 221 181
0 221 181
0 221 181
0 222 181
0 222 181
0 220 180
0 221 181
0 221 181
0 220 181
0 222 181
0 222 181
0 221 181
0 221 181
0 221 181
0 222 181
0 221 181
0 222 181
0 221 180
0 221 181
0 221 181
0 222 181
0 221 181
0 222 181
0 221 181
0 221 180
0 221 181
0 222 181
0 222 181
0 222 181
0 221 181
0 222 181
0 222 181
0 221 181
0 221 181
0 222 181
0 221 181
0 220 180
0 221 181
0 221 181
0 222 181
0 222 181
0 220 180
0 221 181
0 222 181
0 221 181
0 221 181
0 222 181
0 221 181
0 221 180
0 221 181
0 222 181
0 221 181
0 221 181
0 222 181
0 221 181
0 222 180
0 221 181
0 222 181
0 221 181
0 222 181
0 222 181
0 221 181
0 222 181
0 222 181
0 222 181
0 221 181
0 221 181
0 222 181
0 221 181
0 222 181
0 221 181
0 221 181
0 221 181
0 222 181
0 220 180
0 222 181
0 221 181
0 221 181
0 221 181
0 220 181
0 220 181
0 221 181
0 221 181
0 221 181
0 222 181
0 221 181
0 221 181
0 221 181
0 221 181
0 220 181
0 222 181
0 221 181
0 222 181
0 221 181
0 221 181
0 222 181
0 220 180
0 221 181
0 222 181
0 221 181
0 221 181
0 220 180
0 220 180
0 219 179
0 221 181
0 219 180
0 221 181
0 221 181
0 221 181
0 220 181
0 221 181
0 220 180
0 221 181
0 221 181
0 220 180
0 221 181
0 221 181
0 222 181
0 221 181
0 218 180
0 219 179
0 221 181
0 221 181
0 222 181
0 221 180
0 222 181
0 218 179
0 220 180
0 221 181
0 221 181
0 221 181
0 222 181
0 220 180
0 222 181
0 219 180
0 219 179
0 221 181
0 220 181
0 221 181
0 218 178
0 220 180
0 221 181
0 221 181
0 220 180
0 219 180
0 220 180
0 220 179
0 218 178
0 220 180
0 219 179
0 217 178
0 221 180
0 216 178
0 219 180
0 218 178
0 219 179
0 220 180
0 219 179
0 222 181
0 217 178
0 218 178
0 219 179
0 221 179
0 215 177
0 219 179
0 220 180
0 220 179
0 218 179
0 219 179
0 219 176
0 218 178
0 220 179
0 219 178
0 220 179
0 219 178
0 221 181
0 218 179
0 220 180
0 219 179
0 221 180
0 221 180
0 219 179
0 223 179
0 221 178
0 220 176
0 222 177
0 219 177
0 219 176
0 217 172
0 220 177
0 219 176
0 212 174
0 214 175
0 214 174
0 217 175
0 215 175
0 218 176
0 213 173
0 204 167
0 204 162
0 216 176
0 214 173
0 214 171
0 216 176
0 203 168
0 211 172
0 205 168
0 208 171
0 203 168
0 210 172
0 208 171
0 216 175
0 203 169
0 208 171
0 206 169
0 207 171
0 212 174
0 212 173
0 205 168
0 209 172
0 214 175
0 210 173
0 210 172
0 206 170
0 213 174
0 209 173
0 209 172
0 209 172
0 210 172
0 209 172
0 207 168
0 207 171
0 214 174
0 213 173
0 215 176
0 217 177
0 212 173
0 212 174
0 214 175
0 212 173
0 214 175
0 217 177
0 215 176
0 213 173
0 215 176
0 214 174
0 210 171
0 211 172
0 217 177
0 214 175
0 216 175
0 215 174
0 215 177
0 215 176
0 217 175
0 213 173
0 216 177
0 212 173
0 219 179
0 217 176
0 219 179
0 218 179
0 217 177
0 219 179
0 219 180
0 220 180
0 218 178
0 215 176
0 220 179
0 217 177
0 220 178
0 217 178
0 220 180
0 215 174
0 215 175
0 221 181
0 220 180
0 219 179
0 221 180
0 218 177
0 219 180
0 219 178
0 219 178
0 220 180
0 220 179
0 219 178
0 219 180
0 220 180
0 218 178
0 221 180
0 219 178
0 219 180
0 221 180
0 221 181
0 218 178
0 220 180
0 220 178
0 218 179
0 221 180
0 220 179
0 220 180
0 221 181
0 219 178
0 221 181
0 221 181
0 221 180
0 220 179
0 221 181
0 220 180
0 219 178
0 220 179
0 221 181
0 222 181
0 221 180
0 219 179
0 220 180
0 221 181
0 220 181
0 220 180
0 222 181
0 222 181
0 220 179
0 221 180
0 221 180
0 221 181
0 221 181
0 221 181
0 222 181
0 221 181
0 221 180
0 222 180
0 220 180
0 221 180
0 222 181
0 222 181
0 221 180
0 219 180
0 222 181
0 220 180
0 221 181
0 222 180
0 221 181
0 221 180
0 220 180
0 221 179
0 221 180
0 221 181
0 220 181
0 221 181
0 221 181
0 220 181
0 221 181
0 222 181
0 222 181
0 221 181
0 221 181
0 221 181
0 221 180
0 222 181
0 220 180
0 221 181
0 221 181
0 221 181
0 221 180
0 221 181
0 221 181
0 221 181
0 221 181
0 221 181
0 221 181
0 221 181
0 222 181
0 221 180
0 221 181
0 222 181
0 221 181
0 221 181
0 221 181
0 221 181
0 221 181
0 221 181
0 222 181
0 221 181
0 222 181
0 222 181
0 221 181
0 221 181
0 221 181
0 222 181
0 221 181
0 221 181
0 221 181
0 221 181
0 221 181
0 221 181
0 221 181
0 221 181
0 221 181
0 221 180
0 221 181
0 220 179
0 222 181
0 221 180
0 221 181
0 220 181
0 221 181
0 222 181
0 222 181
0 221 181
0 220 180
0 221 181
0 222 181
0 220 181
0 222 181
0 221 181
0 221 181
0 222 181
0 221 181
0 222 181
0 220 181
0 222 181
0 221 181
0 221 181
0 221 181
0 221 181
0 221 181
0 222 181
0 222 181
0 221 181
0 220 181
0 222 180
0 222 181
0 222 181
0 221 181
0 221 181
0 221 181
0 221 181
0 221 181
0 221 181
0 221 181
0 221 181
0 221 181
0 221 181
0 220 179
0 221 181
0 221 181
0 222 181
0 222 181
0 221 181
0 222 181
0 222 181
0 221 181
0 221 181
0 221 181
0 221 181
0 221 181
0 220 180
0 221 181
0 222 181
0 222 181
0 222 181
0 221 181
0 222 181
0 221 181
0 220 180
0 220 181
0 220 180
0 222 181
0 220 179
0 221 181
0 222 181
0 222 181
0 221 181
0 221 181
0 221 181
0 221 181
0 221 180
0 222 181
0 220 181
0 220 180
0 221 181
0 221 181
0 220 181
0 222 181
0 221 181
0 221 181
0 221 181
0 221 181
0 221 181
0 220 180
0 221 181
0 219 179
0 222 181
0 222 181
0 221 181
0 221 181
0 221 181
0 220 181
0 221 180
0 222 181
0 219 180
0 222 181
0 221 181
0 220 181
0 221 181
0 221 181
0 220 181
0 222 181
0 221 181
0 221 180
0 221 181
0 221 181
0 221 180
0 220 180
0 221 181
0 221 181
0 220 180
0 221 181
0 220 180
0 222 181
0 221 181
0 220 181
0 221 180
0 221 181
0 219 180
0 220 180
0 219 180
0 220 180
0 220 181
0 219 180
0 220 180
0 221 181
0 218 178
0 220 180
0 223 181
0 220 179
0 220 180
0 220 180
0 220 179
0 219 179
0 220 181
0 221 181
0 221 180
0 221 181
0 220 180
0 220 180
0 220 180
0 221 180
0 220 180
0 218 179
0 220 179
0 218 179
0 221 181
0 219 180
0 218 179
0 220 179
0 216 177
0 219 179
0 219 179
0 220 180
0 221 180
0 218 178
0 220 179
0 222 179
0 220 180
0 218 179
0 218 178
0 219 179
0 216 177
0 221 179
0 218 178
0 219 179
0 222 181
0 218 177
0 221 178
0 219 178
0 219 177
0 217 177
0 221 180
0 221 181
0 218 178
0 219 178
0 219 178
0 220 178
0 220 178
0 219 180
0 218 178
0 215 175
0 220 178
0 216 176
0 219 177
0 218 177
0 219 177
0 216 176
0 219 176
0 218 177
0 214 176
0 217 176
0 204 166
0 212 170
0 203 166
0 213 173
0 207 170
0 206 169
0 205 168
0 214 174
0 213 175
0 201 167
0 204 169
0 216 177
0 211 172
0 203 166
0 210 172
0 211 172
0 204 169
0 210 173
0 206 171
0 209 171
0 211 173
0 211 171
0 218 179
0 207 169
0 214 175
0 210 173
0 208 171
0 211 173
0 213 175
0 210 172
0 210 173
0 216 176
0 210 172
0 210 172
0 213 174
0 214 174
0 210 173
0 212 174
0 214 172
0 211 171
0 216 177
0 213 175
0 213 174
0 218 179
0 216 177
0 215 175
0 217 177
0 215 177
0 214 174
0 214 175
0 215 176
0 214 173
0 216 176
0 211 171
0 213 174
0 218 177
0 215 175
0 216 175
0 218 177
0 218 179
0 218 177
0 218 175
0 221 180
0 215 177
0 217 176
0 219 178
0 216 176
0 219 179
0 216 176
0 219 178
0 219 179
0 216 176
0 219 178
0 218 178
0 221 181
0 216 177
0 219 179
0 219 177
0 220 179
0 218 178
0 220 181
0 219 178
0 218 178
0 220 180
0 220 178
0 220 179
0 217 178
0 218 178
0 220 179
0 217 177
0 218 179
0 220 180
0 220 180
0 219 180
0 221 180
0 220 179
0 219 178
0 222 181
0 217 175
0 219 179
0 218 178
0 220 180
0 220 180
0 220 180
0 218 178
0 219 179
0 221 180
0 219 179
0 219 179
0 218 179
0 220 180
0 219 179
0 218 178
0 222 181
0 219 179
0 221 181
0 219 179
0 220 180
0 221 180
0 221 181
0 221 180
0 220 180
0 219 180
0 221 180
0 221 181
0 220 180
0 221 180
0 220 181
0 221 181
0 222 181
0 221 181
0 221 181
0 222 181
0 222 180
0 222 181
0 221 181
0 220 181
0 222 181
0 219 180
0 221 181
0 220 180
0 221 180
0 222 181
0 220 180
0 222 181
0 221 181
0 221 181
0 220 180
0 221 181
0 220 180
0 220 181
0 221 181
0 221 180
0 222 181
0 221 180
0 221 180
0 220 181
0 220 179
0 220 181
0 220 181
0 221 181
0 220 180
0 221 181
0 221 181
0 221 181
0 221 181
0 220 180
0 221 181
0 220 179
0 221 181
0 221 181
0 222 181
0 222 181
0 220 180
0 221 181
0 221 181
0 222 181
0 222 181
0 221 181
0 222 181
0 222 181
0 222 181
0 221 180
0 222 181
0 222 181
0 221 181
0 221 181
0 221 181
0 221 181
0 222 180
0 221 181
0 222 181
0 222 181
0 221 181
0 220 181
0 221 180
0 221 180
0 221 181
0 221 181
0 221 181
0 221 181
0 222 181
0 221 181
0 221 181
0 221 181
0 221 180
0 221 181
0 221 181
0 221 181
0 222 181
0 221 181
0 222 181
0 222 181
0 221 181
0 221 181
0 222 181
0 221 181
0 221 181
0 222 181
0 222 181
0 221 181
0 221 181
0 222 181
0 220 181
0 221 181
0 221 181
0 221 181
0 221 181
0 222 181
0 221 181
0 221 181
0 222 181
0 221 181
0 221 181
0 221 181
0 223 181
0 222 181
0 221 181
0 222 181
0 221 181
0 222 181
0 221 181
0 221 181
0 222 181
0 221 181
0 221 181
0 220 181
0 221 181
0 221 181
0 220 180
0 221 181
0 221 181
0 222 181
0 221 181
0 221 181
0 221 181
0 221 181
0 220 181
0 221 181
0 221 180
0 221 181
0 220 180
0 221 181
0 222 181
0 221 181
0 221 181
0 222 181
0 221 181
0 220 181
0 221 181
0 221 181
0 221 181
0 222 181
0 221 181
0 221 181
0 222 181
0 221 181
0 221 181
0 222 181
0 220 181
0 220 181
0 221 181
0 222 181
0 222 181
0 221 181
0 221 181
0 220 180
0 221 181
0 220 180
0 221 181
0 222 181
0 221 181
0 221 181
0 220 180
0 221 181
0 220 180
0 221 181
0 222 181
0 221 181
0 221 181
0 221 181
0 220 180
0 220 181
0 220 181
0 221 181
0 221 181
0 219 179
0 221 181
0 220 180
0 222 181
0 220 181
0 221 181
0 221 181
0 221 181
0 220 181
0 221 180
0 220 180
0 220 180
0 221 181
0 221 181
0 221 181
0 222 181
0 221 181
0 220 180
0 220 180
0 221 180
0 222 181
0 221 181
0 221 181
0 222 181
0 220 181
0 221 181
0 219 179
0 220 180
0 220 180
0 221 181
0 221 181
0 221 180
0 220 179
0 222 181
0 220 180
0 220 180
0 222 181
0 221 180
0 219 179
0 219 180
0 222 181
0 221 180
0 221 181
0 218 179
0 221 180
0 221 179
0 217 178
0 220 180
0 218 179
0 220 180
0 219 178
0 218 179
0 219 179
0 218 178
0 216 178
0 220 180
0 220 179
0 220 179
0 219 178
0 220 180
0 219 179
0 220 178
0 219 178
0 216 177
0 221 178
0 215 175
0 218 177
0 222 179
0 219 178
0 218 175
0 221 178
0 222 178
0 221 180
0 218 177
0 220 177
0 222 180
0 221 178
0 219 178
0 218 177
0 218 178
0 219 178
0 220 180
0 220 179
0 219 179
0 216 176
0 221 180
0 220 179
0 220 178
0 216 176
0 220 178
0 219 176
0 216 175
0 214 172
0 214 171
0 214 173
0 214 173
0 214 174
0 204 168
0 209 169
0 214 175
0 209 173
0 210 171
0 209 172
0 210 173
0 208 171
0 214 174
0 207 171
0 215 175
0 209 172
0 210 172
0 213 175
0 210 174
0 212 173
0 212 174
0 211 173
0 212 175
0 215 176
0 211 174
0 207 170
0 209 173
0 215 175
0 213 174
0 210 171
0 213 175
0 213 173
0 213 174
0 217 177
0 217 176
0 210 173
0 212 173
0 216 176
0 213 174
0 216 174
0 215 177
0 213 174
0 214 175
0 215 175
0 215 177
0 217 177
0 217 177
0 216 176
0 213 175
0 214 175
0 217 177
0 218 179
0 214 175
0 219 179
0 218 178
0 214 176
0 215 178
0 216 177
0 216 176
0 217 177
0 216 175
0 217 178
0 218 178
0 217 177
0 216 177
0 218 177
0 216 176
0 219 178
0 216 176
0 217 176
0 217 177
0 218 177
0 220 179
0 219 178
0 218 178
0 219 178
0 220 179
0 219 178
0 219 178
0 218 177
0 217 176
0 220 179
0 220 179
0 221 180
0 219 179
0 220 179
0 217 176
0 219 179
0 217 176
0 219 179
0 221 180
0 221 180
0 219 179
0 218 178
0 221 180
0 219 179
0 221 179
0 220 179
0 220 180
0 218 178
0 220 179
0 220 180
0 221 181
0 218 177
0 221 180
0 220 180
0 220 179
0 221 181
0 220 179
0 220 178
0 220 179
0 219 178
0 221 181
0 220 180
0 220 180
0 221 180
0 221 181
0 220 180
0 219 179
0 219 180
0 220 180
0 221 180
0 221 180
0 221 180
0 222 181
0 221 179
0 221 180
0 221 180
0 221 181
0 221 180
0 218 176
0 221 181
0 221 181
0 220 179
0 220 180
0 221 181
0 221 181
0 220 180
0 220 180
0 220 181
0 221 180
0 219 179
0 222 181
0 221 181
0 221 181
0 221 180
0 221 180
0 220 180
0 221 181
0 219 180
0 222 181
0 221 180
0 220 181
0 220 180
0 221 181
0 221 180
0 221 180
0 221 180
0 221 181
0 222 181
0 221 181
0 221 181
0 221 181
0 221 180
0 220 179
0 220 179
0 221 181
0 221 181
0 221 181
0 221 181
0 222 181
0 221 180
0 220 181
0 221 180
0 219 179
0 220 181
0 221 181
0 221 181
0 221 181
0 222 181
0 221 181
0 220 180
0 221 181
0 220 180
0 222 181
0 221 181
0 220 181
0 222 181
0 221 181
0 221 181
0 221 181
0 221 181
0 222 181
0 220 181
0 220 179
0 220 180
0 222 181
0 221 181
0 222 181
0 221 181
0 221 181
0 222 181
0 221 181
0 221 181
0 221 181
0 221 181
0 220 180
0 220 181
0 221 181
0 221 180
0 221 181
0 221 181
0 221 181
0 222 181
0 221 181
0 222 181
0 221 181
0 222 181
0 221 181
0 221 181
0 222 181
0 221 181
0 221 181
0 221 181
0 222 181
0 220 181
0 221 181
0 221 181
0 222 181
0 222 181
0 221 181
0 222 181
0 221 181
0 221 181
0 221 181
0 222 181
0 221 181
0 221 181
0 220 180
0 221 181
0 222 181
0 221 181
0 221 181
0 222 181
0 221 181
0 222 181
0 221 181
0 221 181
0 221 181
0 221 181
0 221 181
0 221 181
0 222 181
0 222 181
0 221 181
0 221 181
0 221 181
0 222 181
0 221 181
0 222 181
0 221 181
0 221 181
0 221 181
0 221 181
0 221 181
0 222 181
0 221 181
0 220 181
0 221 181
0 219 179
0 222 181
0 220 180
0 221 181
0 221 181
0 220 180
0 221 180
0 221 181
0 220 181
0 221 181
0 221 181
0 221 181
0 221 181
0 221 181
0 221 181
0 221 181
0 221 181
0 220 181
0 221 181
0 222 181
0 221 181
0 222 180
0 221 181
0 220 180
0 221 181
0 221 180
0 221 181
0 221 181
0 221 181
0 221 181
0 220 179
0 221 181
0 220 181
0 221 181
0 221 181
0 221 181
0 220 180
0 220 181
0 221 181
0 221 181
0 220 179
0 221 181
0 220 180
0 221 181
0 221 180
0 220 180
0 222 180
0 221 180
0 220 180
0 220 181
0 221 181
0 221 181
0 221 181
0 221 181
0 221 181
0 221 181
0 221 181
0 222 181
0 221 180
0 220 180
0 221 181
0 220 180
0 219 180
0 220 181
0 220 180
0 220 180
0 220 179
0 220 179
0 221 180
0 221 180
0 221 181
0 221 180
0 220 181
0 221 180
0 220 181
0 219 179
0 220 180
0 220 180
0 218 179
0 219 179
0 220 181
0 219 179
0 222 181
0 221 181
0 220 180
0 219 179
0 219 179
0 220 180
0 221 180
0 219 180
0 218 178
0 219 179
0 219 179
0 219 179
0 220 178
0 218 179
0 217 177
0 219 178
0 216 177
0 220 179
0 219 178
0 219 179
0 217 177
0 220 180
0 221 179
0 220 179
0 218 178
0 220 179
0 221 178
0 218 178
0 222 178
0 214 173
0 222 177
0 220 178
0 220 178
0 220 178
0 220 180
0 218 177
0 218 177
0 220 178
0 219 178
0 218 177
0 220 179
0 219 176
0 217 178
0 216 174
0 219 176
0 218 175
0 215 173
0 214 172
0 218 173
0 211 171
0 215 173
0 215 175
0 213 171
0 213 174
0 212 173
0 215 174
0 213 173
0 211 174
0 212 172
0 208 171
0 206 171
0 212 175
0 211 173
0 208 173
0 208 171
0 206 170
0 211 173
0 211 174
0 213 174
0 214 176
0 213 174
0 208 172
0 211 172
0 214 175
0 215 176
0 211 174
0 210 172
0 213 175
0 215 176
0 212 174
0 217 178
0 213 173
0 211 173
0 215 176
0 213 174
0 214 176
0 217 176
0 214 175
0 215 176
0 214 175
0 212 174
0 210 172
0 218 178
0 215 176
0 214 176
0 216 176
0 215 176
0 212 173
0 215 176
0 213 175
0 216 177
0 217 177
0 216 177
0 215 177
0 215 176
0 220 178
0 214 174
0 215 175
0 218 177
0 217 176
0 218 177
0 213 174
0 216 177
0 218 178
0 217 177
0 217 176
0 219 179
0 219 180
0 219 178
0 218 177
0 217 177
0 219 179
0 221 181
0 221 179
0 218 178
0 219 178
0 219 179
0 219 179
0 218 178
0 221 181
0 220 179
0 221 181
0 219 176
0 220 180
0 221 180
0 218 177
0 220 180
0 219 178
0 219 179
0 220 179
0 220 179
0 220 179
0 219 179
0 220 178
0 217 178
0 220 178
0 221 180
0 219 179
0 221 180
0 221 180
0 221 181
0 221 181
0 221 180
0 219 179
0 220 180
0 220 179
0 222 181
0 221 180
0 221 179
0 221 180
0 219 179
0 221 181
0 221 180
0 221 180
0 221 180
0 221 180
0 221 181
0 220 180
0 220 179
0 220 180
0 218 178
0 221 180
0 221 181
0 220 180
0 221 181
0 221 181
0 220 181
0 219 180
0 220 179
0 221 181
0 221 181
0 220 181
0 219 180
0 221 181
0 219 179
0 222 180
0 221 180
0 221 181
0 221 181
0 221 181
0 220 181
0 222 180
0 220 179
0 222 181
0 221 181
0 221 180
0 222 181
0 222 181
0 221 181
0 222 181
0 222 181
0 220 180
0 220 181
0 220 180
0 220 181
0 221 181
0 222 181
0 222 181
0 221 181
0 221 180
0 221 181
0 221 181
0 221 181
0 221 180
0 221 181
0 221 180
0 222 181
0 221 180
0 221 181
0 222 181
0 221 181
0 220 180
0 221 181
0 220 181
0 222 181
0 221 181
0 220 181
0 221 181
0 222 181
0 221 181
0 222 181
0 221 181
0 222 181
0 222 181
0 220 181
0 222 181
0 222 181
0 222 181
0 221 181
0 222 181
0 221 181
0 221 181
0 222 181
0 222 181
0 222 181
0 222 181
0 221 181
0 221 181
0 221 181
0 222 181
0 221 180
0 221 181
0 221 181
0 220 180
0 221 181
0 220 181
0 222 181
0 221 181
0 221 181
0 222 181
0 222 181
0 221 181
0 221 181
0 221 181
0 221 181
0 222 180
0 221 181
0 222 181
0 222 181
0 221 181
0 221 181
0 221 181
0 222 181
0 221 181
0 222 181
0 221 181
0 221 181
0 221 181
0 222 181
0 220 181
0 221 181
0 221 181
0 221 181
0 221 181
0 221 180
0 222 181
0 221 181
0 221 181
0 222 181
0 220 180
0 221 181
0 221 181
0 222 181
0 221 181
0 222 181
0 221 181
0 221 180
0 221 181
0 221 181
0 221 181
0 221 180
0 221 181
0 221 181
0 221 181
0 222 181
0 221 181
0 220 180
0 222 181
0 221 181
0 221 181
0 221 181
0 221 180
0 220 179
0 222 181
0 220 180
0 221 181
0 222 181
0 221 181
0 222 181
0 221 181
0 220 181
0 222 181
0 221 181
0 222 181
0 221 180
0 220 180
0 221 181
0 221 181
0 221 181
0 221 181
0 221 181
0 219 180
0 221 181
0 221 181
0 220 181
0 220 180
0 219 179
0 221 181
0 220 180
0 221 181
0 221 181
0 222 181
0 221 181
0 221 181
0 220 180
0 220 180
0 221 181
0 221 181
0 222 181
0 221 181
0 221 181
0 221 181
0 222 181
0 219 179
0 221 181
0 220 180
0 222 181
0 221 181
0 220 180
0 220 180
0 219 179
0 219 179
0 219 180
0 220 180
0 220 180
0 221 181
0 221 180
0 220 180
0 221 181
0 220 180
0 219 180
0 220 180
0 220 180
0 222 181
0 221 181
0 222 180
0 219 179
0 219 180
0 219 179
0 221 180
0 221 181
0 221 180
0 221 180
0 219 180
0 221 181
0 220 180
0 219 179
0 220 181
0 219 179
0 221 180
0 221 181
0 220 180
0 219 180
0 220 181
0 220 180
0 220 181
0 219 179
0 220 180
0 220 181
0 219 180
0 219 180
0 219 179
0 218 180
0 220 180
0 219 178
0 219 180
0 219 179
0 221 180
0 218 179
0 220 180
0 216 178
0 219 179
0 221 180
0 218 179
0 221 181
0 216 178
0 217 178
0 220 180
0 219 179
0 215 176
0 220 180
0 218 178
0 216 176
0 220 179
0 219 178
0 219 178
0 218 177
0 218 178
0 219 178
0 219 175
0 217 176
0 219 176
0 220 177
0 221 179
0 220 176
0 218 177
0 220 177
0 220 178
0 221 179
0 222 179
0 220 175
0 221 177
0 216 174
0 215 172
0 221 174
0 220 177
0 218 174
0 215 173
0 215 174
0 218 176
0 214 173
0 216 174
0 216 175
0 216 175
0 215 175
0 210 174
0 208 170
0 212 174
0 214 175
0 210 172
0 213 175
0 213 175
0 206 168
0 216 177
0 210 172
0 211 170
0 216 177
0 211 173
0 216 176
0 214 175
0 212 173
0 212 172
0 215 176
0 211 174
0 209 171
0 215 176
0 214 175
0 213 175
0 214 175
0 209 170
0 213 173
0 212 174
0 210 172
0 212 174
0 216 178
0 210 172
0 219 179
0 214 175
0 215 176
0 217 177
0 216 177
0 215 176
0 213 175
0 214 175
0 212 173
0 215 176
0 214 173
0 213 173
0 215 176
0 216 177
0 217 177
0 217 177
0 217 178
0 217 177
0 216 176
0 215 175
0 219 179
0 218 177
0 217 177
0 219 178
0 218 178
0 219 178
0 215 176
0 220 179
0 220 180
0 220 180
0 217 178
0 215 176
0 219 179
0 220 179
0 215 175
0 220 178
0 217 177
0 216 177
0 220 180
0 217 177
0 218 178
0 218 178
0 218 178
0 218 178
0 221 180
0 221 180
0 219 179
0 219 180
0 218 177
0 215 175
0 219 179
0 219 178
0 218 179
0 220 181
0 220 179
0 220 180
0 217 177
0 221 181
0 221 180
0 222 181
0 221 180
0 220 180
0 221 180
0 220 180
0 218 177
0 219 179
0 220 180
0 220 179
0 222 181
0 220 180
0 221 181
0 218 179
0 219 178
0 219 180
0 220 179
0 219 180
0 219 179
0 221 180
0 220 179
0 220 180
0 221 181
0 219 179
0 221 181
0 220 180
0 220 180
0 220 180
0 221 180
0 221 181
0 221 180
0 221 181
0 219 179
0 220 181
0 221 180
0 220 181
0 221 180
0 221 181
0 219 179
0 220 181
0 220 180
0 221 181
0 221 180
0 221 180
0 219 178
0 221 181
0 221 180
0 220 180
0 221 180
0 221 180
0 222 181
0 221 181
0 221 180
0 221 180
0 222 181
0 221 181
0 220 180
0 222 181
0 221 181
0 220 178
0 221 181
0 221 180
0 221 181
0 220 180
0 220 181
0 222 181
0 221 181
0 221 180
0 220 180
0 220 180
0 221 181
0 221 181
0 221 180
0 221 181
0 221 181
0 221 180
0 221 180
0 221 181
0 220 180
0 221 181
0 220 181
0 221 181
0 222 181
0 221 181
0 221 181
0 221 180
0 221 181
0 220 181
0 221 181
0 221 181
0 222 181
0 221 181
0 221 181
0 222 181
0 222 181
0 221 181
0 221 181
0 221 181
0 220 181
0 221 181
0 221 181
0 221 181
0 221 181
0 221 180
0 221 181
0 220 181
0 222 181
0 221 181
0 220 181
0 221 181
0 222 181
0 222 181
0 221 181
0 221 181
0 220 181
0 221 181
0 221 181
0 222 181
0 221 181
0 221 181
0 220 180
0 222 181
0 221 181
0 221 181
0 221 180
0 221 181
0 221 181
0 221 181
0 221 181
0 221 181
0 222 181
0 221 181
0 221 181
0 220 181
0 221 181
0 221 181
0 221 181
0 221 181
0 222 181
0 221 181
0 222 181
0 222 181
0 221 181
0 221 181
0 221 181
0 222 181
0 221 181
0 221 181
0 221 181
0 221 181
0 222 181
0 222 181
0 222 181
0 222 181
0 221 181
0 221 181
0 221 180
0 220 181
0 221 181
0 221 181
0 221 181
0 222 181
0 221 181
0 221 180
0 222 181
0 221 181
0 221 181
0 222 181
0 221 181
0 221 181
0 222 181
0 220 180
0 222 181
0 222 181
0 222 181
0 222 181
0 221 181
0 220 180
0 221 180
0 222 181
0 221 181
0 221 181
0 221 181
0 221 181
0 220 180
0 221 180
0 221 181
0 222 181
0 221 181
0 221 181
0 221 181
0 221 181
0 221 181
0 221 181
0 221 181
0 221 180
0 221 181
0 221 181
0 222 181
0 222 181
0 221 181
0 221 181
0 221 180
0 221 181
0 221 181
0 222 181
0 221 181
0 222 181
0 221 181
0 221 181
0 221 181
0 222 181
0 222 181
0 221 181
0 221 181
0 222 181
0 222 181
0 221 180
0 222 181
0 222 181
0 221 181
0 222 180
0 221 180
0 221 181
0 219 179
0 220 180
0 220 181
0 221 180
0 221 181
0 219 179
0 219 179
0 221 181
0 222 181
0 221 181
0 219 179
0 220 179
0 220 180
0 221 180
0 221 181
0 220 181
0 221 180
0 220 180
0 221 181
0 221 180
0 221 180
0 221 180
0 220 181
0 220 179
0 219 180
0 221 181
0 219 179
0 220 180
0 220 181
0 219 179
0 221 181
0 222 181
0 220 180
0 221 181
0 221 181
0 221 181
0 220 181
0 220 179
0 221 181
0 220 180
0 219 180
0 220 180
0 221 181
0 218 178
0 222 181
0 222 181
0 220 179
0 221 179
0 222 180
0 219 179
0 220 179
0 219 179
0 220 179
0 218 178
0 220 179
0 221 180
0 220 177
0 219 178
0 220 179
0 218 177
0 216 174
0 219 178
0 218 175
0 221 177
0 221 177
0 221 177
0 219 176
0 221 178
0 218 175
0 216 173
0 221 177
0 220 175
0 216 172
0 220 174
0 221 175
0 219 175
0 219 175
0 215 172
0 218 175
0 217 174
0 217 176
0 218 175
0 213 173
0 215 175
0 214 175
0 216 177
0 214 175
0 216 176
0 216 176
0 213 174
0 213 174
0 212 174
0 209 172
0 210 172
0 210 171
0 212 174
0 206 171
0 213 175
0 211 173
0 216 176
0 215 177
0 212 174
0 210 173
0 214 176
0 216 176
0 210 172
0 214 174
0 209 170
0 215 176
0 212 175
0 213 172
0 214 176
0 213 173
0 214 175
0 214 174
0 209 172
0 212 175
0 213 175
0 216 177
0 215 176
0 216 176
0 212 174
0 212 172
0 217 177
0 215 176
0 216 177
0 212 173
0 218 179
0 218 177
0 217 178
0 218 178
0 215 175
0 219 179
0 216 176
0 213 175
0 219 178
0 216 177
0 220 179
0 214 176
0 219 179
0 218 178
0 216 177
0 213 175
0 219 178
0 216 176
0 219 178
0 219 179
0 216 177
0 214 175
0 217 176
0 219 178
0 218 178
0 217 177
0 220 180
0 215 175
0 216 177
0 216 176
0 218 178
0 217 176
0 220 179
0 217 178
0 219 179
0 216 176
0 220 180
0 218 178
0 218 176
0 220 178
0 221 179
0 219 178
0 220 181
0 221 181
0 220 180
0 221 181
0 221 181
0 220 179
0 221 179
0 221 180
0 218 178
0 221 180
0 220 180
0 222 181
0 221 180
0 221 179
0 221 181
0 221 180
0 221 181
0 221 180
0 219 177
0 219 179
0 221 181
0 221 181
0 222 181
0 220 180
0 222 181
0 221 180
0 220 180
0 221 180
0 221 181
0 221 180
0 220 180
0 221 181
0 220 180
0 221 180
0 219 179
0 220 181
0 221 181
0 219 179
0 221 180
0 221 180
0 221 180
0 219 179
0 220 180
0 221 181
0 220 180
0 220 180
0 221 181
0 221 181
0 220 180
0 221 181
0 221 181
0 222 181
0 221 181
0 222 181
0 220 180
0 222 181
0 221 181
0 221 181
0 220 180
0 221 180
0 221 181
0 222 181
0 221 181
0 221 181
0 221 181
0 221 180
0 221 181
0 221 181
0 221 181
0 221 181
0 221 180
0 222 181
0 219 180
0 222 181
0 222 180
0 220 181
0 221 180
0 222 181
0 221 180
0 222 181
0 221 181
0 221 181
0 220 180
0 221 181
0 220 181
0 221 180
0 221 181
0 221 181
0 221 181
0 221 181
0 221 181
0 221 181
0 221 181
0 221 180
0 221 180
0 223 181
0 222 181
0 221 180
0 221 181
0 221 181
0 221 181
0 221 181
0 220 180
0 219 179
0 219 180
0 221 181
0 221 181
0 220 179
0 222 181
0 221 181
0 221 181
0 221 181
0 221 181
0 221 181
0 221 181
0 221 181
0 221 181
0 221 181
0 221 181
0 221 181
0 221 181
0 221 181
0 221 181
0 222 181
0 220 181
0 221 181
0 221 181
0 222 181
0 221 181
0 221 181
0 222 181
0 220 181
0 222 181
0 222 181
0 221 181
0 221 181
0 221 180
0 221 181
0 221 180
0 222 181
0 222 181
0 221 181
0 222 181
0 221 181
0 222 181
0 221 181
0 222 181
0 221 181
0 222 181
0 222 181
0 222 181
0 221 181
0 221 181
0 221 180
0 221 181
0 221 181
0 221 181
0 221 181
0 221 181
0 222 181
0 222 181
0 222 181
0 221 181
0 222 181
0 221 181
0 221 181
0 222 181
0 222 181
0 221 180
0 222 181
0 220 180
0 221 181
0 221 181
0 221 181
0 221 181
0 220 181
0 220 180
0 220 181
0 220 181
0 221 181
0 222 181
0 221 181
0 221 181
0 220 180
0 221 181
0 221 180
0 221 181
0 222 181
0 220 180
0 221 181
0 220 180
0 221 181
0 222 181
0 221 180
0 221 181
0 222 181
0 220 181
0 221 181
0 221 181
0 221 181
0 219 180
0 220 181
0 221 181
0 221 180
0 222 181
0 222 181
0 221 181
0 222 181
0 222 181
0 221 181
0 219 179
0 222 181
0 221 181
0 220 180
0 220 180
0 221 181
0 220 181
0 221 180
0 221 181
0 221 181
0 221 181
0 219 180
0 222 181
0 219 180
0 221 181
0 220 180
0 220 180
0 221 180
0 221 181
0 220 180
0 221 180
0 220 180
0 222 181
0 221 181
0 220 179
0 220 180
0 219 180
0 220 180
0 220 180
0 219 179
0 220 180
0 220 180
0 221 181
0 222 180
0 220 180
0 218 179
0 222 181
0 220 180
0 222 180
0 221 181
0 220 180
0 221 180
0 219 179
0 218 179
0 219 179
0 220 181
0 221 180
0 221 181
0 220 181
0 218 179
0 219 179
0 220 180
0 220 180
0 220 180
0 219 179
0 221 181
0 220 180
0 221 181
0 219 179
0 219 179
0 221 181
0 215 177
0 218 179
0 221 181
0 217 178
0 220 180
0 220 178
0 221 179
0 219 178
0 220 180
0 216 175
0 221 181
0 220 178
0 219 179
0 220 180
0 218 178
0 218 178
0 221 179
0 220 179
0 218 178
0 221 179
0 221 179
0 221 178
0 217 176
0 220 179
0 217 177
0 218 175
0 219 176
0 218 176
0 221 175
0 222 178
0 217 176
0 221 176
0 220 175
0 217 174
0 215 174
0 220 177
0 219 175
0 221 179
0 217 176
0 218 176
0 217 175
0 214 173
0 219 177
0 217 176
0 214 173
0 219 177
0 213 175
0 212 173
0 211 173
0 210 174
0 211 173
0 214 175
0 215 176
0 215 176
0 213 175
0 212 174
0 212 174
0 214 174
0 211 173
0 216 175
0 212 173
0 212 174
0 213 175
0 207 169
0 212 175
0 218 179
0 211 174
0 216 175
0 213 175
0 216 176
0 213 175
0 211 174
0 216 178
0 215 176
0 213 174
0 214 175
0 215 177
0 217 176
0 217 177
0 215 175
0 215 177
0 216 176
0 220 179
0 216 177
0 217 176
0 214 175
0 216 176
0 212 173
0 218 177
0 214 174
0 214 175
0 213 175
0 217 178
0 213 173
0 218 177
0 218 179
0 218 178
0 218 178
0 215 176
0 217 177
0 214 175
0 218 178
0 215 176
0 217 178
0 220 178
0 221 180
0 218 178
0 218 176
0 221 180
0 217 176
0 220 180
0 219 179
0 216 176
0 216 176
0 214 176
0 219 179
0 217 177
0 221 181
0 221 180
0 219 179
0 217 178
0 217 177
0 214 174
0 216 176
0 218 177
0 219 178
0 219 178
0 219 179
0 220 181
0 220 179
0 220 180
0 221 181
0 221 181
0 221 180
0 220 178
0 219 179
0 219 178
0 220 180
0 218 177
0 217 178
0 220 180
0 220 181
0 219 179
0 220 180
0 220 180
0 221 180
0 221 181
0 220 180
0 219 179
0 220 180
0 221 181
0 221 180
0 220 180
0 220 180
0 216 176
0 220 178
0 220 179
0 222 181
0 220 181
0 219 179
0 219 179
0 220 179
0 222 181
0 219 179
0 222 181
0 222 181
0 221 180
0 219 179
0 218 179
0 221 181
0 221 180
0 220 180
0 220 179
0 221 181
0 220 180
0 221 181
0 219 179
0 221 181
0 221 180
0 220 179
0 221 181
0 220 180
0 221 181
0 221 181
0 221 181
0 220 180
0 220 180
0 221 181
0 221 181
0 221 180
0 220 180
0 222 181
0 220 180
0 220 180
0 222 181
0 221 180
0 221 180
0 222 181
0 221 181
0 222 181
0 221 181
0 221 180
0 221 179
0 221 181
0 222 181
0 221 181
0 221 181
0 220 180
0 222 181
0 220 180
0 221 181
0 222 181
0 222 181
0 221 180
0 221 181
0 221 181
0 221 181
0 221 181
0 220 181
0 221 181
0 221 181
0 222 181
0 221 181
0 222 180
0 221 181
0 221 181
0 222 181
0 221 181
0 221 181
0 221 181
0 221 181
0 222 181
0 222 181
0 220 180
0 221 181
0 222 181
0 220 180
0 221 181
0 221 181
0 221 181
0 222 181
0 221 181
0 220 181
0 221 181
0 222 181
0 223 181
0 221 181
0 222 181
0 220 181
0 221 181
0 221 181
0 221 181
0 221 181
0 221 181
0 221 181
0 221 180
0 220 181
0 220 180
0 220 181
0 221 181
0 221 181
0 221 181
0 222 181
0 221 181
0 221 181
0 221 181
0 220 181
0 221 181
0 221 181
0 221 181
0 221 181
0 220 180
0 222 181
0 221 181
0 222 181
0 221 181
0 221 181
0 220 180
0 221 181
0 221 181
0 222 181
0 221 181
0 222 181
0 221 181
0 221 181
0 222 181
0 220 181
0 221 181
0 221 181
0 221 181
0 221 181
0 222 181
0 221 181
0 221 181
0 221 181
0 221 180
0 221 181
0 222 181
0 221 181
0 221 181
0 221 181
0 221 181
0 221 181
0 222 181
0 222 181
0 221 181
0 221 181
0 221 181
0 221 180
0 221 181
0 221 181
0 220 181
0 222 181
0 219 179
0 221 181
0 220 181
0 222 181
0 222 181
0 221 181
0 221 181
0 221 181
0 220 180
0 222 181
0 221 181
0 221 181
0 222 181
0 221 180
0 221 181
0 222 181
0 222 181
0 222 181
0 221 181
0 221 181
0 221 181
0 221 181
0 221 180
0 220 181
0 220 181
0 222 181
0 220 181
0 221 181
0 220 180
0 221 181
0 222 181
0 222 181
0 221 181
0 222 181
0 221 181
0 222 181
0 221 181
0 221 181
0 222 181
0 220 179
0 221 181
0 221 181
0 220 180
0 222 181
0 220 180
0 221 180
0 222 181
0 220 180
0 220 180
0 223 181
0 220 179
0 221 181
0 221 181
0 220 180
0 220 180
0 221 181
0 222 181
0 220 181
0 221 180
0 221 180
0 221 181
0 220 180
0 219 179
0 221 181
0 221 180
0 221 180
0 220 181
0 221 181
0 220 180
0 220 181
0 220 180
0 222 181
0 222 181
0 221 181
0 220 179
0 220 180
0 219 179
0 218 179
0 221 181
0 220 180
0 219 178
0 219 180
0 221 180
0 218 179
0 219 179
0 221 181
0 220 181
0 219 179
0 221 180
0 217 177
0 219 179
0 217 178
0 220 180
0 221 179
0 221 181
0 218 178
0 218 178
0 220 180
0 220 179
0 220 178
0 217 177
0 222 180
0 219 178
0 218 178
0 218 178
0 218 176
0 219 178
0 219 177
0 218 177
0 221 178
0 222 180
0 216 174
0 219 176
0 221 178
0 220 178
0 217 175
0 220 176
0 221 180
0 220 176
0 222 177
0 220 177
0 219 176
0 216 174
0 218 174
0 222 179
0 218 175
0 219 178
0 218 174
0 215 174
0 216 176
0 219 177
0 214 176
0 216 178
0 211 173
0 216 175
0 216 175
0 215 174
0 211 171
0 217 177
0 214 176
0 209 171
0 214 175
0 213 174
0 218 178
0 215 176
0 215 176
0 209 172
0 217 177
0 215 174
0 216 177
0 213 175
0 213 175
0 215 177
0 213 175
0 208 173
0 216 176
0 214 176
0 214 175
0 212 174
0 212 173
0 214 176
0 215 176
0 215 176
0 215 176
0 219 177
0 219 179
0 214 174
0 217 176
0 216 175
0 214 176
0 217 178
0 214 174
0 216 176
0 211 173
0 214 175
0 216 176
0 213 174
0 217 178
0 212 175
0 218 179
0 216 175
0 216 177
0 218 177
0 214 175
0 216 176
0 217 175
0 217 177
0 218 178
0 220 180
0 217 177
0 218 178
0 219 178
0 219 178
0 218 178
0 218 178
0 215 175
0 218 177
0 221 180
0 216 177
0 216 176
0 221 181
0 218 179
0 220 179
0 220 180
0 218 178
0 220 180
0 220 180
0 217 177
0 215 175
0 218 177
0 220 179
0 216 177
0 218 179
0 220 180
0 217 178
0 220 180
0 221 181
0 220 179
0 217 178
0 219 178
0 219 178
0 221 180
0 217 178
0 221 181
0 219 177
0 220 179
0 222 181
0 221 180
0 221 180
0 221 179
0 222 181
0 221 181
0 221 180
0 219 179
0 220 179
0 220 181
0 222 181
0 221 180
0 222 181
0 222 179
0 218 176
0 219 178
0 220 180
0 220 181
0 220 181
0 221 181
0 221 181
0 223 181
0 221 181
0 221 180
0 221 180
0 218 178
0 220 180
0 222 180
0 220 180
0 221 181
0 221 181
0 220 180
0 221 181
0 221 181
0 219 180
0 220 180
0 221 181
0 221 180
0 221 181
0 220 180
0 221 181
0 221 180
0 220 181
0 221 181
0 220 180
0 219 179
0 221 181
0 221 180
0 219 179
0 220 180
0 222 181
0 221 181
0 221 179
0 221 181
0 222 181
0 221 181
0 221 181
0 221 181
0 221 181
0 221 180
0 221 180
0 221 181
0 219 180
0 221 181
0 221 181
0 221 181
0 220 180
0 221 181
0 221 180
0 222 181
0 221 181
0 221 180
0 219 180
0 222 181
0 221 181
0 221 181
0 220 180
0 221 181
0 221 181
0 221 181
0 221 181
0 221 181
0 221 181
0 222 181
0 220 181
0 221 181
0 221 181
0 221 181
0 222 181
0 221 181
0 222 181
0 221 181
0 222 181
0 222 181
0 222 181
0 221 180
0 221 180
0 222 181
0 221 181
0 222 181
0 221 181
0 221 181
0 221 181
0 221 181
0 221 181
0 220 181
0 221 181
0 221 181
0 221 181
0 222 180
0 222 181
0 221 181
0 221 180
0 220 180
0 222 181
0 221 181
0 222 181
0 220 181
0 222 181
0 221 181
0 222 181
0 221 181
0 221 180
0 222 181
0 221 181
0 220 181
0 220 181
0 221 181
0 221 181
0 221 181
0 221 181
0 222 181
0 221 181
0 221 181
0 221 181
0 222 181
0 221 180
0 221 181
0 222 181
0 221 181
0 220 181
0 222 181
0 221 181
0 222 181
0 220 180
0 222 181
0 221 181
0 221 181
0 222 181
0 222 181
0 220 180
0 222 181
0 222 181
0 221 181
0 221 181
0 220 180
0 221 181
0 220 180
0 222 181
0 221 180
0 221 181
0 221 181
0 220 180
0 220 181
0 222 181
0 222 181
0 220 180
0 221 181
0 220 181
0 221 181
0 221 181
0 220 180
0 221 181
0 221 181
0 221 181
0 221 181
0 221 181
0 222 181
0 221 181
0 221 181
0 221 181
0 220 181
0 221 180
0 221 181
0 220 180
0 221 181
0 222 181
0 221 180
0 221 181
0 221 181
0 221 181
0 221 181
0 221 181
0 221 181
0 221 180
0 221 181
0 219 179
0 222 181
0 221 181
0 220 180
0 221 181
0 222 180
0 221 180
0 221 181
0 220 180
0 221 181
0 221 180
0 222 181
0 221 181
0 221 181
0 221 181
0 220 180
0 221 181
0 220 179
0 222 181
0 221 181
0 220 180
0 219 179
0 221 181
0 221 180
0 221 181
0 220 181
0 221 181
0 221 181
0 221 181
0 221 180
0 221 180
0 221 181
0 219 179
0 222 181
0 221 181
0 221 180
0 220 181
0 221 181
0 220 180
0 221 180
0 220 180
0 221 181
0 221 181
0 219 179
0 220 180
0 221 181
0 219 179
0 220 179
0 221 181
0 220 181
0 220 180
0 221 181
0 219 179
0 219 178
0 221 180
0 221 180
0 217 178
0 219 179
0 219 179
0 219 179
0 220 180
0 221 181
0 221 180
0 220 181
0 219 179
0 219 179
0 219 179
0 220 180
0 221 180
0 221 180
0 220 180
0 221 180
0 219 180
0 218 179
0 221 180
0 219 179
0 218 178
0 219 179
0 221 180
0 219 179
0 216 177
0 221 180
0 220 179
0 220 177
0 220 179
0 221 179
0 220 178
0 217 177
0 219 177
0 218 178
0 221 179
0 220 177
0 217 176
0 216 176
0 218 177
0 216 174
0 215 176
0 216 174
0 219 176
0 219 175
0 219 178
0 217 175
0 218 176
0 215 174
0 214 173
0 217 174
0 217 177
0 218 178
0 211 172
0 212 172
0 215 175
0 210 173
0 216 176
0 214 173
0 213 174
0 216 178
0 211 173
0 210 173
0 216 177
0 216 176
0 216 177
0 215 174
0 208 170
0 216 177
0 210 172
0 216 176
0 210 172
0 217 178
0 214 174
0 210 174
0 216 177
0 210 174
0 216 176
0 216 177
0 218 178
0 209 171
0 214 176
0 212 172
0 215 176
0 215 175
0 215 176
0 212 175
0 216 178
0 219 178
0 218 178
0 219 179
0 219 179
0 213 174
0 215 177
0 221 179
0 219 179
0 217 177
0 215 175
0 217 177
0 217 178
0 216 177
0 218 178
0 219 177
0 217 177
0 218 178
0 218 178
0 217 177
0 215 176
0 219 178
0 219 178
0 222 181
0 215 176
0 218 178
0 220 180
0 220 179
0 220 180
0 217 177
0 219 179
0 219 179
0 219 179
0 220 179
0 216 177
0 217 178
0 220 180
0 219 179
0 219 178
0 220 178
0 219 179
0 219 177
0 220 178
0 219 179
0 219 178
0 218 179
0 218 179
0 220 180
0 220 180
0 220 180
0 220 179
0 221 180
0 218 179
0 219 178
0 220 180
0 219 179
0 220 179
0 221 181
0 220 178
0 220 179
0 218 179
0 219 179
0 220 180
0 219 179
0 220 181
0 220 180
0 220 179
0 220 179
0 220 179
0 220 178
0 220 181
0 221 181
0 221 181
0 217 178
0 220 179
0 221 180
0 218 179
0 220 179
0 221 180
0 222 181
0 221 181
0 222 181
0 219 180
0 221 181
0 220 180
0 219 179
0 221 181
0 222 181
0 221 180
0 220 179
0 219 180
0 220 180
0 221 179
0 220 180
0 219 179
0 221 181
0 221 181
0 222 181
0 221 181
0 222 181
0 219 179
0 219 180
0 222 181
0 220 179
0 221 181
0 220 181
0 220 179
0 221 181
0 221 181
0 222 181
0 220 179
0 220 180
0 220 180
0 221 181
0 222 181
0 220 181
0 221 181
0 221 181
0 220 180
0 221 180
0 221 181
0 221 181
0 222 180
0 220 180
0 222 181
0 220 180
0 221 181
0 221 181
0 220 180
0 220 180
0 222 181
0 220 180
0 220 180
0 221 181
0 222 180
0 221 181
0 221 181
0 221 180
0 222 181
0 221 181
0 220 179
0 221 181
0 221 181
0 221 181
0 220 180
0 221 181
0 221 181
0 221 181
0 221 181
0 221 181
0 222 181
0 220 180
0 221 180
0 222 181
0 221 181
0 221 181
0 221 180
0 221 181
0 222 181
0 222 181
0 221 181
0 221 181
0 222 181
0 221 181
0 222 181
0 221 181
0 221 181
0 221 181
0 221 181
0 221 181
0 222 181
0 221 181
0 221 181
0 221 181
0 221 181
0 221 181
0 221 181
0 220 179
0 221 181
0 222 181
0 220 181
0 221 181
0 223 181
0 220 180
0 221 181
0 221 181
0 221 181
0 221 181
0 221 181
0 221 181
0 222 181
0 221 181
0 222 181
0 221 181
0 221 181
0 223 181
0 221 181
0 221 181
0 219 180
0 220 181
0 221 181
0 221 181
0 221 181
0 221 181
0 222 181
0 221 181
0 221 181
0 222 181
0 220 181
0 222 181
0 221 181
0 221 181
0 221 181
0 222 181
0 222 181
0 221 181
0 221 181
0 221 181
0 222 181
0 222 181
0 221 181
0 221 181
0 221 181
0 220 180
0 221 181
0 221 181
0 221 181
0 221 180
0 221 181
0 221 181
0 220 181
0 221 181
0 220 180
0 221 181
0 220 180
0 221 181
0 222 181
0 220 180
0 221 181
0 220 180
0 221 181
0 221 181
0 222 181
0 221 180
0 221 181
0 221 181
0 221 180
0 222 181
0 221 181
0 221 181
0 222 181
0 221 181
0 221 180
0 221 181
0 221 179
0 221 181
0 222 181
0 221 181
0 222 181
0 221 181
0 221 181
0 220 181
0 221 181
0 221 181
0 221 180
0 220 180
0 221 181
0 221 181
0 221 180
0 221 181
0 221 181
0 220 181
0 220 180
0 221 181
0 222 181
0 221 181
0 222 181
0 221 181
0 221 180
0 221 181
0 219 178
0 221 180
0 222 181
0 222 181
0 220 180
0 220 180
0 220 180
0 222 180
0 220 179
0 220 179
0 220 180
0 221 181
0 221 181
0 220 179
0 220 180
0 221 181
0 220 181
0 221 180
0 219 180
0 220 180
0 220 180
0 220 181
0 221 181
0 221 181
0 222 181
0 221 181
0 220 179
0 220 180
0 219 179
0 220 180
0 220 180
0 220 180
0 219 179
0 220 181
0 219 178
0 216 177
0 220 179
0 219 180
0 220 179
0 220 179
0 221 181
0 218 177
0 222 181
0 220 180
0 219 179
0 220 178
0 219 180
0 219 179
0 221 181
0 222 181
0 220 179
0 219 178
0 219 178
0 218 178
0 220 180
0 220 178
0 219 179
0 220 179
0 217 177
0 219 178
0 221 178
0 221 179
0 219 177
0 222 181
0 220 178
0 219 179
0 219 178
0 215 177
0 218 178
0 219 177
0 221 179
0 221 178
0 219 177
0 220 178
0 218 176
0 217 174
0 219 177
0 218 176
0 221 179
0 218 177
0 214 173
0 214 175
0 217 175
0 220 178
0 218 176
0 216 175
0 216 176
0 217 176
0 217 177
0 215 174
0 213 174
0 216 176
0 218 176
0 216 177
0 211 173
0 214 176
0 214 174
0 212 174
0 212 173
0 215 176
0 210 171
0 217 178
0 218 178
0 216 177
0 214 174
0 215 177
0 217 177
0 213 176
0 215 176
0 216 176
0 216 178
0 217 177
0 211 173
0 213 175
0 218 178
0 214 175
0 217 177
0 215 176
0 218 178
0 214 175
0 219 179
0 217 176
0 217 177
0 213 174
0 217 178
0 219 179
0 216 177
0 216 177
0 218 177
0 216 178
0 219 178
0 215 177
0 217 178
0 218 177
0 215 177
0 215 176
0 214 173
0 216 177
0 215 176
0 217 177
0 216 175
0 221 181
0 214 174
0 215 176
0 217 178
0 217 177
0 219 178
0 220 180
0 218 179
0 220 180
0 217 178
0 218 178
0 219 178
0 213 174
0 220 179
0 220 180
0 217 179
0 218 177
0 219 179
0 220 180
0 216 176
0 219 180
0 218 177
0 218 179
0 221 181
0 220 179
0 220 179
0 219 179
0 220 179
0 220 179
0 218 179
0 221 180
0 217 178
0 221 179
0 219 179
0 220 179
0 220 180
0 218 178
0 220 178
0 220 179
0 220 179
0 221 181
0 219 178
0 220 181
0 220 181
0 220 181
0 221 180
0 221 179
0 220 180
0 220 179
0 218 177
0 221 181
0 220 180
0 219 178
0 219 179
0 220 180
0 220 180
0 221 180
0 221 180
0 221 181
0 221 181
0 220 178
0 219 178
0 221 181
0 220 179
0 222 181
0 219 180
0 220 179
0 221 180
0 221 181
0 221 180
0 220 179
0 221 180
0 221 181
0 221 181
0 220 179
0 221 180
0 222 181
0 219 179
0 222 181
0 221 180
0 220 179
0 222 181
0 220 181
0 221 181
0 220 180
0 219 179
0 220 180
0 220 179
0 222 181
0 221 181
0 220 180
0 222 181
0 220 180
0 221 180
0 222 181
0 220 181
0 220 180
0 221 181
0 221 180
0 221 181
0 220 179
0 222 181
0 221 181
0 222 181
0 220 180
0 221 181
0 221 181
0 221 181
0 221 181
0 221 181
0 220 180
0 221 181
0 221 181
0 221 180
0 222 181
0 221 180
0 222 181
0 222 181
0 220 181
0 221 181
0 220 180
0 221 181
0 220 180
0 221 181
0 221 181
0 221 181
0 221 181
0 221 181
0 222 181
0 220 180
0 221 181
0 221 181
0 221 181
0 220 181
0 222 181
0 221 181
0 221 180
0 222 181
0 221 181
0 220 181
0 221 181
0 222 181
0 220 181
0 221 181
0 221 181
0 222 181
0 221 180
0 221 181
0 221 181
0 220 181
0 222 181
0 221 181
0 219 180
0 221 180
0 222 181
0 221 181
0 221 181
0 221 181
0 221 181
0 221 181
0 221 181
0 221 181
0 222 181
0 221 181
0 222 181
0 222 181
0 221 181
0 221 181
0 221 181
0 221 181
0 222 181
0 221 181
0 221 181
0 222 181
0 222 181
0 221 181
0 222 181
0 220 180
0 222 181
0 221 181
0 221 181
0 219 181
0 222 181
0 221 181
0 220 180
0 222 181
0 220 181
0 221 181
0 221 180
0 221 181
0 220 181
0 222 181
0 221 180
0 222 181
0 221 181
0 221 181
0 221 181
0 221 181
0 221 181
0 221 181
0 221 180
0 221 181
0 221 181
0 220 181
0 220 181
0 221 181
0 222 181
0 222 181
0 222 181
0 221 181
0 222 181
0 219 180
0 221 181
0 221 181
0 221 181
0 220 180
0 221 181
0 221 181
0 221 181
0 220 180
0 220 181
0 222 181
0 220 180
0 221 181
0 221 181
0 222 181
0 221 181
0 221 180
0 221 180
0 221 181
0 220 181
0 222 181
0 221 181
0 221 181
0 221 181
0 221 181
0 221 181
0 220 181
0 220 181
0 221 181
0 221 181
0 222 181
0 219 179
0 220 180
0 220 180
0 219 179
0 222 181
0 220 180
0 221 181
0 221 181
0 219 179
0 220 181
0 221 180
0 221 181
0 221 181
0 219 180
0 222 180
0 220 181
0 220 180
0 221 181
0 219 179
0 222 181
0 222 181
0 222 181
0 221 181
0 221 181
0 220 180
0 219 179
0 221 181
0 220 180
0 221 180
0 221 181
0 221 181
0 220 181
0 221 181
0 221 180
0 221 180
0 222 181
0 221 181
0 220 180
0 217 178
0 220 180
0 221 181
0 220 181
0 220 180
0 220 180
0 220 181
0 220 180
0 220 180
0 221 180
0 220 179
0 221 181
0 218 178
0 219 178
0 220 180
0 220 180
0 222 180
0 222 181
0 220 180
0 219 179
0 221 181
0 219 179
0 220 180
0 220 180
0 221 180
0 219 179
0 218 179
0 217 178
0 218 178
0 221 181
0 219 178
0 221 179
0 220 179
0 221 179
0 220 180
0 221 180
0 218 178
0 220 178
0 218 177
0 222 179
0 220 179
0 220 179
0 221 180
0 220 179
0 222 178
0 217 176
0 219 177
0 218 176
0 221 177
0 220 177
0 221 178
0 221 179
0 220 179
0 216 176
0 217 175
0 216 176
0 222 179
0 219 178
0 218 177
0 220 178
0 216 176
0 219 177
0 213 175
0 217 176
0 220 179
0 218 178
0 213 175
0 216 176
0 217 177
0 216 176
0 213 174
0 210 173
0 218 178
0 215 174
0 216 175
0 212 174
0 212 174
0 208 170
0 216 176
0 211 172
0 215 176
0 217 177
0 215 176
0 213 174
0 215 176
0 211 173
0 218 178
0 218 178
0 218 177
0 213 174
0 217 177
0 214 174
0 215 176
0 213 174
0 211 174
0 219 178
0 219 178
0 215 176
0 216 176
0 215 175
0 216 177
0 216 175
0 217 176
0 214 175
0 215 176
0 218 178
0 218 178
0 217 178
0 214 176
0 214 174
0 216 177
0 218 178
0 215 175
0 219 178
0 218 177
0 219 179
0 221 181
0 219 179
0 218 177
0 215 176
0 218 178
0 216 177
0 217 177
0 218 179
0 220 179
0 217 177
0 220 179
0 215 176
0 219 179
0 218 178
0 220 179
0 218 179
0 219 179
0 216 176
0 220 179
0 219 179
0 219 179
0 219 179
0 216 176
0 217 175
0 221 180
0 221 181
0 219 178
0 221 181
0 217 178
0 218 178
0 220 179
0 216 176
0 220 179
0 220 179
0 219 178
0 220 180
0 219 179
0 220 179
0 220 180
0 218 177
0 220 179
0 220 179
0 221 181
0 220 178
0 218 179
0 220 179
0 220 180
0 221 181
0 220 180
0 221 181
0 221 180
0 220 180
0 219 179
0 220 180
0 219 179
0 221 181
0 219 179
0 221 181
0 221 181
0 220 179
0 221 181
0 222 181
0 220 180
0 220 179
0 220 181
0 220 180
0 221 180
0 220 179
0 220 179
0 221 180
0 221 180
0 222 181
0 217 178
0 222 181
0 220 181
0 221 181
0 220 180
0 221 181
0 221 180
0 221 179
0 221 181
0 221 180
0 221 181
0 220 180
0 221 181
0 221 181
0 221 181
0 220 181
0 221 181
0 219 179
0 220 179
0 220 179
0 221 181
0 221 181
0 220 179
0 222 181
0 220 180
0 220 179
0 222 181
0 222 181
0 220 180
0 220 181
0 221 181
0 222 181
0 220 180
0 221 181
0 221 181
0 222 181
0 221 180
0 221 181
0 221 181
0 220 180
0 222 181
0 220 179
0 221 181
0 220 181
0 221 181
0 221 181
0 220 181
0 221 180
0 222 181
0 221 181
0 220 181
0 221 181
0 222 181
0 221 181
0 221 181
0 221 181
0 220 180
0 221 181
0 221 181
0 220 179
0 221 181
0 221 181
0 221 181
0 221 181
0 221 181
0 220 180
0 221 181
0 220 180
0 220 180
0 222 181
0 221 181
0 220 181
0 221 181
0 220 181
0 220 180
0 222 181
0 220 181
0 221 181
0 220 180
0 220 181
0 223 181
0 221 181
0 222 181
0 221 181
0 221 180
0 221 181
0 221 181
0 222 181
0 221 181
0 220 181
0 222 181
0 220 180
0 220 181
0 221 181
0 221 181
0 221 181
0 221 181
0 222 181
0 221 181
0 220 180
0 221 181
0 220 181
0 221 180
0 221 181
0 221 181
0 220 181
0 222 181
0 221 181
0 220 181
0 221 181
0 221 181
0 221 181
0 221 181
0 220 181
0 221 181
0 221 181
0 222 181
0 221 181
0 222 181
0 220 181
0 221 181
0 220 180
0 220 181
0 220 180
0 220 180
0 222 181
0 222 181
0 221 181
0 221 181
0 222 181
0 221 181
0 221 181
0 222 181
0 221 181
0 221 181
0 220 180
0 221 181
0 221 181
0 222 181
0 222 181
0 222 181
0 222 181
0 220 180
0 221 181
0 221 181
0 219 180
0 221 180
0 222 181
0 221 181
0 221 181
0 220 181
0 221 181
0 221 181
0 222 181
0 221 181
0 221 181
0 221 181
0 221 181
0 222 181
0 221 181
0 220 180
0 221 181
0 220 180
0 221 181
0 221 181
0 221 181
0 222 181
0 221 181
0 221 181
0 222 181
0 222 181
0 220 181
0 220 180
0 220 180
0 222 181
0 220 180
0 221 181
0 221 181
0 222 180
0 220 180
0 220 180
0 221 181
0 221 181
0 219 179
0 220 180
0 221 181
0 221 181
0 221 180
0 222 181
0 221 181
0 221 181
0 221 180
0 221 181
0 223 181
0 220 180
0 221 181
0 219 179
0 220 180
0 221 181
0 220 180
0 221 181
0 221 181
0 221 180
0 220 180
0 218 178
0 221 180
0 219 179
0 221 181
0 221 180
0 220 180
0 220 180
0 219 180
0 220 181
0 221 181
0 221 180
0 221 180
0 220 179
0 218 179
0 219 179
0 220 180
0 220 181
0 222 181
0 219 179
0 218 178
0 221 181
0 220 179
0 220 180
0 220 180
0 218 179
0 217 179
0 222 181
0 220 180
0 218 179
0 219 179
0 220 178
0 216 178
0 219 180
0 219 177
0 218 178
0 218 178
0 219 178
0 220 180
0 221 179
0 220 179
0 219 179
0 219 179
0 221 179
0 219 179
0 220 180
0 220 179
0 220 179
0 219 179
0 222 179
0 221 179
0 221 181
0 220 179
0 221 179
0 220 178
0 220 179
0 218 177
0 217 175
0 215 175
0 217 177
0 219 178
0 218 177
0 216 176
0 218 176
0 218 177
0 219 177
0 218 177
0 221 178
0 216 177
0 219 178
0 214 175
0 219 178
0 215 176
0 217 178
0 215 175
0 215 175
0 216 177
0 218 179
0 204 168
0 214 176
0 213 176
0 220 180
0 215 178
0 216 175
0 215 175
0 218 176
0 214 175
0 217 178
0 214 175
0 210 173
0 215 177
0 211 173
0 214 174
0 214 175
0 214 175
0 214 174
0 216 177
0 218 178
0 215 176
0 216 178
0 215 176
0 216 175
0 213 175
0 216 178
0 218 177
0 214 175
0 214 176
0 216 177
0 212 175
0 217 177
0 217 178
0 215 177
0 217 178
0 216 177
0 215 176
0 220 180
0 218 179
0 220 180
0 213 174
0 216 177
0 217 177
0 217 176
0 220 180
0 215 177
0 217 178
0 218 177
0 213 174
0 220 179
0 219 178
0 219 178
0 220 179
0 219 179
0 218 177
0 220 180
0 218 177
0 219 179
0 217 178
0 220 179
0 219 178
0 217 176
0 218 176
0 218 178
0 215 176
0 215 177
0 219 180
0 216 177
0 220 180
0 220 178
0 219 179
0 220 180
0 219 178
0 216 176
0 219 179
0 220 180
0 219 179
0 219 178
0 221 181
0 219 179
0 219 177
0 217 179
0 219 179
0 216 177
0 220 180
0 218 178
0 217 178
0 221 181
0 219 179
0 220 180
0 221 179
0 221 180
0 220 179
0 219 179
0 221 180
0 219 178
0 221 179
0 220 180
0 222 181
0 220 179
0 221 180
0 219 179
0 218 178
0 220 180
0 220 179
0 219 178
0 220 179
0 220 180
0 221 181
0 220 179
0 221 180
0 222 181
0 219 178
0 220 180
0 220 181
0 220 180
0 219 178
0 219 179
0 220 179
0 220 180
0 221 181
0 220 180
0 221 180
0 222 181
0 219 179
0 219 178
0 221 180
0 222 181
0 221 181
0 221 180
0 220 180
0 219 179
0 220 179
0 220 180
0 220 180
0 221 181
0 221 180
0 222 181
0 221 181
0 221 181
0 220 181
0 220 181
0 221 180
0 221 179
0 220 180
0 220 179
0 221 180
0 222 181
0 221 181
0 220 181
0 222 181
0 221 179
0 221 180
0 220 180
0 220 180
0 220 181
0 222 181
0 222 181
0 221 180
0 221 181
0 222 181
0 222 181
0 221 181
0 222 181
0 221 181
0 221 181
0 221 181
0 221 181
0 220 181
0 222 181
0 221 181
0 221 181
0 221 181
0 221 181
0 221 181
0 220 181
0 221 181
0 222 181
0 220 181
0 220 181
0 221 180
0 222 181
0 220 181
0 220 180
0 222 181
0 221 181
0 221 181
0 221 181
0 220 180
0 222 181
0 221 180
0 221 181
0 220 180
0 221 181
0 222 181
0 220 181
0 221 181
0 221 181
0 221 181
0 222 181
0 222 181
0 221 181
0 221 181
0 221 181
0 221 181
0 221 181
0 221 181
0 221 181
0 221 181
0 222 181
0 221 181
0 221 181
0 220 181
0 222 181
0 221 181
0 221 181
0 222 181
0 221 181
0 221 181
0 222 181
0 221 181
0 221 181
0 222 181
0 221 181
0 220 180
0 221 181
0 220 181
0 222 181
0 221 181
0 221 181
0 221 181
0 222 181
0 220 181
0 221 181
0 221 181
0 222 181
0 221 181
0 220 181
0 221 181
0 221 180
0 221 181
0 221 181
0 222 181
0 220 181
0 221 181
0 222 181
0 222 181
0 221 181
0 221 181
0 222 181
0 221 181
0 221 181
0 221 181
0 220 180
0 221 180
0 220 180
0 221 181
0 222 181
0 221 181
0 220 181
0 222 181
0 221 181
0 221 180
0 221 181
0 221 181
0 221 181
0 221 181
0 221 181
0 221 181
0 221 181
0 220 181
0 220 180
0 222 181
0 220 181
0 220 180
0 223 181
0 221 181
0 222 181
0 222 181
0 221 181
0 222 181
0 220 181
0 221 180
0 221 181
0 220 181
0 221 181
0 221 181
0 222 181
0 222 181
0 220 180
0 222 181
0 221 180
0 220 181
0 221 181
0 221 181
0 222 181
0 222 181
0 222 181
0 221 181
0 222 181
0 221 180
0 221 181
0 222 180
0 220 181
0 221 181
0 221 181
0 221 181
0 221 181
0 221 179
0 221 181
0 221 180
0 218 179
0 220 180
0 221 181
0 220 180
0 222 181
0 220 180
0 220 180
0 221 180
0 222 181
0 221 181
0 220 180
0 221 181
0 222 181
0 219 179
0 220 181
0 222 181
0 221 181
0 222 181
0 222 181
0 220 180
0 221 181
0 220 180
0 221 181
0 221 180
0 221 180
0 220 180
0 220 180
0 221 181
0 220 180
0 220 180
0 220 179
0 220 180
0 218 179
0 221 180
0 219 179
0 221 180
0 221 179
0 221 180
0 220 180
0 218 179
0 220 180
0 220 180
0 220 180
0 220 180
0 221 181
0 220 180
0 219 179
0 220 179
0 219 178
0 221 178
0 218 178
0 220 180
0 218 178
0 221 181
0 221 179
0 223 180
0 217 178
0 219 178
0 218 179
0 217 177
0 220 180
0 220 179
0 221 180
0 219 176
0 216 178
0 220 178
0 222 178
0 220 179
0 219 177
0 217 176
0 218 178
0 220 179
0 212 173
0 217 178
0 216 176
0 217 177
0 217 176
0 218 176
0 219 178
0 217 177
0 219 178
0 217 176
0 216 177
0 219 178
0 217 177
0 210 172
0 215 177
0 217 178
0 217 178
0 215 176
0 213 174
0 216 176
0 215 177
0 216 177
0 216 177
0 215 177
0 218 177
0 214 176
0 216 178
0 218 178
0 215 177
0 213 175
0 215 176
0 217 178
0 214 175
0 217 177
0 218 179
0 217 177
0 215 177
0 214 177
0 214 176
0 218 179
0 216 178
0 217 177
0 212 174
0 215 175
0 216 176
0 219 180
0 218 178
0 220 180
0 216 178
0 219 178
0 218 177
0 216 175
0 215 177
0 216 178
0 217 176
0 214 176
0 218 179
0 217 178
0 215 175
0 218 179
0 217 178
0 217 175
0 219 179
0 220 180
0 220 179
0 217 177
0 218 177
0 216 177
0 220 180
0 218 177
0 220 178
0 217 175
0 219 178
0 219 178
0 220 180
0 217 177
0 219 180
0 220 179
0 220 179
0 218 178
0 221 180
0 217 178
0 217 176
0 215 176
0 219 178
0 219 179
0 219 178
0 220 179
0 219 179
0 217 176
0 217 178
0 214 175
0 219 178
0 220 180
0 220 179
0 218 178
0 220 178
0 221 181
0 218 178
0 218 179
0 221 180
0 222 181
0 220 180
0 219 180
0 219 179
0 221 179
0 221 180
0 220 179
0 219 178
0 219 180
0 219 180
0 219 179
0 218 178
0 220 178
0 220 180
0 221 181
0 221 181
0 219 180
0 221 181
0 220 180
0 220 181
0 222 181
0 219 180
0 221 181
0 220 181
0 220 179
0 220 179
0 220 180
0 223 180
0 220 179
0 222 181
0 221 181
0 220 180
0 221 181
0 219 179
0 220 180
0 221 180
0 220 180
0 221 181
0 221 180
0 221 181
0 220 180
0 220 179
0 221 180
0 222 181
0 220 180
0 221 181
0 221 181
0 220 180
0 221 180
0 221 181
0 220 180
0 222 181
0 220 180
0 220 180
0 221 181
0 221 180
0 222 181
0 221 181
0 221 181
0 221 181
0 221 181
0 221 180
0 220 180
0 220 179
0 222 181
0 222 181
0 222 181
0 221 181
0 222 181
0 220 179
0 221 181
0 220 180
0 221 181
0 221 181
0 221 181
0 221 180
0 220 180
0 220 180
0 221 180
0 222 181
0 221 181
0 221 180
0 221 181
0 221 181
0 220 180
0 222 181
0 221 181
0 220 181
0 221 180
0 222 181
0 220 181
0 222 181
0 221 181
0 221 181
0 221 181
0 221 181
0 221 181
0 222 181
0 222 181
0 221 181
0 220 180
0 221 181
0 221 181
0 222 181
0 222 181
0 220 181
0 221 181
0 220 181
0 221 181
0 221 181
0 221 181
0 222 181
0 222 181
0 221 181
0 220 179
0 220 181
0 221 181
0 221 181
0 221 181
0 221 181
0 221 181
0 221 181
0 221 181
0 222 181
0 220 181
0 220 181
0 221 181
0 222 180
0 222 181
0 221 181
0 221 181
0 222 181
0 222 181
0 221 181
0 221 181
0 222 181
0 221 181
0 221 181
0 221 181
0 221 181
0 221 181
0 221 180
0 221 181
0 221 181
0 221 181
0 220 180
0 221 181
0 222 181
0 222 181
0 221 181
0 222 181
0 222 181
0 221 181
0 221 181
0 221 181
0 221 181
0 222 181
0 222 181
0 220 181
0 221 181
0 221 181
0 221 181
0 219 180
0 222 181
0 221 181
0 221 181
0 221 181
0 221 181
0 220 180
0 221 180
0 221 181
0 220 180
0 221 181
0 222 181
0 221 181
0 222 181
0 221 181
0 221 180
0 222 181
0 221 181
0 221 181
0 221 181
0 221 180
0 221 181
0 222 181
0 222 181
0 221 181
0 221 181
0 221 181
0 222 181
0 221 180
0 222 181
0 222 181
0 222 181
0 221 181
0 221 181
0 220 180
0 222 181
0 221 181
0 221 180
0 221 181
0 222 181
0 221 181
0 221 181
0 222 181
0 221 180
0 220 180
0 219 180
0 222 181
0 221 180
0 221 181
0 221 181
0 221 179
0 221 180
0 220 180
0 221 180
0 220 180
0 218 179
0 222 181
0 221 181
0 219 180
0 222 181
0 220 180
0 221 181
0 221 181
0 220 180
0 221 181
0 221 180
0 221 181
0 220 180
0 221 181
0 221 181
0 221 180
0 221 181
0 220 180
0 221 181
0 220 180
0 221 181
0 218 179
0 221 181
0 221 181
0 220 180
0 221 181
0 218 179
0 219 180
0 220 181
0 219 180
0 221 181
0 221 181
0 219 179
0 221 180
0 221 180
0 221 181
0 219 179
0 220 180
0 220 181
0 221 180
0 221 180
0 220 180
0 221 181
0 220 180
0 218 178
0 220 179
0 219 180
0 221 180
0 219 178
0 219 180
0 221 181
0 220 180
0 219 179
0 220 180
0 220 180
0 221 180
0 221 181
0 221 180
0 220 180
0 221 181
0 219 179
0 220 178
0 221 180
0 218 179
0 219 179
0 220 179
0 221 179
0 220 179
0 219 179
0 219 178
0 222 180
0 220 179
0 220 179
0 221 180
0 221 177
0 219 179
0 218 178
0 220 179
0 218 179
0 217 177
0 220 179
0 218 178
0 217 175
0 219 178
0 219 178
0 218 177
0 219 178
0 218 177
0 219 179
0 219 178
0 219 177
0 219 179
0 218 177
0 216 178
0 218 178
0 218 178
0 219 179
0 215 177
0 219 178
0 214 176
0 215 177
0 216 177
0 215 177
0 216 177
0 214 176
0 217 178
0 216 178
0 216 177
0 214 175
0 212 174
0 215 178
0 217 178
0 218 178
0 212 174
0 216 177
0 213 175
0 219 179
0 215 177
0 215 177
0 217 178
0 216 177
0 215 175
0 217 176
0 219 179
0 213 175
0 221 181
0 219 179
0 217 177
0 218 179
0 215 176
0 215 177
0 218 178
0 215 177
0 216 177
0 216 177
0 219 178
0 215 175
0 215 175
0 219 178
0 219 178
0 217 177
0 215 176
0 215 175
0 218 178
0 216 178
0 216 175
0 217 176
0 214 176
0 215 176
0 216 176
0 219 179
0 217 178
0 218 178
0 218 178
0 216 177
0 217 178
0 219 179
0 219 179
0 221 179
0 219 179
0 220 180
0 221 180
0 219 178
0 218 177
0 217 177
0 219 179
0 220 180
0 218 178
0 220 179
0 219 179
0 217 176
0 220 179
0 219 179
0 217 177
0 216 175
0 219 180
0 220 179
0 219 178
0 220 181
0 218 178
0 220 180
0 220 180
0 221 181
0 220 177
0 221 181
0 221 181
0 220 181
0 220 179
0 219 178
0 219 180
0 220 179
0 221 180
0 221 181
0 221 179
0 220 180
0 221 180
0 221 181
0 220 179
0 219 179
0 221 181
0 221 181
0 220 179
0 218 177
0 221 180
0 221 180
0 221 180
0 223 181
0 220 180
0 220 179
0 222 181
0 220 180
0 220 180
0 221 181
0 220 180
0 219 179
0 219 179
0 220 180
0 221 180
0 222 181
0 221 181
0 221 181
0 220 179
0 221 180
0 221 181
0 221 181
0 221 181
0 221 181
0 222 181
0 218 177
0 222 181
0 220 180
0 220 180
0 221 181
0 220 180
0 220 180
0 221 181
0 222 180
0 221 180
0 221 180
0 221 180
0 220 180
0 221 180
0 220 180
0 221 181
0 221 181
0 222 181
0 221 180
0 220 180
0 221 181
0 221 181
0 221 181
0 221 181
0 220 181
0 221 181
0 221 181
0 220 181
0 222 181
0 221 181
0 222 181
0 221 181
0 221 180
0 222 181
0 221 180
0 220 181
0 222 181
0 221 181
0 221 181
0 222 181
0 221 181
0 221 181
0 221 181
0 222 181
0 222 181
0 220 180
0 222 181
0 221 180
0 220 181
0 220 180
0 222 181
0 221 181
0 222 181
0 222 181
0 222 181
0 221 181
0 220 180
0 221 181
0 222 181
0 221 181
0 221 181
0 220 181
0 222 181
0 221 181
0 220 181
0 221 181
0 220 181
0 221 181
0 221 181
0 222 181
0 221 181
0 221 181
0 222 181
0 221 180
0 221 181
0 221 180
0 221 181
0 222 181
0 221 181
0 221 181
0 220 181
0 221 181
0 221 180
0 220 181
0 222 181
0 220 180
0 221 181
0 221 181
0 221 181
0 221 181
0 221 181
0 220 181
0 221 181
0 222 181
0 222 181
0 221 181
0 221 181
0 222 181
0 221 181
0 221 181
0 221 181
0 222 181
0 222 181
0 222 181
0 221 181
0 221 181
0 220 181
0 222 181
0 220 180
0 221 181
0 221 181
0 221 181
0 220 181
0 221 181
0 221 181
0 220 181
0 221 181
0 221 181
0 221 181
0 221 181
0 221 181
0 221 181
0 222 181
0 221 181
0 221 181
0 220 180
0 221 181
0 222 181
0 220 181
0 221 181
0 222 181
0 221 181
0 221 181
0 219 179
0 221 181
0 222 181
0 221 181
0 218 179
0 222 181
0 220 181
0 221 181
0 221 181
0 220 180
0 222 181
0 221 181
0 220 181
0 220 180
0 220 180
0 220 181
0 221 180
0 220 180
0 222 181
0 222 181
0 220 180
0 222 181
0 221 180
0 221 181
0 220 180
0 220 180
0 222 180
0 222 181
0 222 181
0 220 179
0 219 180
0 220 180
0 221 181
0 221 181
0 222 181
0 221 181
0 222 181
0 221 181
0 222 181
0 222 181
0 221 180
0 222 181
0 221 181
0 221 181
0 222 181
0 221 181
0 221 181
0 221 181
0 221 181
0 221 181
0 221 181
0 222 181
0 221 181
0 221 181
0 220 180
0 221 181
0 222 180
0 221 181
0 220 180
0 221 180
0 221 181
0 222 180
0 219 180
0 221 180
0 220 180
0 220 181
0 219 180
0 220 180
0 220 180
0 220 180
0 221 180
0 220 179
0 221 181
0 221 181
0 220 181
0 220 180
0 222 180
0 221 181
0 219 179
0 220 180
0 221 181
0 220 179
0 220 180
0 218 179
0 219 179
0 220 180
0 222 181
0 221 181
0 220 180
0 221 180
0 220 180
0 220 180
0 221 180
0 221 181
0 220 180
0 220 179
0 219 178
0 220 179
0 219 180
0 221 181
0 220 180
0 221 180
0 217 178
0 219 179
0 219 178
0 218 178
0 219 178
0 220 179
0 221 180
0 217 175
0 220 178
0 221 180
0 218 177
0 220 179
0 218 178
0 220 179
0 220 179
0 218 177
0 217 177
0 219 178
0 220 179
0 220 180
0 217 178
0 217 177
0 219 179
0 217 178
0 214 175
0 219 179
0 218 177
0 219 178
0 217 178
0 216 177
0 219 179
0 212 174
0 217 177
0 217 177
0 217 176
0 218 177
0 217 177
0 212 173
0 220 179
0 216 176
0 216 178
0 210 173
0 220 179
0 219 178
0 215 177
0 216 177
0 216 176
0 213 174
0 218 179
0 216 176
0 220 180
0 214 174
0 212 172
0 218 179
0 215 177
0 213 174
0 215 175
0 216 176
0 215 176
0 219 179
0 214 176
0 216 178
0 218 177
0 215 178
0 216 178
0 217 176
0 216 176
0 215 177
0 219 178
0 215 176
0 220 181
0 216 176
0 218 177
0 218 178
0 214 175
0 218 178
0 218 177
0 219 178
0 218 177
0 216 177
0 219 179
0 218 178
0 221 181
0 219 178
0 219 179
0 217 177
0 218 178
0 219 179
0 219 180
0 218 178
0 216 176
0 217 178
0 218 179
0 218 177
0 218 178
0 217 177
0 219 179
0 220 179
0 220 179
0 217 177
0 217 177
0 217 178
0 219 179
0 220 180
0 218 178
0 218 178
0 220 178
0 220 178
0 219 179
0 222 181
0 221 181
0 216 177
0 219 179
0 221 180
0 220 179
0 221 179
0 218 178
0 220 178
0 218 178
0 220 179
0 219 179
0 220 179
0 219 178
0 220 179
0 218 178
0 219 179
0 220 180
0 220 180
0 220 180
0 221 180
0 217 177
0 222 181
0 221 181
0 221 180
0 220 180
0 222 181
0 218 178
0 221 179
0 221 181
0 221 181
0 221 180
0 220 180
0 219 178
0 219 179
0 220 180
0 221 181
0 220 180
0 221 181
0 219 179
0 219 178
0 222 181
0 221 181
0 221 180
0 221 179
0 221 180
0 220 180
0 220 181
0 221 181
0 220 180
0 222 181
0 221 181
0 221 181
0 222 181
0 222 181
0 221 180
0 222 181
0 221 180
0 221 181
0 220 180
0 222 179
0 222 181
0 219 179
0 220 181
0 220 181
0 219 179
0 220 180
0 220 180
0 221 181
0 221 180
0 220 179
0 221 181
0 221 181
0 221 181
0 222 181
0 222 181
0 221 181
0 221 181
0 218 179
0 221 181
0 221 180
0 220 180
0 221 181
0 221 181
0 221 181
0 219 179
0 221 181
0 220 181
0 221 181
0 219 179
0 221 181
0 221 181
0 219 179
0 221 181
0 221 180
0 221 181
0 221 180
0 221 180
0 221 181
0 222 181
0 220 180
0 222 181
0 221 180
0 221 181
0 219 179
0 222 181
0 221 181
0 222 181
0 221 181
0 222 181
0 221 181
0 221 181
0 221 181
0 220 180
0 221 181
0 222 181
0 221 181
0 222 181
0 221 179
0 221 180
0 221 181
0 221 181
0 221 181
0 221 180
0 221 181
0 222 181
0 221 181
0 221 181
0 221 181
0 221 180
0 221 181
0 221 181
0 222 181
0 221 180
0 221 181
0 220 181
0 221 181
0 221 181
0 221 181
0 222 181
0 221 181
0 222 181
0 220 181
0 222 181
0 222 181
0 220 180
0 221 181
0 221 181
0 221 181
0 221 181
0 221 181
0 221 181
0 221 181
0 221 181
0 221 181
0 221 181
0 221 181
0 221 181
0 220 180
0 221 181
0 222 181
0 221 181
0 222 181
0 221 181
0 221 181
0 220 181
0 220 180
0 221 181
0 220 181
0 221 181
0 222 181
0 221 181
0 221 181
0 222 181
0 221 181
0 221 181
0 221 181
0 221 181
0 221 181
0 221 181
0 222 181
0 221 181
0 221 181
0 221 180
0 220 181
0 220 180
0 221 181
0 220 180
0 221 181
0 221 181
0 220 181
0 222 181
0 222 181
0 222 181
0 221 181
0 222 181
0 220 180
0 219 180
0 221 180
0 221 181
0 221 181
0 221 181
0 221 181
0 220 180
0 221 181
0 221 181
0 220 180
0 221 181
0 221 180
0 220 180
0 220 180
0 221 181
0 222 181
0 220 181
0 221 181
0 221 181
0 221 181
0 222 181
0 221 181
0 222 181
0 221 180
0 222 181
0 221 181
0 221 181
0 221 180
0 222 181
0 220 181
0 221 181
0 221 181
0 219 179
0 220 181
0 220 181
0 221 180
0 221 181
0 220 181
0 222 181
0 221 180
0 222 181
0 221 181
0 220 180
0 220 180
0 221 180
0 220 180
0 222 180
0 221 181
0 221 180
0 221 181
0 221 181
0 221 181
0 222 181
0 221 181
0 220 181
0 220 180
0 221 181
0 219 179
0 222 181
0 221 181
0 222 181
0 221 181
0 221 180
0 222 181
0 220 180
0 220 180
0 221 180
0 222 181
0 220 180
0 219 179
0 221 181
0 221 180
0 220 180
0 219 179
0 220 180
0 221 180
0 219 180
0 221 181
0 218 179
0 222 181
0 221 180
0 219 179
0 219 179
0 217 178
0 221 181
0 221 181
0 219 178
0 222 180
0 218 178
0 217 178
0 219 179
0 218 179
0 221 181
0 218 178
0 221 180
0 220 179
0 219 178
0 223 180
0 218 178
0 220 179
0 219 178
0 218 178
0 219 179
0 219 179
0 219 178
0 219 179
0 220 179
0 213 175
0 219 179
0 219 179
0 220 180
0 220 179
0 219 178
0 218 177
0 217 177
0 218 178
0 219 177
0 216 175
0 221 180
0 217 178
0 220 179
0 217 177
0 217 177
0 218 177
0 218 177
0 218 177
0 222 181
0 220 179
0 216 177
0 215 176
0 217 176
0 215 176
0 215 177
0 218 177
0 218 178
0 218 178
0 219 179
0 215 178
0 214 176
0 216 177
0 218 178
0 217 178
0 217 177
0 218 178
0 219 179
0 218 178
0 217 177
0 221 180
0 217 177
0 215 176
0 214 177
0 217 176
0 220 180
0 217 178
0 216 177
0 216 175
0 213 174
0 216 176
0 216 178
0 218 178
0 218 178
0 216 177
0 218 178
0 214 175
0 217 179
0 215 176
0 219 178
0 215 175
0 219 177
0 221 180
0 218 178
0 216 177
0 217 177
0 219 180
0 217 178
0 219 179
0 218 179
0 218 179
0 215 176
0 216 178
0 221 180
0 218 178
0 215 176
0 219 179
0 218 178
0 221 181
0 219 180
0 220 180
0 216 177
0 218 176
0 216 177
0 220 180
0 218 178
0 219 178
0 219 179
0 220 180
0 219 177
0 218 178
0 220 179
0 217 178
0 220 179
0 221 179
0 219 177
0 219 179
0 221 181
0 221 180
0 219 178
0 220 179
0 220 180
0 220 179
0 220 179
0 219 178
0 222 181
0 218 178
0 219 179
0 218 178
0 220 179
0 219 179
0 218 177
0 217 178
0 220 179
0 220 179
0 222 181
0 220 181
0 219 179
0 221 179
0 218 179
0 221 181
0 220 179
0 220 180
0 220 179
0 221 180
0 221 181
0 221 181
0 219 179
0 221 181
0 220 180
0 219 177
0 220 180
0 220 179
0 220 180
0 220 179
0 220 180
0 220 181
0 219 180
0 220 179
0 221 181
0 221 180
0 221 181
0 221 181
0 220 180
0 221 181
0 221 181
0 222 181
0 220 179
0 221 181
0 221 181
0 221 181
0 218 178
0 221 180
0 219 180
0 221 181
0 221 179
0 221 181
0 221 181
0 220 179
0 221 180
0 221 180
0 221 181
0 221 180
0 220 179
0 220 180
0 221 180
0 220 181
0 221 181
0 219 179
0 221 181
0 221 181
0 220 180
0 221 181
0 219 180
0 220 179
0 221 181
0 221 180
0 221 181
0 221 181
0 221 180
0 221 181
0 220 180
0 221 181
0 221 181
0 220 181
0 222 181
0 220 181
0 220 181
0 220 180
0 221 181
0 221 181
0 220 180
0 220 180
0 220 181
0 220 180
0 221 181
0 221 181
0 221 180
0 221 181
0 221 181
0 221 181
0 221 181
0 221 181
0 221 180
0 221 181
0 221 181
0 221 181
0 220 180
0 221 181
0 220 181
0 221 181
0 221 181
0 222 181
0 220 181
0 221 180
0 221 181
0 222 181
0 221 181
0 221 181
0 222 181
0 222 181
0 221 181
0 221 181
0 221 181
0 221 181
0 221 180
0 221 181
0 221 181
0 221 181
0 221 181
0 222 181
0 220 181
0 222 181
0 221 181
0 221 181
0 221 181
0 222 181
0 221 181
0 221 181
0 221 181
0 221 181
0 221 181
0 221 181
0 221 181
0 222 181
0 221 181
0 221 181
0 221 181
0 221 181
0 222 181
0 221 181
0 221 181
0 220 181
0 220 180
0 222 181
0 222 181
0 221 181
0 220 181
0 221 181
0 221 180
0 221 181
0 221 181
0 222 181
0 221 181
0 221 181
0 222 181
0 221 181
0 221 181
0 221 180
0 220 180
0 221 181
0 222 181
0 220 181
0 221 181
0 221 181
0 221 181
0 221 181
0 221 181
0 221 181
0 221 181
0 222 181
0 220 181
0 220 181
0 221 181
0 221 181
0 221 181
0 221 181
0 221 181
0 220 180
0 221 181
0 220 181
0 220 181
0 221 181
0 221 181
0 220 181
0 220 181
0 222 181
0 221 181
0 222 181
0 221 181
0 221 181
0 221 180
0 221 181
0 221 181
0 221 181
0 221 181
0 220 180
0 221 181
0 222 181
0 221 181
0 222 181
0 222 181
0 221 181
0 222 181
0 221 181
0 220 180
0 219 180
0 222 181
0 221 181
0 221 181
0 220 180
0 220 180
0 221 181
0 221 181
0 221 181
0 221 181
0 220 180
0 222 181
0 221 181
0 220 180
0 221 181
0 221 181
0 220 180
0 221 181
0 221 181
0 221 181
0 220 180
0 222 180
0 220 180
0 221 181
0 221 180
0 221 180
0 222 181
0 221 181
0 221 181
0 222 180
0 221 180
0 221 180
0 221 180
0 221 181
0 221 180
0 221 180
0 221 181
0 221 181
0 220 180
0 219 180
0 219 179
0 221 180
0 221 181
0 220 180
0 219 180
0 220 181
0 220 180
0 221 180
0 219 179
0 221 181
0 221 181
0 219 179
0 220 180
0 220 181
0 219 179
0 221 181
0 221 180
0 215 177
0 218 178
0 222 181
0 219 179
0 219 179
0 217 178
0 220 180
0 220 180
0 219 179
0 221 180
0 219 178
0 220 180
0 220 180
0 221 181
0 220 179
0 220 179
0 219 178
0 218 177
0 221 180
0 219 178
0 221 181
0 219 178
0 221 180
0 219 179
0 219 179
0 217 177
0 219 178
0 219 178
0 220 179
0 219 179
0 219 179
0 218 178
0 219 179
0 218 177
0 220 179
0 218 178
0 220 178
0 219 176
0 217 177
0 218 177
0 220 178
0 219 179
0 220 179
0 219 179
0 211 174
0 217 178
0 217 177
0 216 177
0 217 177
0 218 178
0 218 178
0 216 177
0 216 177
0 216 177
0 218 178
0 216 176
0 212 172
0 217 178
0 214 174
0 217 178
0 217 178
0 217 177
0 218 178
0 214 175
0 219 178
0 217 177
0 219 179
0 218 178
0 219 179
0 216 177
0 217 176
0 215 176
0 218 178
0 214 176
0 214 176
0 220 177
0 219 179
0 220 179
0 218 178
0 215 176
0 214 176
0 215 176
0 220 180
0 215 176
0 216 177
0 219 180
0 215 175
0 218 179
0 213 175
0 220 180
0 218 179
0 220 180
0 219 179
0 218 178
0 217 176
0 218 179
0 219 178
0 218 179
0 218 178
0 219 180
0 219 179
0 218 178
0 218 178
0 219 178
0 218 178
0 219 179
0 220 179
0 219 180
0 220 180
0 220 180
0 219 178
0 217 177
0 218 178
0 218 179
0 216 177
0 220 180
0 217 177
0 217 178
0 219 179
0 215 175
0 220 180
0 218 179
0 220 178
0 219 178
0 220 181
0 219 178
0 220 179
0 221 180
0 219 179
0 218 178
0 220 180
0 220 180
0 220 179
0 219 180
0 219 179
0 221 180
0 217 178
0 218 178
0 220 179
0 220 180
0 220 179
0 218 178
0 221 181
0 221 181
0 220 179
0 220 179
0 218 178
0 219 179
0 219 178
0 221 180
0 218 178
0 220 179
0 220 181
0 218 179
0 217 178
0 220 178
0 218 178
0 219 179
0 219 179
0 220 179
0 221 180
0 220 180
0 221 181
0 220 180
0 219 179
0 220 181
0 220 179
0 221 181
0 220 179
0 220 179
0 220 180
0 222 181
0 221 181
0 222 181
0 222 181
0 220 179
0 221 180
0 219 179
0 221 180
0 220 180
0 222 181
0 220 180
0 220 181
0 221 180
0 219 180
0 222 181
0 222 181
0 220 180
0 222 180
0 220 180
0 220 180
0 219 179
0 220 180
0 220 180
0 220 181
0 221 180
0 221 180
0 220 180
0 221 181
0 220 180
0 221 181
0 221 181
0 221 180
0 220 180
0 221 180
0 220 180
0 221 181
0 221 180
0 221 181
0 220 179
0 221 181
0 221 180
0 222 181
0 220 180
0 221 181
0 220 180
0 221 181
0 221 181
0 222 181
0 222 181
0 221 181
0 221 181
0 221 181
0 222 181
0 221 181
0 222 181
0 221 181
0 220 180
0 221 179
0 221 181
0 221 181
0 222 181
0 222 181
0 221 181
0 221 180
0 222 181
0 221 181
0 220 181
0 221 181
0 221 181
0 221 180
0 221 179
0 222 181
0 221 181
0 220 180
0 221 180
0 221 181
0 220 181
0 221 181
0 221 181
0 221 180
0 222 181
0 219 180
0 221 181
0 220 181
0 220 180
0 222 181
0 220 181
0 220 181
0 222 181
0 221 181
0 222 181
0 221 181
0 221 181
0 221 181
0 222 181
0 221 181
0 221 181
0 222 181
0 222 181
0 221 181
0 221 181
0 221 181
0 221 181
0 222 181
0 219 180
0 220 180
0 220 181
0 221 181
0 221 180
0 221 181
0 221 181
0 221 181
0 221 181
0 221 181
0 221 181
0 222 181
0 221 181
0 222 181
0 220 181
0 221 180
0 222 181
0 221 181
0 221 181
0 221 181
0 220 181
0 221 181
0 222 181
0 222 181
0 220 181
0 221 181
0 220 180
0 222 181
0 222 181
0 221 181
0 222 181
0 221 181
0 221 181
0 221 181
0 221 181
0 221 181
0 221 181
0 221 181
0 221 181
0 221 181
0 221 181
0 222 181
0 221 181
0 221 181
0 221 181
0 221 181
0 218 179
0 220 180
0 220 180
0 221 181
0 221 181
0 221 180
0 222 181
0 221 181
0 222 181
0 221 181
0 221 181
0 220 181
0 220 181
0 221 180
0 220 180
0 221 181
0 222 181
0 219 179
0 221 180
0 219 180
0 221 181
0 219 179
0 220 180
0 221 180
0 221 181
0 221 181
0 221 181
0 220 180
0 221 181
0 220 180
0 220 180
0 221 181
0 219 179
0 221 180
0 221 181
0 220 180
0 221 181
0 221 181
0 221 181
0 221 181
0 222 181
0 222 181
0 217 177
0 218 180
0 221 180
0 220 180
0 220 180
0 220 180
0 221 180
0 221 180
0 220 180
0 220 180
0 219 180
0 220 180
0 222 181
0 221 181
0 221 181
0 220 180
0 221 181
0 222 181
0 220 180
0 220 180
0 222 181
0 220 179
0 221 181
0 220 180
0 221 181
0 221 181
0 221 181
0 221 181
0 221 180
0 220 180
0 219 179
0 221 180
0 220 180
0 219 179
0 220 179
0 220 180
0 221 179
0 221 180
0 220 181
0 221 180
0 222 180
0 220 180
0 221 180
0 220 180
0 220 180
0 220 180
0 222 181
0 219 179
0 218 178
0 219 179
0 218 179
0 221 180
0 222 181
0 219 179
0 219 179
0 220 179
0 218 179
0 220 181
0 220 179
0 219 178
0 221 180
0 220 179
0 221 181
0 220 178
0 219 178
0 220 180
0 219 178
0 218 178
0 216 177
0 217 175
0 220 179
0 220 178
0 218 178
0 219 178
0 221 180
0 218 177
0 220 179
0 220 180
0 219 179
0 218 179
0 219 179
0 218 178
0 216 177
0 217 177
0 220 180
0 215 176
0 218 177
0 217 176
0 218 178
0 219 178
0 210 173
0 217 177
0 214 176
0 217 177
0 212 176
0 214 175
0 217 177
0 216 177
0 216 178
0 218 178
0 217 178
0 217 177
0 216 177
0 214 176
0 216 176
0 217 177
0 217 178
0 216 176
0 215 177
0 214 175
0 218 178
0 212 174
0 218 176
0 217 177
0 218 178
0 217 178
0 216 178
0 218 178
0 216 176
0 220 179
0 221 181
0 216 176
0 216 177
0 216 176
0 216 177
0 218 178
0 214 175
0 221 179
0 214 175
0 214 176
0 215 176
0 221 181
0 217 177
0 219 179
0 217 177
0 220 179
0 217 178
0 218 178
0 215 176
0 218 178
0 218 178
0 221 180
0 220 180
0 218 177
0 221 181
0 220 179
0 220 179
0 219 178
0 218 178
0 219 177
0 220 179
0 217 178
0 218 178
0 219 179
0 220 179
0 218 177
0 220 180
0 220 179
0 218 177
0 221 180
0 216 176
0 217 176
0 220 178
0 219 179
0 220 179
0 220 179
0 220 179
0 218 177
0 219 179
0 217 177
0 219 180
0 220 179
0 219 179
0 220 179
0 220 180
0 219 179
0 218 178
0 220 179
0 219 179
0 220 179
0 219 179
0 221 181
0 220 177
0 219 178
0 218 179
0 220 180
0 220 179
0 220 179
0 222 181
0 220 180
0 221 181
0 221 181
0 219 179
0 219 178
0 220 180
0 221 181
0 219 178
0 221 180
0 221 180
0 221 181
0 221 180
0 222 181
0 221 181
0 221 181
0 219 179
0 221 179
0 221 181
0 220 179
0 219 178
0 221 179
0 221 179
0 221 181
0 221 181
0 221 181
0 218 179
0 220 181
0 220 180
0 219 179
0 219 179
0 221 181
0 220 181
0 220 179
0 222 181
0 220 181
0 221 181
0 221 181
0 221 181
0 221 180
0 220 180
0 220 180
0 220 181
0 221 180
0 221 180
0 220 179
0 222 181
0 221 181
0 222 181
0 219 180
0 221 181
0 222 181
0 221 181
0 220 180
0 221 181
0 220 180
0 222 181
0 221 181
0 220 179
0 221 181
0 221 180
0 219 179
0 221 181
0 222 181
0 222 181
0 223 181
0 221 181
0 221 181
0 220 179
0 222 181
0 221 181
0 221 181
0 221 181
0 220 179
0 220 180
0 221 181
0 221 180
0 220 181
0 221 181
0 222 181
0 220 180
0 221 181
0 221 180
0 220 181
0 220 180
0 221 181
0 221 181
0 221 181
0 221 181
0 221 181
0 221 181
0 221 181
0 221 180
0 221 181
0 220 180
0 221 181
0 221 181
0 222 181
0 221 181
0 221 180
0 221 181
0 222 181
0 222 181
0 221 181
0 221 181
0 221 181
0 222 181
0 222 181
0 220 181
0 222 181
0 220 181
0 221 181
0 222 181
0 221 181
0 222 181
0 221 181
0 220 181
0 221 181
0 222 181
0 220 181
0 221 181
0 221 181
0 221 181
0 221 181
0 221 181
0 221 181
0 221 181
0 222 181
0 222 181
0 221 181
0 221 181
0 221 181
0 220 181
0 221 181
0 220 180
0 222 181
0 221 181
0 221 181
0 221 181
0 220 180
0 221 181
0 221 181
0 221 181
0 221 181
0 221 181
0 221 181
0 222 181
0 220 181
0 221 181
0 220 181
0 220 180
0 220 181
0 221 181
0 221 181
0 221 181
0 222 181
0 221 181
0 221 181
0 222 181
0 221 181
0 221 181
0 221 181
0 221 181
0 221 181
0 221 181
0 220 180
0 221 181
0 220 180
0 221 181
0 221 180
0 221 181
0 221 181
0 221 181
0 221 180
0 220 181
0 220 181
0 221 181
0 221 181
0 221 181
0 221 180
0 220 180
0 221 181
0 220 180
0 220 180
0 220 180
0 221 181
0 220 181
0 221 180
0 220 181
0 221 181
0 221 181
0 220 181
0 221 181
0 221 181
0 221 180
0 221 181
0 222 181
0 222 181
0 221 181
0 222 181
0 222 181
0 221 181
0 220 180
0 221 181
0 221 181
0 219 179
0 221 181
0 221 181
0 221 181
0 222 181
0 220 180
0 222 181
0 221 181
0 222 181
0 221 181
0 220 180
0 221 181
0 220 181
0 221 181
0 220 180
0 220 180
0 221 181
0 220 181
0 221 181
0 220 180
0 221 181
0 220 180
0 220 180
0 221 180
0 220 180
0 221 180
0 221 180
0 221 180
0 221 181
0 221 181
0 220 179
0 221 181
0 221 180
0 220 180
0 221 180
0 221 180
0 218 178
0 217 178
0 220 180
0 222 180
0 219 180
0 222 181
0 222 180
0 220 180
0 222 180
0 221 180
0 218 179
0 221 181
0 219 180
0 221 181
0 222 181
0 218 178
0 222 181
0 220 179
0 222 179
0 221 180
0 220 179
0 218 178
0 220 180
0 220 180
0 220 179
0 215 177
0 220 179
0 220 179
0 220 180
0 220 178
0 218 178
0 219 178
0 220 179
0 219 179
0 220 180
0 220 178
0 217 176
0 219 180
0 216 176
0 217 177
0 219 178
0 219 179
0 221 181
0 220 178
0 217 178
0 219 179
0 217 178
0 219 178
0 218 177
0 218 177
0 217 178
0 219 178
0 220 179
0 215 177
0 215 175
0 217 178
0 217 177
0 215 176
0 217 176
0 218 179
0 218 178
0 219 179
0 216 175
0 218 177
0 215 176
0 216 177
0 218 178
0 216 178
0 216 177
0 214 176
0 216 177
0 217 178
0 220 179
0 217 178
0 218 178
0 217 177
0 218 177
0 220 178
0 215 176
0 217 177
0 218 180
0 212 175
0 217 177
0 219 177
0 215 175
0 217 177
0 215 176
0 220 180
0 217 178
0 219 179
0 216 177
0 218 178
0 217 177
0 219 178
0 220 180
0 217 177
0 215 177
0 221 180
0 221 180
0 220 180
0 218 178
0 222 180
0 218 178
0 218 176
0 219 178
0 218 179
0 219 179
0 217 178
0 217 178
0 219 178
0 219 178
0 217 177
0 221 181
0 221 181
0 219 179
0 218 177
0 218 178
0 220 181
0 220 180
0 217 178
0 220 179
0 217 177
0 220 179
0 218 178
0 216 177
0 218 178
0 216 177
0 219 177
0 217 177
0 218 179
0 217 177
0 219 178
0 220 179
0 218 179
0 222 180
0 220 179
0 221 180
0 218 178
0 220 180
0 220 180
0 219 178
0 217 178
0 216 178
0 220 180
0 220 181
0 220 180
0 219 179
0 220 180
0 223 181
0 219 179
0 221 180
0 220 179
0 220 180
0 220 180
0 218 179
0 220 181
0 221 181
0 220 180
0 220 179
0 221 180
0 219 179
0 221 181
0 220 180
0 221 180
0 220 180
0 220 180
0 220 180
0 221 181
0 220 179
0 221 181
0 221 180
0 221 181
0 219 179
0 218 179
0 220 180
0 221 180
0 220 179
0 220 181
0 220 180
0 221 181
0 222 181
0 220 180
0 220 181
0 222 181
0 219 180
0 221 180
0 219 179
0 220 181
0 220 181
0 221 180
0 220 179
0 221 181
0 221 181
0 220 179
0 222 181
0 221 181
0 219 180
0 222 181
0 221 180
0 221 181
0 221 181
0 222 181
0 221 181
0 221 181
0 221 180
0 222 181
0 221 181
0 221 181
0 221 181
0 220 180
0 220 179
0 221 181
0 221 181
0 222 181
0 221 181
0 221 181
0 221 181
0 221 181
0 221 181
0 221 181
0 221 181
0 221 180
0 221 181
0 221 180
0 221 181
0 220 181
0 221 181
0 220 181
0 222 181
0 220 180
0 220 180
0 221 181
0 220 180
0 221 181
0 222 181
0 220 180
0 221 181
0 222 181
0 222 181
0 222 181
0 222 181
0 220 180
0 222 181
0 222 181
0 221 181
0 221 180
0 219 180
0 221 181
0 220 180
0 220 180
0 221 181
0 220 181
0 222 181
0 221 181
0 221 181
0 221 181
0 221 181
0 221 181
0 221 180
0 222 181
0 222 181
0 221 180
0 220 180
0 221 181
0 220 181
0 221 181
0 221 181
0 221 181
0 221 181
0 220 180
0 220 180
0 221 181
0 222 181
0 221 181
0 221 181
0 222 181
0 220 181
0 222 181
0 222 181
0 221 181
0 220 181
0 220 180
0 220 181
0 221 181
0 222 181
0 221 181
0 222 181
0 221 181
0 221 181
0 221 181
0 222 181
0 221 181
0 222 181
0 220 180
0 221 181
0 221 181
0 220 180
0 220 181
0 222 181
0 221 181
0 222 181
0 222 181
0 221 181
0 221 181
0 222 181
0 220 180
0 221 180
0 221 181
0 222 181
0 221 181
0 221 181
0 221 181
0 222 181
0 221 181
0 221 181
0 221 181
0 221 181
0 222 181
0 221 181
0 221 181
0 221 180
0 221 181
0 219 180
0 220 180
0 221 181
0 221 180
0 220 181
0 221 181
0 221 181
0 222 181
0 221 181
0 221 181
0 222 181
0 220 180
0 222 181
0 221 181
0 221 181
0 220 181
0 221 181
0 220 180
0 221 181
0 221 181
0 221 181
0 221 180
0 221 181
0 221 180
0 221 181
0 221 180
0 222 181
0 220 181
0 220 180
0 222 180
0 220 180
0 221 181
0 222 181
0 219 179
0 222 181
0 220 181
0 220 180
0 222 181
0 221 181
0 222 181
0 220 180
0 221 180
0 220 180
0 220 180
0 221 181
0 221 181
0 222 181
0 221 181
0 220 180
0 219 179
0 220 180
0 221 180
0 221 180
0 219 180
0 221 181
0 221 181
0 221 180
0 221 181
0 221 181
0 222 181
0 220 181
0 222 181
0 219 180
0 221 181
0 221 180
0 220 180
0 221 181
0 221 181
0 220 180
0 220 179
0 222 181
0 221 180
0 220 180
0 220 180
0 221 180
0 221 180
0 220 180
0 221 181
0 221 180
0 219 179
0 220 180
0 221 181
0 221 181
0 217 178
0 221 180
0 220 180
0 221 180
0 219 179
0 220 180
0 221 181
0 219 179
0 217 179
0 218 179
0 221 180
0 220 178
0 219 180
0 220 180
0 219 179
0 219 178
0 220 180
0 219 179
0 219 178
0 220 179
0 220 179
0 220 179
0 221 180
0 220 180
0 221 181
0 220 180
0 218 177
0 216 178
0 220 179
0 216 176
0 215 177
0 220 179
0 219 179
0 219 179
0 218 178
0 220 180
0 221 181
0 220 179
0 213 176
0 217 177
0 221 180
0 220 179
0 218 178
0 221 180
0 219 179
0 214 175
0 218 179
0 219 178
0 218 178
0 218 178
0 214 175
0 216 176
0 217 178
0 219 178
0 216 174
0 217 178
0 218 180
0 220 179
0 218 178
0 218 179
0 215 176
0 216 177
0 218 178
0 218 179
0 214 175
0 218 178
0 216 177
0 219 179
0 217 177
0 221 179
0 215 175
0 218 178
0 218 179
0 217 178
0 216 176
0 213 175
0 218 177
0 215 177
0 220 180
0 218 178
0 217 178
0 218 178
0 218 178
0 213 175
0 219 178
0 218 178
0 217 179
0 219 179
0 218 178
0 218 179
0 217 178
0 216 177
0 219 177
0 216 178
0 221 180
0 218 179
0 219 178
0 216 177
0 218 177
0 219 179
0 218 178
0 218 178
0 220 180
0 218 178
0 218 178
0 220 179
0 219 180
0 220 179
0 217 177
0 218 179
0 219 179
0 221 180
0 220 180
0 218 178
0 220 180
0 219 179
0 219 179
0 220 179
0 218 179
0 219 178
0 220 180
0 222 180
0 220 179
0 218 178
0 219 179
0 220 180
0 217 176
0 218 177
0 219 179
0 220 180
0 219 179
0 222 181
0 219 180
0 221 180
0 220 179
0 220 179
0 219 179
0 221 180
0 220 178
0 219 179
0 218 177
0 220 180
0 222 181
0 219 178
0 221 180
0 222 180
0 221 180
0 219 179
0 218 177
0 216 176
0 219 179
0 220 180
0 220 179
0 221 181
0 221 180
0 220 180
0 220 179
0 219 179
0 219 179
0 221 181
0 219 180
0 221 181
0 218 179
0 221 181
0 221 181
0 221 180
0 221 181
0 221 180
0 221 180
0 221 180
0 219 179
0 220 180
0 220 179
0 219 179
0 220 180
0 221 180
0 220 181
0 220 180
0 221 181
0 218 178
0 220 181
0 220 179
0 221 181
0 222 181
0 222 181
0 221 181
0 219 179
0 221 181
0 221 181
0 221 181
0 222 181
0 222 181
0 222 181
0 221 181
0 222 181
0 220 180
0 221 181
0 221 180
0 221 181
0 221 180
0 220 180
0 221 181
0 220 180
0 222 180
0 221 180
0 220 180
0 221 181
0 222 181
0 220 180
0 221 181
0 220 181
0 221 181
0 222 181
0 222 181
0 221 180
0 220 180
0 221 180
0 220 180
0 221 181
0 220 180
0 221 181
0 222 181
0 221 181
0 221 181
0 221 181
0 221 180
0 220 180
0 221 180
0 220 181
0 222 181
0 221 181
0 221 181
0 221 181
0 222 181
0 221 181
0 221 181
0 221 181
0 220 181
0 221 181
0 221 181
0 221 180
0 220 181
0 221 181
0 221 181
0 222 181
0 221 181
0 222 180
0 222 181
0 221 181
0 220 180
0 221 181
0 220 180
0 220 181
0 221 181
0 221 181
0 221 181
0 222 181
0 221 181
0 222 180
0 221 181
0 221 181
0 221 181
0 222 181
0 221 181
0 221 180
0 222 181
0 221 181
0 221 181
0 223 181
0 221 180
0 221 181
0 221 181
0 222 181
0 221 181
0 221 181
0 222 181
0 222 181
0 223 181
0 221 181
0 220 181
0 221 181
0 221 181
0 221 181
0 220 180
0 221 181
0 221 181
0 221 181
0 221 181
0 221 181
0 221 181
0 221 181
0 221 181
0 221 181
0 221 181
0 222 181
0 221 181
0 221 181
0 221 180
0 221 181
0 221 181
0 221 181
0 220 181
0 220 180
0 220 180
0 221 181
0 219 181
0 220 180
0 222 181
0 221 181
0 221 181
0 221 181
0 220 180
0 220 180
0 220 180
0 222 181
0 221 181
0 221 181
0 220 180
0 221 181
0 221 181
0 220 180
0 221 181
0 222 181
0 221 181
0 222 181
0 221 181
0 221 180
0 221 181
0 221 181
0 220 181
0 220 181
0 221 180
0 220 181
0 219 180
0 221 179
0 222 181
0 221 181
0 221 180
0 221 181
0 222 181
0 221 181
0 222 181
0 221 181
0 221 181
0 220 179
0 220 180
0 220 180
0 220 180
0 220 181
0 220 180
0 221 181
0 221 180
0 220 180
0 220 180
0 220 180
0 221 181
0 219 180
0 221 181
0 220 180
0 220 180
0 220 180
0 221 181
0 221 181
0 223 181
0 221 181
0 220 180
0 220 180
0 221 181
0 221 181
0 220 179
0 220 179
0 220 181
0 221 181
0 220 180
0 221 181
0 222 181
0 219 180
0 220 180
0 220 181
0 221 180
0 217 179
0 222 181
0 220 179
0 219 180
0 222 181
0 220 180
0 220 180
0 220 180
0 220 180
0 220 179
0 220 181
0 221 181
0 221 180
0 221 180
0 220 180
0 220 180
0 221 181
0 221 181
0 219 179
0 221 180
0 221 180
0 220 180
0 221 180
0 222 180
0 221 181
0 219 180
0 220 180
0 222 181
0 220 179
0 220 180
0 218 178
0 221 181
0 221 180
0 220 180
0 220 180
0 216 177
0 219 179
0 221 181
0 221 180
0 220 181
0 220 180
0 220 180
0 221 180
0 219 179
0 218 179
0 221 181
0 219 179
0 219 180
0 222 181
0 219 179
0 222 181
0 219 179
0 220 178
0 219 179
0 220 180
0 221 179
0 219 179
0 218 178
0 219 178
0 218 179
0 220 179
0 219 178
0 218 179
0 215 176
0 218 178
0 215 177
0 220 179
0 219 179
0 218 178
0 217 178
0 217 177
0 219 179
0 218 179
0 219 178
0 219 177
0 213 175
0 217 177
0 216 177
0 217 177
0 219 179
0 217 178
0 219 178
0 217 178
0 217 178
0 219 180
0 213 175
0 217 178
0 221 179
0 217 178
0 213 175
0 218 180
0 218 178
0 218 179
0 215 175
0 216 177
0 217 178
0 212 175
0 218 179
0 220 179
0 218 179
0 219 179
0 218 177
0 218 178
0 219 179
0 219 178
0 219 180
0 216 177
0 218 177
0 214 176
0 218 179
0 218 179
0 218 177
0 219 179
0 218 179
0 219 179
0 216 176
0 217 178
0 220 178
0 217 177
0 218 179
0 216 176
0 217 177
0 218 180
0 219 178
0 219 179
0 219 180
0 219 179
0 218 178
0 219 179
0 221 179
0 220 179
0 218 178
0 220 180
0 218 178
0 220 180
0 218 178
0 221 181
0 220 180
0 216 176
0 217 178
0 218 179
0 218 179
0 220 180
0 218 180
0 220 179
0 219 179
0 221 179
0 218 178
0 220 180
0 220 179
0 221 180
0 220 178
0 218 178
0 220 179
0 218 178
0 219 179
0 221 181
0 219 179
0 221 181
0 219 179
0 219 178
0 220 179
0 220 180
0 221 181
0 221 181
0 217 176
0 220 179
0 221 181
0 222 181
0 221 180
0 220 180
0 219 179
0 219 180
0 219 179
0 222 180
0 220 179
0 220 180
0 220 179
0 220 180
0 221 181
0 220 180
0 220 178
0 219 179
0 220 179
0 221 180
0 220 180
0 219 179
0 221 181
0 220 181
0 220 180
0 221 180
0 221 180
0 221 180
0 221 179
0 220 181
0 220 180
0 219 181
0 222 181
0 221 181
0 221 181
0 220 180
0 221 181
0 221 181
0 221 181
0 219 179
0 222 181
0 221 181
0 220 181
0 220 178
0 221 181
0 221 180
0 221 181
0 222 181
0 221 180
0 221 180
0 220 180
0 220 181
0 222 181
0 221 180
0 221 181
0 221 181
0 221 181
0 221 181
0 220 179
0 221 181
0 221 179
0 220 179
0 220 179
0 221 181
0 219 179
0 221 181
0 222 181
0 221 181
0 222 181
0 221 180
0 221 181
0 221 181
0 220 180
0 220 179
0 220 181
0 220 180
0 220 181
0 221 181
0 222 181
0 221 181
0 221 181
0 221 181
0 222 181
0 221 181
0 221 180
0 219 178
0 221 181
0 220 180
0 220 180
0 221 181
0 221 180
0 220 181
0 222 181
0 221 180
0 221 180
0 222 181
0 221 181
0 221 181
0 220 181
0 221 181
0 221 181
0 222 181
0 221 181
0 220 181
0 221 181
0 222 181
0 220 180
0 222 181
0 222 181
0 221 181
0 221 181
0 220 181
0 221 181
0 220 181
0 221 180
0 221 181
0 220 181
0 220 181
0 221 181
0 222 181
0 221 181
0 221 181
0 221 181
0 222 181
0 222 181
0 219 180
0 221 181
0 222 181
0 222 181
0 221 181
0 222 181
0 221 181
0 221 181
0 221 180
0 222 181
0 222 181
0 222 181
0 221 181
0 220 180
0 221 181
0 221 181
0 222 181
0 222 181
0 221 181
0 220 181
0 222 181
0 221 181
0 221 181
0 221 181
0 221 181
0 221 181
0 221 181
0 221 181
0 222 181
0 221 181
0 221 180
0 221 181
0 222 181
0 221 181
0 221 181
0 221 181
0 221 181
0 221 181
0 221 181
0 221 181
0 221 181
0 220 181
0 221 181
0 221 181
0 221 181
0 221 181
0 222 181
0 221 181
0 221 181
0 221 181
0 220 181
0 222 181
0 221 181
0 221 181
0 221 181
0 220 181
0 221 181
0 221 181
0 220 180
0 221 181
0 221 181
0 221 181
0 222 181
0 221 181
0 221 180
0 221 180
0 222 181
0 220 180
0 221 181
0 221 181
0 221 181
0 221 181
0 220 180
0 221 181
0 222 181
0 221 181
0 221 181
0 219 180
0 221 181
0 219 179
0 221 181
0 222 181
0 219 179
0 221 180
0 220 181
0 222 181
0 222 181
0 221 181
0 220 181
0 222 181
0 223 181
0 220 180
0 221 180
0 221 181
0 219 179
0 220 180
0 221 180
0 222 181
0 220 181
0 220 180
0 221 181
0 220 181
0 221 181
0 220 181
0 220 180
0 221 180
0 221 179
0 221 181
0 221 180
0 221 181
0 220 179
0 222 181
0 221 181
0 220 180
0 220 179
0 221 181
0 220 180
0 220 180
0 219 180
0 220 180
0 220 181
0 222 181
0 221 180
0 221 181
0 219 180
0 220 180
0 220 181
0 221 181
0 219 179
0 220 181
0 219 179
0 220 180
0 221 181
0 221 180
0 221 180
0 221 179
0 220 181
0 221 180
0 219 179
0 219 180
0 221 181
0 219 179
0 220 179
0 218 179
0 221 180
0 219 179
0 220 179
0 214 176
0 220 180
0 218 179
0 221 181
0 221 181
0 219 180
0 220 180
0 220 180
0 220 179
0 218 178
0 219 180
0 220 180
0 218 179
0 220 178
0 220 179
0 221 180
0 217 177
0 220 181
0 220 180
0 221 179
0 221 179
0 215 176
0 218 179
0 220 179
0 220 179
0 217 178
0 218 178
0 220 179
0 219 179
0 216 178
0 215 175
0 216 177
0 217 177
0 218 179
0 216 177
0 215 177
0 214 175
0 219 178
0 220 179
0 214 176
0 219 179
0 217 177
0 218 178
0 218 178
0 217 178
0 217 177
0 219 177
0 218 178
0 214 177
0 218 179
0 216 178
0 219 179
0 217 178
0 214 175
0 213 175
0 217 179
0 214 176
0 217 179
0 217 177
0 219 178
0 218 179
0 215 176
0 217 178
0 216 177
0 216 177
0 220 180
0 218 178
0 219 179
0 218 179
0 216 177
0 217 177
0 218 178
0 219 179
0 219 179
0 217 178
0 218 178
0 219 178
0 219 179
0 217 178
0 219 179
0 217 177
0 218 178
0 218 177
0 220 180
0 219 180
0 219 178
0 217 179
0 221 181
0 217 178
0 215 177
0 220 179
0 219 179
0 220 180
0 218 178
0 218 178
0 219 178
0 219 179
0 219 179
0 220 179
0 221 180
0 218 179
0 219 178
0 218 178
0 218 177
0 219 180
0 218 179
0 220 180
0 220 181
0 219 178
0 221 180
0 221 180
0 220 180
0 218 178
0 220 180
0 219 179
0 221 181
0 220 179
0 218 179
0 218 178
0 220 179
0 220 179
0 220 179
0 218 178
0 220 179
0 220 181
0 220 179
0 219 178
0 221 180
0 220 181
0 221 181
0 218 179
0 219 179
0 219 179
0 220 179
0 221 181
0 222 181
0 221 180
0 219 178
0 220 180
0 221 181
0 221 181
0 222 181
0 221 181
0 221 180
0 219 178
0 220 180
0 219 179
0 220 179
0 220 180
0 220 180
0 220 180
0 221 181
0 221 180
0 220 181
0 222 181
0 221 180
0 222 181
0 221 181
0 221 180
0 221 181
0 220 180
0 221 181
0 219 179
0 221 181
0 220 181
0 221 181
0 221 181
0 221 181
0 222 181
0 221 179
0 221 181
0 222 181
0 220 180
0 223 181
0 221 181
0 222 181
0 220 180
0 220 181
0 221 181
0 221 181
0 221 181
0 220 180
0 221 180
0 222 181
0 219 179
0 220 180
0 221 181
0 221 180
0 221 181
0 221 181
0 220 180
0 220 180
0 221 180
0 221 181
0 219 180
0 222 181
0 220 180
0 222 181
0 223 181
0 221 181
0 221 181
0 221 181
0 221 181
0 222 181
0 221 181
0 220 181
0 221 180
0 221 180
0 221 180
0 222 181
0 221 181
0 221 181
0 221 181
0 221 181
0 221 181
0 221 181
0 222 181
0 221 181
0 222 181
0 221 181
0 222 181
0 220 180
0 221 181
0 222 181
0 222 181
0 222 181
0 221 180
0 221 180
0 221 181
0 221 180
0 221 181
0 221 180
0 220 180
0 221 181
0 221 181
0 220 181
0 221 181
0 221 180
0 221 181
0 222 181
0 221 180
0 222 181
0 221 181
0 221 181
0 221 181
0 222 181
0 222 181
0 222 181
0 221 181
0 223 181
0 221 181
0 220 181
0 222 181
0 221 181
0 221 181
0 221 181
0 221 180
0 221 181
0 221 181
0 220 180
0 222 181
0 220 181
0 222 181
0 221 181
0 222 181
0 222 181
0 221 181
0 221 181
0 221 181
0 221 181
0 221 181
0 221 181
0 221 181
0 221 181
0 220 181
0 221 181
0 221 181
0 221 181
0 222 181
0 221 181
0 222 181
0 221 181
0 221 181
0 221 181
0 221 181
0 220 180
0 222 181
0 222 181
0 222 181
0 222 181
0 222 181
0 221 181
0 221 181
0 222 181
0 222 181
0 221 181
0 222 181
0 221 181
0 221 181
0 222 181
0 220 181
0 221 181
0 222 181
0 221 181
0 221 181
0 221 181
0 220 180
0 221 181
0 221 181
0 220 180
0 221 181
0 220 180
0 221 180
0 220 180
0 221 181
0 221 181
0 221 181
0 221 181
0 220 180
0 221 181
0 221 181
0 221 181
0 222 181
0 221 181
0 221 181
0 220 181
0 221 181
0 221 180
0 221 181
0 222 181
0 221 181
0 222 181
0 221 181
0 220 181
0 222 181
0 219 180
0 219 179
0 222 181
0 221 180
0 221 181
0 220 180
0 220 180
0 221 180
0 221 181
0 220 180
0 222 181
0 221 181
0 221 181
0 220 180
0 222 181
0 220 180
0 223 181
0 221 181
0 221 179
0 221 181
0 220 180
0 220 181
0 221 181
0 219 179
0 221 181
0 220 180
0 220 180
0 220 180
0 220 180
0 221 181
0 222 181
0 222 181
0 220 180
0 222 181
0 221 180
0 220 180
0 221 181
0 222 181
0 221 181
0 220 180
0 220 180
0 220 180
0 221 181
0 220 179
0 220 180
0 221 180
0 221 180
0 219 179
0 221 180
0 220 181
0 218 179
0 222 181
0 221 181
0 220 180
0 220 180
0 221 181
0 222 181
0 219 179
0 220 179
0 219 179
0 220 179
0 220 180
0 221 181
0 219 179
0 219 179
0 221 180
0 219 179
0 221 179
0 220 180
0 220 179
0 220 179
0 220 179
0 220 181
0 220 180
0 220 179
0 221 180
0 216 177
0 218 178
0 216 177
0 220 178
0 219 179
0 218 177
0 220 180
0 218 178
0 220 179
0 220 178
0 217 178
0 218 176
0 218 178
0 220 179
0 219 179
0 218 179
0 219 178
0 220 179
0 220 179
0 214 176
0 219 178
0 218 177
0 218 178
0 218 178
0 219 179
0 219 178
0 216 176
0 216 177
0 217 177
0 217 178
0 220 179
0 220 180
0 220 178
0 217 178
0 216 178
0 218 178
0 219 178
0 218 178
0 217 178
0 218 178
0 217 178
0 219 180
0 221 180
0 218 179
0 219 178
0 214 176
0 219 177
0 216 178
0 217 178
0 218 178
0 217 179
0 218 178
0 219 179
0 214 175
0 217 178
0 215 176
0 220 180
0 217 178
0 219 179
0 216 177
0 219 178
0 219 179
0 218 179
0 219 179
0 219 179
0 222 181
0 219 178
0 216 177
0 219 179
0 220 179
0 218 179
0 217 176
0 214 175
0 217 178
0 220 180
0 220 180
0 222 180
0 217 177
0 218 179
0 215 176
0 218 179
0 215 177
0 220 180
0 219 179
0 220 180
0 219 179
0 219 179
0 219 179
0 219 180
0 220 180
0 220 180
0 220 179
0 221 181
0 219 179
0 220 180
0 218 178
0 217 177
0 218 177
0 218 178
0 220 179
0 221 181
0 220 179
0 219 179
0 220 179
0 219 178
0 221 181
0 221 179
0 220 179
0 219 180
0 219 180
0 221 181
0 220 180
0 219 178
0 220 178
0 220 180
0 220 180
0 221 180
0 221 180
0 218 179
0 219 178
0 221 180
0 220 180
0 222 181
0 221 181
0 219 178
0 220 180
0 221 179
0 221 180
0 222 180
0 221 181
0 219 179
0 220 180
0 222 180
0 219 179
0 222 181
0 221 181
0 219 179
0 220 180
0 221 180
0 220 181
0 220 180
0 220 179
0 221 180
0 219 179
0 221 181
0 221 180
0 219 179
0 220 179
0 222 180
0 221 180
0 221 180
0 221 181
0 222 181
0 222 181
0 221 180
0 222 181
0 222 181
0 221 181
0 221 181
0 220 180
0 221 181
0 221 181
0 220 180
0 221 181
0 221 181
0 220 179
0 220 180
0 222 181
0 221 181
0 222 181
0 221 181
0 221 181
0 221 181
0 221 180
0 221 181
0 221 181
0 222 181
0 222 181
0 221 181
0 221 181
0 220 181
0 220 181
0 221 181
0 221 181
0 221 181
0 221 180
0 222 181
0 221 180
0 222 181
0 222 181
0 221 181
0 221 181
0 221 181
0 221 181
0 221 181
0 220 180
0 222 181
0 221 181
0 221 181
0 221 181
0 220 181
0 221 181
0 221 181
0 220 181
0 221 181
0 220 181
0 220 181
0 221 181
0 221 181
0 222 181
0 221 181
0 220 179
0 222 181
0 222 181
0 221 181
0 221 181
0 222 181
0 222 181
0 221 180
0 222 181
0 220 181
0 221 181
0 220 181
0 221 181
0 220 181
0 221 181
0 221 181
0 221 181
0 221 181
0 221 181
0 222 181
0 220 180
0 220 181
0 221 181
0 221 180
0 221 181
0 222 181
0 221 181
0 221 181
0 222 181
0 221 181
0 220 181
0 221 181
0 221 181
0 221 181
0 221 181
0 221 181
0 222 181
0 221 181
0 221 181
0 221 181
0 221 181
0 222 180
0 221 181
0 221 181
0 221 181
0 221 181
0 220 180
0 221 181
0 221 181
0 221 181
0 222 181
0 221 181
0 221 181
0 221 181
0 222 181
0 221 181
0 220 180
0 221 181
0 221 181
0 220 181
0 222 181
0 220 179
0 221 181
0 220 181
0 221 181
0 221 181
0 222 181
0 221 181
0 222 181
0 221 181
0 221 181
0 221 181
0 221 181
0 221 181
0 221 181
0 221 181
0 221 181
0 221 180
0 222 181
0 221 181
0 221 181
0 221 181
0 220 180
0 221 181
0 221 181
0 221 181
0 221 181
0 222 181
0 221 181
0 220 180
0 219 180
0 221 181
0 221 181
0 221 181
0 221 180
0 221 181
0 222 181
0 221 181
0 221 181
0 221 181
0 220 179
0 221 181
0 220 180
0 223 181
0 220 180
0 221 181
0 222 181
0 221 181
0 221 181
0 222 181
0 221 181
0 221 181
0 221 181
0 220 180
0 220 180
0 221 181
0 221 181
0 221 180
0 221 181
0 221 181
0 220 180
0 220 179
0 221 181
0 220 180
0 221 181
0 221 181
0 220 180
0 221 180
0 221 181
0 220 180
0 221 181
0 220 180
0 222 181
0 219 180
0 220 180
0 220 180
0 219 180
0 221 180
0 220 180
0 221 181
0 220 181
0 220 179
0 221 181
0 222 181
0 221 181
0 221 181
0 218 179
0 221 180
0 221 180
0 222 181
0 221 181
0 220 179
0 221 181
0 220 179
0 220 180
0 221 181
0 221 180
0 221 181
0 220 179
0 220 180
0 221 180
0 221 181
0 221 180
0 221 181
0 220 180
0 220 181
0 218 179
0 220 180
0 217 178
0 219 179
0 220 180
0 222 180
0 221 181
0 221 180
0 221 181
0 220 180
0 221 179
0 218 179
0 220 181
0 220 180
0 221 181
0 220 179
0 221 179
0 219 179
0 221 180
0 218 178
0 222 181
0 216 178
0 221 179
0 220 179
0 219 178
0 219 178
0 220 181
0 216 177
0 220 179
0 218 177
0 219 179
0 218 176
0 219 179
0 221 181
0 216 178
0 221 181
0 220 179
0 217 177
0 219 178
0 220 180
0 219 179
0 219 179
0 221 181
0 218 178
0 220 180
0 219 179
0 218 178
0 221 179
0 217 178
0 220 179
0 220 181
0 217 177
0 214 175
0 218 178
0 217 177
0 217 178
0 219 179
0 217 178
0 218 178
0 218 178
0 218 178
0 220 178
0 218 178
0 216 177
0 218 177
0 218 178
0 218 179
0 215 176
0 219 179
0 216 177
0 220 180
0 215 176
0 216 176
0 217 176
0 219 178
0 218 178
0 219 179
0 218 178
0 219 180
0 217 178
0 220 179
0 219 179
0 217 178
0 219 178
0 220 180
0 217 178
0 221 180
0 217 177
0 218 177
0 217 179
0 217 176
0 219 180
0 222 181
0 220 179
0 219 179
0 221 180
0 220 179
0 220 180
0 219 179
0 219 179
0 219 178
0 219 179
0 219 179
0 217 178
0 221 181
0 217 177
0 221 181
0 218 178
0 220 180
0 220 180
0 220 180
0 220 181
0 220 180
0 219 179
0 220 180
0 219 180
0 219 179
0 219 178
0 222 181
0 221 180
0 219 178
0 221 181
0 220 180
0 220 179
0 219 178
0 220 181
0 220 180
0 221 180
0 222 181
0 221 180
0 220 179
0 220 180
0 219 179
0 218 179
0 219 179
0 219 179
0 222 181
0 220 180
0 221 181
0 221 181
0 221 180
0 219 178
0 220 180
0 220 179
0 220 179
0 220 180
0 220 179
0 221 181
0 220 180
0 220 181
0 221 180
0 221 181
0 220 180
0 220 180
0 221 180
0 220 180
0 219 180
0 218 178
0 220 179
0 220 180
0 220 180
0 221 179
0 220 180
0 221 181
0 221 181
0 221 181
0 221 181
0 219 180
0 220 180
0 222 181
0 222 180
0 220 180
0 221 181
0 220 181
0 220 181
0 221 180
0 221 181
0 221 181
0 221 181
0 221 180
0 221 180
0 221 181
0 221 181
0 221 181
0 221 181
0 222 181
0 222 181
0 220 180
0 219 180
0 221 181
0 221 181
0 221 181
0 221 180
0 221 181
0 221 181
0 221 180
0 221 181
0 221 180
0 220 181
0 221 181
0 221 181
0 221 181
0 220 179
0 221 180
0 221 180
0 222 181
0 222 181
0 221 180
0 221 181
0 221 181
0 220 181
0 221 180
0 221 181
0 221 180
0 221 181
0 221 181
0 221 181
0 221 181
0 222 181
0 221 181
0 221 181
0 221 181
0 221 180
0 221 181
0 221 181
0 221 181
0 221 181
0 221 180
0 221 180
0 220 180
0 222 181
0 221 180
0 221 181
0 221 181
0 220 180
0 221 181
0 221 181
0 220 179
0 222 181
0 221 181
0 221 181
0 221 181
0 221 180
0 221 181
0 221 181
0 221 181
0 221 180
0 221 181
0 221 180
0 221 181
0 221 181
0 221 181
0 220 180
0 221 181
0 221 181
0 221 181
0 222 181
0 221 181
0 221 181
0 221 181
0 221 180
0 221 181
0 222 181
0 221 181
0 221 181
0 222 181
0 221 181
0 221 181
0 221 181
0 222 181
0 221 181
0 221 180
0 220 181
0 221 180
0 222 181
0 220 181
0 221 181
0 222 181
0 222 181
0 221 181
0 221 181
0 221 181
0 221 181
0 221 181
0 220 180
0 221 180
0 222 181
0 221 181
0 221 181
0 221 181
0 220 181
0 220 181
0 220 180
0 222 181
0 222 181
0 221 181
0 222 181
0 221 181
0 221 181
0 221 180
0 221 181
0 221 181
0 221 181
0 222 181
0 221 181
0 221 181
0 221 181
0 220 181
0 221 181
0 221 181
0 219 180
0 222 181
0 221 180
0 222 181
0 220 180
0 220 181
0 222 181
0 222 181
0 221 181
0 220 180
0 221 181
0 221 181
0 221 181
0 221 181
0 222 181
0 221 181
0 220 180
0 220 180
0 222 181
0 221 180
0 221 181
0 221 181
0 219 179
0 223 181
0 221 181
0 221 181
0 222 181
0 221 181
0 221 181
0 221 181
0 221 180
0 221 181
0 222 181
0 220 180
0 221 181
0 222 181
0 222 181
0 222 181
0 221 181
0 221 181
0 220 180
0 220 180
0 219 180
0 221 181
0 221 181
0 221 181
0 219 179
0 222 181
0 221 181
0 221 180
0 220 180
0 220 180
0 220 180
0 221 181
0 220 180
0 221 180
0 221 181
0 221 181
0 221 181
0 221 181
0 221 181
0 222 181
0 221 180
0 221 181
0 220 180
0 221 181
0 219 180
0 221 180
0 221 181
0 221 181
0 219 180
0 219 180
0 219 179
0 220 180
0 219 179
0 220 180
0 219 180
0 221 181
0 220 179
0 219 180
0 221 181
0 221 181
0 220 179
0 221 181
0 220 179
0 221 180
0 220 180
0 219 180
0 220 180
0 221 181
0 220 179
0 221 181
0 220 180
0 219 180
0 221 181
0 219 180
0 218 178
0 220 181
0 219 180
0 221 181
0 220 180
0 221 180
0 221 181
0 220 181
0 221 181
0 220 179
0 220 179
0 221 180
0 220 179
0 218 178
0 221 180
0 218 179
0 220 180
0 221 178
0 219 179
0 220 180
0 220 180
0 220 179
0 220 179
0 218 178
0 219 178
0 219 178
0 220 178
0 220 179
0 218 180
0 218 179
0 221 180
0 219 179
0 219 179
0 219 179
0 218 178
0 221 180
0 218 179
0 220 180
0 222 180
0 217 178
0 214 173
0 219 179
0 222 180
0 219 179
0 217 177
0 217 178
0 218 179
0 219 178
0 218 179
0 217 178
0 215 176
0 218 179
0 219 179
0 217 177
0 218 178
0 217 176
0 220 180
0 215 176
0 218 179
0 217 178
0 216 177
0 218 178
0 221 180
0 219 178
0 217 178
0 218 179
0 218 179
0 219 178
0 218 179
0 218 178
0 219 179
0 218 178
0 216 178
0 218 178
0 218 178
0 220 180
0 220 180
0 219 179
0 218 178
0 218 178
0 217 177
0 219 179
0 218 178
0 218 179
0 220 180
0 215 176
0 219 179
0 217 177
0 219 180
0 219 179
0 218 178
0 220 179
0 216 178
0 221 181
0 219 178
0 219 179
0 215 176
0 218 179
0 218 179
0 219 180
0 220 180
0 221 180
0 217 178
0 219 179
0 219 179
0 220 179
0 220 180
0 219 178
0 221 181
0 222 179
0 219 179
0 220 179
0 217 178
0 221 181
0 219 180
0 220 180
0 222 180
0 218 178
0 220 180
0 219 178
0 220 179
0 219 180
0 219 177
0 221 181
0 222 181
0 221 180
0 220 179
0 218 178
0 220 178
0 218 179
0 219 179
0 219 178
0 221 181
0 218 178
0 221 181
0 220 179
0 219 179
0 219 178
0 219 179
0 220 180
0 221 181
0 220 180
0 220 179
0 221 181
0 218 178
0 220 180
0 220 181
0 220 180
0 221 180
0 221 180
0 219 179
0 220 180
0 220 180
0 220 180
0 217 176
0 222 181
0 220 180
0 219 179
0 219 180
0 220 181
0 220 180
0 220 179
0 221 181
0 222 181
0 220 180
0 222 181
0 221 181
0 220 180
0 221 180
0 222 181
0 222 181
0 218 178
0 221 181
0 220 180
0 220 181
0 220 180
0 222 180
0 221 181
0 221 181
0 222 180
0 221 181
0 220 179
0 221 181
0 222 181
0 219 179
0 220 180
0 221 181
0 220 179
0 220 180
0 221 180
0 221 181
0 220 181
0 222 181
0 221 180
0 221 181
0 219 180
0 222 181
0 221 181
0 221 181
0 221 181
0 220 181
0 222 181
0 221 181
0 220 180
0 222 181
0 220 180
0 222 181
0 221 181
0 222 181
0 221 181
0 221 181
0 222 181
0 221 181
0 219 179
0 221 179
0 222 181
0 221 181
0 220 179
0 221 181
0 222 181
0 222 181
0 220 180
0 222 181
0 221 181
0 222 181
0 221 181
0 221 181
0 221 181
0 221 180
0 221 181
0 220 180
0 222 181
0 221 181
0 221 181
0 220 180
0 220 181
0 221 181
0 222 181
0 222 181
0 221 181
0 221 181
0 222 181
0 221 181
0 219 179
0 221 181
0 221 181
0 221 181
0 221 181
0 220 180
0 221 181
0 221 181
0 221 181
0 222 181
0 221 181
0 222 181
0 222 181
0 221 181
0 219 180
0 221 181
0 221 180
0 221 181
0 221 181
0 222 181
0 222 181
0 221 180
0 221 181
0 221 181
0 221 181
0 219 179
0 222 181
0 222 181
0 222 181
0 221 181
0 222 181
0 220 181
0 220 180
0 221 180
0 222 181
0 222 181
0 222 181
0 221 181
0 221 181
0 221 181
0 221 181
0 221 181
0 219 180
0 222 181
0 221 181
0 221 181
0 221 181
0 220 180
0 221 181
0 221 181
0 222 181
0 221 181
0 221 181
0 221 180
0 221 181
0 222 181
0 221 181
0 222 181
0 220 180
0 221 181
0 221 181
0 222 181
0 221 180
0 222 181
0 222 181
0 221 181
0 221 181
0 220 180
0 221 181
0 220 180
0 221 181
0 221 181
0 220 181
0 220 179
0 221 181
0 221 181
0 219 180
0 221 181
0 221 181
0 221 181
0 220 180
0 220 181
0 221 181
0 221 181
0 220 180
0 219 180
0 222 181
0 220 181
0 222 181
0 220 180
0 221 181
0 220 181
0 221 181
0 221 181
0 221 181
0 220 180
0 220 180
0 220 180
0 221 181
0 221 181
0 221 181
0 221 181
0 220 181
0 220 180
0 222 181
0 219 179
0 220 180
0 219 179
0 222 180
0 221 181
0 222 181
0 220 180
0 220 180
0 222 181
0 220 181
0 220 181
0 222 181
0 221 181
0 219 179
0 220 181
0 221 180
0 221 181
0 221 181
0 221 181
0 219 179
0 220 179
0 219 179
0 221 181
0 221 180
0 221 180
0 221 181
0 220 180
0 222 181
0 220 180
0 221 181
0 222 180
0 221 181
0 220 180
0 221 181
0 219 180
0 222 181
0 220 180
0 219 179
0 221 179
0 222 181
0 219 180
0 221 180
0 222 181
0 221 181
0 219 180
0 220 181
0 219 180
0 221 180
0 221 180
0 220 180
0 221 180
0 220 180
0 221 181
0 220 179
0 220 180
0 219 180
0 219 179
0 219 179
0 220 179
0 219 180
0 221 180
0 220 180
0 220 180
0 218 179
0 220 180
0 219 179
0 220 180
0 219 180
0 220 180
0 221 180
0 220 181
0 221 180
0 218 179
0 220 178
0 220 178
0 218 178
0 221 180
0 219 178
0 220 180
0 220 179
0 217 177
0 220 180
0 218 179
0 217 177
0 220 180
0 219 180
0 217 178
0 219 179
0 219 179
0 219 179
0 222 179
0 217 177
0 220 180
0 218 179
0 216 178
0 218 178
0 220 180
0 217 178
0 217 178
0 214 177
0 217 177
0 215 175
0 219 177
0 216 177
0 217 177
0 217 177
0 216 177
0 219 179
0 214 176
0 221 179
0 219 178
0 217 177
0 221 179
0 219 178
0 216 177
0 218 179
0 220 179
0 215 176
0 217 178
0 221 180
0 219 180
0 221 180
0 218 178
0 217 177
0 218 179
0 213 175
0 219 179
0 220 180
0 218 179
0 216 177
0 220 179
0 218 178
0 219 179
0 220 180
0 219 179
0 216 177
0 219 179
0 218 178
0 217 177
0 217 178
0 218 178
0 219 180
0 219 179
0 220 180
0 219 178
0 221 180
0 217 178
0 221 179
0 216 177
0 220 179
0 218 178
0 221 181
0 218 177
0 219 179
0 219 178
0 220 179
0 220 180
0 213 175
0 218 179
0 220 180
0 218 179
0 221 179
0 221 180
0 219 179
0 219 177
0 219 180
0 220 180
0 218 179
0 218 177
0 220 179
0 220 180
0 220 180
0 220 180
0 218 178
0 221 180
0 220 181
0 217 178
0 220 180
0 222 181
0 220 179
0 220 180
0 219 179
0 221 179
0 219 180
0 218 178
0 220 179
0 219 179
0 221 181
0 220 179
0 221 181
0 221 181
0 219 179
0 221 181
0 220 180
0 221 181
0 219 178
0 220 180
0 220 181
0 220 181
0 220 179
0 220 179
0 221 180
0 222 181
0 222 181
0 221 180
0 220 179
0 219 178
0 222 181
0 218 179
0 220 179
0 222 181
0 221 181
0 220 180
0 221 180
0 220 180
0 220 180
0 219 180
0 220 179
0 219 178
0 221 181
0 220 178
0 220 180
0 221 179
0 221 180
0 221 180
0 220 180
0 221 181
0 221 181
0 220 181
0 221 181
0 221 181
0 220 181
0 220 180
0 220 180
0 221 180
0 221 181
0 222 181
0 221 181
0 221 181
0 221 181
0 221 180
0 220 180
0 222 181
0 220 180
0 220 180
0 221 180
0 221 181
0 221 181
0 221 180
0 221 181
0 221 181
0 221 181
0 220 181
0 221 181
0 220 180
0 221 181
0 221 181
0 222 181
0 220 179
0 221 180
0 220 181
0 222 181
0 219 179
0 221 181
0 223 181
0 222 181
0 221 181
0 221 181
0 219 180
0 222 181
0 221 181
0 221 181
0 221 181
0 221 181
0 222 181
0 222 181
0 221 181
0 222 181
0 220 181
0 221 181
0 220 179
0 221 181
0 221 181
0 221 181
0 220 180
0 221 181
0 219 180
0 220 180
0 221 181
0 221 180
0 220 181
0 222 181
0 221 181
0 220 179
0 221 181
0 221 181
0 222 181
0 220 180
0 221 181
0 221 181
0 221 181
0 222 181
0 222 181
0 221 181
0 221 181
0 221 181
0 221 181
0 222 181
0 222 181
0 219 180
0 222 181
0 221 181
0 221 181
0 222 181
0 221 181
0 222 181
0 222 181
0 221 181
0 222 181
0 221 181
0 222 181
0 220 180
0 221 181
0 220 180
0 222 181
0 220 180
0 221 181
0 222 181
0 221 181
0 221 181
0 221 181
0 221 181
0 221 181
0 220 180
0 222 181
0 221 181
0 220 180
0 221 181
0 222 181
0 220 181
0 220 181
0 221 181
0 220 180
0 221 181
0 220 181
0 221 181
0 221 181
0 221 181
0 221 181
0 221 181
0 221 181
0 221 181
0 221 180
0 221 181
0 221 181
0 221 181
0 220 180
0 220 181
0 221 181
0 221 180
0 221 181
0 221 181
0 220 181
0 222 181
0 221 181
0 221 181
0 221 181
0 221 181
0 221 181
0 222 181
0 222 181
0 222 181
0 222 181
0 221 181
0 223 181
0 221 181
0 221 181
0 222 181
0 221 181
0 220 180
0 219 180
0 220 180
0 222 180
0 221 181
0 222 180
0 221 181
0 221 181
0 222 181
0 221 181
0 222 181
0 220 181
0 221 181
0 221 181
0 220 180
0 219 179
0 220 180
0 222 181
0 221 181
0 221 181
0 221 180
0 222 181
0 222 181
0 221 181
0 221 181
0 220 180
0 220 180
0 220 179
0 221 180
0 220 180
0 222 181
0 221 181
0 221 180
0 220 180
0 222 181
0 219 180
0 219 180
0 219 179
0 221 181
0 220 180
0 221 181
0 218 179
0 222 181
0 221 181
0 221 181
0 220 180
0 221 181
0 219 179
0 221 181
0 220 180
0 221 181
0 221 180
0 219 179
0 220 180
0 221 181
0 221 181
0 218 179
0 218 179
0 220 180
0 221 181
0 221 181
0 222 181
0 221 181
0 221 181
0 220 180
0 219 180
0 221 180
0 221 181
0 221 181
0 219 180
0 219 180
0 219 179
0 221 179
0 219 179
0 219 179
0 218 178
0 220 180
0 221 180
0 214 175
0 218 179
0 221 181
0 221 181
0 219 178
0 219 179
0 221 181
0 220 180
0 221 181
0 219 178
0 221 179
0 218 179
0 219 179
0 219 179
0 221 181
0 219 178
0 218 177
0 217 177
0 219 179
0 217 177
0 219 179
0 221 180
0 221 180
0 218 178
0 221 181
0 218 179
0 219 179
0 218 177
0 220 180
0 220 178
0 217 177
0 218 178
0 219 179
0 219 179
0 219 180
0 217 178
0 218 179
0 221 181
0 219 178
0 218 178
0 218 179
0 218 178
0 218 177
0 220 180
0 219 179
0 214 175
0 214 176
0 221 181
0 220 180
0 216 178
0 217 179
0 220 180
0 220 179
0 218 178
0 217 178
0 218 177
0 219 180
0 220 181
0 219 179
0 219 180
0 217 177
0 218 178
0 221 180
0 217 178
0 218 179
0 216 176
0 220 180
0 217 178
0 221 179
0 217 178
0 218 179
0 216 177
0 218 179
0 221 180
0 219 179
0 217 179
0 218 178
0 218 177
0 221 180
0 220 179
0 219 179
0 219 178
0 220 179
0 218 178
0 220 179
0 218 178
0 215 177
0 219 178
0 220 179
0 219 178
0 218 179
0 217 178
0 218 176
0 220 180
0 219 179
0 220 180
0 218 179
0 217 177
0 218 178
0 220 179
0 220 180
0 215 176
0 219 179
0 220 180
0 221 181
0 220 181
0 219 179
0 221 181
0 221 180
0 219 179
0 218 178
0 220 179
0 219 178
0 217 178
0 219 179
0 220 179
0 219 180
0 220 180
0 221 181
0 221 180
0 218 178
0 220 180
0 220 179
0 220 179
0 218 178
0 219 177
0 220 181
0 221 180
0 221 181
0 220 180
0 218 178
0 221 181
0 218 178
0 220 179
0 219 179
0 221 179
0 220 179
0 222 181
0 220 180
0 219 179
0 221 180
0 221 181
0 220 180
0 220 180
0 221 181
0 220 181
0 220 180
0 221 179
0 220 180
0 220 180
0 220 179
0 221 179
0 220 180
0 220 181
0 220 179
0 220 180
0 221 179
0 221 180
0 220 180
0 220 180
0 221 181
0 219 179
0 220 179
0 221 181
0 221 181
0 220 179
0 222 181
0 221 181
0 221 181
0 221 181
0 218 178
0 221 181
0 219 180
0 221 180
0 221 181
0 222 181
0 221 181
0 221 181
0 221 181
0 220 181
0 221 181
0 220 180
0 220 180
0 220 181
0 220 181
0 222 181
0 220 180
0 221 180
0 221 181
0 221 180
0 221 180
0 220 181
0 221 181
0 221 181
0 220 180
0 221 181
0 219 179
0 222 181
0 220 180
0 221 181
0 220 180
0 222 181
0 221 181
0 222 181
0 222 181
0 222 180
0 221 180
0 222 181
0 219 180
0 221 181
0 221 181
0 220 180
0 221 181
0 221 181
0 220 181
0 222 181
0 221 181
0 221 181
0 221 181
0 222 181
0 221 181
0 221 181
0 221 181
0 221 181
0 222 180
0 221 180
0 221 181
0 220 181
0 221 181
0 221 181
0 221 181
0 222 181
0 221 181
0 222 181
0 221 181
0 222 181
0 222 181
0 222 181
0 221 181
0 222 181
0 222 181
0 222 181
0 221 181
0 221 181
0 222 181
0 220 181
0 221 181
0 220 180
0 222 181
0 221 181
0 221 181
0 221 181
0 221 181
0 222 181
0 221 181
0 221 181
0 221 181
0 221 181
0 221 181
0 222 181
0 222 181
0 220 181
0 221 181
0 221 181
0 221 181
0 220 181
0 221 181
0 221 181
0 220 181
0 222 181
0 221 181
0 221 181
0 222 181
0 221 181
0 221 181
0 221 181
0 221 181
0 221 181
0 222 181
0 221 181
0 221 181
0 221 181
0 220 180
0 220 180
0 222 181
0 222 181
0 222 181
0 221 181
0 220 181
0 222 181
0 220 181
0 221 181
0 221 181
0 222 181
0 221 181
0 220 180
0 221 181
0 221 181
0 220 180
0 221 181
0 221 181
0 221 181
0 221 181
0 220 180
0 221 181
0 221 181
0 220 181
0 221 181
0 220 180
0 222 181
0 220 180
0 221 181
0 220 180
0 220 181
0 222 181
0 220 180
0 222 181
0 220 181
0 220 180
0 221 181
0 222 181
0 221 181
0 221 181
0 221 181
0 221 181
0 221 181
0 222 181
0 221 181
0 222 181
0 220 181
0 221 181
0 220 180
0 221 180
0 219 179
0 219 180
0 221 181
0 219 180
0 220 180
0 219 179
0 221 181
0 222 181
0 221 181
0 219 179
0 221 181
0 221 181
0 222 181
0 219 180
0 221 181
0 221 181
0 221 181
0 220 180
0 220 180
0 222 181
0 220 180
0 220 180
0 221 181
0 220 180
0 222 181
0 220 180
0 221 181
0 220 181
0 221 181
0 221 181
0 221 181
0 222 181
0 222 181
0 220 180
0 221 181
0 221 180
0 221 181
0 221 180
0 221 180
0 220 180
0 219 179
0 219 179
0 221 181
0 220 180
0 220 181
0 220 179
0 218 179
0 223 181
0 221 180
0 219 179
0 222 181
0 221 181
0 221 181
0 220 180
0 221 180
0 219 179
0 218 179
0 220 180
0 221 181
0 220 180
0 221 180
0 220 180
0 222 181
0 220 181
0 218 179
0 220 179
0 220 179
0 220 180
0 219 180
0 221 181
0 219 180
0 222 180
0 220 180
0 220 180
0 221 181
0 220 179
0 220 180
0 221 180
0 221 180
0 221 180
0 219 179
0 221 181
0 220 180
0 218 177
0 220 180
0 222 181
0 220 180
0 219 178
0 222 180
0 221 180
0 219 179
0 219 178
0 220 179
0 221 180
0 218 178
0 220 180
0 220 180
0 219 179
0 219 178
0 217 177
0 220 180
0 218 178
0 218 178
0 218 178
0 221 181
0 217 178
0 220 179
0 218 178
0 218 179
0 219 178
0 220 180
0 218 179
0 220 180
0 219 179
0 218 179
0 217 178
0 218 177
0 214 175
0 220 179
0 218 178
0 216 176
0 220 179
0 221 181
0 220 180
0 217 176
0 218 179
0 219 178
0 216 176
0 219 179
0 216 177
0 216 178
0 216 177
0 219 179
0 220 180
0 221 181
0 218 178
0 216 177
0 218 178
0 218 179
0 218 179
0 215 176
0 219 179
0 221 181
0 218 179
0 218 178
0 218 177
0 218 178
0 220 179
0 218 178
0 221 180
0 221 180
0 220 180
0 217 178
0 218 177
0 221 180
0 218 178
0 218 179
0 217 178
0 219 179
0 218 177
0 216 177
0 216 177
0 217 178
0 220 180
0 219 180
0 221 180
0 218 178
0 219 179
0 218 177
0 219 179
0 221 180
0 218 177
0 219 178
0 221 180
0 216 176
0 220 180
0 221 181
0 219 180
0 220 179
0 218 178
0 220 180
0 220 180
0 221 180
0 221 180
0 219 179
0 219 179
0 218 179
0 220 180
0 222 181
0 218 178
0 219 179
0 219 179
0 221 181
0 220 180
0 219 180
0 221 180
0 222 181
0 220 180
0 220 181
0 221 180
0 221 180
0 220 180
0 222 180
0 220 180
0 219 178
0 220 179
0 220 180
0 220 179
0 220 180
0 219 178
0 220 179
0 220 180
0 221 180
0 220 179
0 220 180
0 220 180
0 220 179
0 220 179
0 219 179
0 221 180
0 221 181
0 221 181
0 221 181
0 221 181
0 221 180
0 220 180
0 222 181
0 221 180
0 220 180
0 220 180
0 220 179
0 221 181
0 220 180
0 221 181
0 221 181
0 221 181
0 221 181
0 220 178
0 221 181
0 219 180
0 221 181
0 221 181
0 221 180
0 222 181
0 221 180
0 221 181
0 221 181
0 221 181
0 221 179
0 221 180
0 221 181
0 220 180
0 221 181
0 220 180
0 218 179
0 221 181
0 219 179
0 219 180
0 221 180
0 221 181
0 220 180
0 222 180
0 221 181
0 221 181
0 221 181
0 222 181
0 222 181
0 221 180
0 222 181
0 222 181
0 222 181
0 221 181
0 219 179
0 222 181
0 221 181
0 221 181
0 220 179
0 221 180
0 221 181
0 221 181
0 221 181
0 220 181
0 222 181
0 221 181
0 221 181
0 222 181
0 220 180
0 222 181
0 220 180
0 222 181
0 222 181
0 221 181
0 221 181
0 221 181
0 221 181
0 222 181
0 221 180
0 221 181
0 220 181
0 221 181
0 221 181
0 221 181
0 221 181
0 221 181
0 221 181
0 221 181
0 220 181
0 220 180
0 221 180
0 221 181
0 221 181
0 221 181
0 222 181
0 221 181
0 221 181
0 221 181
0 222 181
0 221 181
0 221 181
0 221 181
0 221 181
0 222 181
0 222 181
0 222 181
0 222 181
0 221 181
0 220 180
0 222 181
0 222 181
0 222 181
0 222 181
0 221 181
0 221 181
0 222 181
0 221 181
0 221 181
0 222 181
0 220 180
0 221 181
0 221 181
0 221 181
0 222 181
0 221 181
0 221 181
0 222 181
0 221 180
0 221 181
0 221 181
0 221 181
0 220 181
0 220 180
0 221 181
0 222 181
0 221 181
0 221 180
0 221 181
0 223 181
0 221 181
0 221 180
0 220 181
0 220 180
0 221 181
0 222 180
0 222 181
0 220 180
0 221 181
0 221 181
0 221 180
0 221 181
0 221 181
0 221 181
0 221 181
0 222 181
0 222 181
0 221 181
0 222 181
0 220 180
0 220 181
0 220 180
0 221 181
0 220 181
0 220 180
0 221 181
0 221 181
0 222 181
0 221 181
0 222 181
0 221 181
0 221 181
0 221 181
0 221 181
0 221 181
0 220 180
0 221 180
0 221 180
0 221 181
0 220 181
0 219 179
0 221 181
0 221 181
0 221 181
0 221 181
0 220 180
0 220 180
0 221 181
0 221 181
0 221 181
0 220 180
0 220 180
0 222 181
0 221 181
0 220 180
0 221 181
0 220 180
0 220 179
0 221 180
0 222 181
0 221 181
0 219 180
0 220 181
0 221 180
0 221 181
0 221 181
0 221 181
0 222 181
0 221 180
0 220 181
0 222 181
0 219 180
0 220 180
0 221 181
0 220 181
0 221 181
0 220 180
0 221 181
0 220 181
0 219 179
0 221 181
0 221 181
0 220 181
0 218 180
0 221 180
0 221 180
0 221 181
0 221 181
0 220 181
0 221 181
0 219 180
0 220 180
0 220 180
0 221 181
0 220 180
0 222 180
0 221 180
0 222 180
0 219 179
0 220 181
0 220 180
0 220 179
0 219 180
0 220 181
0 221 181
0 220 181
0 217 178
0 220 180
0 218 178
0 221 181
0 222 181
0 220 180
0 221 181
0 220 179
0 220 180
0 219 180
0 222 178
0 218 179
0 220 180
0 221 180
0 219 179
0 219 178
0 220 180
0 219 179
0 221 180
0 218 177
0 220 179
0 220 179
0 220 179
0 220 180
0 219 179
0 219 180
0 220 180
0 218 179
0 219 179
0 220 180
0 218 178
0 221 180
0 219 179
0 220 180
0 221 179
0 218 178
0 219 179
0 221 181
0 218 179
0 220 180
0 217 177
0 218 178
0 220 179
0 218 178
0 217 177
0 220 180
0 219 179
0 221 181
0 220 180
0 216 178
0 220 179
0 219 180
0 219 179
0 218 177
0 221 181
0 219 179
0 220 180
0 215 177
0 216 178
0 219 178
0 219 179
0 221 181
0 216 177
0 218 177
0 219 179
0 217 176
0 216 177
0 221 180
0 218 179
0 220 180
0 216 177
0 218 178
0 219 179
0 220 180
0 219 180
0 217 177
0 217 177
0 220 179
0 218 178
0 218 178
0 218 178
0 221 179
0 220 179
0 219 180
0 219 179
0 220 179
0 220 181
0 220 180
0 218 179
0 221 180
0 221 180
0 220 180
0 220 180
0 218 179
0 219 180
0 219 179
0 216 176
0 218 178
0 220 179
0 219 178
0 221 180
0 219 180
0 222 181
0 219 177
0 221 181
0 218 179
0 216 176
0 221 180
0 216 176
0 219 179
0 218 179
0 219 179
0 220 181
0 220 180
0 220 179
0 222 181
0 219 178
0 218 179
0 219 179
0 219 179
0 220 178
0 220 180
0 220 180
0 219 178
0 218 178
0 219 179
0 217 178
0 222 180
0 221 181
0 221 181
0 219 179
0 221 179
0 221 181
0 221 180
0 219 179
0 220 180
0 221 181
0 221 180
0 218 178
0 219 178
0 221 180
0 221 180
0 221 181
0 221 180
0 221 180
0 221 180
0 220 181
0 220 179
0 222 181
0 219 180
0 222 181
0 220 180
0 220 180
0 220 180
0 221 181
0 221 180
0 221 180
0 221 181
0 220 179
0 220 180
0 220 179
0 221 180
0 221 181
0 221 181
0 221 181
0 222 181
0 222 181
0 220 180
0 221 180
0 221 180
0 221 181
0 221 181
0 221 180
0 221 180
0 221 181
0 221 180
0 222 180
0 220 180
0 220 180
0 220 180
0 219 179
0 221 181
0 221 181
0 219 180
0 222 181
0 221 181
0 221 179
0 221 181
0 221 181
0 220 181
0 220 180
0 222 180
0 220 180
0 221 181
0 221 181
0 221 180
0 221 180
0 221 181
0 221 181
0 221 181
0 221 181
0 222 181
0 223 181
0 220 180
0 221 181
0 221 181
0 222 181
0 220 180
0 221 181
0 220 180
0 222 181
0 220 180
0 220 181
0 221 181
0 221 181
0 221 181
0 221 181
0 220 180
0 222 181
0 222 181
0 221 181
0 221 181
0 221 181
0 221 181
0 222 181
0 221 181
0 222 181
0 221 181
0 221 181
0 222 181
0 222 181
0 222 181
0 222 181
0 221 181
0 221 181
0 221 181
0 220 181
0 221 181
0 221 181
0 221 181
0 221 181
0 221 181
0 221 180
0 221 181
0 221 181
0 222 181
0 221 181
0 221 181
0 221 181
0 221 181
0 222 181
0 222 181
0 221 181
0 221 181
0 221 181
0 220 181
0 221 180
0 222 181
0 220 181
0 221 181
0 221 181
0 222 181
0 222 181
0 221 180
0 219 180
0 222 181
0 222 181
0 223 181
0 221 181
0 220 181
0 221 181
0 221 181
0 221 181
0 221 181
0 221 181
0 222 181
0 221 181
0 221 181
0 220 181
0 221 181
0 220 181
0 222 181
0 221 181
0 222 181
0 220 180
0 221 181
0 220 180
0 221 180
0 221 181
0 221 181
0 221 181
0 221 181
0 221 181
0 221 181
0 220 180
0 220 180
0 222 181
0 220 180
0 222 181
0 221 181
0 220 180
0 221 181
0 222 181
0 222 181
0 221 181
0 220 181
0 221 181
0 221 180
0 222 181
0 222 181
0 221 181
0 221 181
0 222 181
0 221 181
0 222 181
0 220 180
0 221 181
0 221 181
0 221 181
0 220 180
0 221 181
0 222 181
0 222 181
0 222 181
0 222 181
0 222 181
0 221 181
0 221 181
0 221 180
0 221 179
0 220 181
0 222 181
0 221 181
0 220 180
0 221 181
0 220 181
0 221 181
0 221 180
0 220 180
0 221 181
0 222 180
0 223 181
0 221 181
0 223 181
0 221 181
0 222 181
0 222 181
0 221 181
0 221 181
0 221 181
0 220 180
0 221 180
0 222 181
0 221 181
0 221 181
0 221 181
0 219 180
0 220 181
0 220 180
0 221 181
0 221 181
0 220 180
0 219 180
0 219 179
0 220 180
0 220 180
0 220 180
0 222 181
0 221 180
0 221 181
0 220 181
0 220 181
0 220 180
0 221 180
0 221 181
0 220 179
0 220 180
0 220 180
0 221 181
0 220 181
0 220 180
0 220 180
0 220 180
0 220 181
0 220 181
0 221 181
0 220 180
0 221 181
0 221 181
0 221 181
0 221 181
0 218 179
0 219 179
0 221 181
0 220 179
0 220 180
0 221 180
0 220 181
0 219 180
0 220 180
0 220 180
0 221 181
0 221 181
0 220 180
0 219 180
0 218 178
0 219 179
0 220 180
0 220 181
0 221 181
0 220 180
0 221 180
0 220 180
0 217 179
0 221 180
0 221 180
0 218 178
0 219 178
0 220 181
0 221 179
0 221 180
0 220 180
0 219 179
0 218 178
0 218 179
0 217 178
0 218 178
0 220 179
0 218 179
0 220 180
0 220 179
0 221 180
0 218 177
0 215 178
0 219 179
0 217 178
0 216 177
0 220 179
0 218 178
0 219 178
0 218 178
0 218 178
0 216 177
0 217 177
0 221 180
0 217 178
0 218 179
0 221 180
0 218 178
0 219 179
0 218 178
0 219 180
0 214 176
0 218 178
0 219 179
0 218 178
0 221 181
0 217 178
0 219 179
0 218 178
0 221 180
0 215 176
0 217 178
0 218 179
0 217 178
0 218 178
0 219 178
0 218 178
0 220 180
0 219 179
0 219 179
0 219 179
0 219 179
0 219 179
0 218 176
0 220 180
0 218 178
0 221 181
0 218 179
0 222 181
0 219 179
0 220 180
0 218 178
0 218 178
0 219 180
0 218 179
0 217 177
0 220 179
0 217 176
0 217 178
0 217 178
0 220 180
0 220 180
0 219 179
0 219 179
0 220 179
0 220 180
0 217 176
0 220 180
0 217 178
0 220 179
0 220 180
0 218 179
0 220 180
0 219 180
0 219 180
0 218 179
0 220 180
0 220 180
0 219 179
0 220 180
0 220 180
0 219 179
0 221 180
0 220 181
0 218 178
0 220 179
0 220 180
0 219 178
0 220 179
0 220 180
0 220 180
0 219 179
0 220 180
0 221 181
0 221 181
0 218 179
0 219 180
0 221 180
0 220 180
0 220 179
0 219 180
0 222 181
0 221 180
0 220 181
0 221 180
0 220 180
0 220 180
0 220 180
0 220 180
0 220 179
0 221 180
0 219 179
0 221 180
0 221 181
0 220 180
0 221 181
0 219 179
0 218 178
0 221 181
0 221 180
0 220 180
0 221 181
0 221 181
0 219 179
0 221 181
0 221 181
0 221 181
0 220 180
0 221 180
0 221 180
0 221 180
0 221 179
0 221 181
0 221 180
0 220 179
0 222 181
0 220 181
0 222 181
0 220 179
0 220 181
0 221 181
0 220 179
0 221 181
0 221 181
0 221 181
0 222 181
0 221 181
0 220 178
0 220 180
0 221 181
0 221 181
0 221 181
0 221 181
0 219 180
0 223 181
0 222 181
0 221 181
0 220 180
0 221 181
0 221 181
0 221 180
0 222 181
0 220 180
0 222 181
0 219 179
0 220 180
0 221 181
0 222 181
0 221 181
0 220 181
0 222 181
0 221 181
0 221 181
0 221 181
0 221 181
0 221 181
0 222 181
0 221 181
0 221 181
0 220 181
0 221 181
0 220 180
0 221 181
0 221 181
0 220 181
0 221 181
0 221 181
0 221 181
0 221 181
0 219 180
0 221 181
0 221 181
0 222 181
0 222 181
0 220 181
0 221 180
0 222 181
0 220 181
0 221 180
0 222 181
0 221 181
0 221 181
0 222 181
0 221 181
0 219 180
0 221 181
0 221 181
0 221 179
0 220 181
0 221 181
0 221 181
0 221 181
0 222 181
0 221 181
0 221 181
0 221 181
0 222 181
0 222 181
0 221 180
0 222 181
0 220 181
0 222 181
0 221 181
0 222 181
0 222 181
0 221 181
0 221 181
0 222 181
0 220 180
0 220 180
0 221 181
0 222 181
0 221 181
0 221 181
0 220 181
0 219 180
0 221 181
0 221 181
0 221 181
0 223 181
0 221 180
0 221 181
0 221 181
0 221 181
0 222 181
0 221 181
0 220 180
0 221 180
0 221 180
0 220 180
0 222 181
0 220 181
0 221 181
0 221 181
0 220 180
0 222 181
0 221 181
0 222 181
0 221 181
0 222 181
0 222 181
0 221 181
0 222 181
0 222 181
0 221 181
0 220 180
0 221 181
0 222 181
0 221 181
0 220 181
0 221 181
0 221 181
0 221 180
0 221 181
0 220 180
0 221 181
0 222 181
0 220 180
0 221 181
0 221 181
0 221 180
0 221 180
0 220 181
0 219 180
0 221 181
0 221 181
0 222 181
0 222 181
0 221 180
0 221 181
0 221 180
0 221 181
0 222 180
0 221 181
0 221 181
0 220 181
0 221 181
0 220 181
0 221 181
0 221 181
0 221 181
0 221 181
0 222 180
0 221 181
0 220 180
0 221 180
0 222 181
0 221 181
0 221 181
0 220 180
0 219 180
0 220 180
0 221 181
0 221 181
0 221 181
0 221 181
0 220 180
0 221 181
0 221 181
0 221 181
0 221 181
0 221 180
0 221 181
0 220 181
0 221 181
0 221 181
0 220 181
0 221 180
0 221 180
0 221 181
0 220 180
0 220 180
0 222 180
0 222 181
0 222 181
0 220 181
0 221 181
0 219 180
0 221 180
0 222 181
0 221 180
0 221 180
0 221 180
0 221 181
0 221 181
0 221 181
0 221 181
0 221 181
0 220 180
0 221 181
0 220 180
0 221 181
0 221 181
0 221 180
0 220 180
0 220 181
0 221 181
0 220 181
0 221 181
0 220 180
0 221 181
0 220 180
0 221 179
0 221 180
0 220 181
0 220 180
0 220 180
0 221 181
0 221 180
0 220 180
0 221 181
0 219 180
0 221 181
0 220 180
0 220 181
0 218 178
0 219 179
0 219 179
0 221 181
0 220 179
0 219 179
0 219 178
0 221 180
0 218 179
0 220 180
0 220 180
0 220 180
0 219 179
0 220 180
0 221 181
0 222 181
0 216 178
0 218 177
0 220 181
0 221 179
0 220 180
0 218 178
0 221 180
0 220 180
0 219 179
0 218 178
0 219 178
0 219 178
0 217 179
0 218 179
0 220 180
0 220 180
0 220 179
0 216 177
0 221 179
0 217 179
0 217 178
0 216 178
0 219 178
0 219 180
0 219 178
0 219 180
0 218 178
0 219 179
0 222 181
0 216 177
0 217 178
0 220 180
0 221 181
0 217 178
0 218 178
0 217 177
0 218 177
0 220 180
0 217 178
0 217 177
0 221 180
0 219 178
0 217 178
0 217 178
0 221 181
0 219 178
0 217 178
0 217 178
0 219 178
0 218 179
0 221 179
0 218 179
0 220 179
0 216 178
0 220 180
0 220 179
0 218 178
0 218 179
0 216 177
0 220 180
0 219 179
0 220 179
0 218 178
0 219 180
0 219 178
0 220 180
0 219 178
0 218 178
0 219 178
0 218 179
0 220 180
0 219 179
0 221 181
0 219 178
0 221 181
0 220 178
0 222 180
0 218 178
0 220 179
0 220 179
0 218 178
0 221 180
0 219 179
0 219 179
0 219 179
0 220 180
0 219 178
0 221 180
0 220 180
0 219 179
0 220 180
0 220 180
0 221 179
0 221 181
0 222 181
0 220 179
0 219 179
0 221 180
0 219 180
0 220 180
0 221 180
0 220 180
0 217 178
0 221 181
0 218 179
0 220 180
0 222 181
0 219 178
0 220 179
0 221 180
0 221 181
0 216 177
0 219 179
0 222 181
0 221 180
0 220 179
0 220 180
0 220 179
0 221 181
0 221 181
0 221 180
0 220 180
0 220 180
0 218 179
0 221 180
0 221 180
0 221 180
0 221 180
0 220 179
0 221 180
0 219 180
0 220 180
0 221 180
0 221 181
0 220 180
0 221 180
0 220 180
0 220 179
0 221 181
0 220 180
0 220 180
0 220 180
0 221 180
0 220 180
0 222 181
0 220 179
0 221 180
0 221 181
0 221 181
0 222 181
0 221 181
0 221 181
0 221 180
0 221 180
0 220 181
0 220 180
0 221 181
0 220 180
0 220 180
0 220 180
0 221 181
0 221 180
0 222 181
0 221 181
0 222 181
0 221 181
0 221 180
0 222 181
0 221 180
0 220 180
0 221 180
0 220 180
0 221 181
0 221 180
0 221 181
0 220 180
0 220 180
0 221 181
0 221 181
0 222 181
0 221 181
0 221 180
0 222 181
0 220 180
0 219 179
0 222 180
0 221 181
0 221 181
0 220 179
0 221 180
0 220 180
0 219 180
0 222 181
0 221 181
0 223 181
0 221 181
0 221 181
0 221 180
0 220 180
0 221 181
0 222 181
0 221 181
0 221 181
0 223 181
0 221 181
0 221 181
0 221 181
0 220 180
0 220 181
0 222 181
0 221 181
0 222 181
0 221 180
0 222 181
0 222 181
0 222 181
0 221 181
0 221 181
0 222 181
0 220 181
0 221 181
0 221 180
0 220 181
0 221 181
0 222 181
0 221 181
0 220 181
0 220 180
0 221 181
0 221 181
0 221 181
0 222 181
0 221 181
0 220 180
0 221 181
0 221 181
0 221 181
0 220 181
0 222 181
0 220 180
0 220 181
0 220 181
0 222 181
0 220 181
0 220 181
0 221 181
0 220 181
0 221 181
0 220 181
0 221 181
0 221 181
0 221 181
0 221 181
0 221 181
0 221 180
0 222 181
0 221 181
0 221 181
0 221 181
0 222 181
0 222 181
0 222 181
0 220 180
0 221 181
0 221 181
0 222 181
0 221 180
0 222 181
0 221 181
0 221 181
0 221 181
0 222 181
0 221 181
0 221 181
0 221 181
0 220 180
0 222 181
0 221 181
0 221 181
0 221 181
0 221 181
0 222 181
0 221 181
0 221 181
0 220 180
0 220 180
0 221 181
0 220 179
0 221 181
0 222 181
0 221 181
0 221 181
0 220 180
0 222 180
0 220 181
0 220 179
0 221 181
0 221 181
0 220 180
0 221 181
0 220 181
0 220 180
0 222 181
0 221 181
0 221 181
0 221 181
0 220 180
0 221 181
0 221 181
0 221 181
0 222 181
0 221 181
0 221 181
0 220 181
0 222 181
0 222 181
0 220 180
0 222 181
0 221 180
0 221 181
0 222 181
0 221 181
0 220 180
0 222 181
0 221 181
0 221 180
0 221 181
0 221 180
0 218 179
0 222 181
0 221 181
0 220 180
0 220 181
0 220 181
0 220 180
0 220 180
0 221 181
0 219 179
0 221 180
0 221 181
0 220 180
0 220 180
0 221 181
0 220 180
0 222 180
0 221 179
0 221 181
0 221 181
0 221 181
0 221 181
0 221 181
0 221 179
0 220 180
0 221 181
0 219 179
0 221 180
0 220 180
0 223 181
0 220 181
0 220 180
0 220 179
0 219 180
0 221 180
0 222 181
0 220 180
0 221 181
0 220 180
0 220 180
0 221 180
0 221 180
0 220 180
0 221 180
0 220 179
0 220 179
0 220 180
0 222 181
0 222 181
0 221 181
0 221 181
0 221 181
0 221 181
0 219 179
0 220 180
0 220 179
0 221 180
0 219 180
0 219 179
0 218 179
0 222 181
0 217 178
0 219 179
0 221 180
0 221 181
0 221 181
0 220 181
0 220 180
0 219 179
0 220 180
0 220 180
0 219 179
0 220 180
0 219 179
0 219 179
0 218 178
0 220 179
0 220 179
0 218 179
0 219 180
0 221 180
0 218 178
0 221 179
0 220 180
0 220 180
0 219 179
0 218 178
0 216 178
0 220 179
0 217 179
0 219 179
0 220 180
0 217 178
0 217 177
0 221 180
0 216 176
0 217 178
0 219 178
0 217 177
0 218 178
0 219 178
0 217 178
0 219 179
0 217 178
0 218 178
0 221 180
0 218 177
0 221 181
0 216 177
0 217 178
0 218 179
0 220 179
0 218 178
0 219 178
0 220 179
0 219 179
0 220 180
0 220 180
0 220 179
0 218 179
0 218 179
0 219 179
0 217 177
0 217 177
0 219 178
0 219 180
0 221 181
0 223 181
0 218 179
0 217 178
0 219 178
0 219 179
0 219 179
0 221 180
0 219 179
0 218 178
0 221 180
0 220 179
0 221 179
0 220 180
0 219 180
0 220 180
0 220 179
0 221 181
0 219 179
0 219 180
0 218 179
0 220 178
0 218 178
0 216 178
0 220 180
0 222 181
0 218 178
0 220 180
0 220 180
0 221 180
0 220 181
0 218 178
0 219 179
0 219 180
0 219 178
0 221 181
0 221 181
0 221 181
0 220 180
0 221 181
0 220 179
0 220 180
0 220 180
0 221 180
0 219 179
0 219 180
0 221 180
0 220 181
0 222 181
0 220 180
0 221 181
0 219 180
0 220 179
0 219 179
0 220 180
0 220 180
0 219 179
0 221 181
0 220 180
0 219 178
0 219 179
0 221 180
0 221 179
0 218 178
0 220 181
0 222 181
0 221 180
0 219 180
0 220 181
0 219 180
0 221 181
0 218 179
0 222 181
0 221 180
0 220 179
0 221 179
0 220 179
0 221 181
0 221 181
0 221 181
0 220 180
0 220 181
0 221 181
0 221 181
0 220 180
0 220 180
0 220 179
0 222 180
0 220 180
0 221 180
0 221 181
0 221 181
0 221 181
0 220 180
0 222 181
0 221 181
0 221 181
0 219 180
0 220 180
0 220 180
0 220 180
0 221 181
0 220 179
0 220 180
0 221 180
0 221 181
0 219 178
0 220 180
0 221 180
0 220 181
0 221 180
0 221 181
0 222 181
0 221 181
0 220 180
0 221 180
0 222 181
0 220 180
0 221 181
0 222 181
0 221 181
0 221 180
0 222 181
0 221 181
0 221 181
0 222 181
0 220 179
0 220 180
0 221 181
0 221 181
0 222 181
0 222 181
0 221 181
0 221 180
0 221 178
0 222 181
0 220 181
0 221 181
0 221 180
0 221 181
0 221 180
0 220 180
0 221 180
0 219 180
0 220 180
0 221 181
0 221 181
0 221 180
0 221 181
0 222 181
0 221 181
0 221 181
0 221 180
0 221 181
0 222 181
0 222 181
0 222 181
0 221 181
0 221 181
0 221 181
0 221 181
0 222 181
0 221 181
0 221 181
0 222 181
0 222 181
0 221 181
0 222 181
0 221 181
0 220 180
0 221 181
0 221 181
0 221 181
0 220 181
0 221 181
0 221 181
0 221 181
0 221 181
0 221 181
0 220 179
0 221 180
0 221 181
0 221 181
0 221 181
0 221 181
0 222 181
0 221 181
0 221 181
0 221 181
0 221 181
0 222 181
0 221 181
0 221 181
0 221 181
0 220 181
0 221 181
0 222 181
0 221 181
0 221 181
0 222 181
0 222 181
0 221 181
0 221 181
0 222 180
0 221 181
0 221 181
0 222 181
0 221 181
0 222 181
0 221 181
0 220 181
0 222 181
0 220 181
0 221 181
0 221 181
0 220 180
0 222 181
0 222 181
0 221 181
0 221 180
0 220 180
0 222 181
0 220 180
0 220 180
0 221 181
0 221 181
0 221 181
0 220 180
0 221 181
0 222 180
0 220 181
0 221 181
0 221 181
0 220 181
0 222 181
0 222 181
0 221 181
0 221 181
0 220 181
0 220 180
0 220 180
0 222 181
0 221 181
0 220 180
0 222 181
0 222 181
0 221 180
0 220 181
0 219 180
0 221 180
0 221 181
0 221 181
0 222 181
0 221 181
0 220 179
0 221 181
0 221 181
0 221 181
0 221 180
0 221 181
0 221 181
0 221 181
0 221 181
0 221 181
0 222 181
0 220 180
0 221 181
0 220 180
0 221 181
0 221 181
0 221 181
0 221 181
0 221 181
0 221 180
0 220 181
0 220 181
0 222 181
0 222 181
0 221 180
0 221 181
0 221 181
0 222 181
0 221 180
0 221 181
0 221 180
0 221 181
0 221 181
0 220 180
0 220 180
0 220 181
0 222 180
0 220 181
0 221 181
0 221 181
0 220 180
0 220 181
0 219 180
0 221 181
0 221 180
0 221 181
0 218 178
0 220 181
0 221 180
0 217 178
0 221 181
0 220 180
0 219 179
0 220 180
0 220 179
0 221 181
0 221 180
0 220 180
0 219 180
0 219 180
0 219 180
0 221 181
0 221 180
0 221 179
0 221 180
0 220 180
0 220 180
0 219 179
0 221 181
0 220 179
0 221 181
0 221 180
0 218 179
0 221 180
0 219 179
0 221 181
0 221 181
0 220 179
0 220 179
0 221 180
0 222 181
0 219 180
0 220 178
0 219 179
0 220 179
0 220 180
0 219 178
0 219 179
0 219 180
0 221 180
0 220 179
0 220 180
0 219 179
0 219 180
0 221 180
0 220 180
0 219 178
0 220 180
0 220 180
0 219 179
0 221 181
0 215 177
0 218 178
0 219 179
0 218 179
0 220 179
0 222 181
0 219 179
0 221 181
0 219 180
0 219 179
0 219 179
0 220 180
0 220 179
0 218 177
0 220 179
0 217 177
0 218 179
0 218 178
0 217 178
0 219 179
0 217 178
0 217 178
0 218 178
0 218 178
0 220 180
0 217 177
0 217 178
0 216 178
0 220 180
0 219 180
0 216 178
0 220 180
0 219 179
0 221 181
0 218 177
0 218 179
0 217 177
0 219 178
0 220 180
0 217 178
0 218 178
0 216 177
0 215 175
0 219 179
0 216 177
0 219 179
0 220 180
0 220 179
0 219 179
0 216 176
0 222 181
0 219 179
0 218 179
0 219 179
0 219 179
0 221 181
0 218 178
0 218 178
0 220 180
0 220 178
0 220 180
0 219 179
0 219 179
0 220 180
0 221 181
0 221 181
0 218 178
0 220 180
0 217 178
0 219 178
0 219 180
0 220 180
0 220 179
0 219 178
0 219 177
0 219 180
0 220 180
0 220 180
0 219 179
0 220 180
0 219 180
0 218 178
0 220 180
0 219 179
0 220 180
0 219 179
0 218 179
0 222 181
0 220 179
0 220 180
0 217 178
0 218 179
0 219 178
0 217 178
0 218 179
0 220 181
0 219 178
0 219 180
0 220 179
0 219 179
0 220 181
0 220 179
0 220 180
0 220 180
0 221 181
0 222 181
0 221 181
0 220 179
0 220 179
0 221 181
0 219 179
0 219 179
0 218 179
0 219 178
0 221 181
0 221 180
0 221 181
0 219 179
0 221 180
0 221 181
0 220 180
0 222 181
0 222 181
0 220 180
0 221 181
0 221 181
0 220 179
0 222 181
0 222 180
0 219 179
0 221 181
0 218 179
0 221 181
0 222 181
0 221 181
0 221 180
0 221 179
0 222 181
0 221 181
0 220 180
0 219 179
0 221 181
0 221 180
0 220 180
0 220 181
0 220 180
0 221 181
0 222 181
0 221 180
0 219 178
0 221 181
0 220 180
0 222 181
0 219 180
0 219 179
0 222 181
0 219 180
0 220 180
0 221 181
0 222 181
0 221 181
0 221 180
0 222 181
0 219 179
0 221 181
0 221 180
0 222 181
0 220 181
0 221 181
0 218 179
0 222 181
0 221 181
0 220 180
0 220 181
0 221 180
0 222 181
0 221 180
0 220 180
0 221 181
0 221 181
0 222 181
0 222 181
0 221 181
0 222 181
0 221 181
0 221 181
0 221 181
0 219 179
0 222 181
0 221 181
0 220 180
0 220 180
0 222 181
0 221 181
0 220 181
0 222 181
0 220 180
0 221 181
0 221 181
0 221 181
0 221 181
0 220 181
0 222 181
0 221 181
0 221 181
0 220 181
0 222 181
0 221 181
0 222 181
0 222 181
0 221 181
0 221 181
0 220 180
0 221 181
0 221 181
0 221 181
0 221 180
0 221 181
0 222 181
0 221 180
0 222 181
0 221 181
0 221 181
0 221 181
0 220 180
0 221 181
0 222 181
0 220 180
0 221 181
0 221 181
0 221 181
0 219 181
0 221 181
0 220 181
0 221 181
0 222 181
0 221 181
0 221 181
0 221 181
0 220 181
0 220 181
0 221 181
0 221 180
0 222 181
0 220 180
0 220 181
0 221 181
0 221 181
0 221 181
0 221 181
0 221 180
0 222 181
0 222 181
0 219 180
0 220 180
0 219 179
0 221 181
0 221 181
0 221 181
0 221 181
0 222 181
0 220 181
0 221 181
0 220 180
0 221 181
0 221 181
0 220 181
0 220 180
0 222 181
0 223 181
0 222 181
0 221 181
0 221 180
0 220 180
0 220 180
0 220 181
0 221 181
0 221 181
0 222 181
0 222 181
0 220 180
0 220 180
0 220 181
0 221 181
0 221 180
0 220 180
0 221 181
0 220 181
0 221 180
0 221 181
0 221 181
0 221 180
0 221 181
0 219 179
0 221 181
0 220 180
0 221 181
0 221 181
0 221 180
0 221 180
0 221 181
0 221 181
0 220 180
0 222 181
0 221 181
0 222 181
0 221 181
0 222 181
0 221 180
0 222 181
0 222 181
0 222 181
0 220 180
0 221 181
0 221 181
0 220 180
0 220 181
0 220 180
0 222 181
0 221 181
0 219 179
0 220 180
0 221 181
0 221 180
0 220 180
0 222 181
0 221 180
0 221 180
0 221 180
0 222 181
0 221 181
0 220 181
0 221 181
0 221 181
0 221 180
0 221 181
0 221 181
0 219 179
0 221 181
0 221 180
0 220 180
0 221 179
0 220 180
0 220 180
0 219 179
0 220 180
0 222 181
0 219 179
0 221 181
0 221 181
0 222 181
0 221 180
0 221 181
0 220 181
0 221 179
0 220 179
0 221 179
0 221 181
0 221 181
0 221 181
0 220 180
0 221 181
0 221 180
0 221 180
0 220 180
0 222 181
0 221 180
0 218 179
0 219 180
0 221 181
0 220 181
0 220 180
0 221 181
0 220 180
0 220 180
0 220 180
0 221 180
0 221 181
0 219 179
0 219 179
0 220 179
0 218 178
0 219 180
0 220 180
0 221 181
0 217 178
0 221 181
0 220 180
0 219 179
0 221 180
0 220 180
0 220 180
0 219 178
0 219 179
0 221 179
0 220 178
0 220 180
0 218 179
0 220 179
0 219 180
0 220 180
0 220 180
0 218 177
0 218 178
0 218 178
0 219 178
0 216 178
0 221 180
0 217 178
0 216 176
0 216 177
0 217 178
0 219 178
0 218 179
0 217 178
0 220 179
0 221 181
0 220 179
0 215 176
0 220 180
0 218 178
0 219 180
0 219 179
0 219 179
0 217 178
0 218 179
0 216 176
0 218 179
0 220 180
0 219 179
0 221 181
0 220 179
0 220 180
0 216 176
0 218 178
0 221 179
0 220 179
0 220 179
0 219 179
0 220 180
0 219 178
0 218 178
0 220 179
0 218 178
0 219 179
0 220 181
0 218 177
0 221 181
0 219 178
0 220 179
0 219 179
0 220 180
0 219 179
0 221 181
0 220 179
0 222 180
0 221 181
0 219 180
0 219 178
0 218 179
0 218 178
0 220 181
0 220 180
0 220 180
0 218 178
0 218 178
0 219 179
0 221 180
0 221 180
0 219 179
0 219 179
0 220 180
0 219 180
0 220 179
0 221 179
0 218 178
0 220 179
0 220 181
0 218 178
0 220 179
0 219 178
0 221 181
0 220 179
0 219 180
0 221 180
0 220 181
0 221 179
0 221 180
0 221 181
0 219 179
0 222 181
0 219 178
0 220 180
0 221 181
0 221 180
0 221 180
0 218 179
0 220 179
0 220 180
0 220 179
0 219 178
0 220 181
0 222 181
0 220 180
0 220 181
0 220 181
0 222 181
0 220 178
0 220 180
0 221 179
0 218 178
0 220 179
0 220 179
0 221 181
0 221 181
0 222 181
0 221 181
0 221 181
0 221 181
0 219 178
0 221 181
0 221 181
0 221 180
0 222 181
0 221 181
0 221 180
0 219 179
0 221 181
0 220 180
0 221 181
0 221 181
0 221 181
0 221 180
0 220 181
0 219 180
0 220 178
0 220 181
0 221 181
0 219 179
0 222 181
0 219 180
0 221 181
0 220 180
0 222 181
0 220 180
0 221 181
0 221 181
0 221 181
0 220 180
0 221 181
0 220 180
0 221 181
0 222 181
0 221 181
0 221 181
0 219 178
0 220 181
0 220 181
0 221 181
0 221 181
0 221 181
0 222 181
0 220 180
0 221 181
0 221 181
0 222 181
0 221 181
0 222 181
0 221 181
0 222 181
0 221 180
0 221 179
0 219 179
0 221 181
0 222 181
0 220 180
0 221 181
0 221 181
0 222 181
0 221 181
0 221 181
0 221 180
0 221 181
0 220 181
0 220 181
0 222 181
0 221 181
0 221 180
0 221 181
0 220 179
0 220 181
0 222 181
0 220 178
0 221 181
0 221 181
0 220 181
0 222 181
0 221 181
0 221 181
0 221 181
0 221 180
0 222 181
0 221 181
0 222 181
0 220 180
0 221 181
0 221 181
0 220 181
0 221 181
0 221 181
0 222 181
0 221 181
0 222 181
0 221 181
0 221 181
0 221 180
0 221 181
0 221 180
0 221 181
0 221 180
0 221 181
0 221 181
0 221 181
0 221 181
0 222 181
0 221 181
0 221 181
0 222 181
0 221 180
0 223 181
0 221 181
0 222 181
0 221 181
0 221 181
0 221 181
0 221 181
0 221 180
0 221 181
0 221 181
0 221 181
0 222 181
0 222 181
0 222 181
0 220 180
0 220 181
0 221 181
0 221 181
0 221 181
0 221 181
0 220 181
0 220 180
0 222 181
0 222 181
0 220 181
0 222 181
0 221 181
0 221 181
0 221 181
0 222 181
0 222 181
0 221 181
0 221 181
0 220 181
0 220 181
0 220 180
0 221 181
0 221 181
0 222 181
0 221 181
0 220 180
0 221 181
0 221 181
0 221 181
0 222 181
0 221 181
0 220 181
0 220 181
0 221 181
0 221 181
0 221 181
0 221 181
0 222 181
0 221 181
0 220 180
0 221 181
0 222 181
0 221 180
0 221 181
0 220 180
0 220 180
0 220 181
0 220 181
0 221 181
0 221 181
0 221 181
0 221 181
0 221 181
0 221 180
0 221 181
0 220 180
0 221 181
0 221 181
0 221 180
0 221 180
0 220 180
0 220 179
0 222 180
0 222 181
0 220 181
0 221 181
0 221 181
0 220 181
0 222 181
0 221 181
0 221 181
0 221 180
0 220 181
0 220 180
0 222 180
0 221 181
0 221 180
0 221 181
0 221 181
0 221 181
0 219 179
0 221 181
0 221 181
0 222 181
0 222 181
0 219 180
0 220 180
0 221 181
0 220 181
0 221 181
0 222 181
0 220 180
0 222 180
0 221 181
0 222 181
0 221 181
0 221 181
0 221 181
0 221 180
0 219 178
0 220 180
0 222 181
0 221 180
0 221 181
0 220 180
0 221 181
0 219 180
0 221 181
0 221 180
0 220 181
0 221 180
0 220 179
0 221 180
0 220 179
0 222 181
0 222 181
0 221 181
0 220 180
0 219 179
0 220 181
0 221 181
0 219 180
0 220 180
0 221 180
0 218 179
0 221 181
0 222 181
0 220 180
0 220 179
0 220 180
0 220 181
0 220 181
0 221 180
0 218 179
0 220 180
0 221 181
0 220 179
0 222 181
0 221 181
0 218 178
0 221 181
0 220 180
0 220 180
0 220 180
0 219 179
0 219 179
0 219 179
0 219 179
0 219 178
0 220 180
0 219 179
0 222 181
0 221 179
0 220 180
0 219 179
0 220 179
0 219 178
0 219 178
0 219 179
0 220 180
0 219 179
0 218 178
0 216 177
0 219 179
0 220 180
0 222 180
0 221 181
0 217 178
0 219 179
0 218 178
0 217 178
0 221 180
0 218 178
0 219 179
0 219 180
0 218 178
0 217 176
0 218 179
0 219 179
0 218 178
0 220 180
0 219 179
0 218 180
0 217 177
0 219 180
0 218 179
0 217 178
0 217 178
0 221 180
0 219 179
0 218 178
0 220 179
0 221 181
0 217 177
0 219 178
0 220 179
0 218 179
0 217 177
0 221 181
0 218 177
0 219 178
0 220 180
0 220 180
0 220 179
0 217 178
0 219 179
0 219 179
0 218 177
0 219 179
0 219 179
0 217 177
0 219 179
0 220 180
0 220 180
0 218 178
0 220 180
0 219 179
0 216 177
0 219 179
0 218 178
0 219 179
0 219 179
0 221 181
0 220 180
0 218 178
0 219 179
0 221 181
0 221 181
0 221 180
0 218 179
0 221 180
0 221 181
0 219 180
0 221 181
0 221 180
0 220 180
0 221 181
0 222 181
0 221 181
0 219 179
0 220 180
0 218 179
0 220 181
0 220 180
0 220 181
0 221 179
0 221 181
0 220 181
0 219 179
0 220 180
0 219 178
0 221 181
0 218 178
0 220 179
0 221 180
0 221 180
0 222 181
0 220 180
0 220 180
0 219 179
0 219 179
0 220 180
0 220 180
0 220 180
0 222 181
0 219 178
0 221 181
0 218 179
0 221 181
0 221 180
0 221 181
0 221 180
0 221 180
0 221 180
0 221 181
0 221 181
0 220 180
0 218 179
0 221 181
0 221 181
0 221 181
0 220 180
0 222 181
0 220 180
0 221 181
0 220 180
0 221 181
0 221 181
0 220 179
0 221 181
0 221 181
0 220 181
0 222 180
0 220 180
0 221 181
0 221 180
0 219 179
0 220 180
0 221 181
0 221 180
0 220 180
0 221 180
0 222 181
0 218 178
0 222 181
0 219 179
0 222 181
0 220 180
0 221 180
0 221 181
0 220 179
0 221 181
0 221 181
0 221 181
0 222 181
0 221 181
0 220 180
0 219 179
0 222 181
0 220 181
0 222 181
0 221 181
0 221 181
0 221 181
0 221 181
0 220 179
0 221 181
0 221 181
0 221 181
0 221 180
0 220 180
0 221 181
0 222 181
0 221 181
0 221 181
0 220 181
0 220 180
0 220 180
0 220 180
0 222 181
0 221 181
0 220 180
0 221 181
0 221 181
0 220 180
0 221 181
0 221 181
0 220 180
0 221 181
0 220 180
0 221 181
0 221 181
0 222 181
0 220 180
0 221 181
0 221 181
0 220 181
0 221 181
0 222 181
0 221 181
0 221 181
0 221 181
0 221 181
0 222 181
0 221 181
0 221 181
0 221 180
0 222 181
0 221 181
0 221 181
0 221 181
0 222 181
0 221 181
0 221 181
0 222 181
0 221 181
0 222 181
0 222 181
0 220 181
0 221 181
0 222 181
0 220 181
0 221 181
0 221 181
0 221 181
0 222 181
0 221 181
0 220 180
0 221 181
0 221 181
0 221 181
0 221 181
0 222 181
0 221 181
0 222 181
0 220 181
0 222 181
0 220 181
0 222 180
0 221 181
0 221 181
0 222 181
0 221 181
0 221 181
0 221 181
0 221 181
0 222 181
0 220 180
0 222 181
0 222 181
0 221 181
0 221 181
0 221 181
0 222 181
0 222 181
0 221 181
0 220 180
0 221 181
0 221 179
0 221 180
0 222 181
0 221 181
0 221 181
0 220 181
0 222 181
0 222 181
0 221 181
0 221 181
0 221 181
0 220 180
0 221 180
0 220 181
0 221 181
0 221 181
0 220 180
0 221 181
0 220 181
0 220 181
0 220 181
0 221 180
0 220 180
0 221 181
0 221 181
0 221 181
0 221 181
0 221 181
0 221 181
0 221 181
0 222 181
0 220 180
0 220 181
0 221 180
0 221 181
0 221 181
0 222 181
0 220 181
0 222 181
0 221 181
0 220 180
0 221 180
0 221 180
0 222 181
0 221 181
0 221 181
0 222 181
0 221 181
0 221 181
0 220 180
0 221 181
0 222 181
0 221 180
0 219 180
0 220 180
0 221 181
0 221 181
0 221 181
0 221 181
0 221 181
0 220 181
0 221 181
0 220 180
0 220 180
0 220 180
0 219 179
0 221 181
0 222 181
0 221 181
0 221 181
0 220 180
0 221 181
0 220 180
0 220 180
0 220 180
0 221 181
0 221 181
0 222 181
0 220 181
0 221 181
0 222 181
0 222 181
0 222 180
0 220 180
0 221 181
0 221 181
0 220 180
0 221 181
0 221 181
0 221 181
0 220 181
0 222 181
0 221 181
0 221 179
0 221 181
0 221 181
0 221 181
0 222 181
0 220 180
0 221 180
0 221 180
0 221 181
0 220 180
0 221 181
0 222 181
0 220 180
0 220 180
0 221 179
0 220 180
0 221 181
0 220 180
0 220 179
0 221 179
0 220 180
0 218 178
0 219 179
0 218 179
0 220 179
0 220 181
0 220 180
0 222 181
0 220 180
0 219 180
0 220 180
0 221 181
0 219 179
0 221 180
0 218 178
0 220 179
0 220 178
0 220 180
0 220 179
0 219 179
0 220 179
0 217 179
0 220 180
0 219 180
0 220 179
0 216 177
0 219 179
0 217 177
0 222 180
0 218 178
0 219 180
0 218 178
0 221 180
0 218 178
0 218 178
0 220 180
0 215 176
0 217 178
0 220 179
0 217 178
0 219 179
0 218 179
0 219 178
0 219 180
0 217 177
0 220 179
0 218 179
0 220 180
0 218 178
0 216 177
0 219 179
0 217 177
0 219 179
0 220 180
0 219 179
0 219 179
0 219 178
0 221 180
0 220 179
0 220 179
0 218 178
0 221 181
0 218 179
0 221 180
0 221 181
0 219 178
0 219 178
0 220 180
0 219 180
0 218 178
0 218 179
0 216 178
0 218 178
0 217 178
0 218 179
0 220 180
0 220 178
0 218 180
0 218 179
0 222 180
0 217 178
0 215 175
0 217 177
0 220 180
0 218 178
0 219 179
0 217 178
0 221 180
0 220 180
0 218 179
0 221 181
0 220 179
0 221 181
0 219 180
0 221 180
0 218 178
0 220 181
0 220 179
0 220 180
0 221 181
0 219 177
0 219 178
0 217 177
0 221 180
0 218 179
0 219 179
0 220 180
0 220 180
0 217 177
0 219 179
0 221 181
0 221 180
0 222 181
0 219 179
0 220 179
0 218 178
0 220 180
0 220 179
0 221 181
0 219 179
0 220 180
0 221 181
0 221 181
0 220 179
0 220 180
0 221 180
0 219 179
0 221 180
0 221 181
0 221 180
0 220 179
0 220 180
0 220 179
0 221 180
0 220 180
0 220 178
0 220 180
0 218 179
0 221 179
0 220 180
0 220 179
0 221 180
0 221 180
0 220 179
0 218 179
0 219 179
0 221 181
0 221 179
0 221 180
0 220 179
0 221 180
0 221 180
0 222 181
0 220 180
0 220 178
0 220 180
0 221 181
0 221 180
0 219 180
0 221 180
0 221 181
0 220 180
0 220 179
0 221 181
0 222 181
0 220 179
0 221 180
0 221 181
0 222 181
0 220 180
0 221 180
0 218 179
0 221 181
0 221 180
0 220 179
0 221 181
0 221 180
0 221 181
0 220 180
0 220 180
0 221 181
0 219 180
0 221 181
0 221 180
0 220 180
0 221 181
0 221 181
0 220 179
0 220 179
0 221 180
0 220 181
0 220 180
0 220 180
0 221 180
0 222 181
0 221 180
0 222 181
0 220 180
0 220 180
0 221 181
0 220 180
0 220 180
0 221 181
0 221 181
0 222 181
0 221 181
0 221 181
0 221 180
0 222 181
0 220 179
0 220 180
0 221 181
0 221 181
0 221 181
0 221 181
0 221 181
0 221 181
0 221 181
0 222 181
0 221 181
0 220 181
0 222 181
0 222 181
0 221 181
0 221 181
0 221 181
0 220 180
0 220 181
0 221 181
0 221 181
0 221 181
0 221 180
0 221 181
0 220 181
0 222 181
0 219 179
0 221 180
0 222 181
0 221 181
0 221 181
0 221 181
0 222 181
0 221 181
0 221 181
0 221 180
0 221 180
0 221 181
0 221 181
0 221 181
0 221 181
0 221 181
0 222 181
0 222 181
0 221 180
0 221 181
0 221 180
0 222 181
0 221 181
0 221 181
0 221 181
0 222 181
0 221 181
0 222 181
0 221 181
0 220 180
0 221 180
0 223 181
0 221 181
0 221 181
0 220 180
0 221 181
0 221 181
0 221 180
0 221 181
0 222 181
0 221 181
0 220 180
0 221 181
0 221 181
0 221 181
0 221 181
0 220 180
0 222 181
0 222 181
0 221 181
0 221 181
0 221 181
0 222 181
0 222 181
0 221 181
0 221 181
0 220 181
0 220 181
0 221 181
0 222 181
0 222 181
0 221 181
0 221 181
0 220 180
0 222 181
0 221 181
0 221 181
0 219 180
0 221 180
0 220 181
0 221 181
0 221 181
0 221 181
0 222 181
0 221 181
0 220 180
0 220 180
0 221 181
0 221 181
0 221 181
0 220 179
0 219 180
0 221 181
0 220 181
0 221 181
0 221 181
0 221 181
0 220 180
0 222 181
0 221 181
0 219 180
0 221 181
0 220 180
0 221 181
0 221 181
0 220 180
0 218 180
0 220 179
0 221 181
0 222 181
0 221 181
0 221 181
0 221 181
0 220 181
0 221 181
0 221 180
0 222 180
0 221 181
0 221 180
0 221 181
0 220 180
0 220 180
0 220 180
0 220 180
0 221 181
0 220 181
0 220 180
0 222 181
0 222 181
0 221 181
0 221 181
0 221 180
0 220 180
0 221 180
0 221 180
0 222 181
0 216 178
0 222 180
0 219 179
0 221 180
0 221 181
0 219 179
0 220 180
0 221 179
0 221 181
0 221 179
0 221 181
0 222 181
0 220 180
0 221 180
0 220 180
0 219 180
0 221 180
0 220 180
0 222 181
0 219 179
0 220 181
0 221 180
0 221 181
0 221 180
0 221 181
0 220 180
0 222 181
0 218 178
0 220 181
0 221 181
0 220 179
0 219 179
0 221 179
0 221 181
0 220 180
0 218 178
0 220 180
0 220 180
0 221 181
0 221 180
0 220 180
0 220 179
0 222 180
0 219 180
0 220 178
0 220 180
0 220 180
0 219 178
0 220 179
0 219 179
0 220 180
0 218 179
0 221 181
0 218 179
0 219 179
0 220 180
0 220 180
0 219 179
0 218 179
0 220 181
0 218 178
0 220 180
0 215 177
0 220 179
0 220 180
0 220 179
0 218 179
0 219 178
0 219 179
0 217 178
0 218 179
0 217 178
0 218 178
0 221 180
0 219 180
0 220 180
0 222 181
0 220 180
0 221 179
0 218 178
0 220 179
0 216 178
0 219 178
0 220 180
0 219 178
0 220 180
0 221 180
0 221 180
0 221 181
0 221 180
0 216 176
0 219 179
0 217 178
0 221 180
0 218 179
0 220 180
0 219 179
0 219 180
0 220 180
0 221 180
0 219 178
0 221 181
0 221 180
0 217 178
0 219 179
0 219 179
0 218 178
0 218 178
0 218 179
0 219 179
0 219 179
0 218 178
0 218 179
0 219 179
0 219 179
0 218 178
0 221 181
0 221 181
0 219 180
0 218 178
0 219 179
0 220 179
0 219 180
0 218 179
0 221 180
0 218 178
0 220 180
0 219 179
0 220 179
0 217 178
0 219 179
0 220 180
0 220 180
0 220 180
0 219 180
0 220 181
0 219 179
0 220 179
0 216 177
0 218 177
0 218 178
0 221 180
0 220 180
0 220 179
0 220 179
0 219 179
0 219 178
0 218 178
0 221 180
0 220 180
0 221 181
0 220 180
0 220 181
0 220 180
0 221 180
0 220 180
0 220 180
0 219 180
0 220 179
0 220 180
0 221 181
0 220 179
0 219 179
0 220 180
0 220 180
0 220 180
0 222 181
0 219 180
0 221 181
0 221 181
0 219 180
0 221 180
0 221 181
0 221 181
0 222 181
0 221 180
0 219 180
0 220 180
0 221 181
0 220 180
0 221 181
0 221 181
0 221 181
0 219 179
0 221 181
0 220 180
0 219 179
0 221 181
0 221 181
0 221 181
0 222 181
0 222 181
0 221 181
0 221 180
0 221 181
0 221 180
0 220 180
0 221 181
0 221 180
0 220 179
0 221 181
0 221 180
0 221 181
0 220 179
0 220 179
0 221 180
0 222 181
0 220 180
0 221 179
0 221 181
0 221 181
0 221 181
0 221 181
0 220 180
0 221 180
0 221 181
0 219 179
0 220 179
0 217 177
0 221 181
0 221 180
0 221 181
0 221 181
0 221 181
0 221 181
0 221 180
0 221 180
0 221 181
0 220 181
0 221 179
0 221 181
0 221 181
0 221 181
0 221 181
0 220 180
0 221 181
0 221 180
0 222 181
0 220 180
0 221 181
0 221 180
0 221 181
0 220 179
0 220 179
0 221 181
0 221 180
0 221 181
0 220 180
0 220 181
0 221 181
0 221 181
0 220 179
0 220 181
0 222 181
0 221 181
0 220 180
0 222 180
0 222 181
0 222 180
0 222 181
0 221 181
0 221 180
0 220 181
0 220 181
0 221 180
0 222 181
0 221 179
0 220 181
0 222 181
0 221 181
0 220 181
0 220 180
0 220 180
0 221 181
0 220 180
0 221 181
0 221 181
0 221 181
0 222 181
0 221 181
0 221 181
0 221 181
0 221 181
0 222 181
0 222 181
0 222 181
0 221 181
0 221 180
0 221 181
0 221 181
0 221 181
0 221 181
0 222 181
0 221 181
0 222 181
0 222 181
0 222 181
0 221 181
0 221 180
0 222 181
0 222 181
0 221 181
0 221 181
0 221 181
0 221 181
0 220 181
0 222 181
0 222 181
0 221 181
0 222 181
0 221 181
0 222 181
0 222 181
0 221 181
0 221 180
0 220 181
0 221 180
0 221 181
0 220 181
0 221 181
0 221 181
0 223 181
0 222 181
0 221 181
0 221 181
0 222 181
0 218 179
0 220 180
0 220 181
0 219 180
0 221 181
0 221 181
0 221 181
0 220 180
0 221 181
0 221 180
0 222 181
0 221 180
0 222 181
0 220 180
0 222 181
0 221 181
0 220 181
0 221 181
0 220 180
0 219 180
0 222 181
0 221 180
0 221 181
0 222 181
0 220 181
0 221 180
0 222 181
0 222 181
0 221 181
0 221 181
0 220 181
0 221 181
0 221 181
0 222 181
0 221 180
0 221 180
0 220 181
0 221 181
0 221 181
0 221 180
0 221 181
0 221 181
0 221 179
0 220 180
0 219 180
0 221 181
0 221 180
0 221 181
0 221 180
0 221 181
0 221 181
0 220 181
0 220 180
0 221 181
0 221 181
0 222 181
0 220 181
0 219 179
0 220 181
0 220 180
0 221 181
0 220 180
0 221 181
0 220 180
0 221 181
0 221 181
0 219 179
0 220 180
0 221 181
0 220 179
0 219 179
0 220 180
0 221 181
0 220 180
0 221 181
0 219 179
0 221 181
0 219 179
0 219 180
0 221 181
0 221 180
0 221 181
0 219 179
0 222 181
0 220 180
0 220 180
0 220 180
0 220 180
0 221 180
0 221 181
0 220 179
0 221 180
0 220 180
0 219 180
0 220 180
0 220 180
0 220 179
0 220 181
0 220 180
0 220 180
0 221 181
0 220 179
0 220 179
0 221 181
0 220 180
0 220 179
0 220 179
0 223 180
0 220 179
0 221 181
0 221 180
0 220 180
0 221 180
0 219 179
0 219 179
0 217 178
0 220 180
0 219 179
0 219 180
0 220 180
0 220 180
0 220 180
0 220 180
0 219 180
0 219 180
0 221 180
0 221 180
0 219 179
0 219 179
0 218 178
0 220 180
0 220 179
0 219 179
0 220 180
0 219 179
0 219 179
0 220 180
0 221 181
0 220 179
0 220 181
0 219 178
0 218 179
0 222 181
0 220 180
0 220 179
0 221 180
0 219 179
0 218 179
0 220 180
0 219 179
0 220 180
0 219 180
0 221 179
0 221 180
0 218 179
0 218 179
0 220 180
0 220 179
0 220 180
0 220 180
0 220 180
0 217 178
0 219 179
0 218 178
0 221 181
0 220 180
0 219 180
0 219 179
0 220 180
0 217 178
0 218 179
0 220 179
0 219 179
0 219 179
0 220 180
0 220 180
0 219 180
0 221 179
0 216 176
0 218 178
0 220 179
0 218 178
0 218 178
0 218 179
0 219 180
0 218 179
0 221 181
0 218 178
0 219 180
0 219 179
0 217 178
0 220 180
0 219 178
0 221 181
0 220 180
0 221 180
0 219 180
0 221 181
0 219 179
0 220 180
0 222 181
0 219 179
0 221 181
0 220 181
0 219 179
0 220 179
0 220 179
0 217 177
0 221 180
0 217 178
0 219 178
0 221 181
0 220 179
0 220 180
0 219 179
0 220 180
0 219 180
0 216 177
0 221 179
0 221 181
0 221 181
0 220 180
0 219 179
0 216 177
0 220 179
0 220 179
0 220 180
0 220 180
0 221 181
0 220 179
0 221 180
0 219 179
0 219 179
0 219 178
0 218 178
0 219 179
0 221 180
0 221 181
0 220 181
0 221 180
0 221 180
0 220 180
0 220 180
0 221 180
0 221 181
0 221 181
0 220 180
0 222 181
0 219 179
0 219 177
0 222 181
0 221 180
0 221 180
0 221 181
0 220 180
0 219 178
0 220 180
0 221 180
0 219 179
0 220 179
0 222 180
0 221 179
0 221 181
0 219 179
0 220 178
0 221 181
0 220 180
0 221 181
0 220 180
0 221 181
0 221 181
0 222 180
0 222 181
0 220 181
0 221 181
0 221 180
0 220 180
0 221 180
0 220 179
0 222 181
0 222 181
0 220 180
0 221 181
0 222 181
0 219 178
0 221 181
0 221 181
0 221 180
0 220 180
0 221 181
0 221 181
0 221 181
0 222 181
0 220 180
0 222 181
0 220 181
0 220 181
0 221 180
0 220 180
0 220 181
0 222 181
0 221 181
0 220 180
0 222 181
0 221 181
0 221 180
0 221 181
0 221 181
0 221 181
0 221 181
0 220 181
0 221 180
0 221 180
0 221 181
0 221 180
0 221 181
0 223 181
0 222 181
0 222 181
0 221 181
0 221 181
0 221 181
0 221 181
0 220 180
0 221 181
0 220 180
0 222 181
0 221 181
0 221 180
0 222 181
0 221 181
0 221 181
0 222 181
0 223 181
0 221 181
0 221 181
0 221 181
0 221 181
0 221 181
0 221 181
0 222 181
0 221 181
0 220 181
0 222 180
0 221 181
0 220 181
0 222 181
0 221 181
0 222 181
0 221 181
0 221 181
0 221 180
0 222 181
0 221 181
0 221 181
0 222 181
0 222 181
0 222 181
0 222 181
0 221 181
0 222 181
0 220 180
0 221 181
0 222 181
0 221 180
0 222 181
0 221 181
0 221 181
0 222 181
0 221 181
0 221 181
0 220 181
0 222 181
0 221 181
0 221 181
0 220 180
0 221 181
0 220 181
0 222 181
0 222 181
0 221 181
0 221 181
0 222 181
0 222 181
0 222 181
0 221 181
0 222 181
0 221 181
0 220 180
0 222 181
0 221 181
0 221 181
0 221 181
0 221 181
0 219 181
0 220 181
0 221 181
0 221 180
0 221 181
0 220 180
0 220 180
0 222 181
0 221 181
0 222 181
0 221 181
0 222 181
0 221 180
0 220 181
0 220 181
0 220 179
0 221 181
0 222 181
0 220 181
0 220 181
0 220 180
0 221 181
0 221 181
0 221 181
0 220 181
0 220 181
0 221 181
0 221 181
0 221 181
0 222 181
0 221 181
0 221 181
0 221 181
0 222 181
0 220 181
0 221 181
0 221 181
0 222 180
0 221 181
0 220 181
0 223 181
0 222 181
0 222 181
0 221 181
0 220 181
0 221 181
0 221 181
0 221 181
0 221 181
0 221 181
0 220 179
0 220 180
0 221 181
0 222 181
0 221 181
0 221 181
0 222 181
0 221 181
0 221 180
0 221 181
0 221 181
0 221 180
0 221 180
0 220 180
0 220 180
0 221 180
0 221 181
0 221 181
0 221 181
0 222 181
0 221 180
0 220 181
0 220 179
0 222 181
0 223 181
0 221 181
0 222 180
0 221 181
0 221 180
0 222 181
0 220 180
0 220 180
0 220 180
0 222 181
0 221 180
0 219 179
0 221 181
0 219 180
0 221 181
0 220 181
0 220 180
0 221 180
0 221 181
0 220 180
0 220 181
0 221 180
0 220 180
0 218 179
0 222 181
0 222 180
0 221 180
0 220 179
0 220 180
0 220 180
0 218 178
0 219 179
0 220 179
0 219 180
0 220 180
0 220 180
0 222 180
0 220 180
0 220 180
0 219 180
0 222 180
0 221 181
0 220 181
0 220 179
0 220 180
0 220 180
0 221 181
0 222 181
0 221 180
0 219 179
0 219 179
0 218 178
0 221 180
0 221 180
0 218 179
0 219 179
0 220 180
0 217 178
0 221 180
0 220 179
0 220 180
0 221 180
0 219 178
0 221 181
0 221 181
0 220 179
0 218 178
0 220 180
0 220 180
0 219 179
0 220 180
0 214 177
0 219 180
0 221 180
0 219 179
0 218 179
0 217 178
0 220 180
0 220 179
0 217 176
0 219 179
0 217 178
0 220 180
0 218 179
0 216 178
0 218 178
0 219 179
0 220 180
0 220 179
0 219 178
0 217 178
0 220 180
0 218 178
0 218 179
0 219 179
0 221 180
0 218 178
0 218 179
0 219 179
0 218 178
0 214 176
0 221 180
0 218 179
0 219 179
0 218 177
0 222 181
0 218 177
0 219 179
0 220 180
0 219 179
0 220 179
0 220 180
0 219 179
0 218 178
0 220 178
0 218 179
0 220 180
0 218 179
0 222 181
0 218 178
0 221 181
0 220 180
0 217 176
0 220 180
0 219 179
0 219 179
0 218 179
0 220 180
0 219 179
0 220 180
0 220 180
0 220 180
0 219 178
0 218 179
0 219 179
0 221 181
0 220 179
0 220 180
0 221 180
0 222 181
0 220 179
0 221 180
0 220 180
0 222 181
0 219 179
0 218 178
0 221 181
0 218 178
0 220 179
0 221 181
0 219 179
0 221 181
0 221 180
0 220 180
0 219 179
0 218 178
0 220 179
0 220 180
0 220 180
0 221 181
0 218 178
0 218 178
0 220 180
0 219 179
0 220 180
0 221 181
0 219 179
0 220 180
0 219 179
0 219 179
0 220 180
0 220 180
0 221 180
0 221 180
0 218 179
0 220 180
0 219 180
0 218 179
0 220 181
0 219 180
0 220 180
0 220 181
0 219 179
0 220 180
0 220 179
0 221 180
0 220 179
0 219 178
0 221 180
0 220 180
0 221 180
0 220 181
0 221 181
0 221 181
0 220 179
0 221 181
0 220 179
0 220 179
0 221 181
0 221 180
0 220 180
0 221 181
0 221 181
0 222 181
0 222 181
0 221 180
0 221 181
0 219 179
0 221 181
0 220 180
0 221 181
0 220 179
0 220 180
0 222 181
0 221 181
0 221 180
0 221 181
0 221 181
0 222 181
0 221 181
0 220 180
0 220 180
0 221 181
0 219 179
0 220 180
0 221 181
0 221 181
0 220 180
0 221 181
0 222 181
0 220 180
0 220 180
0 220 181
0 221 181
0 220 180
0 220 180
0 219 177
0 221 180
0 222 181
0 219 179
0 222 181
0 221 181
0 221 180
0 221 181
0 220 180
0 221 180
0 219 179
0 222 181
0 221 181
0 220 181
0 221 180
0 220 180
0 221 180
0 222 181
0 221 181
0 222 180
0 221 181
0 222 181
0 221 181
0 221 181
0 222 181
0 221 181
0 221 179
0 221 181
0 221 181
0 222 180
0 221 181
0 221 181
0 221 181
0 222 181
0 221 181
0 221 181
0 221 181
0 222 181
0 222 181
0 221 181
0 221 181
0 221 181
0 221 181
0 221 181
0 222 181
0 221 180
0 221 181
0 221 181
0 222 181
0 222 181
0 221 181
0 221 181
0 221 181
0 221 181
0 221 181
0 221 180
0 221 181
0 221 181
0 221 181
0 220 180
0 221 181
0 220 180
0 221 181
0 221 181
0 223 181
0 222 181
0 221 181
0 220 181
0 222 181
0 222 181
0 221 181
0 221 181
0 222 181
0 221 181
0 221 180
0 221 181
0 222 181
0 221 181
0 221 181
0 222 181
0 222 181
0 221 181
0 221 181
0 222 181
0 221 181
0 221 181
0 221 181
0 221 181
0 222 181
0 220 180
0 220 181
0 221 181
0 222 181
0 222 181
0 221 181
0 221 181
0 222 181
0 222 181
0 221 181
0 222 181
0 220 181
0 221 181
0 222 181
0 223 181
0 221 181
0 220 179
0 221 181
0 220 179
0 221 181
0 220 180
0 221 181
0 222 181
0 221 181
0 222 181
0 222 181
0 221 181
0 221 181
0 220 179
0 218 179
0 220 180
0 222 181
0 221 181
0 221 181
0 221 181
0 220 180
0 219 180
0 221 181
0 220 181
0 221 181
0 221 181
0 220 180
0 220 180
0 220 180
0 221 181
0 221 181
0 219 180
0 222 181
0 221 181
0 220 180
0 221 181
0 221 181
0 221 181
0 221 180
0 220 181
0 221 181
0 221 180
0 220 180
0 220 180
0 221 181
0 222 181
0 221 181
0 220 180
0 220 180
0 221 181
0 222 181
0 221 181
0 221 181
0 221 181
0 221 181
0 221 181
0 221 181
0 221 181
0 220 180
0 221 180
0 220 180
0 221 181
0 221 181
0 221 180
0 219 180
0 220 179
0 220 180
0 222 181
0 220 181
0 218 179
0 220 179
0 221 180
0 221 181
0 221 180
0 220 179
0 221 181
0 220 181
0 220 180
0 220 179
0 222 180
0 221 180
0 221 181
0 221 180
0 222 181
0 221 181
0 218 179
0 220 180
0 221 181
0 221 181
0 219 178
0 221 181
0 220 180
0 220 180
0 221 180
0 221 181
0 220 180
0 221 181
0 221 180
0 220 180
0 220 180
0 221 179
0 221 181
0 220 180
0 221 180
0 220 180
0 221 180
0 221 180
0 219 179
0 221 180
0 219 179
0 218 179
0 220 181
0 220 180
0 221 179
0 219 180
0 220 179
0 218 178
0 222 180
0 221 181
0 221 180
0 221 181
0 222 179
0 220 180
0 221 181
0 219 179
0 221 180
0 219 179
0 220 180
0 220 179
0 220 180
0 220 180
0 221 181
0 220 179
0 221 181
0 220 179
0 219 179
0 220 180
0 221 180
0 220 180
0 221 179
0 218 179
0 218 178
0 221 179
0 218 178
0 214 176
0 219 179
0 221 181
0 219 179
0 219 178
0 220 180
0 219 179
0 222 180
0 220 180
0 217 178
0 217 178
0 219 179
0 219 180
0 219 179
0 218 179
0 219 180
0 219 179
0 220 181
0 220 179
0 218 179
0 216 177
0 220 179
0 218 178
0 217 178
0 219 179
0 217 178
0 221 180
0 221 181
0 219 179
0 219 178
0 220 179
0 217 178
0 220 180
0 220 180
0 218 179
0 218 178
0 219 180
0 220 180
0 218 178
0 219 178
0 219 180
0 219 179
0 221 181
0 220 180
0 219 179
0 219 179
0 218 178
0 221 180
0 220 180
0 220 179
0 220 180
0 218 179
0 217 178
0 219 180
0 219 180
0 220 180
0 219 179
0 218 178
0 220 180
0 219 179
0 218 178
0 219 179
0 221 181
0 220 179
0 220 179
0 221 180
0 220 180
0 221 181
0 220 179
0 221 180
0 219 180
0 218 179
0 220 180
0 219 179
0 218 178
0 219 179
0 218 179
0 222 181
0 222 181
0 221 181
0 221 181
0 218 178
0 220 179
0 221 179
0 221 181
0 219 179
0 220 180
0 222 181
0 221 180
0 221 181
0 220 180
0 221 181
0 222 181
0 221 180
0 220 180
0 220 180
0 220 179
0 218 179
0 220 179
0 221 181
0 219 179
0 221 180
0 221 181
0 218 178
0 221 181
0 221 180
0 222 181
0 217 178
0 220 180
0 219 179
0 221 180
0 221 181
0 220 179
0 220 180
0 216 176
0 221 180
0 220 178
0 220 181
0 219 179
0 221 181
0 220 180
0 220 180
0 220 179
0 220 180
0 222 181
0 221 181
0 221 181
0 221 181
0 220 180
0 220 180
0 221 180
0 221 181
0 221 181
0 221 181
0 221 180
0 220 180
0 221 181
0 222 180
0 221 180
0 222 181
0 220 179
0 220 179
0 222 181
0 220 179
0 220 180
0 219 179
0 220 180
0 220 179
0 221 180
0 222 181
0 221 181
0 220 180
0 221 181
0 222 181
0 220 181
0 221 181
0 220 180
0 220 180
0 221 181
0 221 181
0 221 181
0 221 180
0 222 181
0 221 181
0 220 181
0 221 181
0 221 180
0 219 179
0 221 181
0 220 180
0 221 181
0 221 181
0 221 181
0 220 180
0 221 181
0 220 180
0 220 180
0 221 181
0 221 181
0 220 180
0 220 179
0 222 181
0 222 181
0 221 181
0 221 181
0 222 181
0 220 181
0 221 181
0 222 181
0 221 181
0 222 181
0 221 181
0 222 181
0 221 181
0 222 181
0 220 179
0 221 181
0 221 181
0 222 181
0 221 181
0 222 181
0 221 181
0 221 181
0 221 181
0 221 181
0 221 181
0 221 181
0 220 180
0 221 181
0 220 181
0 222 181
0 221 181
0 221 181
0 221 181
0 221 181
0 221 181
0 220 181
0 221 181
0 222 181
0 222 181
0 221 181
0 221 181
0 221 181
0 221 181
0 221 181
0 221 181
0 222 181
0 220 180
0 221 181
0 221 181
0 221 181
0 222 181
0 221 181
0 221 181
0 221 180
0 220 181
0 221 181
0 222 181
0 222 181
0 221 181
0 221 181
0 222 181
0 221 181
0 221 181
0 222 181
0 221 180
0 222 181
0 221 181
0 221 181
0 221 181
0 221 181
0 221 181
0 221 181
0 221 181
0 221 181
0 221 181
0 221 181
0 220 181
0 222 181
0 221 181
0 221 181
0 220 180
0 222 181
0 221 181
0 221 181
0 220 181
0 221 181
0 221 181
0 221 181
0 221 181
0 220 181
0 221 181
0 220 180
0 221 181
0 221 181
0 221 181
0 220 180
0 220 180
0 220 180
0 221 181
0 222 181
0 221 181
0 221 181
0 221 181
0 221 181
0 222 180
0 221 181
0 221 181
0 221 181
0 220 180
0 219 180
0 221 180
0 220 180
0 221 181
0 222 181
0 221 181
0 221 181
0 222 181
0 220 180
0 222 181
0 222 181
0 222 181
0 221 181
0 221 181
0 220 181
0 221 181
0 220 181
0 220 180
0 221 180
0 220 180
0 221 181
0 220 180
0 221 181
0 221 181
0 220 180
0 221 181
0 221 180
0 221 181
0 222 180
0 221 181
0 222 181
0 219 179
0 221 181
0 222 181
0 220 180
0 219 180
0 222 181
0 221 181
0 220 180
0 221 181
0 222 181
0 221 180
0 221 181
0 220 180
0 222 181
0 221 181
0 220 180
0 220 179
0 221 181
0 221 180
0 221 179
0 221 181
0 221 180
0 221 179
0 221 180
0 221 180
0 221 181
0 222 181
0 221 181
0 221 180
0 221 180
0 220 179
0 221 181
0 221 180
0 221 181
0 220 180
0 221 180
0 221 181
0 219 179
0 220 180
0 220 179
0 221 181
0 220 179
0 219 180
0 221 181
0 220 179
0 220 180
0 218 178
0 218 179
0 221 180
0 220 179
0 219 179
0 220 179
0 218 178
0 220 180
0 220 179
0 219 179
0 218 178
0 220 179
0 219 179
0 220 180
0 218 178
0 221 181
0 219 180
0 221 181
0 220 180
0 218 179
0 219 179
0 219 180
0 220 180
0 220 179
0 221 181
0 219 179
0 218 178
0 221 181
0 220 181
0 216 177
0 219 180
0 221 180
0 220 180
0 221 181
0 219 180
0 220 180
0 219 178
0 217 177
0 218 178
0 220 180
0 220 180
0 218 179
0 219 179
0 218 178
0 217 179
0 219 180
0 216 177
0 220 179
0 220 180
0 219 179
0 219 179
0 221 181
0 219 178
0 218 177
0 219 179
0 219 179
0 220 179
0 218 179
0 220 181
0 219 179
0 220 179
0 219 179
0 221 181
0 219 179
0 218 179
0 219 180
0 219 179
0 220 179
0 218 178
0 218 177
0 220 180
0 218 178
0 221 179
0 220 180
0 219 179
0 221 180
0 220 180
0 220 179
0 218 179
0 221 180
0 221 180
0 219 179
0 220 179
0 221 181
0 217 179
0 219 179
0 220 180
0 218 178
0 218 177
0 219 178
0 218 179
0 221 181
0 221 180
0 220 181
0 222 181
0 220 180
0 218 179
0 219 179
0 221 181
0 220 179
0 220 180
0 219 178
0 220 180
0 219 180
0 221 180
0 219 179
0 219 179
0 219 179
0 221 180
0 219 179
0 219 179
0 221 180
0 220 180
0 221 180
0 220 179
0 221 181
0 220 180
0 222 181
0 217 178
0 219 179
0 220 181
0 220 180
0 221 180
0 220 181
0 219 179
0 220 179
0 221 181
0 222 181
0 219 179
0 219 178
0 221 181
0 222 181
0 221 181
0 220 179
0 221 180
0 219 179
0 219 179
0 221 181
0 221 181
0 218 178
0 220 181
0 220 180
0 222 181
0 221 181
0 221 179
0 221 181
0 221 181
0 222 181
0 222 181
0 221 181
0 220 179
0 220 179
0 221 180
0 220 179
0 220 181
0 221 181
0 222 181
0 220 180
0 221 181
0 221 180
0 222 181
0 221 181
0 221 180
0 221 181
0 221 180
0 221 180
0 221 180
0 220 180
0 222 181
0 221 181
0 221 181
0 221 181
0 221 180
0 220 179
0 220 180
0 220 179
0 219 180
0 220 181
0 221 181
0 220 179
0 221 181
0 221 181
0 221 181
0 221 181
0 220 180
0 221 181
0 221 181
0 219 180
0 221 180
0 220 180
0 221 180
0 220 178
0 220 180
0 221 181
0 221 181
0 220 179
0 221 181
0 221 181
0 221 181
0 223 181
0 221 180
0 221 181
0 221 181
0 222 181
0 220 181
0 219 180
0 221 181
0 221 181
0 221 181
0 221 181
0 221 180
0 221 181
0 221 181
0 221 180
0 220 180
0 219 180
0 222 181
0 221 181
0 221 181
0 221 181
0 221 181
0 221 181
0 221 180
0 220 180
0 220 180
0 222 181
0 221 181
0 221 181
0 221 180
0 221 181
0 221 180
0 220 180
0 220 181
0 221 181
0 220 180
0 221 181
0 222 181
0 220 180
0 222 181
0 221 181
0 219 180
0 220 181
0 220 180
0 221 181
0 220 181
0 220 181
0 220 180
0 222 181
0 221 181
0 222 181
0 222 181
0 221 181
0 221 181
0 221 181
0 222 181
0 221 181
0 221 181
0 221 181
0 222 181
0 221 181
0 222 181
0 221 181
0 221 181
0 221 181
0 222 181
0 221 181
0 220 180
0 220 180
0 221 181
0 221 181
0 221 181
0 221 181
0 222 181
0 221 181
0 221 181
0 222 181
0 221 181
0 221 181
0 221 181
0 221 181
0 222 181
0 222 181
0 220 180
0 220 180
0 222 181
0 220 181
0 221 181
0 222 181
0 220 180
0 220 180
0 221 181
0 221 181
0 219 180
0 220 180
0 220 180
0 221 181
0 220 180
0 221 181
0 221 181
0 221 181
0 221 181
0 223 181
0 220 180
0 220 179
0 220 180
0 220 180
0 220 181
0 221 181
0 221 181
0 222 181
0 221 181
0 221 180
0 222 181
0 220 181
0 221 181
0 221 181
0 221 181
0 222 181
0 221 181
0 222 181
0 221 181
0 222 181
0 221 180
0 221 181
0 221 181
0 220 180
0 221 181
0 222 181
0 221 181
0 219 180
0 221 181
0 219 179
0 222 181
0 219 180
0 221 181
0 221 181
0 220 181
0 219 180
0 221 180
0 220 180
0 220 180
0 221 181
0 220 180
0 220 180
0 221 181
0 222 180
0 221 180
0 220 181
0 218 179
0 221 180
0 221 181
0 219 180
0 222 181
0 221 181
0 220 180
0 222 181
0 221 180
0 221 181
0 219 180
0 221 180
0 220 179
0 221 181
0 221 181
0 222 180
0 221 181
0 220 179
0 221 181
0 220 180
0 219 179
0 220 180
0 222 180
0 221 181
0 220 180
0 218 179
0 220 180
0 220 181
0 221 180
0 222 180
0 222 181
0 221 181
0 220 180
0 221 181
0 219 179
0 222 181
0 219 179
0 221 181
0 221 181
0 220 181
0 221 180
0 221 180
0 219 180
0 220 180
0 221 180
0 222 181
0 221 180
0 220 180
0 221 180
0 219 179
0 220 179
0 220 180
0 218 178
0 221 181
0 220 180
0 219 178
0 218 179
0 220 180
0 220 179
0 221 180
0 218 179
0 220 180
0 219 178
0 218 177
0 220 180
0 219 179
0 221 180
0 221 181
0 219 179
0 222 181
0 219 178
0 220 180
0 221 181
0 220 179
0 220 179
0 219 179
0 222 180
0 219 179
0 216 177
0 220 179
0 218 179
0 221 181
0 218 179
0 217 177
0 221 181
0 219 179
0 221 180
0 221 181
0 221 180
0 218 177
0 220 179
0 221 181
0 220 179
0 218 180
0 217 178
0 220 181
0 218 177
0 220 180
0 220 179
0 221 181
0 220 180
0 219 178
0 219 179
0 218 180
0 220 181
0 217 178
0 220 179
0 221 180
0 217 177
0 218 179
0 219 179
0 221 180
0 217 178
0 220 180
0 220 181
0 220 181
0 220 179
0 220 180
0 221 179
0 217 178
0 221 179
0 219 179
0 219 179
0 218 178
0 221 181
0 220 181
0 221 181
0 217 178
0 220 178
0 221 180
0 219 179
0 220 180
0 220 180
0 221 180
0 217 177
0 218 179
0 219 180
0 218 179
0 219 179
0 219 179
0 219 179
0 222 181
0 218 178
0 220 180
0 219 179
0 220 179
0 218 177
0 220 180
0 219 180
0 220 180
0 221 180
0 221 181
0 220 179
0 220 180
0 220 179
0 221 181
0 218 178
0 222 180
0 222 181
0 218 179
0 220 180
0 220 179
0 221 181
0 219 178
0 221 181
0 220 181
0 218 179
0 220 181
0 219 178
0 220 180
0 219 179
0 219 179
0 221 181
0 221 181
0 222 181
0 221 181
0 220 181
0 219 179
0 221 181
0 221 180
0 219 179
0 221 180
0 222 181
0 221 180
0 219 180
0 221 181
0 221 180
0 221 181
0 220 180
0 222 181
0 220 179
0 222 181
0 220 180
0 221 181
0 221 180
0 221 181
0 220 178
0 221 181
0 221 181
0 220 180
0 221 181
0 219 179
0 221 181
0 220 179
0 219 178
0 219 179
0 221 181
0 221 181
0 221 181
0 220 180
0 219 180
0 221 180
0 220 179
0 220 181
0 220 180
0 221 181
0 221 181
0 221 181
0 221 181
0 221 180
0 221 181
0 221 181
0 221 180
0 220 180
0 220 179
0 220 181
0 220 180
0 221 179
0 220 180
0 220 180
0 222 181
0 222 181
0 222 181
0 221 181
0 221 181
0 221 181
0 222 181
0 221 181
0 221 180
0 221 181
0 220 180
0 221 181
0 222 180
0 220 181
0 220 180
0 221 181
0 220 180
0 221 181
0 221 180
0 222 181
0 222 181
0 221 181
0 219 180
0 220 180
0 221 181
0 220 180
0 221 180
0 221 181
0 221 180
0 221 180
0 221 181
0 221 181
0 220 180
0 221 181
0 220 180
0 221 181
0 222 181
0 220 179
0 221 181
0 221 181
0 221 180
0 221 181
0 220 181
0 220 180
0 221 181
0 222 181
0 221 180
0 222 181
0 221 181
0 221 181
0 221 181
0 221 181
0 221 181
0 223 181
0 221 181
0 222 181
0 221 181
0 221 181
0 221 181
0 220 180
0 221 181
0 221 181
0 222 181
0 222 181
0 221 181
0 222 181
0 221 181
0 222 181
0 221 181
0 221 181
0 222 181
0 222 181
0 221 181
0 220 181
0 221 181
0 221 181
0 221 180
0 222 181
0 222 181
0 221 181
0 221 181
0 221 181
0 221 181
0 220 180
0 221 181
0 221 181
0 221 181
0 221 181
0 221 181
0 220 180
0 221 181
0 221 181
0 220 180
0 221 181
0 221 181
0 222 181
0 222 181
0 221 181
0 221 181
0 221 181
0 221 181
0 221 181
0 221 181
0 220 181
0 220 180
0 222 181
0 220 181
0 221 181
0 220 181
0 220 180
0 221 181
0 220 181
0 221 181
0 221 181
0 220 181
0 222 181
0 222 181
0 221 181
0 220 181
0 220 181
0 221 180
0 220 180
0 221 180
0 220 180
0 222 181
0 221 181
0 221 181
0 221 181
0 220 180
0 220 180
0 222 181
0 220 180
0 221 180
0 221 181
0 221 181
0 220 181
0 222 180
0 220 180
0 221 181
0 222 181
0 220 181
0 220 180
0 221 181
0 222 181
0 222 181
0 221 181
0 220 179
0 221 181
0 220 180
0 220 179
0 221 181
0 220 181
0 221 181
0 220 181
0 219 179
0 219 180
0 221 180
0 222 181
0 220 180
0 221 181
0 220 181
0 221 180
0 221 181
0 221 181
0 220 180
0 222 181
0 220 181
0 221 180
0 221 181
0 222 181
0 220 180
0 220 179
0 221 180
0 221 180
0 220 180
0 221 181
0 221 180
0 220 180
0 222 181
0 220 180
0 221 181
0 220 180
0 220 180
0 222 181
0 221 180
0 219 179
0 221 181
0 221 180
0 220 179
0 221 181
0 221 181
0 221 181
0 218 180
0 221 180
0 222 181
0 220 180
0 220 181
0 222 181
0 221 181
0 221 179
0 220 180
0 222 180
0 219 179
0 220 181
0 219 179
0 219 179
0 220 179
0 221 181
0 219 180
0 219 179
0 219 179
0 221 181
0 221 180
0 221 181
0 218 179
0 219 179
0 220 179
0 221 179
0 220 179
0 220 181
0 221 181
0 217 178
0 219 180
0 220 180
0 221 179
0 221 181
0 221 180
0 216 176
0 222 180
0 220 180
0 221 181
0 219 179
0 220 180
0 220 180
0 221 181
0 219 180
0 220 180
0 217 178
0 221 180
0 218 178
0 218 178
0 219 179
0 219 179
0 221 180
0 220 179
0 221 181
0 218 177
0 219 179
0 219 180
0 217 177
0 221 180
0 218 179
0 219 179
0 217 177
0 220 179
0 220 181
0 219 179
0 220 180
0 217 178
0 219 180
0 219 179
0 220 179
0 220 180
0 219 179
0 218 178
0 220 179
0 217 177
0 220 180
0 220 180
0 220 180
0 219 178
0 220 180
0 216 178
0 220 179
0 219 179
0 219 178
0 219 178
0 220 180
0 219 178
0 219 180
0 220 180
0 220 179
0 219 180
0 220 179
0 218 178
0 221 181
0 218 179
0 218 179
0 217 178
0 219 178
0 220 179
0 221 180
0 221 181
0 218 178
0 220 180
0 219 179
0 221 180
0 219 179
0 220 179
0 220 180
0 216 177
0 219 178
0 221 180
0 219 179
0 220 179
0 218 179
0 221 181
0 218 177
0 218 178
0 217 178
0 219 179
0 220 180
0 221 181
0 220 180
0 221 180
0 219 179
0 219 179
0 221 180
0 220 180
0 220 180
0 219 179
0 219 180
0 222 181
0 219 180
0 221 181
0 219 180
0 221 181
0 219 179
0 220 179
0 220 180
0 221 180
0 221 181
0 220 180
0 221 181
0 219 179
0 220 179
0 222 181
0 218 179
0 220 179
0 220 180
0 221 179
0 221 180
0 221 181
0 221 181
0 219 179
0 221 180
0 220 180
0 220 180
0 220 180
0 220 179
0 218 179
0 219 179
0 221 181
0 220 180
0 220 180
0 220 180
0 221 179
0 221 179
0 221 181
0 221 180
0 218 178
0 221 181
0 221 181
0 221 180
0 220 180
0 219 178
0 219 180
0 221 181
0 221 181
0 221 181
0 221 181
0 221 179
0 221 181
0 221 181
0 222 181
0 222 181
0 222 181
0 220 181
0 219 178
0 220 179
0 220 179
0 220 179
0 222 181
0 220 179
0 220 180
0 221 181
0 221 181
0 221 181
0 219 180
0 222 181
0 221 181
0 219 179
0 220 181
0 221 180
0 221 180
0 220 180
0 221 181
0 220 180
0 220 180
0 221 181
0 221 181
0 221 181
0 220 181
0 221 181
0 221 181
0 220 180
0 221 181
0 222 181
0 220 180
0 220 180
0 221 181
0 221 181
0 221 181
0 219 179
0 222 181
0 220 180
0 222 181
0 220 180
0 221 181
0 220 179
0 222 180
0 220 180
0 221 181
0 221 181
0 222 181
0 221 181
0 222 181
0 221 181
0 221 180
0 221 181
0 221 181
0 222 181
0 220 180
0 221 181
0 221 181
0 221 181
0 221 181
0 220 181
0 221 181
0 222 181
0 221 180
0 222 181
0 222 181
0 221 181
0 221 181
0 221 181
0 221 181
0 222 181
0 221 181
0 221 181
0 221 181
0 220 181
0 221 180
0 221 181
0 222 181
0 222 181
0 221 181
0 222 181
0 222 181
0 221 181
0 222 181
0 221 180
0 221 180
0 221 181
0 221 181
0 222 181
0 222 181
0 221 181
0 221 181
0 221 181
0 220 181
0 221 181
0 221 181
0 222 181
0 221 180
0 220 180
0 221 181
0 219 180
0 222 181
0 221 180
0 221 181
0 221 181
0 221 181
0 221 180
0 221 181
0 221 181
0 221 181
0 222 181
0 221 181
0 221 181
0 220 180
0 222 181
0 221 181
0 221 181
0 221 181
0 221 181
0 221 181
0 222 181
0 222 181
0 221 181
0 221 181
0 221 181
0 220 181
0 221 181
0 220 180
0 221 181
0 220 181
0 221 181
0 221 181
0 221 181
0 221 181
0 221 181
0 219 179
0 221 181
0 221 180
0 221 181
0 221 181
0 221 181
0 222 181
0 221 181
0 222 181
0 219 180
0 221 181
0 220 181
0 221 181
0 220 181
0 222 181
0 221 181
0 219 180
0 221 180
0 221 181
0 221 181
0 221 181
0 220 180
0 221 181
0 220 181
0 221 181
0 221 181
0 221 181
0 220 180
0 221 181
0 220 180
0 220 180
0 221 181
0 221 180
0 221 181
0 220 180
0 220 180
0 221 180
0 222 180
0 221 181
0 222 181
0 221 180
0 220 181
0 221 180
0 221 181
0 221 181
0 220 181
0 221 181
0 221 181
0 222 181
0 221 181
0 221 181
0 221 181
0 221 180
0 220 180
0 222 180
0 220 180
0 220 180
0 221 180
0 222 181
0 221 181
0 220 181
0 222 181
0 221 181
0 221 181
0 222 181
0 221 181
0 221 180
0 218 179
0 222 181
0 221 181
0 221 180
0 221 180
0 219 180
0 221 180
0 220 180
0 221 180
0 220 180
0 220 180
0 221 181
0 220 181
0 222 181
0 221 181
0 221 181
0 221 181
0 221 181
0 221 181
0 219 180
0 220 181
0 221 181
0 221 181
0 218 178
0 221 180
0 222 181
0 221 181
0 222 181
0 219 180
0 221 180
0 220 179
0 219 179
0 220 179
0 221 180
0 220 180
0 221 180
0 219 179
0 220 181
0 220 179
0 218 179
0 221 181
0 221 180
0 219 178
0 221 180
0 221 180
0 220 181
0 220 180
0 220 180
0 220 180
0 220 181
0 222 181
0 220 180
0 221 181
0 220 180
0 219 180
0 221 181
0 218 178
0 220 180
0 219 178
0 221 181
0 218 178
0 219 179
0 220 179
0 220 179
0 219 179
0 221 180
0 219 180
0 221 181
0 218 178
0 219 180
0 218 179
0 219 179
0 219 179
0 221 181
0 220 180
0 219 179
0 221 180
0 218 178
0 219 179
0 220 179
0 219 179
0 220 179
0 220 179
0 220 180
0 219 179
0 220 179
0 220 181
0 220 178
0 219 179
0 219 180
0 217 177
0 219 180
0 218 178
0 220 180
0 218 179
0 220 180
0 220 180
0 220 180
0 219 178
0 220 180
0 218 178
0 221 181
0 220 179
0 218 178
0 220 180
0 219 179
0 221 181
0 217 178
0 221 180
0 219 179
0 220 180
0 221 181
0 218 178
0 219 178
0 218 178
0 219 178
0 222 180
0 219 180
0 218 178
0 221 180
0 220 180
0 219 178
0 219 178
0 220 180
0 220 180
0 219 180
0 220 180
0 221 180
0 221 181
0 219 179
0 221 181
0 220 180
0 221 181
0 220 180
0 220 179
0 221 180
0 220 179
0 219 180
0 221 181
0 221 180
0 221 180
0 220 179
0 220 179
0 221 180
0 220 179
0 219 180
0 217 178
0 220 178
0 221 181
0 221 180
0 219 178
0 221 180
0 220 180
0 220 179
0 221 181
0 222 181
0 220 180
0 220 179
0 221 181
0 220 181
0 221 180
0 220 180
0 219 179
0 221 181
0 221 181
0 221 180
0 220 180
0 220 180
0 219 180
0 220 180
0 221 180
0 221 181
0 221 180
0 219 180
0 221 180
0 221 180
0 220 179
0 219 179
0 220 180
0 222 181
0 219 179
0 219 180
0 219 179
0 222 181
0 222 181
0 222 181
0 222 181
0 220 180
0 221 180
0 220 180
0 221 181
0 220 179
0 222 181
0 220 180
0 220 179
0 220 180
0 221 181
0 221 180
0 221 181
0 221 181
0 221 180
0 221 181
0 221 181
0 222 181
0 221 181
0 220 179
0 220 179
0 220 180
0 220 179
0 221 181
0 221 181
0 221 181
0 219 180
0 220 181
0 221 180
0 221 181
0 221 180
0 221 181
0 221 181
0 221 180
0 221 181
0 220 180
0 220 179
0 221 180
0 221 181
0 220 179
0 221 180
0 221 181
0 220 180
0 222 181
0 221 181
0 220 180
0 221 181
0 222 181
0 221 181
0 221 181
0 220 179
0 221 180
0 219 180
0 221 181
0 221 180
0 221 181
0 220 181
0 221 181
0 221 180
0 222 181
0 221 181
0 222 181
0 221 181
0 221 181
0 222 181
0 221 181
0 221 180
0 221 180
0 222 181
0 221 181
0 221 181
0 220 180
0 221 181
0 221 181
0 221 180
0 219 180
0 221 179
0 221 181
0 220 180
0 220 180
0 221 181
0 221 181
0 221 181
0 221 181
0 221 181
0 220 181
0 220 180
0 221 181
0 221 181
0 221 181
0 221 181
0 221 181
0 221 181
0 221 181
0 220 179
0 221 181
0 221 181
0 222 181
0 221 181
0 221 181
0 222 181
0 221 181
0 220 181
0 222 181
0 222 181
0 220 181
0 221 181
0 222 181
0 220 181
0 222 181
0 220 180
0 221 181
0 222 181
0 222 181
0 221 181
0 222 181
0 221 181
0 222 181
0 221 181
0 221 181
0 221 181
0 221 181
0 222 181
0 221 180
0 221 181
0 222 181
0 220 180
0 222 181
0 221 181
0 221 181
0 220 181
0 221 181
0 220 180
0 221 181
0 221 181
0 222 181
0 221 181
0 221 181
0 220 180
0 222 181
0 220 180
0 222 181
0 221 181
0 221 181
0 222 181
0 221 181
0 223 181
0 221 181
0 220 181
0 221 181
0 221 180
0 220 181
0 221 181
0 221 180
0 221 181
0 220 181
0 221 181
0 220 180
0 221 181
0 222 181
0 220 180
0 221 181
0 221 181
0 221 181
0 221 181
0 221 181
0 221 181
0 221 181
0 220 181
0 222 181
0 221 181
0 220 180
0 221 181
0 220 181
0 221 181
0 220 179
0 221 181
0 221 181
0 220 180
0 221 181
0 221 181
0 220 180
0 221 181
0 222 181
0 220 180
0 221 180
0 221 180
0 222 181
0 219 179
0 221 181
0 221 181
0 221 181
0 221 180
0 220 181
0 218 179
0 222 181
0 221 181
0 220 181
0 220 180
0 220 180
0 221 181
0 221 181
0 221 180
0 221 180
0 220 180
0 221 180
0 219 180
0 221 181
0 221 181
0 219 179
0 221 181
0 222 181
0 221 181
0 222 180
0 220 181
0 221 181
0 220 180
0 219 179
0 221 181
0 221 181
0 219 180
0 221 181
0 220 180
0 221 181
0 220 179
0 221 180
0 221 180
0 221 181
0 220 180
0 222 180
0 221 180
0 220 180
0 220 180
0 218 179
0 221 179
0 221 180
0 221 181
0 220 179
0 220 180
0 221 181
0 221 180
0 220 180
0 221 179
0 221 181
0 220 180
0 218 179
0 220 180
0 219 181
0 220 179
0 221 181
0 220 180
0 220 180
0 221 181
0 220 179
0 222 179
0 221 181
0 220 179
0 221 180
0 221 180
0 220 180
0 221 181
0 220 180
0 220 181
0 220 180
0 219 178
0 220 180
0 221 179
0 221 180
0 219 179
0 221 181
0 220 180
0 219 180
0 220 179
0 219 179
0 218 179
0 219 179
0 221 180
0 218 179
0 221 181
0 221 181
0 220 179
0 222 181
0 221 180
0 221 180
0 220 179
0 219 179
0 220 180
0 222 181
0 220 180
0 218 178
0 220 178
0 220 180
0 220 178
0 220 180
0 218 179
0 221 181
0 221 180
0 221 180
0 218 179
0 220 180
0 219 179
0 219 178
0 219 177
0 218 179
0 219 178
0 220 180
0 219 179
0 219 179
0 218 178
0 219 178
0 221 179
0 218 178
0 222 181
0 220 180
0 222 181
0 219 180
0 220 180
0 219 179
0 218 179
0 220 180
0 219 179
0 218 179
0 219 179
0 220 180
0 221 181
0 220 179
0 220 179
0 219 179
0 220 180
0 221 180
0 220 179
0 219 178
0 221 181
0 216 177
0 218 178
0 220 180
0 220 181
0 215 176
0 221 181
0 221 179
0 220 179
0 219 180
0 220 179
0 217 179
0 220 179
0 221 180
0 221 180
0 218 180
0 218 178
0 221 180
0 220 180
0 219 178
0 220 178
0 215 176
0 220 181
0 220 179
0 221 181
0 220 178
0 220 180
0 218 179
0 218 178
0 220 179
0 219 179
0 219 179
0 218 178
0 218 179
0 222 181
0 221 181
0 219 180
0 221 181
0 221 180
0 222 181
0 221 181
0 220 180
0 222 181
0 221 181
0 221 180
0 220 179
0 220 179
0 220 180
0 221 181
0 220 180
0 220 180
0 221 181
0 220 180
0 222 181
0 221 181
0 222 180
0 220 180
0 221 180
0 219 179
0 221 180
0 220 179
0 221 180
0 219 179
0 219 179
0 221 180
0 221 181
0 220 180
0 221 180
0 220 178
0 219 179
0 220 179
0 221 180
0 221 181
0 219 180
0 221 180
0 221 180
0 220 180
0 221 180
0 220 181
0 218 179
0 220 181
0 223 181
0 220 180
0 219 180
0 220 179
0 222 181
0 220 179
0 220 180
0 222 181
0 220 179
0 222 181
0 222 181
0 221 180
0 222 181
0 219 179
0 221 181
0 219 179
0 221 181
0 222 181
0 221 181
0 220 181
0 222 181
0 222 181
0 221 179
0 220 180
0 220 181
0 221 181
0 220 181
0 222 181
0 221 180
0 222 181
0 221 181
0 221 181
0 222 181
0 221 181
0 221 180
0 221 181
0 221 180
0 220 180
0 221 181
0 221 181
0 221 180
0 221 181
0 220 180
0 221 181
0 221 181
0 220 179
0 220 180
0 220 180
0 221 181
0 221 181
0 221 181
0 222 181
0 220 179
0 221 181
0 220 180
0 221 181
0 221 181
0 221 181
0 221 181
0 220 180
0 221 181
0 221 181
0 221 181
0 219 179
0 221 181
0 221 181
0 222 181
0 220 181
0 220 179
0 220 180
0 221 181
0 222 181
0 221 181
0 221 181
0 220 181
0 221 181
0 220 179
0 222 181
0 222 181
0 222 181
0 221 181
0 221 181
0 220 179
0 221 181
0 221 181
0 219 180
0 220 180
0 222 181
0 222 181
0 221 181
0 221 181
0 221 181
0 221 181
0 221 181
0 221 181
0 221 181
0 220 180
0 221 181
0 222 181
0 221 181
0 221 181
0 221 181
0 221 181
0 222 181
0 222 181
0 220 181
0 221 181
0 220 181
0 222 181
0 220 181
0 221 181
0 221 181
0 221 181
0 221 181
0 222 181
0 221 181
0 221 181
0 221 181
0 221 181
0 221 181
0 221 181
0 220 180
0 220 181
0 220 180
0 222 181
0 220 180
0 222 181
0 220 180
0 221 181
0 221 181
0 221 181
0 219 179
0 221 181
0 221 181
0 220 180
0 220 181
0 221 181
0 221 181
0 220 181
0 221 181
0 220 180
0 221 181
0 221 181
0 221 181
0 219 180
0 222 181
0 222 181
0 221 181
0 219 180
0 221 181
0 221 181
0 221 180
0 221 181
0 221 180
0 221 181
0 222 181
0 221 181
0 222 181
0 221 181
0 221 181
0 220 180
0 222 181
0 221 181
0 221 181
0 220 180
0 220 180
0 221 181
0 220 180
0 221 181
0 223 181
0 222 181
0 222 181
0 221 181
0 221 181
0 221 181
0 221 181
0 222 181
0 221 181
0 221 181
0 221 181
0 220 180
0 221 181
0 221 181
0 220 181
0 221 181
0 220 180
0 219 180
0 221 181
0 220 180
0 222 180
0 220 179
0 221 181
0 220 180
0 222 180
0 221 180
0 221 181
0 222 181
0 222 180
0 221 181
0 222 181
0 221 181
0 221 180
0 222 181
0 219 180
0 219 179
0 221 181
0 221 181
0 222 180
0 222 181
0 222 181
0 221 181
0 221 181
0 221 181
0 220 180
0 220 180
0 220 180
0 220 180
0 221 181
0 221 181
0 221 180
0 220 179
0 220 180
0 222 181
0 221 181
0 221 181
0 221 181
0 219 179
0 219 179
0 220 180
0 220 180
0 219 180
0 219 180
0 220 180
0 220 180
0 221 181
0 220 180
0 219 178
0 220 180
0 222 180
0 217 179
0 219 180
0 221 181
0 219 180
0 219 179
0 221 180
0 220 181
0 220 180
0 219 179
0 220 179
0 221 181
0 222 180
0 219 179
0 220 179
0 220 179
0 219 180
0 221 181
0 220 180
0 221 180
0 221 180
0 219 180
0 217 179
0 221 181
0 220 180
0 218 179
0 220 180
0 221 180
0 218 178
0 220 180
0 218 179
0 220 180
0 219 179
0 220 181
0 221 181
0 221 180
0 220 181
0 216 178
0 218 178
0 221 181
0 217 178
0 220 180
0 222 181
0 221 180
0 220 179
0 220 179
0 220 179
0 221 180
0 221 180
0 219 179
0 219 179
0 219 179
0 217 178
0 219 178
0 220 179
0 218 177
0 219 179
0 218 178
0 220 180
0 219 179
0 220 179
0 218 178
0 219 180
0 218 179
0 221 180
0 218 179
0 221 180
0 221 179
0 219 179
0 219 179
0 219 179
0 220 180
0 219 178
0 220 179
0 221 180
0 219 180
0 220 180
0 218 178
0 220 180
0 220 179
0 221 180
0 220 180
0 220 180
0 220 180
0 219 180
0 219 179
0 220 178
0 219 179
0 221 180
0 220 181
0 220 180
0 222 181
0 221 180
0 218 179
0 219 180
0 221 180
0 217 178
0 219 178
0 218 178
0 216 178
0 220 179
0 221 181
0 221 180
0 218 179
0 222 180
0 220 180
0 221 180
0 220 179
0 221 181
0 220 179
0 220 180
0 220 181
0 222 181
0 220 179
0 221 181
0 221 181
0 219 179
0 220 180
0 221 180
0 220 180
0 221 181
0 220 179
0 219 179
0 219 179
0 220 179
0 220 180
0 221 180
0 219 179
0 220 179
0 221 181
0 220 181
0 221 180
0 220 179
0 220 180
0 221 179
0 219 180
0 219 179
0 220 180
0 219 178
0 221 180
0 221 180
0 221 181
0 220 180
0 221 179
0 221 181
0 221 179
0 221 181
0 221 181
0 220 179
0 222 181
0 217 178
0 220 180
0 220 180
0 220 181
0 221 179
0 221 180
0 221 181
0 220 180
0 220 180
0 221 181
0 220 180
0 221 181
0 222 181
0 220 181
0 221 180
0 221 181
0 220 180
0 220 179
0 220 180
0 219 179
0 221 181
0 220 180
0 222 181
0 220 180
0 220 179
0 221 179
0 220 181
0 221 181
0 221 181
0 222 181
0 221 181
0 221 181
0 221 180
0 220 180
0 221 181
0 222 181
0 220 179
0 221 180
0 219 179
0 220 181
0 220 181
0 221 181
0 220 181
0 221 180
0 222 181
0 221 181
0 221 181
0 222 181
0 220 180
0 221 179
0 221 181
0 221 181
0 221 181
0 221 181
0 222 181
0 221 181
0 222 181
0 220 181
0 222 181
0 221 181
0 221 181
0 222 181
0 220 180
0 221 181
0 221 181
0 221 180
0 221 181
0 220 180
0 220 180
0 221 181
0 221 181
0 221 181
0 222 181
0 220 180
0 221 180
0 221 181
0 221 181
0 221 181
0 221 181
0 222 181
0 221 181
0 220 180
0 220 180
0 220 181
0 220 180
0 220 181
0 221 181
0 220 179
0 222 181
0 222 181
0 220 181
0 222 181
0 221 181
0 220 180
0 221 181
0 221 181
0 221 181
0 219 180
0 222 181
0 220 180
0 222 181
0 221 181
0 221 181
0 222 181
0 220 181
0 223 181
0 221 181
0 221 181
0 220 180
0 221 181
0 221 181
0 221 181
0 221 181
0 220 181
0 221 181
0 221 181
0 222 181
0 221 181
0 221 181
0 222 181
0 221 181
0 220 181
0 221 181
0 221 181
0 222 181
0 222 181
0 221 181
0 220 180
0 222 181
0 220 181
0 222 181
0 221 181
0 221 181
0 221 181
0 221 181
0 221 181
0 221 181
0 221 181
0 221 181
0 221 181
0 221 181
0 220 181
0 222 181
0 221 181
0 221 181
0 220 180
0 222 180
0 221 181
0 221 181
0 220 181
0 221 181
0 222 181
0 221 180
0 221 181
0 221 180
0 219 180
0 221 181
0 221 181
0 222 181
0 221 180
0 221 181
0 222 181
0 221 181
0 222 181
0 221 181
0 220 180
0 223 181
0 220 180
0 221 180
0 221 181
0 220 180
0 221 181
0 222 181
0 222 181
0 221 181
0 220 180
0 221 181
0 220 180
0 220 181
0 221 181
0 222 181
0 220 180
0 220 181
0 220 180
0 221 181
0 221 181
0 221 181
0 221 181
0 222 181
0 221 181
0 222 181
0 221 181
0 221 181
0 221 180
0 221 181
0 221 181
0 222 180
0 221 181
0 221 181
0 219 179
0 221 180
0 222 181
0 220 180
0 221 181
0 222 181
0 222 181
0 221 181
0 220 180
0 221 181
0 221 180
0 220 180
0 221 181
0 219 180
0 220 179
0 221 181
0 221 179
0 221 181
0 222 181
0 222 180
0 218 179
0 219 180
0 221 181
0 221 181
0 221 181
0 220 180
0 221 181
0 221 181
0 221 180
0 221 180
0 220 180
0 220 181
0 222 181
0 221 181
0 220 180
0 220 180
0 219 180
0 221 180
0 222 181
0 221 181
0 220 180
0 220 180
0 220 180
0 221 181
0 222 180
0 222 180
0 221 181
0 221 181
0 220 180
0 220 180
0 220 180
0 218 179
0 217 178
0 221 180
0 219 179
0 221 181
0 220 180
0 222 181
0 221 181
0 221 181
0 221 180
0 220 180
0 221 181
0 219 179
0 221 181
0 220 180
0 219 179
0 218 179
0 219 179
0 216 177
0 221 180
0 221 179
0 220 179
0 220 180
0 220 180
0 221 181
0 219 179
0 220 178
0 221 179
0 219 179
0 220 180
0 218 178
0 219 180
0 219 178
0 220 180
0 218 178
0 221 181
0 220 180
0 220 179
0 220 180
0 219 179
0 220 180
0 221 181
0 220 180
0 217 178
0 219 179
0 217 176
0 219 180
0 220 180
0 221 181
0 220 180
0 220 180
0 218 179
0 217 178
0 220 179
0 221 181
0 217 178
0 220 180
0 219 179
0 221 181
0 220 179
0 220 181
0 216 178
0 219 180
0 219 180
0 221 181
0 221 181
0 219 179
0 221 181
0 221 181
0 220 180
0 219 180
0 219 178
0 220 179
0 221 181
0 221 180
0 219 179
0 221 180
0 222 181
0 221 180
0 220 180
0 220 180
0 220 179
0 221 181
0 219 179
0 221 180
0 221 181
0 222 181
0 220 180
0 219 179
0 219 179
0 220 180
0 220 181
0 221 180
0 220 180
0 220 181
0 220 179
0 218 178
0 220 179
0 220 179
0 219 180
0 219 179
0 222 181
0 219 180
0 220 180
0 221 181
0 221 180
0 222 181
0 221 181
0 219 179
0 220 180
0 220 179
0 219 179
0 219 178
0 221 181
0 220 179
0 221 181
0 219 180
0 219 179
0 219 178
0 220 180
0 221 180
0 221 181
0 221 181
0 220 180
0 220 179
0 221 180
0 220 180
0 219 178
0 221 180
0 221 181
0 221 180
0 220 180
0 222 181
0 221 181
0 221 180
0 219 179
0 220 180
0 220 180
0 220 179
0 219 178
0 221 181
0 221 180
0 220 180
0 221 181
0 219 179
0 220 180
0 219 178
0 221 180
0 222 181
0 220 181
0 221 180
0 220 180
0 220 180
0 219 179
0 221 180
0 221 181
0 217 179
0 217 178
0 221 180
0 220 181
0 220 180
0 221 180
0 222 181
0 222 180
0 220 181
0 220 180
0 221 180
0 220 179
0 221 181
0 221 181
0 221 180
0 221 181
0 217 178
0 220 179
0 222 180
0 220 180
0 219 179
0 221 181
0 220 180
0 221 181
0 222 181
0 220 180
0 219 179
0 221 181
0 221 181
0 220 180
0 221 180
0 220 181
0 221 181
0 222 181
0 221 181
0 222 181
0 221 181
0 221 181
0 221 181
0 219 180
0 221 181
0 220 180
0 220 179
0 221 181
0 221 181
0 220 180
0 221 181
0 220 180
0 221 181
0 221 179
0 222 181
0 221 181
0 219 179
0 222 181
0 221 181
0 220 180
0 220 181
0 221 181
0 221 181
0 222 181
0 220 180
0 220 180
0 220 181
0 222 181
0 221 181
0 221 181
0 221 181
0 219 180
0 222 181
0 220 181
0 222 181
0 220 180
0 222 181
0 220 179
0 222 181
0 222 181
0 220 181
0 221 181
0 221 181
0 222 181
0 220 180
0 222 181
0 221 180
0 222 181
0 221 181
0 221 181
0 220 180
0 221 181
0 221 181
0 221 181
0 221 181
0 221 181
0 221 181
0 220 181
0 221 181
0 221 181
0 221 181
0 220 181
0 221 181
0 221 181
0 222 181
0 221 181
0 221 181
0 222 181
0 220 180
0 221 181
0 222 181
0 221 181
0 222 181
0 221 181
0 222 181
0 223 181
0 221 181
0 220 181
0 221 181
0 221 181
0 221 181
0 221 181
0 221 181
0 221 181
0 221 181
0 221 181
0 222 181
0 222 181
0 221 181
0 221 181
0 221 181
0 221 181
0 222 181
0 220 181
0 222 181
0 222 181
0 221 181
0 221 181
0 220 180
0 222 181
0 220 180
0 220 180
0 221 181
0 220 181
0 222 181
0 222 181
0 220 180
0 221 181
0 221 180
0 221 181
0 221 181
0 221 181
0 221 181
0 221 181
0 220 180
0 221 181
0 221 181
0 220 180
0 221 181
0 220 180
0 222 181
0 222 181
0 222 181
0 221 181
0 221 181
0 220 180
0 221 181
0 220 180
0 221 181
0 221 181
0 221 180
0 222 181
0 221 181
0 221 181
0 221 180
0 221 181
0 221 181
0 222 181
0 221 181
0 220 180
0 222 181
0 220 179
0 220 179
0 222 181
0 221 181
0 221 181
0 221 180
0 220 180
0 220 180
0 221 180
0 220 181
0 220 180
0 222 181
0 221 181
0 221 180
0 221 181
0 221 180
0 221 181
0 221 181
0 220 180
0 219 179
0 221 180
0 221 181
0 221 180
0 221 181
0 221 181
0 222 180
0 221 181
0 221 181
0 220 180
0 220 180
0 222 181
0 221 179
0 222 181
0 221 181
0 219 180
0 221 181
0 220 181
0 220 180
0 222 181
0 219 179
0 222 181
0 221 181
0 219 179
0 220 179
0 220 180
0 220 180
0 222 181
0 222 181
0 221 180
0 219 179
0 220 180
0 221 181
0 222 181
0 221 179
0 221 181
0 219 179
0 219 178
0 220 179
0 221 180
0 220 180
0 221 181
0 222 181
0 221 181
0 221 180
0 221 180
0 221 181
0 222 181
0 221 181
0 221 181
0 221 180
0 221 180
0 220 180
0 221 180
0 219 180
0 222 181
0 220 181
0 221 181
0 220 180
0 220 179
0 220 181
0 222 181
0 221 179
0 220 180
0 220 181
0 222 181
0 221 180
0 217 179
0 220 179
0 222 181
0 219 179
0 219 179
0 219 179
0 221 181
0 220 180
0 218 178
0 221 181
0 218 178
0 219 179
0 219 179
0 221 181
0 221 181
0 218 178
0 220 180
0 220 179
0 220 180
0 220 180
0 219 179
0 221 181
0 218 178
0 219 179
0 217 177
0 219 180
0 220 179
0 217 177
0 219 180
0 218 178
0 217 177
0 221 180
0 220 179
0 219 179
0 221 181
0 220 180
0 219 179
0 218 179
0 220 179
0 220 179
0 221 181
0 220 179
0 220 180
0 218 178
0 219 178
0 221 181
0 220 179
0 217 178
0 218 179
0 217 178
0 219 177
0 218 179
0 218 179
0 221 181
0 218 178
0 219 179
0 220 179
0 220 179
0 219 178
0 219 179
0 220 180
0 217 178
0 221 180
0 221 181
0 220 180
0 219 178
0 219 179
0 220 180
0 220 180
0 217 178
0 220 180
0 220 179
0 219 179
0 219 179
0 221 181
0 220 180
0 221 180
0 221 181
0 219 179
0 216 177
0 221 181
0 220 179
0 220 179
0 222 180
0 220 180
0 221 180
0 220 180
0 220 177
0 220 179
0 220 180
0 220 180
0 220 179
0 220 180
0 221 181
0 217 178
0 222 181
0 221 181
0 219 179
0 221 181
0 222 181
0 219 179
0 221 180
0 219 180
0 220 179
0 220 181
0 220 180
0 220 180
0 220 181
0 220 179
0 222 181
0 220 180
0 222 181
0 220 180
0 221 181
0 219 180
0 219 179
0 222 181
0 221 180
0 220 179
0 220 180
0 221 179
0 220 180
0 218 178
0 218 179
0 220 180
0 220 179
0 222 181
0 221 181
0 221 180
0 220 180
0 220 179
0 221 180
0 221 181
0 220 180
0 221 180
0 221 181
0 222 181
0 221 181
0 219 180
0 221 180
0 221 181
0 221 181
0 221 181
0 222 181
0 221 180
0 220 180
0 220 180
0 221 181
0 221 181
0 221 181
0 220 180
0 220 180
0 221 180
0 220 180
0 221 181
0 221 181
0 221 181
0 220 181
0 221 181
0 221 179
0 222 181
0 222 181
0 220 181
0 222 181
0 219 180
0 220 180
0 219 180
0 221 181
0 221 181
0 220 180
0 220 179
0 221 181
0 220 180
0 220 181
0 222 181
0 220 180
0 222 181
0 221 181
0 220 180
0 221 180
0 221 181
0 221 181
0 220 180
0 221 181
0 220 180
0 221 180
0 220 180
0 221 181
0 222 181
0 221 180
0 222 181
0 221 181
0 221 181
0 221 180
0 221 181
0 221 181
0 220 181
0 221 180
0 220 180
0 221 181
0 221 181
0 221 181
0 221 181
0 221 181
0 222 180
0 221 181
0 221 181
0 221 181
0 220 181
0 221 181
0 221 181
0 221 180
0 221 181
0 221 181
0 222 181
0 221 181
0 221 181
0 221 181
0 221 180
0 221 181
0 221 181
0 221 180
0 221 181
0 221 181
0 222 181
0 220 181
0 221 181
0 221 181
0 221 181
0 222 181
0 222 181
0 220 181
0 221 181
0 221 181
0 221 181
0 222 181
0 221 180
0 222 181
0 221 181
0 221 181
0 221 181
0 222 181
0 222 180
0 221 181
0 220 180
0 222 181
0 221 181
0 222 181
0 220 180
0 221 181
0 221 180
0 222 181
0 220 181
0 222 181
0 221 181
0 221 181
0 221 181
0 221 181
0 220 181
0 220 180
0 222 181
0 221 181
0 221 181
0 220 180
0 222 181
0 220 181
0 221 181
0 221 181
0 220 180
0 221 180
0 221 181
0 221 181
0 221 181
0 221 181
0 220 180
0 221 181
0 221 181
0 221 181
0 221 181
0 220 181
0 222 181
0 222 181
0 222 181
0 220 181
0 221 181
0 221 181
0 222 181
0 221 181
0 222 181
0 220 181
0 222 181
0 221 181
0 221 181
0 220 180
0 220 181
0 221 181
0 223 181
0 222 181
0 222 181
0 222 181
0 222 181
0 221 181
0 220 180
0 221 181
0 220 180
0 221 181
0 221 181
0 221 181
0 221 181
0 222 181
0 220 180
0 221 181
0 222 181
0 222 181
0 221 181
0 220 181
0 221 181
0 221 181
0 221 180
0 221 181
0 220 179
0 221 181
0 222 181
0 221 181
0 222 180
0 221 181
0 219 180
0 221 180
0 221 181
0 221 181
0 221 181
0 221 181
0 218 179
0 221 180
0 222 180
0 221 181
0 221 181
0 221 181
0 221 181
0 221 181
0 221 181
0 221 180
0 221 180
0 218 179
0 220 180
0 220 180
0 220 181
0 222 181
0 220 180
0 218 179
0 220 180
0 221 181
0 221 181
0 221 181
0 221 180
0 221 181
0 220 180
0 222 181
0 219 179
0 221 179
0 221 181
0 222 181
0 221 181
0 220 179
0 221 181
0 220 180
0 222 181
0 219 179
0 220 180
0 221 180
0 221 181
0 220 180
0 221 181
0 220 180
0 219 180
0 216 177
0 220 180
0 220 180
0 218 178
0 222 180
0 221 180
0 222 181
0 220 179
0 218 179
0 222 181
0 220 180
0 221 181
0 220 180
0 221 180
0 220 179
0 221 180
0 217 178
0 221 181
0 218 178
0 219 180
0 221 180
0 221 180
0 221 181
0 219 179
0 220 180
0 220 180
0 219 179
0 220 180
0 218 179
0 221 180
0 221 180
0 219 178
0 221 181
0 219 179
0 217 178
0 219 180
0 219 180
0 219 179
0 221 179
0 220 180
0 218 179
0 221 180
0 219 180
0 221 181
0 220 180
0 220 180
0 220 179
0 220 180
0 220 179
0 220 181
0 219 179
0 219 179
0 220 180
0 219 180
0 220 179
0 216 177
0 220 180
0 219 178
0 219 178
0 220 180
0 219 179
0 219 179
0 221 180
0 220 179
0 218 179
0 222 181
0 218 179
0 220 179
0 219 179
0 220 181
0 218 178
0 218 179
0 221 181
0 221 180
0 218 178
0 219 179
0 219 178
0 218 177
0 217 178
0 221 181
0 220 180
0 220 180
0 216 178
0 221 181
0 220 180
0 220 180
0 218 179
0 219 179
0 220 181
0 220 179
0 218 177
0 218 179
0 220 180
0 217 177
0 222 181
0 219 179
0 220 179
0 218 180
0 221 180
0 221 181
0 221 180
0 219 179
0 220 180
0 219 179
0 218 178
0 221 181
0 220 180
0 218 179
0 220 180
0 220 180
0 218 178
0 220 179
0 218 178
0 220 180
0 219 180
0 219 179
0 221 181
0 220 180
0 220 180
0 219 180
0 220 180
0 220 179
0 220 179
0 220 179
0 220 179
0 219 179
0 221 180
0 221 181
0 222 181
0 219 178
0 219 180
0 219 179
0 219 179
0 218 178
0 220 179
0 221 180
0 221 181
0 219 179
0 220 180
0 220 180
0 220 180
0 219 179
0 221 180
0 221 180
0 220 180
0 220 179
0 219 179
0 219 179
0 221 181
0 222 181
0 221 180
0 220 179
0 220 180
0 221 181
0 221 181
0 221 181
0 219 180
0 221 180
0 220 179
0 220 178
0 221 181
0 219 178
0 220 180
0 220 180
0 222 181
0 221 180
0 221 180
0 221 181
0 220 181
0 220 180
0 220 178
0 222 181
0 221 181
0 220 180
0 221 181
0 221 181
0 222 180
0 221 181
0 221 180
0 221 180
0 220 179
0 221 181
0 221 181
0 221 180
0 221 181
0 220 180
0 221 181
0 222 181
0 220 181
0 221 180
0 222 181
0 221 181
0 221 181
0 220 180
0 220 179
0 221 181
0 221 181
0 220 179
0 221 181
0 221 181
0 221 180
0 220 181
0 221 181
0 221 180
0 222 181
0 221 181
0 221 181
0 220 181
0 221 180
0 220 181
0 220 180
0 221 181
0 220 180
0 221 181
0 221 180
0 221 181
0 222 181
0 221 181
0 221 181
0 221 181
0 222 181
0 218 179
0 221 181
0 221 180
0 222 181
0 220 180
0 221 180
0 221 181
0 220 181
0 220 180
0 220 181
0 221 181
0 221 181
0 221 181
0 220 181
0 219 180
0 220 180
0 221 181
0 221 180
0 221 181
0 221 181
0 221 181
0 220 180
0 221 181
0 220 180
0 222 181
0 222 181
0 221 181
0 221 181
0 221 181
0 222 181
0 221 179
0 222 180
0 221 181
0 220 181
0 222 181
0 221 181
0 222 181
0 221 181
0 222 181
0 221 181
0 220 181
0 220 180
0 220 180
0 222 181
0 221 180
0 222 181
0 221 181
0 221 181
0 220 180
0 221 181
0 220 180
0 222 181
0 220 180
0 221 181
0 221 181
0 222 181
0 221 181
0 221 181
0 221 181
0 221 181
0 221 181
0 220 180
0 221 181
0 221 181
0 220 181
0 222 181
0 220 181
0 219 179
0 221 181
0 221 181
0 221 181
0 220 180
0 222 181
0 221 181
0 222 181
0 221 181
0 222 181
0 221 181
0 222 181
0 220 181
0 222 181
0 220 181
0 221 181
0 221 181
0 221 181
0 221 181
0 221 181
0 221 181
0 221 181
0 222 181
0 220 180
0 222 181
0 221 181
0 220 180
0 220 179
0 221 181
0 222 181
0 221 180
0 220 180
0 221 181
0 220 181
0 222 181
0 221 181
0 222 180
0 221 181
0 220 181
0 222 181
0 221 181
0 222 181
0 221 181
0 221 181
0 220 180
0 221 180
0 221 181
0 222 181
0 221 181
0 222 181
0 221 181
0 219 180
0 221 181
0 222 181
0 222 181
0 221 181
0 221 180
0 222 181
0 220 180
0 222 181
0 221 180
0 219 180
0 221 181
0 221 181
0 220 180
0 221 180
0 220 180
0 221 181
0 221 181
0 221 181
0 219 180
0 220 181
0 221 181
0 221 180
0 220 181
0 219 179
0 221 181
0 221 181
0 222 181
0 219 180
0 220 179
0 219 180
0 219 179
0 221 181
0 220 180
0 221 180
0 220 180
0 220 180
0 220 180
0 220 180
0 220 179
0 221 181
0 220 181
0 219 179
0 222 181
0 222 181
0 220 180
0 221 181
0 220 180
0 220 181
0 222 180
0 220 180
0 222 181
0 220 180
0 220 180
0 221 180
0 218 177
0 221 181
0 221 180
0 220 180
0 218 179
0 221 181
0 219 179
0 221 179
0 221 181
0 221 181
0 220 180
0 221 181
0 218 178
0 220 180
0 220 180
0 222 181
0 221 181
0 219 179
0 221 181
0 220 180
0 221 180
0 222 180
0 221 180
0 221 179
0 222 181
0 221 181
0 221 181
0 220 180
0 220 180
0 220 180
0 220 180
0 220 179
0 219 179
0 221 180
0 219 179
0 220 180
0 222 181
0 222 181
0 220 180
0 218 178
0 218 178
0 220 179
0 219 180
0 220 180
0 218 178
0 221 180
0 220 180
0 220 180
0 219 179
0 221 179
0 218 179
0 219 180
0 220 179
0 219 179
0 219 180
0 220 180
0 220 179
0 219 179
0 220 180
0 221 181
0 220 180
0 220 180
0 220 180
0 220 179
0 220 180
0 219 179
0 221 180
0 220 179
0 216 178
0 220 180
0 222 181
0 221 181
0 220 180
0 220 179
0 220 179
0 220 179
0 222 181
0 221 180
0 220 179
0 220 181
0 220 181
0 218 177
0 220 179
0 220 180
0 220 179
0 219 179
0 221 180
0 219 178
0 221 181
0 222 181
0 221 180
0 219 179
0 220 180
0 220 179
0 222 181
0 220 180
0 220 180
0 219 178
0 219 179
0 220 179
0 219 178
0 220 179
0 220 180
0 220 180
0 221 181
0 218 178
0 220 180
0 221 181
0 220 180
0 220 180
0 220 180
0 221 181
0 219 178
0 220 179
0 219 179
0 221 181
0 221 180
0 220 178
0 219 179
0 221 180
0 221 179
0 220 180
0 219 179
0 221 180
0 220 180
0 219 178
0 221 180
0 219 180
0 220 179
0 222 181
0 220 180
0 222 181
0 220 179
0 221 180
0 221 181
0 221 181
0 221 180
0 222 181
0 220 180
0 222 181
0 220 180
0 220 180
0 221 180
0 221 181
0 221 180
0 220 179
0 219 179
0 218 178
0 222 181
0 221 181
0 221 181
0 221 180
0 221 181
0 220 179
0 220 179
0 222 181
0 220 180
0 219 178
0 221 179
0 221 181
0 222 181
0 220 180
0 220 179
0 222 181
0 221 181
0 220 180
0 222 181
0 221 181
0 220 180
0 221 181
0 221 180
0 220 180
0 220 180
0 221 181
0 221 180
0 221 181
0 220 181
0 220 181
0 219 179
0 220 180
0 221 181
0 221 180
0 221 180
0 222 181
0 220 180
0 221 180
0 222 181
0 221 180
0 222 181
0 218 179
0 222 181
0 220 180
0 221 180
0 221 181
0 220 179
0 220 180
0 221 181
0 221 181
0 221 180
0 221 181
0 222 181
0 221 181
0 220 181
0 220 180
0 220 181
0 221 180
0 221 180
0 220 180
0 222 181
0 222 181
0 221 180
0 222 181
0 219 178
0 222 180
0 221 181
0 221 181
0 221 181
0 220 180
0 221 180
0 222 181
0 221 180
0 220 180
0 222 181
0 222 181
0 221 181
0 222 181
0 222 181
0 221 180
0 222 181
0 220 180
0 221 180
0 220 180
0 220 180
0 221 181
0 220 180
0 220 181
0 221 181
0 222 180
0 221 181
0 222 181
0 221 181
0 222 181
0 220 181
0 221 181
0 220 180
0 219 179
0 221 181
0 221 181
0 221 181
0 221 181
0 221 181
0 221 181
0 219 180
0 221 181
0 222 181
0 221 181
0 221 181
0 221 181
0 220 181
0 221 181
0 222 181
0 221 181
0 220 180
0 220 181
0 221 181
0 220 180
0 223 181
0 221 181
0 221 181
0 222 181
0 221 181
0 220 181
0 221 180
0 220 181
0 222 181
0 221 180
0 222 181
0 221 181
0 221 181
0 222 181
0 221 181
0 221 180
0 221 181
0 220 181
0 221 181
0 221 181
0 221 181
0 222 181
0 222 181
0 221 180
0 220 181
0 221 181
0 222 181
0 222 181
0 221 181
0 220 181
0 221 181
0 221 181
0 222 181
0 220 180
0 222 181
0 220 181
0 220 180
0 220 180
0 222 181
0 220 181
0 222 181
0 221 181
0 221 181
0 222 181
0 221 181
0 220 180
0 221 181
0 220 181
0 222 181
0 221 181
0 220 181
0 220 181
0 221 181
0 220 179
0 221 181
0 222 181
0 219 180
0 221 181
0 221 181
0 222 181
0 222 181
0 221 180
0 221 181
0 222 180
0 221 181
0 221 181
0 221 181
0 220 180
0 220 180
0 220 181
0 220 180
0 222 181
0 220 180
0 221 181
0 221 180
0 222 181
0 222 181
0 221 181
0 221 181
0 221 181
0 221 181
0 218 180
0 222 181
0 222 181
0 220 180
0 221 180
0 221 181
0 220 180
0 220 180
0 221 181
0 220 180
0 221 181
0 221 180
0 222 181
0 221 181
0 222 181
0 221 181
0 220 180
0 221 180
0 220 180
0 221 181
0 221 181
0 222 181
0 219 179
0 220 180
0 219 179
0 221 181
0 220 180
0 221 181
0 220 181
0 218 179
0 221 181
0 221 180
0 221 181
0 220 181
0 221 180
0 221 181
0 220 179
0 220 180
0 221 181
0 222 181
0 221 181
0 220 180
0 221 180
0 219 179
0 220 180
0 221 181
0 221 181
0 219 179
0 221 181
0 220 181
0 221 181
0 220 179
0 218 178
0 220 179
0 220 179
0 221 181
0 220 180
0 217 179
0 222 181
0 221 181
0 221 181
0 221 181
0 220 180
0 220 180
0 220 180
0 221 181
0 218 178
0 219 179
0 218 179
0 222 181
0 221 181
0 220 179
0 220 180
0 221 180
0 219 179
0 220 181
0 221 181
0 221 180
0 219 179
0 217 178
0 221 180
0 221 181
0 220 179
0 221 181
0 220 181
0 221 180
0 217 177
0 220 181
0 219 178
0 218 177
0 219 179
0 220 180
0 219 179
0 221 180
0 217 178
0 219 178
0 218 179
0 219 179
0 220 180
0 218 178
0 218 179
0 221 181
0 219 179
0 221 181
0 220 179
0 219 179
0 219 178
0 221 180
0 222 181
0 221 181
0 219 180
0 219 178
0 221 181
0 221 181
0 219 179
0 221 180
0 219 179
0 220 180
0 220 180
0 219 179
0 219 179
0 221 180
0 219 179
0 218 179
0 218 178
0 220 180
0 217 179
0 220 180
0 218 178
0 220 180
0 221 181
0 220 180
0 221 181
0 220 180
0 221 181
0 221 181
0 217 178
0 220 180
0 220 180
0 218 178
0 221 181
0 221 180
0 220 180
0 220 180
0 218 179
0 220 180
0 221 181
0 218 179
0 221 181
0 220 180
0 219 179
0 219 179
0 219 179
0 220 180
0 220 179
0 221 180
0 220 180
0 220 179
0 220 179
0 221 181
0 217 177
0 220 180
0 221 181
0 218 178
0 220 181
0 220 180
0 220 180
0 221 180
0 218 178
0 220 180
0 219 178
0 221 181
0 219 179
0 221 180
0 222 181
0 219 180
0 220 180
0 222 181
0 219 180
0 221 181
0 220 179
0 221 179
0 219 178
0 220 180
0 219 178
0 221 181
0 221 181
0 221 181
0 219 180
0 220 179
0 221 181
0 221 180
0 221 180
0 221 181
0 219 179
0 221 181
0 221 181
0 221 181
0 221 181
0 220 180
0 220 180
0 221 180
0 220 181
0 218 178
0 219 180
0 220 180
0 221 181
0 219 179
0 219 179
0 221 181
0 221 181
0 218 179
0 221 181
0 222 181
0 222 181
0 221 181
0 218 178
0 221 181
0 220 180
0 220 181
0 220 180
0 219 178
0 221 181
0 219 179
0 221 180
0 222 181
0 220 180
0 220 179
0 220 180
0 221 181
0 222 181
0 222 181
0 221 181
0 219 179
0 221 180
0 221 181
0 221 180
0 219 180
0 220 180
0 221 180
0 222 181
0 221 181
0 221 181
0 217 178
0 221 181
0 222 181
0 220 180
0 220 180
0 222 181
0 221 181
0 220 180
0 219 179
0 222 181
0 220 180
0 221 180
0 221 179
0 220 181
0 222 181
0 221 181
0 221 181
0 221 180
0 219 180
0 221 181
0 221 181
0 221 181
0 222 181
0 221 181
0 221 181
0 219 179
0 220 180
0 222 181
0 220 181
0 222 181
0 221 180
0 222 181
0 220 180
0 221 181
0 220 180
0 221 181
0 221 180
0 220 180
0 222 181
0 221 181
0 221 181
0 221 181
0 221 181
0 220 181
0 221 181
0 221 180
0 221 181
0 222 181
0 220 180
0 221 181
0 222 181
0 220 181
0 222 181
0 221 181
0 222 181
0 221 181
0 221 180
0 222 181
0 220 181
0 221 180
0 221 181
0 221 181
0 221 181
0 221 181
0 221 181
0 221 181
0 220 181
0 222 181
0 221 181
0 222 181
0 220 180
0 221 180
0 221 181
0 221 181
0 221 181
0 222 181
0 221 181
0 221 181
0 221 181
0 221 181
0 221 181
0 220 181
0 221 181
0 222 181
0 222 181
0 222 181
0 221 181
0 221 180
0 222 181
0 221 181
0 220 181
0 221 181
0 221 181
0 222 181
0 222 181
0 221 181
0 221 181
0 220 181
0 221 181
0 221 181
0 222 181
0 221 181
0 222 181
0 220 181
0 221 181
0 221 181
0 220 180
0 221 181
0 221 180
0 221 181
0 221 181
0 221 181
0 221 181
0 221 181
0 221 181
0 221 180
0 222 180
0 221 181
0 221 181
0 222 181
0 221 181
0 221 181
0 221 181
0 221 181
0 221 181
0 221 181
0 220 180
0 222 181
0 222 181
0 222 181
0 220 181
0 221 181
0 221 181
0 221 181
0 222 181
0 221 181
0 221 181
0 221 181
0 222 181
0 221 181
0 220 181
0 221 181
0 221 181
0 221 181
0 221 181
0 221 181
0 221 180
0 221 181
0 222 181
0 221 180
0 220 181
0 221 181
0 222 181
0 220 180
0 220 180
0 222 181
0 222 181
0 221 180
0 222 181
0 221 181
0 221 181
0 220 181
0 222 181
0 221 181
0 222 181
0 221 181
0 221 181
0 221 181
0 221 180
0 220 180
0 220 181
0 221 181
0 221 180
0 221 180
0 219 179
0 222 181
0 220 179
0 220 180
0 220 180
0 219 180
0 222 181
0 221 181
0 221 179
0 221 181
0 220 181
0 221 181
0 220 180
0 220 180
0 221 181
0 221 181
0 222 181
0 222 181
0 220 181
0 220 180
0 219 179
0 222 180
0 220 181
0 222 181
0 222 181
0 221 181
0 218 179
0 221 180
0 221 180
0 220 180
0 221 181
0 221 180
0 221 180
0 220 180
0 221 181
0 222 181
0 220 180
0 220 180
0 221 181
0 222 181
0 220 180
0 220 181
0 221 180
0 221 180
0 219 178
0 220 180
0 219 179
0 220 179
0 221 181
0 221 181
0 219 180
0 219 179
0 221 181
0 220 181
0 219 178
0 221 181
0 219 180
0 220 180
0 221 181
0 219 179
0 220 180
0 221 181
0 218 179
0 221 181
0 220 180
0 220 179
0 221 181
0 217 177
0 221 181
0 218 178
0 221 180
0 220 179
0 220 179
0 220 180
0 219 180
0 220 180
0 220 180
0 220 180
0 219 179
0 220 180
0 220 179
0 219 179
0 221 180
0 221 180
0 221 181
0 221 181
0 220 180
0 218 179
0 221 181
0 219 179
0 221 181
0 217 178
0 220 180
0 221 179
0 220 180
0 218 178
0 220 181
0 220 180
0 221 180
0 219 179
0 219 178
0 219 179
0 221 181
0 220 180
0 219 180
0 219 179
0 219 179
0 220 180
0 221 181
0 220 180
0 218 179
0 218 179
0 221 180
0 220 178
0 221 181
0 220 180
0 220 180
0 221 180
0 221 180
0 219 180
0 221 181
0 221 181
0 221 180
0 218 179
0 220 180
0 220 180
0 219 179
0 221 181
0 220 180
0 222 181
0 219 179
0 220 180
0 221 180
0 220 180
0 220 179
0 219 178
0 220 180
0 221 180
0 219 179
0 218 178
0 219 179
0 220 180
0 220 180
0 219 179
0 219 179
0 219 178
0 220 179
0 219 179
0 221 181
0 220 179
0 222 181
0 221 181
0 221 180
0 221 180
0 219 179
0 220 179
0 221 181
0 219 178
0 220 179
0 219 179
0 220 179
0 220 179
0 221 180
0 220 181
0 220 181
0 219 179
0 221 181
0 220 180
0 219 179
0 221 181
0 220 178
0 222 181
0 221 181
0 220 180
0 219 179
0 221 181
0 222 181
0 218 179
0 220 180
0 221 180
0 221 181
0 217 178
0 220 180
0 220 179
0 221 180
0 220 180
0 220 180
0 221 180
0 219 179
0 219 180
0 221 180
0 221 181
0 220 179
0 220 180
0 222 181
0 222 181
0 219 178
0 220 180
0 222 181
0 220 181
0 221 181
0 220 180
0 219 179
0 220 179
0 221 181
0 221 181
0 221 181
0 221 180
0 221 181
0 221 180
0 219 179
0 220 180
0 219 179
0 221 181
0 222 181
0 222 181
0 221 180
0 219 179
0 220 181
0 220 180
0 221 181
0 219 179
0 220 180
0 221 180
0 221 181
0 221 181
0 222 181
0 220 180
0 220 180
0 221 181
0 220 181
0 222 181
0 221 181
0 220 180
0 221 181
0 222 181
0 220 180
0 222 181
0 221 181
0 220 181
0 221 181
0 222 181
0 221 181
0 221 180
0 221 181
0 221 181
0 220 180
0 221 181
0 221 181
0 220 179
0 221 181
0 222 181
0 221 180
0 219 180
0 221 181
0 221 180
0 221 181
0 220 180
0 222 181
0 221 181
0 220 180
0 221 181
0 221 181
0 221 181
0 221 181
0 219 180
0 220 180
0 221 180
0 221 180
0 219 179
0 221 180
0 221 181
0 221 181
0 220 181
0 221 181
0 221 181
0 221 181
0 220 181
0 221 181
0 222 181
0 221 180
0 223 181
0 222 181
0 221 181
0 221 181
0 221 181
0 221 181
0 222 181
0 221 181
0 220 180
0 221 181
0 220 180
0 221 181
0 221 181
0 222 181
0 221 181
0 222 181
0 221 181
0 221 181
0 221 181
0 221 181
0 221 181
0 221 181
0 221 181
0 222 181
0 221 181
0 221 181
0 221 181
0 221 181
0 221 181
0 219 180
0 221 181
0 221 181
0 220 180
0 221 180
0 222 181
0 220 181
0 221 181
0 221 180
0 222 181
0 221 180
0 221 181
0 222 181
0 222 181
0 222 181
0 221 180
0 221 181
0 221 181
0 222 181
0 220 180
0 221 181
0 221 181
0 222 181
0 220 181
0 221 181
0 221 181
0 220 181
0 222 181
0 221 181
0 221 181
0 221 181
0 220 180
0 222 181
0 220 180
0 221 181
0 221 181
0 221 181
0 220 180
0 220 180
0 221 181
0 221 181
0 221 181
0 221 181
0 221 181
0 221 181
0 221 181
0 221 181
0 220 180
0 221 181
0 221 181
0 221 181
0 221 181
0 221 181
0 222 181
0 221 181
0 221 181
0 221 181
0 220 180
0 221 181
0 220 180
0 220 181
0 220 180
0 222 181
0 220 180
0 221 181
0 222 181
0 221 180
0 220 180
0 221 181
0 221 181
0 221 181
0 222 181
0 221 181
0 221 181
0 221 181
0 221 181
0 222 181
0 220 180
0 221 181
0 222 181
0 221 181
0 221 181
0 219 180
0 221 181
0 219 180
0 220 181
0 221 180
0 221 181
0 220 180
0 221 179
0 220 180
0 221 180
0 222 181
0 221 181
0 221 181
0 222 181
0 221 181
0 221 181
0 221 181
0 220 180
0 221 181
0 219 180
0 221 181
0 221 181
0 220 180
0 221 179
0 221 181
0 221 181
0 221 181
0 220 180
0 218 179
0 221 180
0 220 180
0 220 180
0 221 181
0 219 180
0 220 180
0 220 180
0 221 181
0 217 178
0 220 180
0 220 180
0 221 180
0 219 179
0 220 181
0 221 181
0 221 181
0 220 180
0 222 181
0 220 180
0 222 180
0 221 180
0 221 181
0 220 180
0 221 180
0 221 180
0 221 181
0 220 180
0 221 180
0 220 179
0 221 180
0 220 180
0 222 180
0 220 180
0 218 178
0 220 179
0 222 180
0 220 180
0 219 179
0 221 181
0 222 181
0 222 181
0 220 180
0 218 178
0 220 180
0 222 181
0 220 181
0 220 180
0 218 177
0 220 180
0 219 179
0 218 178
0 219 179
0 219 179
0 221 181
0 220 179
0 220 180
0 221 179
0 220 180
0 221 180
0 218 179
0 219 179
0 218 179
0 221 181
0 220 179
0 221 181
0 221 181
0 221 180
0 218 179
0 217 178
0 221 180
0 218 177
0 221 180
0 221 180
0 221 180
0 220 180
0 221 181
0 218 178
0 219 180
0 221 181
0 218 178
0 221 180
0 220 180
0 221 180
0 220 180
0 221 180
0 221 181
0 219 179
0 218 178
0 220 179
0 220 180
0 220 180
0 219 179
0 221 181
0 221 181
0 221 181
0 221 181
0 221 181
0 219 179
0 221 180
0 221 180
0 221 181
0 219 179
0 217 178
0 216 176
0 219 179
0 222 180
0 218 178
0 218 178
0 222 180
0 220 180
0 220 180
0 222 181
0 221 181
0 220 180
0 220 180
0 218 178
0 219 179
0 221 181
0 221 181
0 219 179
0 219 180
0 219 178
0 222 181
0 219 179
0 220 180
0 220 181
0 221 181
0 221 180
0 222 181
0 221 181
0 221 180
0 221 180
0 220 180
0 219 179
0 221 180
0 220 180
0 221 181
0 221 181
0 221 181
0 221 181
0 219 179
0 222 180
0 221 181
0 219 178
0 220 180
0 221 181
0 220 181
0 219 178
0 221 181
0 221 181
0 218 179
0 220 180
0 220 178
0 222 181
0 220 181
0 219 180
0 219 179
0 220 181
0 220 180
0 221 180
0 221 181
0 220 181
0 221 181
0 219 179
0 219 180
0 219 180
0 219 178
0 221 181
0 220 180
0 220 181
0 222 181
0 220 179
0 221 181
0 222 181
0 220 179
0 220 180
0 221 181
0 222 181
0 221 180
0 220 180
0 220 180
0 220 180
0 220 180
0 221 180
0 221 181
0 222 181
0 221 181
0 220 180
0 221 180
0 220 179
0 220 181
0 220 180
0 220 180
0 220 179
0 221 181
0 221 181
0 221 180
0 220 181
0 221 181
0 221 181
0 222 180
0 220 181
0 220 180
0 221 181
0 220 180
0 222 181
0 221 181
0 222 181
0 221 181
0 221 181
0 221 180
0 220 180
0 221 181
0 220 180
0 221 181
0 222 181
0 219 179
0 222 181
0 221 181
0 221 181
0 222 181
0 221 180
0 222 180
0 222 181
0 220 179
0 220 179
0 220 180
0 220 181
0 221 180
0 221 181
0 221 181
0 222 181
0 221 181
0 220 180
0 219 179
0 220 181
0 221 181
0 220 181
0 220 180
0 222 180
0 220 180
0 222 181
0 222 181
0 221 181
0 221 181
0 220 180
0 221 180
0 221 181
0 221 181
0 220 180
0 221 181
0 221 181
0 221 180
0 219 178
0 221 180
0 220 180
0 221 181
0 220 181
0 221 181
0 222 181
0 221 181
0 219 179
0 221 181
0 220 180
0 220 180
0 222 181
0 221 181
0 221 181
0 221 181
0 221 180
0 221 181
0 221 181
0 221 181
0 221 181
0 222 181
0 220 180
0 222 181
0 221 181
0 222 181
0 221 181
0 221 180
0 220 180
0 222 181
0 222 181
0 221 181
0 221 181
0 221 181
0 221 181
0 222 181
0 221 181
0 221 181
0 220 181
0 222 181
0 222 180
0 221 181
0 221 181
0 222 181
0 221 181
0 221 181
0 222 181
0 221 181
0 222 181
0 221 181
0 219 179
0 222 181
0 220 181
0 220 181
0 222 181
0 222 181
0 221 181
0 220 181
0 222 181
0 222 181
0 221 181
0 221 181
0 220 180
0 220 181
0 222 181
0 220 181
0 221 181
0 221 181
0 222 181
0 220 180
0 221 181
0 221 181
0 221 181
0 222 181
0 221 181
0 221 180
0 221 181
0 221 181
0 221 181
0 221 181
0 220 180
0 221 181
0 219 180
0 221 181
0 221 180
0 221 180
0 220 180
0 220 179
0 221 181
0 222 181
0 221 180
0 220 180
0 222 181
0 221 181
0 221 181
0 221 181
0 221 181
0 221 181
0 221 181
0 221 181
0 221 181
0 220 181
0 221 181
0 221 181
0 220 180
0 220 181
0 221 181
0 220 180
0 222 181
0 221 181
0 220 180
0 221 181
0 221 181
0 220 181
0 220 181
0 222 181
0 221 180
0 221 181
0 221 181
0 220 180
0 221 181
0 221 181
0 220 181
0 220 181
0 221 181
0 221 180
0 221 181
0 220 180
0 222 181
0 220 180
0 222 181
0 221 181
0 221 180
0 220 181
0 221 181
0 221 181
0 221 181
0 221 181
0 221 181
0 221 180
0 221 181
0 220 180
0 221 181
0 222 181
0 221 180
0 220 181
0 221 181
0 221 181
0 219 180
0 220 181
0 222 181
0 220 180
0 221 181
0 221 180
0 221 180
0 221 179
0 221 180
0 220 180
0 220 181
0 219 179
0 221 180
0 219 179
0 221 181
0 222 181
0 219 179
0 222 180
0 221 181
0 221 180
0 220 181
0 220 181
0 220 180
0 221 180
0 221 181
0 221 181
0 219 179
0 221 180
0 219 180
0 219 179
0 221 179
0 219 179
0 220 180
0 221 180
0 220 180
0 220 179
0 221 181
0 220 180
0 220 180
0 219 179
0 220 180
0 221 181
0 220 179
0 221 180
0 219 179
0 221 179
0 219 179
0 221 181
0 221 181
0 221 180
0 221 181
0 220 180
0 221 180
0 220 178
0 218 178
0 221 180
0 219 180
0 222 181
0 216 176
0 216 178
0 222 181
0 219 178
0 217 177
0 218 179
0 220 180
0 221 181
0 220 180
0 221 181
0 221 179
0 219 179
0 221 180
0 219 179
0 221 181
0 220 180
0 220 179
0 219 180
0 219 179
0 221 181
0 221 180
0 220 180
0 219 179
0 221 180
0 220 180
0 220 180
0 220 179
0 221 181
0 217 178
0 221 181
0 220 179
0 220 180
0 218 180
0 220 180
0 220 180
0 220 180
0 220 180
0 222 181
0 221 179
0 217 177
0 218 178
0 221 181
0 221 180
0 218 179
0 221 181
0 219 179
0 218 179
0 219 179
0 221 180
0 220 180
0 220 180
0 220 180
0 220 181
0 221 180
0 221 180
0 218 178
0 219 178
0 221 180
0 220 180
0 221 181
0 221 181
0 220 179
0 222 180
0 220 180
0 218 178
0 218 178
0 221 180
0 220 180
0 220 181
0 220 180
0 221 181
0 218 178
0 222 181
0 220 180
0 221 181
0 219 179
0 220 180
0 220 181
0 219 180
0 221 180
0 221 180
0 221 180
0 219 178
0 219 179
0 220 180
0 218 178
0 219 179
0 220 180
0 221 181
0 219 179
0 220 179
0 221 180
0 222 181
0 220 180
0 221 180
0 220 180
0 219 179
0 220 180
0 221 180
0 218 178
0 221 180
0 222 181
0 219 180
0 221 181
0 221 181
0 221 181
0 219 180
0 221 181
0 219 179
0 221 181
0 221 181
0 220 180
0 219 179
0 221 179
0 220 180
0 220 180
0 221 180
0 221 180
0 220 181
0 219 178
0 221 181
0 220 180
0 222 181
0 221 180
0 221 181
0 221 180
0 220 180
0 222 181
0 221 181
0 221 181
0 220 179
0 220 179
0 221 180
0 220 180
0 221 181
0 220 180
0 222 181
0 221 181
0 221 181
0 221 181
0 221 181
0 221 181
0 221 180
0 222 181
0 221 181
0 222 181
0 220 180
0 222 181
0 222 180
0 221 181
0 221 181
0 220 180
0 221 181
0 221 180
0 221 181
0 221 180
0 222 181
0 221 180
0 220 181
0 221 180
0 221 181
0 220 181
0 222 181
0 221 181
0 221 181
0 222 181
0 220 180
0 221 179
0 221 181
0 222 181
0 220 179
0 219 179
0 222 181
0 222 181
0 222 181
0 221 181
0 222 181
0 221 181
0 221 181
0 221 181
0 221 180
0 221 181
0 220 180
0 221 180
0 221 181
0 221 181
0 221 181
0 220 181
0 221 181
0 220 181
0 221 180
0 220 180
0 221 181
0 221 181
0 220 180
0 221 180
0 221 180
0 221 181
0 222 181
0 221 181
0 221 180
0 221 181
0 222 181
0 220 180
0 221 181
0 220 180
0 222 181
0 220 180
0 222 181
0 221 181
0 220 181
0 221 180
0 222 181
0 221 181
0 222 181
0 220 181
0 222 181
0 222 181
0 221 181
0 221 181
0 223 181
0 221 181
0 221 181
0 221 181
0 221 181
0 221 181
0 221 181
0 222 181
0 221 181
0 222 181
0 221 181
0 222 181
0 222 181
0 220 180
0 221 181
0 221 181
0 220 181
0 221 181
0 220 181
0 222 181
0 221 181
0 220 181
0 221 181
0 221 181
0 221 181
0 220 180
0 221 181
0 221 181
0 221 181
0 222 181
0 221 181
0 220 179
0 221 181
0 221 181
0 221 181
0 221 181
0 222 180
0 221 181
0 221 180
0 221 181
0 222 181
0 220 181
0 220 180
0 221 181
0 222 181
0 221 181
0 222 180
0 221 181
0 221 181
0 220 181
0 220 180
0 221 181
0 220 181
0 222 181
0 220 180
0 221 181
0 219 179
0 221 180
0 221 181
0 222 181
0 222 181
0 222 181
0 222 181
0 221 180
0 220 180
0 221 181
0 221 181
0 222 180
0 221 181
0 221 181
0 222 181
0 220 180
0 220 180
0 220 180
0 222 181
0 221 181
0 221 181
0 221 181
0 220 180
0 221 181
0 221 181
0 222 181
0 222 181
0 221 181
0 220 180
0 220 180
0 221 181
0 221 181
0 221 180
0 221 181
0 220 180
0 221 181
0 222 181
0 221 181
0 220 181
0 222 181
0 221 180
0 221 181
0 218 179
0 221 181
0 221 181
0 220 180
0 221 181
0 222 181
0 220 179
0 221 181
0 221 181
0 221 181
0 221 181
0 220 180
0 221 179
0 222 181
0 221 181
0 221 180
0 221 181
0 221 181
0 222 181
0 219 180
0 221 181
0 222 181
0 220 179
0 220 180
0 220 180
0 218 179
0 220 180
0 222 180
0 221 181
0 221 181
0 219 179
0 221 181
0 221 180
0 218 179
0 222 180
0 220 179
0 220 180
0 221 180
0 222 181
0 222 180
0 221 181
0 220 180
0 220 178
0 219 178
0 220 179
0 222 181
0 220 180
0 220 180
0 220 181
0 222 181
0 221 181
0 221 180
0 219 178
0 221 181
0 219 180
0 221 181
0 218 179
0 221 180
0 220 180
0 221 181
0 220 180
0 220 180
0 221 181
0 221 180
0 221 180
0 220 180
0 219 179
0 221 181
0 220 180
0 220 180
0 219 178
0 219 179
0 220 180
0 219 179
0 222 180
0 220 180
0 221 181
0 220 179
0 219 179
0 220 180
0 218 178
0 220 180
0 220 180
0 219 179
0 222 181
0 217 178
0 218 178
0 219 180
0 220 180
0 218 179
0 219 179
0 218 179
0 220 180
0 220 181
0 220 181
0 221 180
0 219 180
0 217 179
0 221 181
0 219 179
0 222 181
0 218 178
0 220 180
0 220 180
0 220 178
0 220 180
0 219 179
0 219 180
0 217 178
0 218 178
0 220 179
0 220 180
0 219 179
0 221 181
0 220 180
0 220 179
0 218 179
0 218 177
0 219 179
0 216 177
0 220 180
0 220 180
0 221 180
0 221 180
0 218 178
0 220 180
0 220 180
0 222 181
0 221 180
0 220 179
0 221 181
0 220 179
0 221 180
0 220 180
0 220 179
0 218 179
0 217 177
0 220 181
0 219 179
0 220 180
0 221 181
0 219 180
0 222 181
0 220 180
0 222 181
0 220 180
0 222 181
0 219 179
0 221 180
0 222 181
0 220 180
0 220 180
0 220 179
0 221 181
0 221 180
0 222 181
0 220 180
0 222 181
0 218 179
0 220 179
0 220 181
0 220 180
0 220 179
0 219 179
0 220 180
0 219 179
0 222 181
0 221 181
0 218 179
0 221 179
0 218 178
0 221 181
0 220 180
0 221 181
0 219 179
0 222 181
0 221 180
0 219 179
0 219 179
0 221 179
0 220 180
0 221 181
0 221 181
0 218 179
0 219 179
0 221 180
0 221 181
0 221 181
0 220 180
0 221 180
0 220 180
0 222 181
0 222 181
0 219 179
0 221 181
0 221 181
0 220 180
0 220 180
0 221 180
0 221 181
0 221 181
0 220 180
0 221 181
0 219 179
0 219 179
0 219 179
0 221 180
0 221 181
0 219 180
0 219 180
0 222 181
0 220 180
0 220 180
0 221 180
0 220 180
0 220 181
0 222 181
0 222 180
0 222 181
0 221 181
0 221 181
0 221 180
0 221 181
0 221 180
0 221 179
0 220 179
0 221 181
0 220 180
0 221 181
0 220 180
0 221 181
0 221 180
0 221 181
0 220 180
0 221 181
0 221 181
0 221 181
0 221 180
0 222 181
0 220 181
0 220 180
0 220 181
0 221 181
0 221 181
0 222 181
0 221 180
0 221 181
0 221 181
0 222 181
0 221 181
0 222 181
0 221 181
0 221 180
0 221 180
0 221 181
0 220 180
0 220 180
0 221 181
0 222 181
0 219 180
0 222 181
0 222 181
0 221 180
0 221 180
0 221 180
0 221 181
0 220 181
0 222 181
0 221 181
0 221 180
0 219 180
0 221 180
0 221 181
0 219 180
0 220 181
0 221 181
0 220 180
0 220 180
0 222 181
0 221 181
0 221 180
0 221 180
0 221 180
0 221 181
0 221 181
0 221 180
0 220 180
0 220 181
0 221 181
0 221 181
0 221 181
0 220 180
0 220 181
0 221 180
0 222 181
0 220 180
0 221 180
0 221 180
0 221 180
0 221 180
0 221 181
0 221 181
0 221 181
0 221 181
0 221 181
0 221 180
0 221 181
0 222 181
0 222 181
0 220 181
0 220 181
0 221 181
0 222 181
0 221 181
0 221 181
0 221 181
0 220 179
0 221 181
0 221 181
0 221 181
0 221 181
0 221 181
0 220 180
0 220 181
0 221 181
0 222 181
0 220 181
0 221 181
0 222 181
0 221 181
0 221 181
0 221 181
0 222 181
0 220 181
0 221 180
0 220 181
0 222 181
0 221 181
0 221 181
0 222 181
0 221 181
0 222 181
0 221 181
0 221 181
0 220 181
0 222 181
0 222 181
0 221 181
0 221 181
0 220 181
0 221 181
0 221 181
0 221 181
0 221 181
0 221 181
0 221 181
0 220 181
0 220 180
0 221 181
0 222 181
0 221 181
0 221 181
0 222 181
0 220 181
0 221 181
0 220 181
0 221 181
0 220 180
0 220 180
0 222 181
0 220 180
0 221 181
0 220 180
0 220 181
0 221 180
0 220 180
0 222 181
0 221 181
0 221 181
0 221 181
0 220 180
0 221 181
0 221 180
0 222 181
0 222 181
0 221 181
0 221 181
0 222 181
0 220 179
0 221 181
0 221 181
0 221 181
0 221 181
0 221 181
0 221 181
0 221 181
0 222 181
0 222 180
0 222 181
0 221 181
0 221 181
0 221 181
0 221 181
0 221 181
0 221 180
0 221 181
0 222 181
0 222 181
0 221 181
0 221 181
0 221 181
0 221 181
0 221 181
0 221 181
0 221 180
0 222 180
0 221 181
0 222 181
0 221 180
0 221 180
0 221 181
0 221 180
0 220 179
0 221 180
0 221 181
0 221 180
0 220 180
0 222 181
0 221 180
0 220 180
0 221 181
0 222 181
0 222 181
0 221 181
0 221 181
0 219 180
0 222 181
0 221 180
0 221 180
0 218 179
0 220 179
0 221 180
0 220 180
0 222 181
0 221 181
0 222 181
0 220 179
0 220 180
0 221 181
0 221 181
0 220 179
0 221 180
0 221 179
0 222 181
0 219 180
0 218 179
0 220 179
0 220 180
0 220 179
0 219 180
0 223 181
0 220 180
0 220 179
0 218 178
0 220 180
0 221 181
0 222 181
0 219 179
0 221 180
0 220 180
0 221 180
0 220 180
0 219 179
0 217 177
0 219 180
0 220 181
0 221 181
0 220 180
0 218 178
0 220 181
0 221 181
0 219 180
0 220 180
0 220 181
0 221 181
0 220 179
0 220 180
0 221 181
0 221 181
0 220 180
0 220 180
0 219 179
0 219 179
0 220 180
0 220 180
0 218 179
0 220 179
0 220 181
0 220 180
0 220 180
0 221 180
0 219 179
0 220 180
0 221 181
0 219 179
0 219 180
0 219 180
0 221 180
0 220 181
0 220 181
0 221 180
0 219 179
0 219 178
0 219 180
0 220 181
0 221 181
0 219 179
0 221 181
0 221 181
0 217 177
0 219 179
0 219 179
0 216 176
0 221 179
0 219 180
0 218 178
0 220 179
0 220 180
0 219 180
0 220 180
0 220 180
0 220 181
0 221 181
0 221 180
0 219 180
0 219 179
0 219 179
0 222 181
0 218 178
0 220 180
0 220 181
0 219 180
0 220 180
0 217 178
0 219 180
0 220 180
0 222 181
0 220 179
0 220 179
0 221 181
0 220 180
0 220 180
0 220 180
0 221 179
0 221 181
0 220 179
0 220 179
0 220 179
0 221 180
0 220 178
0 219 180
0 222 180
0 220 179
0 220 180
0 219 179
0 221 181
0 219 179
0 220 179
0 222 181
0 221 180
0 220 180
0 219 179
0 221 181
0 221 181
0 219 179
0 220 180
0 220 180
0 221 180
0 221 180
0 219 179
0 220 180
0 220 181
0 221 181
0 219 178
0 221 181
0 220 179
0 221 181
0 220 179
0 222 181
0 219 179
0 219 180
0 222 181
0 221 181
0 219 179
0 220 180
0 221 181
0 220 180
0 220 179
0 221 181
0 222 180
0 221 181
0 222 181
0 221 180
0 221 181
0 220 180
0 220 180
0 220 181
0 220 180
0 220 180
0 219 179
0 221 181
0 220 180
0 222 181
0 221 181
0 222 181
0 219 179
0 222 181
0 221 181
0 221 181
0 221 180
0 221 181
0 221 181
0 220 179
0 220 179
0 221 181
0 222 181
0 221 181
0 222 181
0 221 181
0 222 181
0 221 181
0 221 181
0 222 181
0 221 181
0 221 181
0 221 181
0 222 181
0 221 179
0 221 181
0 221 181
0 221 181
0 220 179
0 220 180
0 221 180
0 220 180
0 221 181
0 220 180
0 219 180
0 221 181
0 220 181
0 222 181
0 221 181
0 219 179
0 221 181
0 222 181
0 221 181
0 220 180
0 221 181
0 222 181
0 220 181
0 220 179
0 220 179
0 220 180
0 220 181
0 221 181
0 221 180
0 221 181
0 221 181
0 222 181
0 221 181
0 220 180
0 221 181
0 221 181
0 221 179
0 220 180
0 219 180
0 220 181
0 221 180
0 222 181
0 220 179
0 221 181
0 220 180
0 221 181
0 220 180
0 221 181
0 220 179
0 222 181
0 220 181
0 220 180
0 221 181
0 222 181
0 220 181
0 220 180
0 220 179
0 222 181
0 221 181
0 222 181
0 220 180
0 221 181
0 223 181
0 221 181
0 222 181
0 222 181
0 221 181
0 222 181
0 221 181
0 222 181
0 221 181
0 222 181
0 221 181
0 222 181
0 221 181
0 221 181
0 221 181
0 220 181
0 222 181
0 220 181
0 222 181
0 222 181
0 221 181
0 221 181
0 221 181
0 221 181
0 221 181
0 221 181
0 221 181
0 221 181
0 221 181
0 220 180
0 221 181
0 222 181
0 221 181
0 221 181
0 221 181
0 221 181
0 220 181
0 221 181
0 221 181
0 222 181
0 222 181
0 222 181
0 221 181
0 220 180
0 221 181
0 221 181
0 222 181
0 221 180
0 222 181
0 219 180
0 222 181
0 222 181
0 221 181
0 221 181
0 222 181
0 220 181
0 221 181
0 221 181
0 219 180
0 221 181
0 221 181
0 221 180
0 220 181
0 221 180
0 221 180
0 220 180
0 221 181
0 221 181
0 221 181
0 220 181
0 221 180
0 221 180
0 221 181
0 221 181
0 220 180
0 221 181
0 221 181
0 221 181
0 222 181
0 221 181
0 220 180
0 221 180
0 220 180
0 223 181
0 220 181
0 220 181
0 220 180
0 221 181
0 221 180
0 220 180
0 221 181
0 222 181
0 222 181
0 220 181
0 222 181
0 221 181
0 223 181
0 221 181
0 222 181
0 221 181
0 220 181
0 221 181
0 220 181
0 221 181
0 221 181
0 221 181
0 221 181
0 221 180
0 221 181
0 221 181
0 222 181
0 220 180
0 222 181
0 221 181
0 221 180
0 222 181
0 219 180
0 221 181
0 221 180
0 221 181
0 220 179
0 221 180
0 221 181
0 221 181
0 222 181
0 221 181
0 220 180
0 221 181
0 220 181
0 221 181
0 221 181
0 221 181
0 221 181
0 220 181
0 219 178
0 220 180
0 221 181
0 221 181
0 221 181
0 221 181
0 220 181
0 220 180
0 221 181
0 220 181
0 220 181
0 219 180
0 219 180
0 220 180
0 220 180
0 221 181
0 221 181
0 220 180
0 220 180
0 220 180
0 222 181
0 220 181
0 220 181
0 221 181
0 221 181
0 221 181
0 221 181
0 221 180
0 221 180
0 219 180
0 219 179
0 219 180
0 222 181
0 218 179
0 220 180
0 219 180
0 219 179
0 220 180
0 220 180
0 221 180
0 219 179
0 220 180
0 221 181
0 220 180
0 220 181
0 221 181
0 220 180
0 220 180
0 220 180
0 219 179
0 221 180
0 221 181
0 220 181
0 220 180
0 221 180
0 221 181
0 221 181
0 220 180
0 221 181
0 220 180
0 220 180
0 221 181
0 221 180
0 221 180
0 220 179
0 220 179
0 219 179
0 219 180
0 220 180
0 220 179
0 221 181
0 220 179
0 220 180
0 222 181
0 221 181
0 219 179
0 219 180
0 220 180
0 220 179
0 220 179
0 220 180
0 219 179
0 219 180
0 220 180
0 219 179
0 219 180
0 221 180
0 219 179
0 220 180
0 220 180
0 221 180
0 221 181
0 220 180
0 220 180
0 221 181
0 221 181
0 219 179
0 219 179
0 221 180
0 220 180
0 221 181
0 221 180
0 219 179
0 220 179
0 218 180
0 220 179
0 219 179
0 220 181
0 221 181
0 219 180
0 218 178
0 220 180
0 221 181
0 220 180
0 220 179
0 219 179
0 220 180
0 221 181
0 219 180
0 219 178
0 221 181
0 220 178
0 219 179
0 221 180
0 219 179
0 220 180
0 222 181
0 217 178
0 220 181
0 219 180
0 219 179
0 221 181
0 217 179
0 219 179
0 221 181
0 221 181
0 222 181
0 221 181
0 219 180
0 221 181
0 219 179
0 219 179
0 222 181
0 220 178
0 219 179
0 220 180
0 221 180
0 220 181
0 221 180
0 221 181
0 221 179
0 221 181
0 222 180
0 221 181
0 221 181
0 218 177
0 220 180
0 220 179
0 221 181
0 222 181
0 221 181
0 221 180
0 221 180
0 221 180
0 221 181
0 221 181
0 220 181
0 221 180
0 222 181
0 221 181
0 221 181
0 221 180
0 221 181
0 221 180
0 221 180
0 220 180
0 222 181
0 221 180
0 221 181
0 221 180
0 222 181
0 222 181
0 221 181
0 219 180
0 220 180
0 219 180
0 221 181
0 221 181
0 220 180
0 222 180
0 221 181
0 222 181
0 220 180
0 220 181
0 220 180
0 220 180
0 222 181
0 221 181
0 221 181
0 221 181
0 220 180
0 220 179
0 221 181
0 220 181
0 221 181
0 221 181
0 221 180
0 221 180
0 220 180
0 221 181
0 222 181
0 221 181
0 221 181
0 220 179
0 218 178
0 221 180
0 221 180
0 221 181
0 220 180
0 220 180
0 221 181
0 221 181
0 221 181
0 221 181
0 221 180
0 222 181
0 222 181
0 222 181
0 222 181
0 222 181
0 221 180
0 220 181
0 221 181
0 222 181
0 221 180
0 220 181
0 220 181
0 221 180
0 220 180
0 222 181
0 221 181
0 220 179
0 222 180
0 221 181
0 222 181
0 221 181
0 221 181
0 221 181
0 220 180
0 219 180
0 221 181
0 222 181
0 221 181
0 221 181
0 221 181
0 221 181
0 221 180
0 221 181
0 220 181
0 220 180
0 222 181
0 221 181
0 220 181
0 222 181
0 222 181
0 221 181
0 221 181
0 221 181
0 220 180
0 221 180
0 221 181
0 220 181
0 222 181
0 220 181
0 221 181
0 221 181
0 220 180
0 222 181
0 221 181
0 221 181
0 222 181
0 220 181
0 221 181
0 222 181
0 221 181
0 221 181
0 221 181
0 221 180
0 221 181
0 222 181
0 221 181
0 220 181
0 221 181
0 221 181
0 221 181
0 221 181
0 221 181
0 221 181
0 221 181
0 221 181
0 221 181
0 222 181
0 222 181
0 220 180
0 222 181
0 222 181
0 221 181
0 222 181
0 220 180
0 222 180
0 221 181
0 222 181
0 220 179
0 221 181
0 221 181
0 220 180
0 221 181
0 221 181
0 221 181
0 221 181
0 221 181
0 220 180
0 221 181
0 220 181
0 220 181
0 221 181
0 220 180
0 221 181
0 221 181
0 222 181
0 221 181
0 222 181
0 220 180
0 220 180
0 222 181
0 221 181
0 221 181
0 221 181
0 221 181
0 221 181
0 222 181
0 220 180
0 221 181
0 221 181
0 219 180
0 220 180
0 222 181
0 222 181
0 221 181
0 220 181
0 220 181
0 222 181
0 221 181
0 221 181
0 222 181
0 221 181
0 221 181
0 220 180
0 221 181
0 222 181
0 221 181
0 222 181
0 222 181
0 221 181
0 221 181
0 222 181
0 220 180
0 221 181
0 220 180
0 221 181
0 220 180
0 220 180
0 222 181
0 221 181
0 220 180
0 220 179
0 223 180
0 220 180
0 221 180
0 220 181
0 221 181
0 219 179
0 221 181
0 221 181
0 220 181
0 222 180
0 221 181
0 221 180
0 221 180
0 221 181
0 220 180
0 221 181
0 221 181
0 222 181
0 221 180
0 221 180
0 220 180
0 219 178
0 220 179
0 221 180
0 221 180
0 221 180
0 219 179
0 219 179
0 220 180
0 222 181
0 220 180
0 221 181
0 221 180
0 220 180
0 220 180
0 221 181
0 220 180
0 221 180
0 220 181
0 221 181
0 221 180
0 220 180
0 220 180
0 221 180
0 222 181
0 221 180
0 220 180
0 219 179
0 221 181
0 222 181
0 221 181
0 221 181
0 220 179
0 219 179
0 218 178
0 220 180
0 221 181
0 222 181
0 221 180
0 220 180
0 221 181
0 220 180
0 221 180
0 220 180
0 219 180
0 222 181
0 220 181
0 220 180
0 221 180
0 219 179
0 221 181
0 220 179
0 218 179
0 220 181
0 220 180
0 221 180
0 221 181
0 219 180
0 220 180
0 220 179
0 220 180
0 221 181
0 220 180
0 220 180
0 220 179
0 220 180
0 220 180
0 219 179
0 216 177
0 220 179
0 219 179
0 219 180
0 220 181
0 221 180
0 218 178
0 218 177
0 220 180
0 220 180
0 219 179
0 218 178
0 219 179
0 220 179
0 221 180
0 218 178
0 219 178
0 219 179
0 221 180
0 220 179
0 219 177
0 220 181
0 220 180
0 220 180
0 220 179
0 220 180
0 220 179
0 220 180
0 219 179
0 219 180
0 221 181
0 219 178
0 219 179
0 221 181
0 219 179
0 219 179
0 220 180
0 221 180
0 220 180
0 220 178
0 218 179
0 220 180
0 220 180
0 221 181
0 222 181
0 221 180
0 220 180
0 221 181
0 220 180
0 219 180
0 220 181
0 221 181
0 219 179
0 220 180
0 219 179
0 219 179
0 221 181
0 220 179
0 220 181
0 220 180
0 220 180
0 217 178
0 219 179
0 219 180
0 220 180
0 221 181
0 218 178
0 220 180
0 219 178
0 221 180
0 219 178
0 221 179
0 219 180
0 220 180
0 218 178
0 221 181
0 220 180
0 220 180
0 221 180
0 218 179
0 220 180
0 221 181
0 220 180
0 220 180
0 221 181
0 221 181
0 221 181
0 219 179
0 221 180
0 221 180
0 218 178
0 220 181
0 220 180
0 221 181
0 220 179
0 220 179
0 219 180
0 220 180
0 222 181
0 221 180
0 221 181
0 220 179
0 221 181
0 218 179
0 221 181
0 219 179
0 221 180
0 219 179
0 221 181
0 222 181
0 219 180
0 221 181
0 221 180
0 221 181
0 219 179
0 221 180
0 222 181
0 222 181
0 220 181
0 220 180
0 221 181
0 220 180
0 221 181
0 218 180
0 221 181
0 221 180
0 223 180
0 221 180
0 221 181
0 219 179
0 222 181
0 221 179
0 221 180
0 221 181
0 219 180
0 220 180
0 222 181
0 221 181
0 221 180
0 221 181
0 222 181
0 220 178
0 222 181
0 221 181
0 221 181
0 221 180
0 222 181
0 220 180
0 222 181
0 221 180
0 221 181
0 221 181
0 221 181
0 222 181
0 221 181
0 220 181
0 222 181
0 221 180
0 220 180
0 221 181
0 223 181
0 220 180
0 221 181
0 220 181
0 220 180
0 221 181
0 221 181
0 220 179
0 220 179
0 219 180
0 221 181
0 222 181
0 222 181
0 221 181
0 221 181
0 221 180
0 221 181
0 221 180
0 221 181
0 220 180
0 221 180
0 221 181
0 221 181
0 221 181
0 221 180
0 223 181
0 221 181
0 221 181
0 220 180
0 222 181
0 221 181
0 221 180
0 221 181
0 220 180
0 221 181
0 221 181
0 221 181
0 221 181
0 222 181
0 222 181
0 221 181
0 221 181
0 221 181
0 221 181
0 220 181
0 220 181
0 221 181
0 221 181
0 220 181
0 221 181
0 221 181
0 222 181
0 221 180
0 221 181
0 221 181
0 222 181
0 221 181
0 221 181
0 222 181
0 222 181
0 220 180
0 221 181
0 221 181
0 221 181
0 220 181
0 221 181
0 221 181
0 221 181
0 220 181
0 221 181
0 221 180
0 221 181
0 221 181
0 221 180
0 221 181
0 221 181
0 221 181
0 222 181
0 220 180
0 219 180
0 222 181
0 221 181
0 221 181
0 221 181
0 221 181
0 221 181
0 221 180
0 221 181
0 221 181
0 222 181
0 223 181
0 221 181
0 221 181
0 221 181
0 221 180
0 220 180
0 221 180
0 221 181
0 220 181
0 222 181
0 221 180
0 221 181
0 221 181
0 221 181
0 222 181
0 220 181
0 220 180
0 221 181
0 222 181
0 221 181
0 222 181
0 220 180
0 221 181
0 221 181
0 220 179
0 221 181
0 221 181
0 222 180
0 221 180
0 221 181
0 221 181
0 222 181
0 221 181
0 221 181
0 222 181
0 221 181
0 220 180
0 221 181
0 220 181
0 221 180
0 218 179
0 221 181
0 221 181
0 221 181
0 221 180
0 221 181
0 222 181
0 221 181
0 221 180
0 219 179
0 220 180
0 222 181
0 220 180
0 221 181
0 221 181
0 220 180
0 220 180
0 221 181
0 220 179
0 221 181
0 220 180
0 221 181
0 221 181
0 221 181
0 221 181
0 221 180
0 222 181
0 221 181
0 221 181
0 222 181
0 221 181
0 221 181
0 221 181
0 220 181
0 221 181
0 219 180
0 221 180
0 220 180
0 221 181
0 221 181
0 220 180
0 220 180
0 222 181
0 221 180
0 219 180
0 221 180
0 220 179
0 220 180
0 221 181
0 218 180
0 221 181
0 221 181
0 222 181
0 222 181
0 220 180
0 221 181
0 221 180
0 221 179
0 220 181
0 220 180
0 221 181
0 222 181
0 220 180
0 221 180
0 220 179
0 222 180
0 220 180
0 222 181
0 220 180
0 222 181
0 220 181
0 219 179
0 221 181
0 221 180
0 220 181
0 221 180
0 220 180
0 221 181
0 220 180
0 219 180
0 219 179
0 221 181
0 219 180
0 222 180
0 218 178
0 219 180
0 220 179
0 220 181
0 221 181
0 220 181
0 221 181
0 220 180
0 220 180
0 221 181
0 218 178
0 221 181
0 219 178
0 220 180
0 220 180
0 218 178
0 216 178
0 222 181
0 221 179
0 221 181
0 219 179
0 221 180
0 219 179
0 221 180
0 220 180
0 220 178
0 219 179
0 220 180
0 219 179
0 221 181
0 220 180
0 220 179
0 220 180
0 220 179
0 220 179
0 222 181
0 221 181
0 221 181
0 218 178
0 219 177
0 221 181
0 220 180
0 220 181
0 219 179
0 219 179
0 221 181
0 220 180
0 221 180
0 218 178
0 221 181
0 220 181
0 217 179
0 220 180
0 219 179
0 221 180
0 216 176
0 220 178
0 221 181
0 218 178
0 220 180
0 217 178
0 221 180
0 220 181
0 221 181
0 219 179
0 217 178
0 220 180
0 221 181
0 219 179
0 219 180
0 220 180
0 221 179
0 220 179
0 220 179
0 219 179
0 222 181
0 221 181
0 221 181
0 221 180
0 219 179
0 220 181
0 221 180
0 219 178
0 221 181
0 220 180
0 219 179
0 221 181
0 220 180
0 220 179
0 221 181
0 220 180
0 222 181
0 220 179
0 219 179
0 221 180
0 221 181
0 220 180
0 219 180
0 218 178
0 219 178
0 220 180
0 222 181
0 221 180
0 221 180
0 221 180
0 220 180
0 220 180
0 221 180
0 221 181
0 220 181
0 222 181
0 220 179
0 222 180
0 221 180
0 222 181
0 221 180
0 219 180
0 220 180
0 220 180
0 221 180
0 220 179
0 219 179
0 220 179
0 220 180
0 221 181
0 220 179
0 222 180
0 220 180
0 221 181
0 221 180
0 221 181
0 221 180
0 221 181
0 221 181
0 221 181
0 221 181
0 221 179
0 219 179
0 221 181
0 220 180
0 220 179
0 221 180
0 220 180
0 222 181
0 221 181
0 221 180
0 221 181
0 219 180
0 221 181
0 218 178
0 219 179
0 221 181
0 221 181
0 220 180
0 222 181
0 221 181
0 221 181
0 221 180
0 220 181
0 221 181
0 221 181
0 219 179
0 221 181
0 221 181
0 221 181
0 221 181
0 221 181
0 220 180
0 218 178
0 222 181
0 221 181
0 220 181
0 221 181
0 220 181
0 222 181
0 221 181
0 221 181
0 221 181
0 222 181
0 222 181
0 221 180
0 221 181
0 221 181
0 222 181
0 221 181
0 220 181
0 221 181
0 222 181
0 222 181
0 221 180
0 221 181
0 221 181
0 221 180
0 220 181
0 221 180
0 221 181
0 221 181
0 221 181
0 220 180
0 221 181
0 221 180
0 220 180
0 220 181
0 222 181
0 221 181
0 221 181
0 221 180
0 220 181
0 221 181
0 222 181
0 220 180
0 222 181
0 221 181
0 221 181
0 221 181
0 221 181
0 222 181
0 221 181
0 220 181
0 221 181
0 222 181
0 221 181
0 221 181
0 221 180
0 221 181
0 221 180
0 221 181
0 220 181
0 220 179
0 221 181
0 220 181
0 221 181
0 221 180
0 221 181
0 222 181
0 221 181
0 221 181
0 222 181
0 221 180
0 222 181
0 222 181
0 222 181
0 221 181
0 221 181
0 221 181
0 221 181
0 220 180
0 221 181
0 222 181
0 221 181
0 221 181
0 221 181
0 222 181
0 222 181
0 221 181
0 221 181
0 221 181
0 222 181
0 221 181
0 222 181
0 221 181
0 221 181
0 222 181
0 222 181
0 221 181
0 221 181
0 221 181
0 221 181
0 222 181
0 221 180
0 221 181
0 221 181
0 221 181
0 222 181
0 221 181
0 221 181
0 221 181
0 222 181
0 221 181
0 220 180
0 221 181
0 221 181
0 221 181
0 220 181
0 221 181
0 221 181
0 222 181
0 221 181
0 222 181
0 221 181
0 221 181
0 221 181
0 221 180
0 221 181
0 220 181
0 221 181
0 221 181
0 221 181
0 221 180
0 221 181
0 222 181
0 221 181
0 222 180
0 221 181
0 221 181
0 219 179
0 220 180
0 221 181
0 221 181
0 221 181
0 221 181
0 221 181
0 222 181
0 220 181
0 221 181
0 221 181
0 219 180
0 222 181
0 221 180
0 220 180
0 222 181
0 222 181
0 221 181
0 221 181
0 221 181
0 221 181
0 221 181
0 222 180
0 221 181
0 221 181
0 221 181
0 220 180
0 221 181
0 221 181
0 222 181
0 222 181
0 220 181
0 221 180
0 220 181
0 219 179
0 221 181
0 220 181
0 221 181
0 222 181
0 222 181
0 220 179
0 221 181
0 220 180
0 221 181
0 221 181
0 221 181
0 221 181
0 222 181
0 220 181
0 221 180
0 222 181
0 221 181
0 220 179
0 220 180
0 220 181
0 220 181
0 219 180
0 221 180
0 220 179
0 221 181
0 221 181
0 221 180
0 221 180
0 219 180
0 222 181
0 221 181
0 220 179
0 221 180
0 219 180
0 220 180
0 220 180
0 222 181
0 221 179
0 221 181
0 220 181
0 221 181
0 221 181
0 221 180
0 220 179
0 220 180
0 221 181
0 221 180
0 220 180
0 218 179
0 221 181
0 221 181
0 220 181
0 221 180
0 221 181
0 220 179
0 220 180
0 216 176
0 221 179
0 220 181
0 221 181
0 220 180
0 219 180
0 221 180
0 220 179
0 219 180
0 219 178
0 221 181
0 221 181
0 221 181
0 219 179
0 220 180
0 221 181
0 220 180
0 220 180
0 220 181
0 220 180
0 221 181
0 220 180
0 220 180
0 220 181
0 219 180
0 220 179
0 221 180
0 219 179
0 218 179
0 220 179
0 220 180
0 221 181
0 222 181
0 220 180
0 219 179
0 218 180
0 221 181
0 220 179
0 221 181
0 218 179
0 218 178
0 222 181
0 219 180
0 219 179
0 220 181
0 220 179
0 220 179
0 220 180
0 220 181
0 219 180
0 221 180
0 221 180
0 218 179
0 220 180
0 220 180
0 220 180
0 222 181
0 220 180
0 221 180
0 220 179
0 217 178
0 219 178
0 220 180
0 221 180
0 222 181
0 220 180
0 220 180
0 218 179
0 219 180
0 221 181
0 218 179
0 220 181
0 221 180
0 222 180
0 219 180
0 219 180
0 218 178
0 221 180
0 220 180
0 219 180
0 221 181
0 220 180
0 220 180
0 220 179
0 221 180
0 218 178
0 221 179
0 220 180
0 221 181
0 220 181
0 220 180
0 220 179
0 222 181
0 221 181
0 218 178
0 219 179
0 221 180
0 220 180
0 221 181
0 221 180
0 219 179
0 221 181
0 219 179
0 222 180
0 222 181
0 221 179
0 221 180
0 219 180
0 222 181
0 220 181
0 219 179
0 222 181
0 219 178
0 220 180
0 220 180
0 221 180
0 220 181
0 221 180
0 220 180
0 221 181
0 222 181
0 221 181
0 219 179
0 221 181
0 220 179
0 222 181
0 220 180
0 221 181
0 219 179
0 221 181
0 220 180
0 221 181
0 220 180
0 220 180
0 220 180
0 221 180
0 220 180
0 221 181
0 221 180
0 221 181
0 220 179
0 221 180
0 221 181
0 219 179
0 221 180
0 219 178
0 221 181
0 220 180
0 220 180
0 221 181
0 220 181
0 220 180
0 220 180
0 220 180
0 220 180
0 222 181
0 220 181
0 221 180
0 221 181
0 220 179
0 222 181
0 221 180
0 220 180
0 221 180
0 222 181
0 221 181
0 221 180
0 221 181
0 220 181
0 221 180
0 221 181
0 221 181
0 221 181
0 221 181
0 219 180
0 221 181
0 221 180
0 220 180
0 221 181
0 220 180
0 222 181
0 220 180
0 221 181
0 221 181
0 221 181
0 220 179
0 221 181
0 221 181
0 221 181
0 221 181
0 221 180
0 221 180
0 219 179
0 220 179
0 221 181
0 222 181
0 222 180
0 221 180
0 220 180
0 222 181
0 222 181
0 221 181
0 222 181
0 221 181
0 221 180
0 220 180
0 221 181
0 221 181
0 221 181
0 221 181
0 221 181
0 221 181
0 221 180
0 221 181
0 221 181
0 220 181
0 220 181
0 221 180
0 222 181
0 222 181
0 221 181
0 221 180
0 222 181
0 222 181
0 220 180
0 221 181
0 220 179
0 221 181
0 221 181
0 221 181
0 221 181
0 221 181
0 221 181
0 220 181
0 221 181
0 221 181
0 221 180
0 222 181
0 221 181
0 222 181
0 221 180
0 223 181
0 221 181
0 221 181
0 220 181
0 222 181
0 221 181
0 222 181
0 220 179
0 221 181
0 221 181
0 220 180
0 222 181
0 222 181
0 220 180
0 221 180
0 222 181
0 222 181
0 220 181
0 221 181
0 221 181
0 221 181
0 220 180
0 222 181
0 220 180
0 221 181
0 221 181
0 220 181
0 221 181
0 220 180
0 222 181
0 221 181
0 221 181
0 221 181
0 222 181
0 221 180
0 221 181
0 222 181
0 222 181
0 220 180
0 221 181
0 221 181
0 221 181
0 221 181
0 221 181
0 221 181
0 221 181
0 220 180
0 221 181
0 221 181
0 220 180
0 220 180
0 221 181
0 221 180
0 221 181
0 220 179
0 221 181
0 221 181
0 222 181
0 221 181
0 221 181
0 221 181
0 222 181
0 222 181
0 222 181
0 221 181
0 222 181
0 220 180
0 220 181
0 221 181
0 221 181
0 221 181
0 222 181
0 221 181
0 220 180
0 221 180
0 219 180
0 222 181
0 222 181
0 221 181
0 222 181
0 221 180
0 221 181
0 221 181
0 222 181
0 221 181
0 220 180
0 222 181
0 222 181
0 222 181
0 221 181
0 221 181
0 221 181
0 220 181
0 222 181
0 221 181
0 221 180
0 221 181
0 221 180
0 221 181
0 221 181
0 221 181
0 221 180
0 221 180
0 221 181
0 221 181
0 220 180
0 220 181
0 221 180
0 220 181
0 221 181
0 221 181
0 221 181
0 222 181
0 221 180
0 221 181
0 221 180
0 221 181
0 222 181
0 222 181
0 219 179
0 220 181
0 219 179
0 220 179
0 220 180
0 220 181
0 222 181
0 220 181
0 221 180
0 222 181
0 220 180
0 222 181
0 222 181
0 222 181
0 222 181
0 220 179
0 219 180
0 222 181
0 220 180
0 220 180
0 222 181
0 219 180
0 220 179
0 220 180
0 221 180
0 220 180
0 220 179
0 221 181
0 221 180
0 222 181
0 222 181
0 222 181
0 221 181
0 222 180
0 220 180
0 221 181
0 219 179
0 222 181
0 221 180
0 221 181
0 220 179
0 220 180
0 220 180
0 221 180
0 220 180
0 220 180
0 222 181
0 221 181
0 221 181
0 221 181
0 220 180
0 220 180
0 220 180
0 219 179
0 219 179
0 220 180
0 219 180
0 219 179
0 219 180
0 219 179
0 220 179
0 221 181
0 221 180
0 218 178
0 218 179
0 221 180
0 220 180
0 220 180
0 220 179
0 220 180
0 220 179
0 220 180
0 221 180
0 219 178
0 221 181
0 219 179
0 218 179
0 220 180
0 218 178
0 221 179
0 222 181
0 222 181
0 220 181
0 220 181
0 221 180
0 222 181
0 220 180
0 219 179
0 220 180
0 221 180
0 221 181
0 220 180
0 220 179
0 219 178
0 219 178
0 221 181
0 220 180
0 221 180
0 219 179
0 220 179
0 219 180
0 221 180
0 220 180
0 220 179
0 221 180
0 221 181
0 219 179
0 221 180
0 219 179
0 221 181
0 221 181
0 221 181
0 220 180
0 220 180
0 220 179
0 219 179
0 221 180
0 219 178
0 220 181
0 219 179
0 220 179
0 221 181
0 221 180
0 219 179
0 220 180
0 220 180
0 219 177
0 217 178
0 219 180
0 221 181
0 219 179
0 220 179
0 219 180
0 219 179
0 218 178
0 221 180
0 220 179
0 220 180
0 219 180
0 222 181
0 220 180
0 220 179
0 220 181
0 221 180
0 221 181
0 220 180
0 222 181
0 218 179
0 220 180
0 221 180
0 221 181
0 219 179
0 218 178
0 220 180
0 221 181
0 219 178
0 221 181
0 220 180
0 219 180
0 221 180
0 219 179
0 222 181
0 218 180
0 222 181
0 220 179
0 221 181
0 221 181
0 220 180
0 221 181
0 222 181
0 219 179
0 221 181
0 220 180
0 220 180
0 220 180
0 221 181
0 221 181
0 222 181
0 222 181
0 220 179
0 221 181
0 222 181
0 220 180
0 221 180
0 221 180
0 220 180
0 222 181
0 222 181
0 221 180
0 221 181
0 221 180
0 221 181
0 221 180
0 221 181
0 222 181
0 222 181
0 221 181
0 222 181
0 220 180
0 221 181
0 221 181
0 220 180
0 220 180
0 221 181
0 220 180
0 221 180
0 222 180
0 220 180
0 222 181
0 221 180
0 221 180
0 221 180
0 220 181
0 222 181
0 220 179
0 220 181
0 222 181
0 221 180
0 220 180
0 221 181
0 221 181
0 221 181
0 222 181
0 221 181
0 221 180
0 221 181
0 220 180
0 222 181
0 221 181
0 221 180
0 221 181
0 220 180
0 222 181
0 221 180
0 222 180
0 221 181
0 221 180
0 221 181
0 223 181
0 221 181
0 222 181
0 221 180
0 221 181
0 219 179
0 222 181
0 221 181
0 222 181
0 221 181
0 221 181
0 221 181
0 221 180
0 221 181
0 220 181
0 222 181
0 221 181
0 221 181
0 222 181
0 221 181
0 221 181
0 221 181
0 221 180
0 221 181
0 221 181
0 222 181
0 220 180
0 221 181
0 220 180
0 221 180
0 221 181
0 222 181
0 221 181
0 221 181
0 221 181
0 220 180
0 220 180
0 220 181
0 221 181
0 220 180
0 220 181
0 222 181
0 221 181
0 221 181
0 221 181
0 221 181
0 222 181
0 222 181
0 221 181
0 222 181
0 222 181
0 221 181
0 221 181
0 219 180
0 221 181
0 221 181
0 221 181
0 220 181
0 220 180
0 222 181
0 220 180
0 222 181
0 221 181
0 222 181
0 222 181
0 222 181
0 220 181
0 221 181
0 222 181
0 221 181
0 221 181
0 221 181
0 221 181
0 221 181
0 220 181
0 221 180
0 222 181
0 221 181
0 221 180
0 220 180
0 221 181
0 221 181
0 222 181
0 221 181
0 221 181
0 220 181
0 220 181
0 222 181
0 220 180
0 222 181
0 221 181
0 221 181
0 220 181
0 221 181
0 222 181
0 221 181
0 221 181
0 221 180
0 222 181
0 222 181
0 222 181
0 222 181
0 222 181
0 222 181
0 222 181
0 220 180
0 221 181
0 221 181
0 221 181
0 222 181
0 220 181
0 220 180
0 221 181
0 221 181
0 219 180
0 221 181
0 223 181
0 222 181
0 221 180
0 221 181
0 221 181
0 221 181
0 221 181
0 221 181
0 220 180
0 221 181
0 221 181
0 220 181
0 222 181
0 221 181
0 220 180
0 221 181
0 221 181
0 221 181
0 222 181
0 220 179
0 222 181
0 221 181
0 218 180
0 220 180
0 220 180
0 219 179
0 220 180
0 222 181
0 220 180
0 221 181
0 220 181
0 221 181
0 220 180
0 220 180
0 220 180
0 220 180
0 220 180
0 221 181
0 221 181
0 222 181
0 221 181
0 222 181
0 220 180
0 221 180
0 219 180
0 220 180
0 221 180
0 220 181
0 221 181
0 221 181
0 220 181
0 221 181
0 219 179
0 221 181
0 220 180
0 221 180
0 221 180
0 221 181
0 221 180
0 221 180
0 221 180
0 219 180
0 219 179
0 222 181
0 222 181
0 221 181
0 222 181
0 221 181
0 219 178
0 218 178
0 219 178
0 221 180
0 222 181
0 220 180
0 219 180
0 218 178
0 220 179
0 221 181
0 220 180
0 220 180
0 221 181
0 222 181
0 220 181
0 218 178
0 221 180
0 220 180
0 221 181
0 221 181
0 221 180
0 220 180
0 220 180
0 221 181
0 219 180
0 221 180
0 220 180
0 220 179
0 220 179
0 220 180
0 218 179
0 219 180
0 221 181
0 221 180
0 217 178
0 220 180
0 221 181
0 221 181
0 220 180
0 219 179
0 221 180
0 219 179
0 221 181
0 219 178
0 218 179
0 219 179
0 221 181
0 218 180
0 221 181
0 221 180
0 218 178
0 220 179
0 221 179
0 220 181
0 221 180
0 220 180
0 219 179
0 219 180
0 219 179
0 217 177
0 219 179
0 220 180
0 221 181
0 219 179
0 220 180
0 220 179
0 221 181
0 220 180
0 221 181
0 218 180
0 220 180
0 220 180
0 220 180
0 219 179
0 220 179
0 220 181
0 219 179
0 219 179
0 217 177
0 221 181
0 217 179
0 220 180
0 220 180
0 221 181
0 221 181
0 221 181
0 220 180
0 221 181
0 221 180
0 220 180
0 222 181
0 221 181
0 220 180
0 222 181
0 220 180
0 221 180
0 221 181
0 220 181
0 220 180
0 221 181
0 221 180
0 222 180
0 219 179
0 220 179
0 221 180
0 218 178
0 220 180
0 221 180
0 219 179
0 219 179
0 222 181
0 221 181
0 220 179
0 221 181
0 220 180
0 221 181
0 221 181
0 221 180
0 221 180
0 220 179
0 220 180
0 220 180
0 220 181
0 219 179
0 220 181
0 221 179
0 221 181
0 218 179
0 221 180
0 221 180
0 219 179
0 220 180
0 220 181
0 220 180
0 220 180
0 220 180
0 220 181
0 221 181
0 221 180
0 220 180
0 222 181
0 217 178
0 220 180
0 220 180
0 220 180
0 221 181
0 221 181
0 221 180
0 221 181
0 221 180
0 220 180
0 221 179
0 221 181
0 221 181
0 222 181
0 221 180
0 221 181
0 221 181
0 221 180
0 221 180
0 219 179
0 222 181
0 221 180
0 220 180
0 220 180
0 221 181
0 221 181
0 220 179
0 220 180
0 222 181
0 220 179
0 221 181
0 220 179
0 221 181
0 219 180
0 220 179
0 220 181
0 222 181
0 220 181
0 221 180
0 220 180
0 220 180
0 220 180
0 221 181
0 220 181
0 221 181
0 221 181
0 222 181
0 221 181
0 220 180
0 221 181
0 221 180
0 221 181
0 221 181
0 220 179
0 222 181
0 220 179
0 220 180
0 221 181
0 221 181
0 220 180
0 222 181
0 222 181
0 221 181
0 221 180
0 220 180
0 220 180
0 223 181
0 221 181
0 221 181
0 221 181
0 221 180
0 221 181
0 221 181
0 221 180
0 222 181
0 218 179
0 222 180
0 221 180
0 221 181
0 221 181
0 221 180
0 221 181
0 221 181
0 221 181
0 221 180
0 220 181
0 222 181
0 221 181
0 221 181
0 221 181
0 221 181
0 222 181
0 222 181
0 221 181
0 221 180
0 222 181
0 220 181
0 220 180
0 221 181
0 222 181
0 221 181
0 220 181
0 221 181
0 220 180
0 220 180
0 222 181
0 222 181
0 222 181
0 221 181
0 221 181
0 222 181
0 222 181
0 221 181
0 222 181
0 220 180
0 220 181
0 221 181
0 221 181
0 221 181
0 221 181
0 222 181
0 221 181
0 222 181
0 221 181
0 220 180
0 222 181
0 221 181
0 222 181
0 222 181
0 222 181
0 222 181
0 221 181
0 220 180
0 221 181
0 222 181
0 222 181
0 221 181
0 220 180
0 221 181
0 219 180
0 222 181
0 221 181
0 221 181
0 221 181
0 221 181
0 221 181
0 219 180
0 221 181
0 220 181
0 221 181
0 221 181
0 221 181
0 221 181
0 221 181
0 221 181
0 221 180
0 222 181
0 221 180
0 221 181
0 221 181
0 221 181
0 221 180
0 221 181
0 222 181
0 221 181
0 220 181
0 222 181
0 221 181
0 221 181
0 221 181
0 221 181
0 221 181
0 221 181
0 221 181
0 222 181
0 221 181
0 221 181
0 221 181
0 222 181
0 222 181
0 221 181
0 221 181
0 222 181
0 220 181
0 222 181
0 221 181
0 221 181
0 220 181
0 220 181
0 222 181
0 220 180
0 221 181
0 220 181
0 221 181
0 222 181
0 221 180
0 220 180
0 220 181
0 221 181
0 219 180
0 222 181
0 221 181
0 222 181
0 221 181
0 220 181
0 220 180
0 219 179
0 221 181
0 222 180
0 221 180
0 221 181
0 221 181
0 221 181
0 220 180
0 221 181
0 222 181
0 222 181
0 220 181
0 220 180
0 222 180
0 221 181
0 218 180
0 220 181
0 220 180
0 221 181
0 221 181
0 221 181
0 221 180
0 221 181
0 220 180
0 221 181
0 220 181
0 219 179
0 221 181
0 220 179
0 221 181
0 219 179
0 221 181
0 222 180
0 221 181
0 220 181
0 220 179
0 220 180
0 221 181
0 219 180
0 221 181
0 220 181
0 221 181
0 221 180
0 220 181
0 221 180
0 219 179
0 221 180
0 222 181
0 220 181
0 219 179
0 220 180
0 219 179
0 221 181
0 220 180
0 220 180
0 219 179
0 220 180
0 219 179
0 219 179
0 220 179
0 219 179
0 220 180
0 220 180
0 220 180
0 221 181
0 221 180
0 219 179
0 221 181
0 220 179
0 220 180
0 220 179
0 221 181
0 219 179
0 221 180
0 221 180
0 221 181
0 220 180
0 220 180
0 221 180
0 220 179
0 221 180
0 220 180
0 221 181
0 220 181
0 219 179
0 219 179
0 221 181
0 220 180
0 219 180
0 220 179
0 219 179
0 217 178
0 220 178
0 221 180
0 220 179
0 220 180
0 221 181
0 222 181
0 218 178
0 217 179
0 222 181
0 220 180
0 219 179
0 222 181
0 220 180
0 219 179
0 221 180
0 218 179
0 221 181
0 220 180
0 220 180
0 221 179
0 220 180
0 219 179
0 220 179
0 219 179
0 219 180
0 221 180
0 218 178
0 220 179
0 218 178
0 221 180
0 219 179
0 219 179
0 221 181
0 219 180
0 220 179
0 220 179
0 219 179
0 221 181
0 221 180
0 219 180
0 219 180
0 222 181
0 220 181
0 218 178
0 220 180
0 219 179
0 219 179
0 221 180
0 220 179
0 222 181
0 219 180
0 219 180
0 222 181
0 219 179
0 220 179
0 220 180
0 219 179
0 220 180
0 222 181
0 219 179
0 221 181
0 216 178
0 219 180
0 220 181
0 220 180
0 221 181
0 221 180
0 220 179
0 221 180
0 221 180
0 221 180
0 219 179
0 221 180
0 218 178
0 220 180
0 220 180
0 221 181
0 217 179
0 221 180
0 220 180
0 218 178
0 219 179
0 220 179
0 221 181
0 222 180
0 219 179
0 220 181
0 221 181
0 221 180
0 220 181
0 222 181
0 221 181
0 220 180
0 221 181
0 220 180
0 221 180
0 219 179
0 221 180
0 220 179
0 221 181
0 220 180
0 221 181
0 219 180
0 220 179
0 220 180
0 221 179
0 221 180
0 219 180
0 219 180
0 221 180
0 220 180
0 221 180
0 221 180
0 220 181
0 219 179
0 220 179
0 219 179
0 221 180
0 219 179
0 221 181
0 219 179
0 221 180
0 219 180
0 221 181
0 220 180
0 220 180
0 221 181
0 221 181
0 221 180
0 221 180
0 220 180
0 222 181
0 222 181
0 221 181
0 222 181
0 221 180
0 220 179
0 221 181
0 220 180
0 221 180
0 221 181
0 222 180
0 220 180
0 221 181
0 220 180
0 219 179
0 222 181
0 221 181
0 221 181
0 221 181
0 221 179
0 221 181
0 220 181
0 220 181
0 221 180
0 221 181
0 220 180
0 221 181
0 221 181
0 221 181
0 220 180
0 221 181
0 221 181
0 221 181
0 221 181
0 221 181
0 221 181
0 221 180
0 221 180
0 221 181
0 221 181
0 221 181
0 222 180
0 221 181
0 221 181
0 221 181
0 221 181
0 220 181
0 221 181
0 221 181
0 222 181
0 222 181
0 221 181
0 220 180
0 221 181
0 221 181
0 221 180
0 221 181
0 220 181
0 221 180
0 222 181
0 220 180
0 221 181
0 221 180
0 221 181
0 221 181
0 219 179
0 222 181
0 221 181
0 221 180
0 221 181
0 221 181
0 221 181
0 221 181
0 221 181
0 221 181
0 222 181
0 221 181
0 221 181
0 220 180
0 221 181
0 221 181
0 221 181
0 220 180
0 221 181
0 221 181
0 222 181
0 221 180
0 219 179
0 221 181
0 222 181
0 220 180
0 221 181
0 222 181
0 221 181
0 221 181
0 222 181
0 221 181
0 221 181
0 220 180
0 222 181
0 221 180
0 221 181
0 220 181
0 221 180
0 221 181
0 222 181
0 221 181
0 222 181
0 222 180
0 221 181
0 222 181
0 222 181
0 221 181
0 221 181
0 220 180
0 221 180
0 220 180
0 221 181
0 221 181
0 221 181
0 221 181
0 221 181
0 221 181
0 220 181
0 222 181
0 220 181
0 222 181
0 221 181
0 222 181
0 219 180
0 221 181
0 221 181
0 220 180
0 221 181
0 221 181
0 221 180
0 221 181
0 221 180
0 221 181
0 221 181
0 221 181
0 221 181
0 220 181
0 220 180
0 221 180
0 221 181
0 220 181
0 221 181
0 221 180
0 221 180
0 221 181
0 221 181
0 221 180
0 221 181
0 221 181
0 221 181
0 221 181
0 220 180
0 221 181
0 221 181
0 221 181
0 221 181
0 221 181
0 221 181
0 222 181
0 220 181
0 220 180
0 221 180
0 220 180
0 222 181
0 221 179
0 221 181
0 220 181
0 221 181
0 220 180
0 221 181
0 222 181
0 220 180
0 220 181
0 220 181
0 219 180
0 221 181
0 221 180
0 221 181
0 221 180
0 219 179
0 220 179
0 221 180
0 221 180
0 220 180
0 221 181
0 220 180
0 221 181
0 222 181
0 222 180
0 219 179
0 221 181
0 221 181
0 220 180
0 221 181
0 222 181
0 219 178
0 221 181
0 221 181
0 221 180
0 222 181
0 222 181
0 221 181
0 220 181
0 220 180
0 221 181
0 219 179
0 220 180
0 220 180
0 222 181
0 222 181
0 221 181
0 220 180
0 222 181
0 222 181
0 220 181
0 221 181
0 222 180
0 221 180
0 221 181
0 221 181
0 221 181
0 220 180
0 220 180
0 220 180
0 221 180
0 219 178
0 219 179
0 221 180
0 221 181
0 221 181
0 221 180
0 221 180
0 221 181
0 221 181
0 219 180
0 221 180
0 221 180
0 221 180
0 220 180
0 220 181
0 219 179
0 218 179
0 219 179
0 220 179
0 218 179
0 220 180
0 222 181
0 216 176
0 220 178
0 222 181
0 220 180
0 219 179
0 220 181
0 220 180
0 222 181
0 222 181
0 221 181
0 222 180
0 221 180
0 220 180
0 221 181
0 221 180
0 221 181
0 221 180
0 222 181
0 219 179
0 220 180
0 219 180
0 219 179
0 221 181
0 221 180
0 220 180
0 219 180
0 221 181
0 219 178
0 219 179
0 219 179
0 220 180
0 219 179
0 219 180
0 219 180
0 221 181
0 217 178
0 220 180
0 219 180
0 220 180
0 220 179
0 220 180
0 219 180
0 219 178
0 221 180
0 219 180
0 220 180
0 220 180
0 219 179
0 220 179
0 221 180
0 221 180
0 221 179
0 221 178
0 221 181
0 221 180
0 220 180
0 219 179
0 219 180
0 221 181
0 220 181
0 221 181
0 220 179
0 220 180
0 220 179
0 221 180
0 221 180
0 220 180
0 219 179
0 221 180
0 220 180
0 220 180
0 222 181
0 220 181
0 219 179
0 219 179
0 221 181
0 221 180
0 219 180
0 219 179
0 222 181
0 221 181
0 221 181
0 220 179
0 220 180
0 220 180
0 221 180
0 221 180
0 219 179
0 222 181
0 221 181
0 219 178
0 221 181
0 220 179
0 219 179
0 220 179
0 221 180
0 221 181
0 220 180
0 220 180
0 218 178
0 220 180
0 219 179
0 221 181
0 220 180
0 219 180
0 221 180
0 221 180
0 221 180
0 220 180
0 220 180
0 221 180
0 220 178
0 220 179
0 219 178
0 222 181
0 221 181
0 220 179
0 219 179
0 221 180
0 219 180
0 221 181
0 221 181
0 220 180
0 220 180
0 221 180
0 221 179
0 221 180
0 221 181
0 220 180
0 219 180
0 222 181
0 220 180
0 218 178
0 221 181
0 221 181
0 221 181
0 220 179
0 222 181
0 222 181
0 220 179
0 221 180
0 221 180
0 222 181
0 221 181
0 220 179
0 220 180
0 220 180
0 220 181
0 220 181
0 221 181
0 221 181
0 220 180
0 219 179
0 221 180
0 221 181
0 219 180
0 220 181
0 221 181
0 220 180
0 222 181
0 221 181
0 220 179
0 220 181
0 221 181
0 220 181
0 220 180
0 221 180
0 221 180
0 221 180
0 221 181
0 219 179
0 221 181
0 221 181
0 222 181
0 221 180
0 220 180
0 221 180
0 221 181
0 221 180
0 221 181
0 222 181
0 222 181
0 222 181
0 219 179
0 220 180
0 221 180
0 221 180
0 221 181
0 221 181
0 221 181
0 222 181
0 221 181
0 221 181
0 221 181
0 221 181
0 221 180
0 222 181
0 222 181
0 221 181
0 222 181
0 221 181
0 220 180
0 221 180
0 220 180
0 221 180
0 221 181
0 221 181
0 221 181
0 222 181
0 221 181
0 222 181
0 221 180
0 222 181
0 220 179
0 222 181
0 221 181
0 220 180
0 221 181
0 219 179
0 222 181
0 221 181
0 221 180
0 221 181
0 221 180
0 220 180
0 221 181
0 220 181
0 221 181
0 220 180
0 221 181
0 221 181
0 221 181
0 221 181
0 221 181
0 220 181
0 220 180
0 221 181
0 221 181
0 222 181
0 221 181
0 220 180
0 221 181
0 221 181
0 221 181
0 222 181
0 222 181
0 220 181
0 221 181
0 220 180
0 221 181
0 221 181
0 221 181
0 222 181
0 222 181
0 221 181
0 221 181
0 221 181
0 221 181
0 221 180
0 220 180
0 222 181
0 221 181
0 222 181
0 221 181
0 222 181
0 221 181
0 220 180
0 221 181
0 221 181
0 222 181
0 221 181
0 222 181
0 221 181
0 221 181
0 221 181
0 221 181
0 223 181
0 220 180
0 220 181
0 221 181
0 222 181
0 222 181
0 221 181
0 222 181
0 221 181
0 221 181
0 221 181
0 219 180
0 221 181
0 220 180
0 220 180
0 222 181
0 221 181
0 222 180
0 222 181
0 220 181
0 220 180
0 221 181
0 221 181
0 220 181
0 221 181
0 221 181
0 221 181
0 221 180
0 222 181
0 221 181
0 220 181
0 221 181
0 221 181
0 222 180
0 221 181
0 220 181
0 222 181
0 221 180
0 221 180
0 222 181
0 222 181
0 221 181
0 220 180
0 222 181
0 222 181
0 221 180
0 221 181
0 221 181
0 220 181
0 220 180
0 222 181
0 221 181
0 221 181
0 221 181
0 220 179
0 221 181
0 221 181
0 221 181
0 221 181
0 221 180
0 219 179
0 221 181
0 220 179
0 222 181
0 219 180
0 221 181
0 221 181
0 221 181
0 221 181
0 222 181
0 222 181
0 221 181
0 220 179
0 222 181
0 221 180
0 221 181
0 220 180
0 220 180
0 221 180
0 220 180
0 220 180
0 220 180
0 220 180
0 221 181
0 219 178
0 221 181
0 222 181
0 221 179
0 221 181
0 220 180
0 221 181
0 221 180
0 220 180
0 222 181
0 220 180
0 220 179
0 221 180
0 221 181
0 220 180
0 220 180
0 220 180
0 221 180
0 220 181
0 220 180
0 220 180
0 220 180
0 222 181
0 221 181
0 222 181
0 220 180
0 221 180
0 221 180
0 222 180
0 222 181
0 218 179
0 221 180
0 221 180
0 220 181
0 220 181
0 221 181
0 222 181
0 220 180
0 222 181
0 219 179
0 220 180
0 221 180
0 221 180
0 219 179
0 219 179
0 219 180
0 220 180
0 218 178
0 221 181
0 221 180
0 219 180
0 219 179
0 219 179
0 220 179
0 220 179
0 220 180
0 218 178
0 219 179
0 222 180
0 219 180
0 220 180
0 221 180
0 221 181
0 221 180
0 219 179
0 221 181
0 222 181
0 220 180
0 221 181
0 219 178
0 220 180
0 221 180
0 220 180
0 220 179
0 220 180
0 219 180
0 217 179
0 221 181
0 221 181
0 221 180
0 220 180
0 220 180
0 219 179
0 221 180
0 221 180
0 219 179
0 220 180
0 220 179
0 219 179
0 220 179
0 221 180
0 219 179
0 221 181
0 220 180
0 220 180
0 219 180
0 221 181
0 220 180
0 221 179
0 219 180
0 219 180
0 221 180
0 219 180
0 219 179
0 218 179
0 222 181
0 223 181
0 221 180
0 220 180
0 221 181
0 220 180
0 220 180
0 220 180
0 219 179
0 219 179
0 220 180
0 220 179
0 219 179
0 220 181
0 221 180
0 220 179
0 221 180
0 222 181
0 221 181
0 221 181
0 221 180
0 219 179
0 220 180
0 219 179
0 221 180
0 220 180
0 220 180
0 219 180
0 221 180
0 221 181
0 221 181
0 221 181
0 220 180
0 218 178
0 220 180
0 220 181
0 221 180
0 220 178
0 220 181
0 221 181
0 220 180
0 220 180
0 223 181
0 219 178
0 222 180
0 221 181
0 221 181
0 221 181
0 221 181
0 219 179
0 219 178
0 219 180
0 221 181
0 222 181
0 221 181
0 220 179
0 221 181
0 221 181
0 221 181
0 221 181
0 219 179
0 220 179
0 221 181
0 220 180
0 220 181
0 221 180
0 220 181
0 220 181
0 221 181
0 221 181
0 221 181
0 221 181
0 220 180
0 220 180
0 221 181
0 222 181
0 222 181
0 220 181
0 219 179
0 221 180
0 222 181
0 222 181
0 219 179
0 222 181
0 219 180
0 219 179
0 222 181
0 221 180
0 221 181
0 221 181
0 221 181
0 221 181
0 221 180
0 221 180
0 222 181
0 221 180
0 221 181
0 222 181
0 220 180
0 220 180
0 221 181
0 221 181
0 222 181
0 222 181
0 222 181
0 221 181
0 222 181
0 221 181
0 221 181
0 221 180
0 222 181
0 220 181
0 220 180
0 221 181
0 221 180
0 221 180
0 222 181
0 221 181
0 222 181
0 221 181
0 221 181
0 221 181
0 220 180
0 220 180
0 219 180
0 221 181
0 221 181
0 221 181
0 221 180
0 221 181
0 221 181
0 221 181
0 220 181
0 221 181
0 221 181
0 220 181
0 220 179
0 222 181
0 219 179
0 221 181
0 221 180
0 220 180
0 221 181
0 220 181
0 221 181
0 221 180
0 220 180
0 220 181
0 221 181
0 220 179
0 222 181
0 221 181
0 220 181
0 221 181
0 221 181
0 222 181
0 220 179
0 221 180
0 221 181
0 221 180
0 221 180
0 222 181
0 220 180
0 221 181
0 221 181
0 222 181
0 222 181
0 220 181
0 220 180
0 221 181
0 221 181
0 221 181
0 221 181
0 221 181
0 221 181
0 221 181
0 220 181
0 221 181
0 221 181
0 220 181
0 220 180
0 221 181
0 221 181
0 221 181
0 220 180
0 221 181
0 221 181
0 221 181
0 221 181
0 220 181
0 221 181
0 222 181
0 220 180
0 221 181
0 220 180
0 221 181
0 220 181
0 221 181
0 222 181
0 221 181
0 221 181
0 220 181
0 221 181
0 221 181
0 219 180
0 222 180
0 220 181
0 221 181
0 220 181
0 221 181
0 222 181
0 222 181
0 222 181
0 221 181
0 221 181
0 222 181
0 221 181
0 221 180
0 219 180
0 221 181
0 220 180
0 222 181
0 220 180
0 222 180
0 221 181
0 222 181
0 219 180
0 221 181
0 222 181
0 222 181
0 221 181
0 222 181
0 222 181
0 219 180
0 221 181
0 221 181
0 220 181
0 222 181
0 221 181
0 221 181
0 221 181
0 221 181
0 222 181
0 220 181
0 221 181
0 220 180
0 220 181
0 221 181
0 221 181
0 221 181
0 220 181
0 220 180
0 220 180
0 221 181
0 220 181
0 219 179
0 219 180
0 221 181
0 222 181
0 221 181
0 221 181
0 221 180
0 220 180
0 221 181
0 220 180
0 220 181
0 222 181
0 221 181
0 222 181
0 221 181
0 220 180
0 219 180
0 221 181
0 220 181
0 221 180
0 221 181
0 221 181
0 221 181
0 222 181
0 221 181
0 221 181
0 220 181
0 221 181
0 221 181
0 222 180
0 220 181
0 220 180
0 221 180
0 221 181
0 221 181
0 222 181
0 221 181
0 220 180
0 219 180
0 220 180
0 220 180
0 218 178
0 221 181
0 218 178
0 221 181
0 220 181
0 219 180
0 221 180
0 221 181
0 221 181
0 221 180
0 221 181
0 221 181
0 220 180
0 220 181
0 221 181
0 220 181
0 221 181
0 220 180
0 221 180
0 221 181
0 221 181
0 221 180
0 219 179
0 222 181
0 219 179
0 220 180
0 219 180
0 220 179
0 221 181
0 221 180
0 218 179
0 220 179
0 221 181
0 219 179
0 220 180
0 217 178
0 221 180
0 221 181
0 220 181
0 220 179
0 221 180
0 220 179
0 222 181
0 221 181
0 219 179
0 220 181
0 222 180
0 220 180
0 221 180
0 220 180
0 220 180
0 221 181
0 220 180
0 221 181
0 222 181
0 219 179
0 219 179
0 219 180
0 219 180
0 219 179
0 221 181
0 219 180
0 220 180
0 219 180
0 219 180
0 221 181
0 220 179
0 219 179
0 220 179
0 220 180
0 223 181
0 221 181
0 221 181
0 220 180
0 220 180
0 221 181
0 219 179
0 221 180
0 221 180
0 222 181
0 221 181
0 221 180
0 219 180
0 220 180
0 220 179
0 221 181
0 221 180
0 220 180
0 220 181
0 221 181
0 217 177
0 218 179
0 219 179
0 220 180
0 219 180
0 219 180
0 219 180
0 220 180
0 220 179
0 220 179
0 221 181
0 218 179
0 221 181
0 219 180
0 222 181
0 219 180
0 220 180
0 220 178
0 221 181
0 220 180
0 221 181
0 219 179
0 221 181
0 221 180
0 221 180
0 221 181
0 218 178
0 221 181
0 221 181
0 221 180
0 222 181
0 221 181
0 219 178
0 221 181
0 220 179
0 219 179
0 221 181
0 221 180
0 221 180
0 221 181
0 220 179
0 220 179
0 221 181
0 219 179
0 220 180
0 221 181
0 221 181
0 221 180
0 219 179
0 221 181
0 219 178
0 220 179
0 220 181
0 221 181
0 222 181
0 219 179
0 221 180
0 221 180
0 220 179
0 221 181
0 218 177
0 220 180
0 220 180
0 219 178
0 219 179
0 219 179
0 221 181
0 221 181
0 221 178
0 221 181
0 219 180
0 220 180
0 220 179
0 221 181
0 220 180
0 221 181
0 220 180
0 221 181
0 221 181
0 220 180
0 222 181
0 220 181
0 221 181
0 219 179
0 222 181
0 220 179
0 221 181
0 220 180
0 219 179
0 221 180
0 223 181
0 220 180
0 221 181
0 221 181
0 221 181
0 220 180
0 221 181
0 221 179
0 220 181
0 221 181
0 222 181
0 220 180
0 221 181
0 222 181
0 221 181
0 221 179
0 220 181
0 220 179
0 220 180
0 222 181
0 222 181
0 221 181
0 221 181
0 220 181
0 221 181
0 221 180
0 219 178
0 221 181
0 222 181
0 221 181
0 220 181
0 221 181
0 221 181
0 220 180
0 221 180
0 220 180
0 221 181
0 222 181
0 221 181
0 221 181
0 220 180
0 222 181
0 221 181
0 220 179
0 221 181
0 222 181
0 221 181
0 221 181
0 221 180
0 222 181
0 221 181
0 221 181
0 221 181
0 220 179
0 221 181
0 220 181
0 221 181
0 222 181
0 221 181
0 220 180
0 221 181
0 220 180
0 222 181
0 221 181
0 222 181
0 220 181
0 222 181
0 222 180
0 221 181
0 221 181
0 221 181
0 221 181
0 220 179
0 222 181
0 220 180
0 221 181
0 220 181
0 221 181
0 219 179
0 221 181
0 219 179
0 222 181
0 222 181
0 221 181
0 221 181
0 221 181
0 221 181
0 221 181
0 221 181
0 221 181
0 221 181
0 220 181
0 221 181
0 222 181
0 220 181
0 221 181
0 221 181
0 220 180
0 222 181
0 220 180
0 222 181
0 221 181
0 222 181
0 221 181
0 221 181
0 222 181
0 221 181
0 221 181
0 221 181
0 221 181
0 220 180
0 221 180
0 221 181
0 220 180
0 221 181
0 221 181
0 221 181
0 222 181
0 221 181
0 221 181
0 221 181
0 221 181
0 221 181
0 220 181
0 221 180
0 221 181
0 221 181
0 221 181
0 221 181
0 221 181
0 221 181
0 221 181
0 221 181
0 221 181
0 222 181
0 222 181
0 220 181
0 221 180
0 220 181
0 221 181
0 221 181
0 219 180
0 222 181
0 221 181
0 222 181
0 222 180
0 220 180
0 222 181
0 220 181
0 221 181
0 222 181
0 221 180
0 222 181
0 221 181
0 221 181
0 222 181
0 221 181
0 221 181
0 220 179
0 221 180
0 223 181
0 222 181
0 222 181
0 221 181
0 220 181
0 221 180
0 221 181
0 219 180
0 220 180
0 222 181
0 222 181
0 221 181
0 221 180
0 221 181
0 221 181
0 222 181
0 221 181
0 220 180
0 221 181
0 221 181
0 219 180
0 221 181
0 222 181
0 220 180
0 219 180
0 221 181
0 222 181
0 221 180
0 221 180
0 221 181
0 221 181
0 222 181
0 222 181
0 222 181
0 220 180
0 222 181
0 221 181
0 220 180
0 221 181
0 222 181
0 221 181
0 221 180
0 221 181
0 219 179
0 220 180
0 220 180
0 220 180
0 222 181
0 221 181
0 220 180
0 221 181
0 221 181
0 218 178
0 220 180
0 221 181
0 220 179
0 222 181
0 220 180
0 219 180
0 222 181
0 221 181
0 221 181
0 220 180
0 220 180
0 220 180
0 222 181
0 218 178
0 221 181
0 220 179
0 219 180
0 222 181
0 222 181
0 222 181
0 220 180
0 221 181
0 222 181
0 220 179
0 219 179
0 220 181
0 221 181
0 219 179
0 221 181
0 219 179
0 221 180
0 220 179
0 219 180
0 220 179
0 221 181
0 221 181
0 221 179
0 220 179
0 220 181
0 220 181
0 221 181
0 221 180
0 220 181
0 221 181
0 221 181
0 220 179
0 221 181
0 219 178
0 221 180
0 220 180
0 221 180
0 218 179
0 218 179
0 220 181
0 222 181
0 218 178
0 220 180
0 218 179
0 221 180
0 221 181
0 221 181
0 220 180
0 219 179
0 220 179
0 220 179
0 219 180
0 221 180
0 222 181
0 221 181
0 220 180
0 218 178
0 221 180
0 220 180
0 219 179
0 220 178
0 221 180
0 221 180
0 221 180
0 221 181
0 220 180
0 220 179
0 219 179
0 221 181
0 220 180
0 219 178
0 220 180
0 219 180
0 219 179
0 221 181
0 220 180
0 220 180
0 221 181
0 221 181
0 220 181
0 221 181
0 218 178
0 222 181
0 221 181
0 220 181
0 220 181
0 219 180
0 219 179
0 220 180
0 220 180
0 220 180
0 220 180
0 220 180
0 221 181
0 218 179
0 218 177
0 221 180
0 220 180
0 222 180
0 219 179
0 221 181
0 221 181
0 219 180
0 220 180
0 220 180
0 222 181
0 220 181
0 219 180
0 222 181
0 218 178
0 221 181
0 221 181
0 220 180
0 220 180
0 220 180
0 220 181
0 221 180
0 219 180
0 220 180
0 220 180
0 219 179
0 220 180
0 220 179
0 220 180
0 220 180
0 220 179
0 221 180
0 220 180
0 221 181
0 220 180
0 220 180
0 219 179
0 221 180
0 219 179
0 219 180
0 222 181
0 221 181
0 219 180
0 222 181
0 220 180
0 220 179
0 219 180
0 220 180
0 221 179
0 220 180
0 222 181
0 220 180
0 221 181
0 221 180
0 221 181
0 222 181
0 219 178
0 222 181
0 221 180
0 220 180
0 221 181
0 218 178
0 222 181
0 219 178
0 219 179
0 221 180
0 221 180
0 220 180
0 221 180
0 221 181
0 221 180
0 221 181
0 219 179
0 220 179
0 221 181
0 221 181
0 221 181
0 220 180
0 221 180
0 219 180
0 218 178
0 221 181
0 220 180
0 220 180
0 222 181
0 220 180
0 220 181
0 220 179
0 221 181
0 220 179
0 221 181
0 220 181
0 221 180
0 221 181
0 221 181
0 222 181
0 222 181
0 221 181
0 220 180
0 220 179
0 220 181
0 221 181
0 221 180
0 221 181
0 221 181
0 220 179
0 219 180
0 219 180
0 220 181
0 222 181
0 221 181
0 221 181
0 221 181
0 221 181
0 220 180
0 221 181
0 222 181
0 221 181
0 220 181
0 221 181
0 221 180
0 220 180
0 220 180
0 221 181
0 220 179
0 221 181
0 222 181
0 220 181
0 221 180
0 222 181
0 222 181
0 222 180
0 220 181
0 222 181
0 220 180
0 221 181
0 222 181
0 221 181
0 221 181
0 221 181
0 222 181
0 220 181
0 222 181
0 220 179
0 222 181
0 220 180
0 221 181
0 220 180
0 221 181
0 221 180
0 221 180
0 220 181
0 220 181
0 221 181
0 222 181
0 221 180
0 221 181
0 222 181
0 221 181
0 221 181
0 219 180
0 221 181
0 221 181
0 222 181
0 222 181
0 222 181
0 221 181
0 222 181
0 221 181
0 221 181
0 221 181
0 222 181
0 221 181
0 219 180
0 220 181
0 221 181
0 221 181
0 221 180
0 222 181
0 220 180
0 220 181
0 219 180
0 221 181
0 222 181
0 222 181
0 221 181
0 220 180
0 222 181
0 221 181
0 221 181
0 222 181
0 222 181
0 221 181
0 222 181
0 221 181
0 221 181
0 222 181
0 220 180
0 221 181
0 221 181
0 221 181
0 222 181
0 221 180
0 222 181
0 222 181
0 222 181
0 221 181
0 221 181
0 221 181
0 220 180
0 220 181
0 221 181
0 219 179
0 221 181
0 221 181
0 221 180
0 220 180
0 221 181
0 221 181
0 221 181
0 222 180
0 221 180
0 221 181
0 221 181
0 221 181
0 221 180
0 221 181
0 222 181
0 221 181
0 220 180
0 221 180
0 221 181
0 220 180
0 219 180
0 221 181
0 221 181
0 221 181
0 221 181
0 221 180
0 222 181
0 220 181
0 221 181
0 221 181
0 222 181
0 222 180
0 222 181
0 222 181
0 222 181
0 220 180
0 221 181
0 221 181
0 221 181
0 222 180
0 222 181
0 221 180
0 221 180
0 221 181
0 221 181
0 222 181
0 221 181
0 221 180
0 221 181
0 221 181
0 221 181
0 221 181
0 221 181
0 222 181
0 221 181
0 221 181
0 219 179
0 220 180
0 220 180
0 221 181
0 220 180
0 220 180
0 221 180
0 220 180
0 222 181
0 222 181
0 221 181
0 221 181
0 221 181
0 222 180
0 221 181
0 221 181
0 221 181
0 220 179
0 219 180
0 221 180
0 221 181
0 221 180
0 221 181
0 221 180
0 221 180
0 221 181
0 221 180
0 221 181
0 220 180
0 220 180
0 220 180
0 220 181
0 221 180
0 221 181
0 221 181
0 221 181
0 221 180
0 218 179
0 221 180
0 220 180
0 221 180
0 219 179
0 222 181
0 221 181
0 222 180
0 220 180
0 221 181
0 220 181
0 221 180
0 221 181
0 220 180
0 222 181
0 220 180
0 223 181
0 222 181
0 221 181
0 220 180
0 220 180
0 221 180
0 220 180
0 221 181
0 219 179
0 220 180
0 221 180
0 220 180
0 220 180
0 219 179
0 220 180
0 221 181
0 220 179
0 221 181
0 221 181
0 220 180
0 219 179
0 221 181
0 219 179
0 220 180
0 220 181
0 219 179
0 221 180
0 219 179
0 219 180
0 221 181
0 220 180
0 221 181
0 219 180
0 221 181
0 219 180
0 220 180
0 221 180
0 221 181
0 219 178
0 219 179
0 221 181
0 218 179
0 218 178
0 220 180
0 218 179
0 220 180
0 221 179
0 220 178
0 221 179
0 221 181
0 221 181
0 219 179
0 220 179
0 220 179
0 222 181
0 221 180
0 221 179
0 221 181
0 220 180
0 221 181
0 221 181
0 220 180
0 221 181
0 220 180
0 219 179
0 220 180
0 219 180
0 221 181
0 221 181
0 221 181
0 222 181
0 220 180
0 220 180
0 219 180
0 221 181
0 221 181
0 220 180
0 220 180
0 220 180
0 221 181
0 221 181
0 221 181
0 220 180
0 219 180
0 219 179
0 220 179
0 219 179
0 221 181
0 221 180
0 218 178
0 220 180
0 221 180
0 222 181
0 221 180
0 220 181
0 220 179
0 220 181
0 221 180
0 221 180
0 221 180
0 220 179
0 221 181
0 221 180
0 219 180
0 221 181
0 221 179
0 219 179
0 221 181
0 220 180
0 220 180
0 220 179
0 221 180
0 221 181
0 219 180
0 221 181
0 222 181
0 221 179
0 221 180
0 222 181
0 222 181
0 221 180
0 221 181
0 220 179
0 218 179
0 220 180
0 219 180
0 222 180
0 220 180
0 221 180
0 220 181
0 222 181
0 220 180
0 220 179
0 221 181
0 221 181
0 221 181
0 222 181
0 222 180
0 219 180
0 220 181
0 220 181
0 221 181
0 222 181
0 220 179
0 221 181
0 219 178
0 221 180
0 219 179
0 221 181
0 219 178
0 220 180
0 220 180
0 220 181
0 221 181
0 221 180
0 221 181
0 221 181
0 221 181
0 221 180
0 221 181
0 221 180
0 222 181
0 221 180
0 221 180
0 220 180
0 221 181
0 221 181
0 221 181
0 220 180
0 222 181
0 221 181
0 220 180
0 221 181
0 221 181
0 221 180
0 221 181
0 221 181
0 221 180
0 221 180
0 222 181
0 221 181
0 222 181
0 221 180
0 221 181
0 221 181
0 221 181
0 221 181
0 221 181
0 220 181
0 220 180
0 221 181
0 221 180
0 221 181
0 222 181
0 221 181
0 220 179
0 221 181
0 220 181
0 222 181
0 221 181
0 221 181
0 221 180
0 221 181
0 221 179
0 221 181
0 220 179
0 221 181
0 221 181
0 221 179
0 221 181
0 221 180
0 222 180
0 221 181
0 222 181
0 222 180
0 222 181
0 221 181
0 220 180
0 221 181
0 222 181
0 221 181
0 221 181
0 219 180
0 221 181
0 221 181
0 221 181
0 222 181
0 221 181
0 221 181
0 220 179
0 221 181
0 221 181
0 221 181
0 220 179
0 220 180
0 222 181
0 221 181
0 220 181
0 222 181
0 220 181
0 220 180
0 222 181
0 221 181
0 221 180
0 221 181
0 221 181
0 221 181
0 222 181
0 220 180
0 222 181
0 222 181
0 222 181
0 223 181
0 221 181
0 221 181
0 221 181
0 221 181
0 221 181
0 222 181
0 222 181
0 221 181
0 220 180
0 221 181
0 221 181
0 221 181
0 221 181
0 221 181
0 220 180
0 221 181
0 222 181
0 221 181
0 221 181
0 220 181
0 220 181
0 221 181
0 221 181
0 222 181
0 220 181
0 222 181
0 221 181
0 221 181
0 221 181
0 221 181
0 220 180
0 220 180
0 221 181
0 221 181
0 220 180
0 220 181
0 220 180
0 219 180
0 219 180
0 222 181
0 220 181
0 221 181
0 221 181
0 221 180
0 221 181
0 221 181
0 221 181
0 220 180
0 221 181
0 220 181
0 221 181
0 222 181
0 221 181
0 221 181
0 221 181
0 221 180
0 221 180
0 221 181
0 221 181
0 221 181
0 222 181
0 222 180
0 221 180
0 221 180
0 222 181
0 221 181
0 221 181
0 221 181
0 221 181
0 221 180
0 222 181
0 220 180
0 222 181
0 221 181
0 220 180
0 221 181
0 221 181
0 220 181
0 220 179
0 221 180
0 222 180
0 220 180
0 222 181
0 221 181
0 221 181
0 220 180
0 222 181
0 221 181
0 222 181
0 220 181
0 222 181
0 221 181
0 221 181
0 221 181
0 221 181
0 220 180
0 219 179
0 220 180
0 219 179
0 219 179
0 219 179
0 219 180
0 220 180
0 221 181
0 221 181
0 219 180
0 222 181
0 221 179
0 222 181
0 221 181
0 220 181
0 219 180
0 221 180
0 221 180
0 220 180
0 221 181
0 220 180
0 219 179
0 222 181
0 221 181
0 222 180
0 221 181
0 222 180
0 222 181
0 219 179
0 220 181
0 221 181
0 221 180
0 220 180
0 220 179
0 221 181
0 222 181
0 221 180
0 219 179
0 222 181
0 221 181
0 221 180
0 221 180
0 221 181
0 222 181
0 219 180
0 220 179
0 220 180
0 221 180
0 221 181
0 219 179
0 220 180
0 221 181
0 220 180
0 221 181
0 221 181
0 222 180
0 220 180
0 220 181
0 220 179
0 220 179
0 220 180
0 220 180
0 220 180
0 221 181
0 221 181
0 222 181
0 221 181
0 220 180
0 220 180
0 219 178
0 219 179
0 222 180
0 221 180
0 221 181
0 219 179
0 220 180
0 221 181
0 219 180
0 220 180
0 222 181
0 221 181
0 221 179
0 221 181
0 221 179
0 219 179
0 221 181
0 221 180
0 220 179
0 220 179
0 220 180
0 221 181
0 220 179
0 220 180
0 220 180
0 221 181
0 221 180
0 222 181
0 220 179
0 221 180
0 219 179
0 219 179
0 219 179
0 220 180
0 219 179
0 222 181
0 216 177
0 220 179
0 220 180
0 221 181
0 220 181
0 219 179
0 222 181
0 219 179
0 221 181
0 217 178
0 221 181
0 220 179
0 219 179
0 220 179
0 220 179
0 218 178
0 221 180
0 220 180
0 220 179
0 221 181
0 219 179
0 221 179
0 222 181
0 219 178
0 220 180
0 220 181
0 221 180
0 221 180
0 220 181
0 220 179
0 221 181
0 220 179
0 220 181
0 220 179
0 221 180
0 219 179
0 222 181
0 220 180
0 222 180
0 219 180
0 218 178
0 221 180
0 222 180
0 219 179
0 219 179
0 220 179
0 220 179
0 219 179
0 217 178
0 221 180
0 218 179
0 218 178
0 221 181
0 220 180
0 219 179
0 222 181
0 221 180
0 221 180
0 221 180
0 221 180
0 221 181
0 221 180
0 220 181
0 221 181
0 221 180
0 221 181
0 220 180
0 221 181
0 221 181
0 220 180
0 222 180
0 220 180
0 221 180
0 221 181
0 221 181
0 220 180
0 221 181
0 220 181
0 221 181
0 220 179
0 220 180
0 222 181
0 221 180
0 220 179
0 221 181
0 221 180
0 221 181
0 219 180
0 221 180
0 220 179
0 220 180
0 221 181
0 221 181
0 221 180
0 220 181
0 220 180
0 222 180
0 219 179
0 221 181
0 221 180
0 220 180
0 220 180
0 220 181
0 222 181
0 220 180
0 219 178
0 221 181
0 219 179
0 219 179
0 220 180
0 222 181
0 220 180
0 221 179
0 220 180
0 220 180
0 221 180
0 221 181
0 221 181
0 219 179
0 220 179
0 221 180
0 221 181
0 221 181
0 219 180
0 221 181
0 221 181
0 221 180
0 221 180
0 221 181
0 221 181
0 222 180
0 220 180
0 221 181
0 221 181
0 220 180
0 221 181
0 220 180
0 222 180
0 221 181
0 220 179
0 221 181
0 221 181
0 220 180
0 222 180
0 220 180
0 221 181
0 220 180
0 221 180
0 221 181
0 220 181
0 221 181
0 221 180
0 220 179
0 222 181
0 222 181
0 222 181
0 221 181
0 220 180
0 222 181
0 221 181
0 221 181
0 221 180
0 220 181
0 221 181
0 221 181
0 221 180
0 220 180
0 223 181
0 221 181
0 222 181
0 220 180
0 222 181
0 219 179
0 220 181
0 221 181
0 221 181
0 223 181
0 221 180
0 222 181
0 219 179
0 221 180
0 221 181
0 222 181
0 222 181
0 220 181
0 220 180
0 222 181
0 221 181
0 221 181
0 221 181
0 221 181
0 221 181
0 221 181
0 222 181
0 221 181
0 221 181
0 221 181
0 221 181
0 220 180
0 221 181
0 221 181
0 220 181
0 221 181
0 221 181
0 220 180
0 221 180
0 221 181
0 221 181
0 221 181
0 221 181
0 221 181
0 220 180
0 220 181
0 222 181
0 221 181
0 222 181
0 221 181
0 221 180
0 220 180
0 221 181
0 222 181
0 222 181
0 221 181
0 220 180
0 222 181
0 221 181
0 220 181
0 221 181
0 222 181
0 222 181
0 221 181
0 221 181
0 221 181
0 222 181
0 221 181
0 221 181
0 221 181
0 222 181
0 220 181
0 221 181
0 221 179
0 221 181
0 221 181
0 222 181
0 221 181
0 221 181
0 221 181
0 222 181
0 221 181
0 222 181
0 222 181
0 222 181
0 221 181
0 220 180
0 221 181
0 220 180
0 220 180
0 221 181
0 222 181
0 221 180
0 221 181
0 219 180
0 221 179
0 221 181
0 221 181
0 221 181
0 221 181
0 221 181
0 221 181
0 221 181
0 220 180
0 221 180
0 222 181
0 221 181
0 220 181
0 222 181
0 221 181
0 221 181
0 221 181
0 221 181
0 222 181
0 221 181
0 220 180
0 219 179
0 221 180
0 221 181
0 221 180
0 222 181
0 220 180
0 220 180
0 220 180
0 222 181
0 222 181
0 221 181
0 222 181
0 221 181
0 222 181
0 221 181
0 221 180
0 221 180
0 221 181
0 221 181
0 221 180
0 220 181
0 221 181
0 222 181
0 220 180
0 221 181
0 222 181
0 221 181
0 222 181
0 222 181
0 222 181
0 220 180
0 222 181
0 221 181
0 221 181
0 221 181
0 221 180
0 220 180
0 221 181
0 221 181
0 220 181
0 220 180
0 221 181
0 221 180
0 221 180
0 220 180
0 221 181
0 219 179
0 221 180
0 221 181
0 220 180
0 220 181
0 218 180
0 220 180
0 219 180
0 221 181
0 218 178
0 222 181
0 220 180
0 221 181
0 221 181
0 220 180
0 221 181
0 220 180
0 220 180
0 220 179
0 222 181
0 221 181
0 221 181
0 219 179
0 221 180
0 218 179
0 220 180
0 221 181
0 222 180
0 221 181
0 220 180
0 220 180
0 220 179
0 220 180
0 218 178
0 221 180
0 222 181
0 220 180
0 220 179
0 220 180
0 221 181
0 218 178
0 221 181
0 221 181
0 221 181
0 220 180
0 219 179
0 221 180
0 220 180
0 219 180
0 219 179
0 222 181
0 221 180
0 221 180
0 220 179
0 220 180
0 216 177
0 219 180
0 221 181
0 218 179
0 220 181
0 222 181
0 220 180
0 219 180
0 220 180
0 221 181
0 219 178
0 221 180
0 220 180
0 219 180
0 220 179
0 220 179
0 221 181
0 220 181
0 220 180
0 221 180
0 220 180
0 218 179
0 220 180
0 220 181
0 220 180
0 220 179
0 220 181
0 221 181
0 220 181
0 221 179
0 221 181
0 218 179
0 220 179
0 222 181
0 220 181
0 221 180
0 219 178
0 220 179
0 221 180
0 220 180
0 220 180
0 219 179
0 220 179
0 218 179
0 221 181
0 220 180
0 220 179
0 218 178
0 222 181
0 221 181
0 221 181
0 219 179
0 221 180
0 219 179
0 219 179
0 221 181
0 220 178
0 221 181
0 221 180
0 220 180
0 221 180
0 219 180
0 222 181
0 220 180
0 221 180
0 220 180
0 220 180
0 221 181
0 221 181
0 220 181
0 220 180
0 221 180
0 220 180
0 220 179
0 220 181
0 219 179
0 220 180
0 221 181
0 219 179
0 220 179
0 221 181
0 219 179
0 221 180
0 222 181
0 221 181
0 218 178
0 222 181
0 223 181
0 222 181
0 221 180
0 219 178
0 221 181
0 221 181
0 220 179
0 220 180
0 221 181
0 221 181
0 220 179
0 219 179
0 221 180
0 222 181
0 220 178
0 221 181
0 221 181
0 219 178
0 220 180
0 220 180
0 219 180
0 221 181
0 222 181
0 220 180
0 220 180
0 220 180
0 219 179
0 218 178
0 221 181
0 220 180
0 221 181
0 221 181
0 221 180
0 222 181
0 220 180
0 220 180
0 222 181
0 221 180
0 221 180
0 222 181
0 220 180
0 220 180
0 221 179
0 221 181
0 220 180
0 221 181
0 220 179
0 222 181
0 221 181
0 220 180
0 221 181
0 222 181
0 221 180
0 221 180
0 220 180
0 221 181
0 221 180
0 220 180
0 219 179
0 220 180
0 221 181
0 221 181
0 221 180
0 220 180
0 221 181
0 221 181
0 219 180
0 222 181
0 221 181
0 221 181
0 221 181
0 221 180
0 221 180
0 221 181
0 221 181
0 221 181
0 221 181
0 220 180
0 220 180
0 221 181
0 221 181
0 221 181
0 221 181
0 222 181
0 222 181
0 219 179
0 221 181
0 221 181
0 222 181
0 221 181
0 221 181
0 222 181
0 221 181
0 220 180
0 220 181
0 220 181
0 221 181
0 222 180
0 221 181
0 222 181
0 222 181
0 220 181
0 222 181
0 220 181
0 221 181
0 221 181
0 220 180
0 221 181
0 221 181
0 222 181
0 221 180
0 222 181
0 221 181
0 221 181
0 222 181
0 221 180
0 221 180
0 221 181
0 221 181
0 222 181
0 221 181
0 222 181
0 222 181
0 222 181
0 222 181
0 221 180
0 221 181
0 222 181
0 222 181
0 221 181
0 222 181
0 221 180
0 221 181
0 221 181
0 221 181
0 221 181
0 220 181
0 222 181
0 220 180
0 220 180
0 221 181
0 222 181
0 221 181
0 222 181
0 221 181
0 220 180
0 221 181
0 221 181
0 220 180
0 221 181
0 222 181
0 221 181
0 221 181
0 221 181
0 221 181
0 220 180
0 221 181
0 221 181
0 220 180
0 221 181
0 222 181
0 222 181
0 221 181
0 221 181
0 221 181
0 221 181
0 221 181
0 221 181
0 221 181
0 221 181
0 220 179
0 221 181
0 221 181
0 220 181
0 221 181
0 221 181
0 221 181
0 221 181
0 221 181
0 220 181
0 221 181
0 221 181
0 221 181
0 222 181
0 220 181
0 221 181
0 221 181
0 220 181
0 222 181
0 221 181
0 222 180
0 221 180
0 221 181
0 220 180
0 221 181
0 221 181
0 222 181
0 220 180
0 221 181
0 222 181
0 221 181
0 221 181
0 220 181
0 220 180
0 220 181
0 221 181
0 220 179
0 221 180
0 221 181
0 221 181
0 221 181
0 221 181
0 222 181
0 220 180
0 219 180
0 221 181
0 220 180
0 221 181
0 220 179
0 221 180
0 221 181
0 221 181
0 221 180
0 221 181
0 220 180
0 220 181
0 221 181
0 219 180
0 221 181
0 220 180
0 220 180
0 219 180
0 219 180
0 221 181
0 220 181
0 220 181
0 221 180
0 221 181
0 220 180
0 221 181
0 222 181
0 220 180
0 221 180
0 221 180
0 220 180
0 220 180
0 222 181
0 220 181
0 221 181
0 221 180
0 220 181
0 221 180
0 220 181
0 220 181
0 221 180
0 221 181
0 221 180
0 220 179
0 218 179
0 222 181
0 221 180
0 220 181
0 221 181
0 222 181
0 221 181
0 220 181
0 220 180
0 221 181
0 221 181
0 221 181
0 220 179
0 220 180
0 221 180
0 221 181
0 221 181
0 221 180
0 219 179
0 221 180
0 221 180
0 221 181
0 220 181
0 220 180
0 221 181
0 222 181
0 221 180
0 221 180
0 221 180
0 221 180
0 219 179
0 219 178
0 220 180
0 221 180
0 220 180
0 218 178
0 219 179
0 221 180
0 221 180
0 220 180
0 218 179
0 221 181
0 220 180
0 222 181
0 218 179
0 221 180
0 217 177
0 221 180
0 221 181
0 221 181
0 222 180
0 221 180
0 219 180
0 221 181
0 220 179
0 218 179
0 219 180
0 221 180
0 221 181
0 221 181
0 218 179
0 221 181
0 218 178
0 220 180
0 220 180
0 220 181
0 219 180
0 221 181
0 221 179
0 220 180
0 219 179
0 221 181
0 220 180
0 219 179
0 220 180
0 220 180
0 221 180
0 220 179
0 221 181
0 219 180
0 221 181
0 221 181
0 221 180
0 219 179
0 221 181
0 222 181
0 220 180
0 220 180
0 220 179
0 220 181
0 220 180
0 219 179
0 218 178
0 220 179
0 220 179
0 219 180
0 220 180
0 221 180
0 219 179
0 217 178
0 219 178
0 222 181
0 222 181
0 219 180
0 221 181
0 219 180
0 220 179
0 220 180
0 221 181
0 222 181
0 219 179
0 219 179
0 220 180
0 220 180
0 221 180
0 220 180
0 220 180
0 220 180
0 220 179
0 222 180
0 221 181
0 220 181
0 219 179
0 220 180
0 222 181
0 220 180
0 220 180
0 222 181
0 221 181
0 220 180
0 220 180
0 219 180
0 221 179
0 221 181
0 220 180
0 219 180
0 221 181
0 219 179
0 221 180
0 218 179
0 222 181
0 221 181
0 221 181
0 221 181
0 221 179
0 222 181
0 221 180
0 220 180
0 221 180
0 222 181
0 219 179
0 219 179
0 222 181
0 221 179
0 221 181
0 222 181
0 221 181
0 219 179
0 221 180
0 221 181
0 220 181
0 221 181
0 220 181
0 221 181
0 221 180
0 220 181
0 221 181
0 221 180
0 220 180
0 220 181
0 222 181
0 220 181
0 220 180
0 220 181
0 221 181
0 220 180
0 219 180
0 221 181
0 221 181
0 220 180
0 221 181
0 221 181
0 221 181
0 220 180
0 221 181
0 221 180
0 221 181
0 221 181
0 222 181
0 221 181
0 220 181
0 222 181
0 222 181
0 221 181
0 221 181
0 219 179
0 221 181
0 221 181
0 221 181
0 221 181
0 220 181
0 221 180
0 220 180
0 221 180
0 220 179
0 221 181
0 222 181
0 220 181
0 221 180
0 221 181
0 221 180
0 220 179
0 222 181
0 222 181
0 221 181
0 222 181
0 221 181
0 220 181
0 221 181
0 221 181
0 221 180
0 220 180
0 221 181
0 221 181
0 222 181
0 221 181
0 221 181
0 220 180
0 221 180
0 220 180
0 221 181
0 221 181
0 221 181
0 222 180
0 221 181
0 221 180
0 220 180
0 221 181
0 220 180
0 222 181
0 222 181
0 220 180
0 221 181
0 221 181
0 220 180
0 222 181
0 222 181
0 220 181
0 220 180
0 220 180
0 221 181
0 221 180
0 222 181
0 221 181
0 222 181
0 221 181
0 221 181
0 221 181
0 221 181
0 221 181
0 223 181
0 222 181
0 222 181
0 221 181
0 221 181
0 221 181
0 221 181
0 221 181
0 220 180
0 221 181
0 220 180
0 222 181
0 221 181
0 221 181
0 222 181
0 221 180
0 221 181
0 221 180
0 221 181
0 222 181
0 221 181
0 222 181
0 220 180
0 221 181
0 221 181
0 221 181
0 222 181
0 221 181
0 222 181
0 220 180
0 221 181
0 220 181
0 221 181
0 222 181
0 221 181
0 221 180
0 222 181
0 220 180
0 222 181
0 221 181
0 221 181
0 221 181
0 220 180
0 221 181
0 222 181
0 220 181
0 221 181
0 220 181
0 220 181
0 219 179
0 221 181
0 221 181
0 221 181
0 220 180
0 221 181
0 222 181
0 221 181
0 219 180
0 222 181
0 221 181
0 221 180
0 220 181
0 221 181
0 220 180
0 221 180
0 222 181
0 221 181
0 221 181
0 222 181
0 221 181
0 222 181
0 220 180
0 221 181
0 221 181
0 220 179
0 221 181
0 221 181
0 222 181
0 221 181
0 221 180
0 222 181
0 221 181
0 220 180
0 220 180
0 220 181
0 222 180
0 221 180
0 221 181
0 222 180
0 221 181
0 222 181
0 220 181
0 220 181
0 221 181
0 220 180
0 221 181
0 221 181
0 221 181
0 221 180
0 222 181
0 221 181
0 222 180
0 222 181
0 222 181
0 221 180
0 220 181
0 221 180
0 221 181
0 221 181
0 220 180
0 221 181
0 221 181
0 222 181
0 219 179
0 221 181
0 221 181
0 221 181
0 221 181
0 222 181
0 222 181
0 221 181
0 220 181
0 221 181
0 220 181
0 220 180
0 218 180
0 220 180
0 220 181
0 222 181
0 221 181
0 220 181
0 222 181
0 222 181
0 220 180
0 222 181
0 220 179
0 221 181
0 221 180
0 220 180
0 219 179
0 221 180
0 221 180
0 220 180
0 221 180
0 221 181
0 220 180
0 221 180
0 220 180
0 220 179
0 221 181
0 220 179
0 221 180
0 220 180
0 221 181
0 221 181
0 221 180
0 217 178
0 219 179
0 221 181
0 221 181
0 219 179
0 219 179
0 220 180
0 221 180
0 219 179
0 219 180
0 220 181
0 221 181
0 220 180
0 220 180
0 221 181
0 221 180
0 220 180
0 221 181
0 220 180
0 219 179
0 221 181
0 221 180
0 220 181
0 221 181
0 220 179
0 221 181
0 216 178
0 221 180
0 221 180
0 220 181
0 220 179
0 221 181
0 221 180
0 219 180
0 219 179
0 221 181
0 221 181
0 221 181
0 221 180
0 220 180
0 217 179
0 221 181
0 219 179
0 219 178
0 219 179
0 220 180
0 220 179
0 217 178
0 219 180
0 219 179
0 220 180
0 219 178
0 222 181
0 220 180
0 221 181
0 221 180
0 221 180
0 220 181
0 220 179
0 219 179
0 219 178
0 221 181
0 219 180
0 219 179
0 218 180
0 220 179
0 221 181
0 221 181
0 217 178
0 221 180
0 219 180
0 221 181
0 220 181
0 221 181
0 218 179
0 220 179
0 217 178
0 220 179
0 221 181
0 221 181
0 220 179
0 220 180
0 220 180
0 220 181
0 218 179
0 221 181
0 221 181
0 221 181
0 221 181
0 221 180
0 220 179
0 221 181
0 218 178
0 220 180
0 219 179
0 220 180
0 220 179
0 220 179
0 220 180
0 220 180
0 220 179
0 222 181
0 219 179
0 222 181
0 221 181
0 220 180
0 221 181
0 220 180
0 220 180
0 220 180
0 219 180
0 222 181
0 221 181
0 221 181
0 221 180
0 220 180
0 222 181
0 220 180
0 221 181
0 220 179
0 220 179
0 218 178
0 221 181
0 219 179
0 219 178
0 219 178
0 220 180
0 221 180
0 220 179
0 220 180
0 222 181
0 220 181
0 221 181
0 221 181
0 220 179
0 218 178
0 221 181
0 220 181
0 221 181
0 220 179
0 221 181
0 221 181
0 222 181
0 222 181
0 221 180
0 221 180
0 221 180
0 219 179
0 220 179
0 220 180
0 220 181
0 222 181
0 222 181
0 220 180
0 220 179
0 219 179
0 221 181
0 220 180
0 222 181
0 220 179
0 222 181
0 221 181
0 221 180
0 220 180
0 219 179
0 219 179
0 222 181
0 222 181
0 221 180
0 221 181
0 221 181
0 222 181
0 220 181
0 221 181
0 221 181
0 220 180
0 221 180
0 221 181
0 221 179
0 221 180
0 221 181
0 221 180
0 222 181
0 222 181
0 221 181
0 222 181
0 221 181
0 221 181
0 220 180
0 222 181
0 221 181
0 219 179
0 221 181
0 222 181
0 220 180
0 220 181
0 221 181
0 221 181
0 221 181
0 222 181
0 222 181
0 219 179
0 221 180
0 221 181
0 221 181
0 221 181
0 221 181
0 221 179
0 221 181
0 221 181
0 221 180
0 221 181
0 221 181
0 220 180
0 220 181
0 221 181
0 221 180
0 221 181
0 221 181
0 220 180
0 222 181
0 221 181
0 221 181
0 221 181
0 221 181
0 221 181
0 221 181
0 220 180
0 221 181
0 221 181
0 221 181
0 220 179
0 221 180
0 221 181
0 222 181
0 221 181
0 222 181
0 220 180
0 221 181
0 221 181
0 222 181
0 221 181
0 222 181
0 221 181
0 222 181
0 221 181
0 221 181
0 220 180
0 222 181
0 222 181
0 221 181
0 221 180
0 221 181
0 222 181
0 221 181
0 219 180
0 221 180
0 222 181
0 221 181
0 221 181
0 221 181
0 220 181
0 220 181
0 221 181
0 221 181
0 220 180
0 220 180
0 221 181
0 222 181
0 221 181
0 219 180
0 221 181
0 221 181
0 221 181
0 222 181
0 221 181
0 222 181
0 221 181
0 221 181
0 220 181
0 221 181
0 221 181
0 221 181
0 221 181
0 222 181
0 221 181
0 220 180
0 220 180
0 221 181
0 221 181
0 221 180
0 221 181
0 221 181
0 222 181
0 222 181
0 221 181
0 222 181
0 221 181
0 221 181
0 221 180
0 222 181
0 221 181
0 219 179
0 221 180
0 221 181
0 221 180
0 221 181
0 221 180
0 222 181
0 222 181
0 221 181
0 221 181
0 221 181
0 222 181
0 221 181
0 221 181
0 221 181
0 222 181
0 221 181
0 220 180
0 221 181
0 221 181
0 222 181
0 220 180
0 220 180
0 222 181
0 221 180
0 221 181
0 221 181
0 221 181
0 220 180
0 220 181
0 221 181
0 221 181
0 219 180
0 220 181
0 222 181
0 222 181
0 220 180
0 221 181
0 222 181
0 221 181
0 221 181
0 221 181
0 221 180
0 221 181
0 221 181
0 222 181
0 221 179
0 221 181
0 221 180
0 221 181
0 221 181
0 221 181
0 221 180
0 221 181
0 222 181
0 221 181
0 220 181
0 222 181
0 221 180
0 221 181
0 220 180
0 221 180
0 221 181
0 221 181
0 219 180
0 221 181
0 220 181
0 222 181
0 221 181
0 221 181
0 221 181
0 219 180
0 220 181
0 221 180
0 221 181
0 219 179
0 220 180
0 221 180
0 221 181
0 221 180
0 220 181
0 221 181
0 218 179
0 222 181
0 220 181
0 222 180
0 220 179
0 219 180
0 220 180
0 221 181
0 221 181
0 220 180
0 220 179
0 220 180
0 220 180
0 219 179
0 221 181
0 222 180
0 221 181
0 220 180
0 221 181
0 220 180
0 220 180
0 220 179
0 220 180
0 221 181
0 220 180
0 221 179
0 220 179
0 221 181
0 221 181
0 219 180
0 220 180
0 221 181
0 221 181
0 220 180
0 220 179
0 220 180
0 218 179
0 219 178
0 220 180
0 220 180
0 219 179
0 220 180
0 221 181
0 221 181
0 220 180
0 220 180
0 220 180
0 220 180
0 219 180
0 219 180
0 220 181
0 219 179
0 221 180
0 219 179
0 220 179
0 220 180
0 218 178
0 221 181
0 220 180
0 219 179
0 220 181
0 221 181
0 220 180
0 221 181
0 219 180
0 221 180
0 221 180
0 218 179
0 219 179
0 219 179
0 219 179
0 221 181
0 219 179
0 220 181
0 222 181
0 220 181
0 221 181
0 220 180
0 221 181
0 220 180
0 221 181
0 221 181
0 220 181
0 219 179
0 221 181
0 221 181
0 219 178
0 220 180
0 220 180
0 217 178
0 220 180
0 221 180
0 220 179
0 221 180
0 219 180
0 221 181
0 221 181
0 219 179
0 221 181
0 220 181
0 221 181
0 221 180
0 221 181
0 222 181
0 219 179
0 219 179
0 221 181
0 220 180
0 221 180
0 220 180
0 220 181
0 221 181
0 220 180
0 222 181
0 219 180
0 219 179
0 220 178
0 221 181
0 220 180
0 221 180
0 219 179
0 221 181
0 220 180
0 220 180
0 219 179
0 220 181
0 221 181
0 221 181
0 221 179
0 221 180
0 220 180
0 221 180
0 220 180
0 222 181
0 220 181
0 221 181
0 221 181
0 221 181
0 221 181
0 222 179
0 222 181
0 221 180
0 220 180
0 220 180
0 221 180
0 222 181
0 222 181
0 220 180
0 219 179
0 222 181
0 220 179
0 221 181
0 221 181
0 221 180
0 221 181
0 221 181
0 220 180
0 221 179
0 220 179
0 221 181
0 221 181
0 221 181
0 221 181
0 219 179
0 220 180
0 220 180
0 221 181
0 220 181
0 220 180
0 221 181
0 222 181
0 220 180
0 222 181
0 221 179
0 220 180
0 221 180
0 221 181
0 222 181
0 220 181
0 220 180
0 222 181
0 220 180
0 221 180
0 221 180
0 220 180
0 219 178
0 220 181
0 220 179
0 220 181
0 222 181
0 221 180
0 221 181
0 222 181
0 221 181
0 221 181
0 220 180
0 221 181
0 221 181
0 221 180
0 221 181
0 220 180
0 222 180
0 220 180
0 221 181
0 221 180
0 221 181
0 220 179
0 220 180
0 221 181
0 221 181
0 220 180
0 221 181
0 221 181
0 220 180
0 220 180
0 220 181
0 221 180
0 222 181
0 221 181
0 221 181
0 221 181
0 221 181
0 221 181
0 221 180
0 221 180
0 220 180
0 221 181
0 219 179
0 221 181
0 221 180
0 221 181
0 221 181
0 221 181
0 221 181
0 220 180
0 220 180
0 222 181
0 221 180
0 222 181
0 220 180
0 220 180
0 222 181
0 221 181
0 221 181
0 222 181
0 219 180
0 220 180
0 221 181
0 221 181
0 221 181
0 222 181
0 221 181
0 222 180
0 221 181
0 220 180
0 221 180
0 221 181
0 222 181
0 221 181
0 222 181
0 222 181
0 221 181
0 221 180
0 221 181
0 221 181
0 219 180
0 221 181
0 221 181
0 221 181
0 222 181
0 223 181
0 221 181
0 221 181
0 221 181
0 222 181
0 221 181
0 221 181
0 220 181
0 221 181
0 222 181
0 221 181
0 221 181
0 220 181
0 221 180
0 222 181
0 222 181
0 222 181
0 222 181
0 220 180
0 222 181
0 221 181
0 221 181
0 221 181
0 221 181
0 221 181
0 219 180
0 221 181
0 222 181
0 222 181
0 220 180
0 221 181
0 221 181
0 220 181
0 222 181
0 220 180
0 220 180
0 221 180
0 221 181
0 221 181
0 221 181
0 221 180
0 221 181
0 221 180
0 221 181
0 221 181
0 221 181
0 221 181
0 221 181
0 221 181
0 220 179
0 218 180
0 222 181
0 221 181
0 221 181
0 221 181
0 220 180
0 221 181
0 222 181
0 222 181
0 221 181
0 220 180
0 221 181
0 221 181
0 221 181
0 221 181
0 221 181
0 221 181
0 221 181
0 221 181
0 222 181
0 221 181
0 221 181
0 220 180
0 221 181
0 221 181
0 221 181
0 221 181
0 221 181
0 220 181
0 221 181
0 220 181
0 221 181
0 222 181
0 220 180
0 221 181
0 221 181
0 220 180
0 220 181
0 220 180
0 222 181
0 220 181
0 221 180
0 221 181
0 221 180
0 222 181
0 220 180
0 221 180
0 221 181
0 221 181
0 221 180
0 220 181
0 220 179
0 222 181
0 220 181
0 221 181
0 220 179
0 221 181
0 222 180
0 221 181
0 221 180
0 221 180
0 220 180
0 222 181
0 221 180
0 221 181
0 222 181
0 222 181
0 219 180
0 222 181
0 220 180
0 220 180
0 217 179
0 220 179
0 221 180
0 219 179
0 221 181
0 220 180
0 220 180
0 221 181
0 221 181
0 221 181
0 220 180
0 218 180
0 221 180
0 222 180
0 221 180
0 222 181
0 221 181
0 221 181
0 220 180
0 219 179
0 221 180
0 222 181
0 220 180
0 220 180
0 218 179
0 221 180
0 221 180
0 222 181
0 219 180
0 221 180
0 220 180
0 221 181
0 221 181
0 219 179
0 221 181
0 220 179
0 219 180
0 221 180
0 222 181
0 220 180
0 221 181
0 220 180
0 218 178
0 220 180
0 220 181
0 220 180
0 222 181
0 219 179
0 220 180
0 220 180
0 222 181
0 220 180
0 220 179
0 219 179
0 219 180
0 220 180
0 220 180
0 220 179
0 219 179
0 219 179
0 222 181
0 221 180
0 221 181
0 221 181
0 220 181
0 220 180
0 218 178
0 221 181
0 218 179
0 221 181
0 219 179
0 221 181
0 218 178
0 219 179
0 220 180
0 221 181
0 221 179
0 221 181
0 219 180
0 219 180
0 220 180
0 219 180
0 220 179
0 220 180
0 221 180
0 220 181
0 220 180
0 219 179
0 218 179
0 220 179
0 221 181
0 218 179
0 221 180
0 219 179
0 220 181
0 221 181
0 219 180
0 221 181
0 219 179
0 220 181
0 221 181
0 219 179
0 219 180
0 219 178
0 222 181
0 220 180
0 219 179
0 220 180
0 221 181
0 221 181
0 221 181
0 220 179
0 220 180
0 220 180
0 221 180
0 221 180
0 221 181
0 220 180
0 221 181
0 220 180
0 219 179
0 220 178
0 220 180
0 220 180
0 220 181
0 219 179
0 221 180
0 220 180
0 220 180
0 222 180
0 221 180
0 221 181
0 221 181
0 221 181
0 221 181
0 220 179
0 219 180
0 220 180
0 220 181
0 221 180
0 219 179
0 220 180
0 221 181
0 220 181
0 220 180
0 221 181
0 219 179
0 219 179
0 221 181
0 220 181
0 220 180
0 218 178
0 220 180
0 221 181
0 220 180
0 221 181
0 220 179
0 221 181
0 218 179
0 220 180
0 221 180
0 221 181
0 221 181
0 222 181
0 220 180
0 221 181
0 221 181
0 221 181
0 222 181
0 221 181
0 222 181
0 220 179
0 220 180
0 221 181
0 221 181
0 221 180
0 221 181
0 221 181
0 222 181
0 220 180
0 220 178
0 221 181
0 220 180
0 219 180
0 222 181
0 220 180
0 220 180
0 220 180
0 220 180
0 220 180
0 219 179
0 221 181
0 221 181
0 222 181
0 222 181
0 221 179
0 220 180
0 222 181
0 221 181
0 221 180
0 220 179
0 221 181
0 222 181
0 220 180
0 221 181
0 221 181
0 219 179
0 219 180
0 222 181
0 220 180
0 221 181
0 220 180
0 220 180
0 222 180
0 220 180
0 220 180
0 221 181
0 220 180
0 219 178
0 221 181
0 221 181
0 222 181
0 220 180
0 222 181
0 222 181
0 221 180
0 222 181
0 221 180
0 219 180
0 221 181
0 222 180
0 220 181
0 221 181
0 221 181
0 219 180
0 221 180
0 221 181
0 221 181
0 221 180
0 222 181
0 222 181
0 221 181
0 221 181
0 221 180
0 219 179
0 221 181
0 219 180
0 221 181
0 219 179
0 221 180
0 221 181
0 220 181
0 220 181
0 221 181
0 221 181
0 220 180
0 220 179
0 221 181
0 221 180
0 220 180
0 220 179
0 221 181
0 221 181
0 222 181
0 221 180
0 221 181
0 222 181
0 221 181
0 222 181
0 221 181
0 221 181
0 221 181
0 222 181
0 222 181
0 221 181
0 221 181
0 222 181
0 221 181
0 222 181
0 220 181
0 221 181
0 221 181
0 221 181
0 221 181
0 221 181
0 220 181
0 221 181
0 221 181
0 221 181
0 222 181
0 221 181
0 221 181
0 221 181
0 221 181
0 221 181
0 222 181
0 221 181
0 222 181
0 221 181
0 221 181
0 222 181
0 221 181
0 222 181
0 221 180
0 221 181
0 221 181
0 221 181
0 221 181
0 220 180
0 222 181
0 222 181
0 222 181
0 221 181
0 222 180
0 221 181
0 222 181
0 221 181
0 222 181
0 221 181
0 221 181
0 220 181
0 221 181
0 221 181
0 220 180
0 221 181
0 221 181
0 221 181
0 222 181
0 222 181
0 221 181
0 222 181
0 221 181
0 221 181
0 221 181
0 222 181
0 221 181
0 220 180
0 221 181
0 222 181
0 222 181
0 222 181
0 221 181
0 221 180
0 221 180
0 221 181
0 221 181
0 220 181
0 221 181
0 220 180
0 221 180
0 221 181
0 221 181
0 221 181
0 221 181
0 221 181
0 221 181
0 222 181
0 221 181
0 221 180
0 221 181
0 221 181
0 221 181
0 220 180
0 221 181
0 220 180
0 221 181
0 221 181
0 221 181
0 221 181
0 220 180
0 221 181
0 221 181
0 220 180
0 220 179
0 221 180
0 222 181
0 222 181
0 220 180
0 222 181
0 221 181
0 221 181
0 221 181
0 220 180
0 221 180
0 222 181
0 221 180
0 220 180
0 222 181
0 221 179
0 221 181
0 222 181
0 220 180
0 221 181
0 220 180
0 221 181
0 221 181
0 221 181
0 221 179
0 221 181
0 221 181
0 221 181
0 222 181
0 221 181
0 221 181
0 221 181
0 221 181
0 221 181
0 222 181
0 221 181
0 221 181
0 221 181
0 219 178
0 221 181
0 221 180
0 221 181
0 221 181
0 220 180
0 219 180
0 220 181
0 222 181
0 220 180
0 221 179
0 222 181
0 221 181
0 219 179
0 220 181
0 221 181
0 219 179
0 220 180
0 221 180
0 220 180
0 222 181
0 221 181
0 221 180
0 222 181
0 222 181
0 221 181
0 221 180
0 221 180
0 221 181
0 223 180
0 219 180
0 220 180
0 221 181
0 221 181
0 221 180
0 221 181
0 222 181
0 219 179
0 220 180
0 219 179
0 219 180
0 221 181
0 220 179
0 219 179
0 219 179
0 221 181
0 222 180
0 221 180
0 220 180
0 219 179
0 221 180
0 220 179
0 218 179
0 221 180
0 221 181
0 220 180
0 219 180
0 220 181
0 221 180
0 220 180
0 219 179
0 219 179
0 220 179
0 221 180
0 219 179
0 219 179
0 219 179
0 221 181
0 221 181
0 221 181
0 221 181
0 221 181
0 218 179
0 221 181
0 221 181
0 219 180
0 221 181
0 221 181
0 221 179
0 220 180
0 220 179
0 221 181
0 219 180
0 222 181
0 220 180
0 221 180
0 219 180
0 221 180
0 220 180
0 220 179
0 221 180
0 220 180
0 221 181
0 222 181
0 221 179
0 219 179
0 221 180
0 222 181
0 219 180
0 220 180
0 219 179
0 220 180
0 220 179
0 220 181
0 219 179
0 220 180
0 220 180
0 221 181
0 220 180
0 222 181
0 220 179
0 221 180
0 220 180
0 221 181
0 221 181
0 220 180
0 220 179
0 221 181
0 221 181
0 221 181
0 221 180
0 222 181
0 222 181
0 220 180
0 218 179
0 220 180
0 219 180
0 222 181
0 220 179
0 222 181
0 220 180
0 221 181
0 218 178
0 221 181
0 220 180
0 222 181
0 220 181
0 220 181
0 221 181
0 220 180
0 221 181
0 221 181
0 220 180
0 221 179
0 221 180
0 222 181
0 220 180
0 222 181
0 222 180
0 221 180
0 221 180
0 221 181
0 221 181
0 220 180
0 221 181
0 221 180
0 222 181
0 221 181
0 220 178
0 221 181
0 221 181
0 220 180
0 221 180
0 221 180
0 220 180
0 221 181
0 221 181
0 222 181
0 219 179
0 221 181
0 220 180
0 221 180
0 218 178
0 220 179
0 221 181
0 221 181
0 221 181
0 220 181
0 221 181
0 220 179
0 218 178
0 221 181
0 220 180
0 222 181
0 220 180
0 221 181
0 222 181
0 221 180
0 219 179
0 221 181
0 220 181
0 220 180
0 219 179
0 222 181
0 220 181
0 219 179
0 221 180
0 222 180
0 222 181
0 220 180
0 220 180
0 220 181
0 220 181
0 221 180
0 219 179
0 220 179
0 221 181
0 221 180
0 221 181
0 221 180
0 222 181
0 221 181
0 220 180
0 220 180
0 221 181
0 221 180
0 221 181
0 221 180
0 221 180
0 220 181
0 221 181
0 220 181
0 220 180
0 221 181
0 220 180
0 221 181
0 221 180
0 222 181
0 221 181
0 222 181
0 221 181
0 221 181
0 220 180
0 220 180
0 219 180
0 221 181
0 222 181
0 222 181
0 221 181
0 220 181
0 221 180
0 220 180
0 221 181
0 222 181
0 220 181
0 221 181
0 221 181
0 220 180
0 222 181
0 221 181
0 221 181
0 221 181
0 221 181
0 220 181
0 221 181
0 220 181
0 221 181
0 221 181
0 221 181
0 220 180
0 221 181
0 221 181
0 222 181
0 221 181
0 222 181
0 221 181
0 220 181
0 221 181
0 221 181
0 220 180
0 220 180
0 222 181
0 221 181
0 221 181
0 221 181
0 221 181
0 222 181
0 221 181
0 221 181
0 221 181
0 221 181
0 222 181
0 220 181
0 222 181
0 221 181
0 222 181
0 222 181
0 222 181
0 221 180
0 221 181
0 222 181
0 222 181
0 221 181
0 221 181
0 221 181
0 220 181
0 220 181
0 222 181
0 221 181
0 221 181
0 221 181
0 220 180
0 220 180
0 221 181
0 221 181
0 221 181
0 220 180
0 220 181
0 220 180
0 221 181
0 220 180
0 221 181
0 222 180
0 220 181
0 220 179
0 221 181
0 220 180
0 220 181
0 220 181
0 222 181
0 222 181
0 221 181
0 221 181
0 220 180
0 221 181
0 221 180
0 221 181
0 221 181
0 219 180
0 220 180
0 221 181
0 220 180
0 221 181
0 221 181
0 220 180
0 222 181
0 221 181
0 222 181
0 221 181
0 222 181
0 221 181
0 220 180
0 222 181
0 221 181
0 222 181
0 221 181
0 221 181
0 221 181
0 221 181
0 221 181
0 221 181
0 220 180
0 222 181
0 221 181
0 222 181
0 221 181
0 221 181
0 221 181
0 221 181
0 221 181
0 222 181
0 222 181
0 221 181
0 220 181
0 221 181
0 221 181
0 218 179
0 221 181
0 222 181
0 221 180
0 220 179
0 221 180
0 220 180
0 221 181
0 220 180
0 221 181
0 220 181
0 221 181
0 221 181
0 220 181
0 220 180
0 222 181
0 220 180
0 220 180
0 220 179
0 220 179
0 219 180
0 219 179
0 221 181
0 221 180
0 221 181
0 221 181
0 220 180
0 220 181
0 220 180
0 220 181
0 220 180
0 221 181
0 222 181
0 221 181
0 221 180
0 221 179
0 220 180
0 220 179
0 220 180
0 221 181
0 221 180
0 222 181
0 220 181
0 221 181
0 221 181
0 220 180
0 221 181
0 219 179
0 221 180
0 220 180
0 220 180
0 221 180
0 222 181
0 220 180
0 221 181
0 220 179
0 219 179
0 220 180
0 220 181
0 220 180
0 221 180
0 221 180
0 219 179
0 221 181
0 220 181
0 221 181
0 222 181
0 219 179
0 219 179
0 221 181
0 220 180
0 221 180
0 220 180
0 215 177
0 220 180
0 221 180
0 220 180
0 220 180
0 220 179
0 221 181
0 222 181
0 219 179
0 219 179
0 221 181
0 221 181
0 219 179
0 221 179
0 221 180
0 219 179
0 220 180
0 220 180
0 220 180
0 219 181
0 221 180
0 221 181
0 220 180
0 218 178
0 220 179
0 220 180
0 220 181
0 221 180
0 219 179
0 220 179
0 221 180
0 220 180
0 220 179
0 221 181
0 221 181
0 219 178
0 216 178
0 221 180
0 220 179
0 220 179
0 221 180
0 220 180
0 222 181
0 222 181
0 221 181
0 219 179
0 219 179
0 221 181
0 221 180
0 222 180
0 221 180
0 219 179
0 219 180
0 221 181
0 221 180
0 220 180
0 220 180
0 221 181
0 221 181
0 221 180
0 219 180
0 222 181
0 220 180
0 220 179
0 221 180
0 221 181
0 221 181
0 221 180
0 219 180
0 221 181
0 220 179
0 221 181
0 221 181
0 221 181
0 220 180
0 221 181
0 220 180
0 220 180
0 220 179
0 220 180
0 220 180
0 219 180
0 219 179
0 222 181
0 220 179
0 222 181
0 220 179
0 221 181
0 221 180
0 221 181
0 217 178
0 221 181
0 220 181
0 220 180
0 220 179
0 220 180
0 221 181
0 220 180
0 220 180
0 220 180
0 220 179
0 221 181
0 221 180
0 220 180
0 220 180
0 221 181
0 221 181
0 221 181
0 221 181
0 220 180
0 221 180
0 220 180
0 220 179
0 222 181
0 222 181
0 222 181
0 220 180
0 221 180
0 222 180
0 220 179
0 221 180
0 220 179
0 222 180
0 221 180
0 222 181
0 222 181
0 221 181
0 221 180
0 222 181
0 221 180
0 221 181
0 219 180
0 220 181
0 222 181
0 221 180
0 221 181
0 220 180
0 219 180
0 220 179
0 222 181
0 219 179
0 221 181
0 221 180
0 221 181
0 220 179
0 220 179
0 221 181
0 220 180
0 222 181
0 221 181
0 221 179
0 222 181
0 220 181
0 221 180
0 220 180
0 221 181
0 220 180
0 221 180
0 221 181
0 220 180
0 220 180
0 222 181
0 220 181
0 221 181
0 221 181
0 220 180
0 222 181
0 222 181
0 220 181
0 221 181
0 220 180
0 221 181
0 220 179
0 221 181
0 222 181
0 221 180
0 220 180
0 222 181
0 220 181
0 223 181
0 221 180
0 221 180
0 222 181
0 221 181
0 221 181
0 222 181
0 221 181
0 222 181
0 220 179
0 221 181
0 221 181
0 221 181
0 220 179
0 221 181
0 221 181
0 221 181
0 222 181
0 222 181
0 220 180
0 220 181
0 220 180
0 221 181
0 219 179
0 222 181
0 220 181
0 221 180
0 222 181
0 221 181
0 221 181
0 222 181
0 222 181
0 221 181
0 221 181
0 221 181
0 220 181
0 222 180
0 221 181
0 220 181
0 220 180
0 222 181
0 221 181
0 221 181
0 221 181
0 221 181
0 222 181
0 222 181
0 221 180
0 221 181
0 221 181
0 221 181
0 222 181
0 221 181
0 221 181
0 220 181
0 221 181
0 221 181
0 221 181
0 221 181
0 221 181
0 221 181
0 221 181
0 221 181
0 222 181
0 221 180
0 222 181
0 222 181
0 221 181
0 220 181
0 220 180
0 221 181
0 221 181
0 221 181
0 221 181
0 221 181
0 220 181
0 220 181
0 221 181
0 221 180
0 221 181
0 221 181
0 221 181
0 222 181
0 222 181
0 221 180
0 220 181
0 221 181
0 221 181
0 221 181
0 221 181
0 221 181
0 221 180
0 221 181
0 220 180
0 221 181
0 221 181
0 220 181
0 222 181
0 220 180
0 222 181
0 222 181
0 221 180
0 220 180
0 221 181
0 221 181
0 221 181
0 220 180
0 222 181
0 221 181
0 220 181
0 222 181
0 221 181
0 221 180
0 221 181
0 221 181
0 222 181
0 221 181
0 221 181
0 221 181
0 220 180
0 221 181
0 219 179
0 222 181
0 221 181
0 221 180
0 222 181
0 222 181
0 221 181
0 221 181
0 221 181
0 222 181
0 221 181
0 220 180
0 221 181
0 221 181
0 222 181
0 221 181
0 221 180
0 221 181
0 222 181
0 221 179
0 220 180
0 221 180
0 221 181
0 221 181
0 221 181
0 220 180
0 220 180
0 222 181
0 219 179
0 222 181
0 221 181
0 222 181
0 219 179
0 221 179
0 222 181
0 220 181
0 220 180
0 221 181
0 221 180
0 218 179
0 220 180
0 222 181
0 222 180
0 221 181
0 221 181
0 221 180
0 220 181
0 221 181
0 221 181
0 222 181
0 222 181
0 221 181
0 221 181
0 219 179
0 221 181
0 221 180
0 222 181
0 221 180
0 222 180
0 220 180
0 221 181
0 221 181
0 220 180
0 219 179
0 221 180
0 219 179
0 220 180
0 220 179
0 220 180
0 221 181
0 222 181
0 221 181
0 220 180
0 220 180
0 221 180
0 222 180
0 221 181
0 221 181
0 221 180
0 221 180
0 222 181
0 219 178
0 219 178
0 220 181
0 219 179
0 219 179
0 221 181
0 220 181
0 221 181
0 221 181
0 219 179
0 219 179
0 219 178
0 220 179
0 219 178
0 221 181
0 221 181
0 219 179
0 220 179
0 221 181
0 220 180
0 221 181
0 221 180
0 221 181
0 220 180
0 221 180
0 221 181
0 219 179
0 220 180
0 220 180
0 218 179
0 220 181
0 220 180
0 219 178
0 220 180
0 220 180
0 222 180
0 220 180
0 221 181
0 217 178
0 219 179
0 221 181
0 221 180
0 220 181
0 220 180
0 216 177
0 221 181
0 222 181
0 221 181
0 221 181
0 221 180
0 222 181
0 221 181
0 221 180
0 220 180
0 220 180
0 220 180
0 221 181
0 219 180
0 222 181
0 221 180
0 219 178
0 219 179
0 220 180
0 220 180
0 221 180
0 218 179
0 221 179
0 220 181
0 222 181
0 221 181
0 221 181
0 221 181
0 221 181
0 218 177
0 220 180
0 220 180
0 221 181
0 220 179
0 219 178
0 219 180
0 221 180
0 220 180
0 220 180
0 221 181
0 221 180
0 221 180
0 221 181
0 220 180
0 221 181
0 220 180
0 221 180
0 222 181
0 219 178
0 220 179
0 221 181
0 220 180
0 221 180
0 219 179
0 222 181
0 220 180
0 221 181
0 221 180
0 221 181
0 219 179
0 221 181
0 222 181
0 218 179
0 221 180
0 221 180
0 222 181
0 221 181
0 220 179
0 221 180
0 220 181
0 221 180
0 221 181
0 217 178
0 220 179
0 220 180
0 218 178
0 219 180
0 222 181
0 219 179
0 220 180
0 220 180
0 219 179
0 219 180
0 219 179
0 220 179
0 220 180
0 220 180
0 220 180
0 221 181
0 220 181
0 222 181
0 220 179
0 221 181
0 221 180
0 220 181
0 221 181
0 220 180
0 221 181
0 221 181
0 220 180
0 220 181
0 221 181
0 220 180
0 221 181
0 221 181
0 220 180
0 219 179
0 221 179
0 221 180
0 221 181
0 221 181
0 221 180
0 221 181
0 221 180
0 219 179
0 220 180
0 221 181
0 221 181
0 221 181
0 221 180
0 221 181
0 221 181
0 222 181
0 221 181
0 221 180
0 220 180
0 220 181
0 221 180
0 222 181
0 222 181
0 220 180
0 221 181
0 221 181
0 222 181
0 222 181
0 221 181
0 221 181
0 222 181
0 221 181
0 221 181
0 221 180
0 220 180
0 221 181
0 221 181
0 222 181
0 220 181
0 222 181
0 220 181
0 220 180
0 220 181
0 220 180
0 221 181
0 222 181
0 221 179
0 221 181
0 221 181
0 220 180
0 221 180
0 221 181
0 221 181
0 221 180
0 219 180
0 219 179
0 220 180
0 221 181
0 221 181
0 220 180
0 221 180
0 219 179
0 222 181
0 221 181
0 221 181
0 221 180
0 220 180
0 221 181
0 221 181
0 221 181
0 221 181
0 220 180
0 221 181
0 221 181
0 221 181
0 221 181
0 221 181
0 221 180
0 221 181
0 222 181
0 220 181
0 221 181
0 220 181
0 221 181
0 221 181
0 222 181
0 221 181
0 220 181
0 220 181
0 220 180
0 221 181
0 221 181
0 221 181
0 222 181
0 221 181
0 220 180
0 221 181
0 221 181
0 220 180
0 222 181
0 222 181
0 221 181
0 221 181
0 221 181
0 221 181
0 221 181
0 220 180
0 221 181
0 222 181
0 221 181
0 220 180
0 222 181
0 221 181
0 220 181
0 222 181
0 222 181
0 221 181
0 221 181
0 221 181
0 221 181
0 222 181
0 223 181
0 222 181
0 222 181
0 220 180
0 222 181
0 221 181
0 221 181
0 221 181
0 220 180
0 222 181
0 221 180
0 221 181
0 221 181
0 221 181
0 222 181
0 222 181
0 220 181
0 220 180
0 222 181
0 221 181
0 220 180
0 221 181
0 221 180
0 220 180
0 222 181
0 220 181
0 222 181
0 220 181
0 220 181
0 222 181
0 221 181
0 222 181
0 222 181
0 222 181
0 221 181
0 221 181
0 220 180
0 222 181
0 220 181
0 221 181
0 221 180
0 221 181
0 221 181
0 223 181
0 222 181
0 220 180
0 221 181
0 221 181
0 221 181
0 220 180
0 220 180
0 220 181
0 220 181
0 222 181
0 221 181
0 222 181
0 221 181
0 221 181
0 221 180
0 221 181
0 221 180
0 220 181
0 221 181
0 222 181
0 221 181
0 221 181
0 221 180
0 221 180
0 220 180
0 220 180
0 220 180
0 221 180
0 221 181
0 220 180
0 221 181
0 220 180
0 220 180
0 222 181
0 221 180
0 220 180
0 221 181
0 220 181
0 221 181
0 222 181
0 222 181
0 222 181
0 220 181
0 221 181
0 221 181
0 220 179
0 219 179
0 221 181
0 222 181
0 221 180
0 220 179
0 221 180
0 220 179
0 219 180
0 221 181
0 222 181
0 221 181
0 221 181
0 221 181
0 221 181
0 220 180
0 221 181
0 220 181
0 220 181
0 219 180
0 221 180
0 220 180
0 220 179
0 221 181
0 218 179
0 221 181
0 221 181
0 222 181
0 220 180
0 220 180
0 219 180
0 220 181
0 221 181
0 220 180
0 220 180
0 221 180
0 221 180
0 221 180
0 220 179
0 221 181
0 221 181
0 220 180
0 220 179
0 221 181
0 220 180
0 221 180
0 221 181
0 222 181
0 222 181
0 220 179
0 219 179
0 220 180
0 219 179
0 221 180
0 222 180
0 220 179
0 219 179
0 221 180
0 221 181
0 220 181
0 219 180
0 221 181
0 221 181
0 221 181
0 220 180
0 220 179
0 220 181
0 220 179
0 218 179
0 220 180
0 221 181
0 220 181
0 222 181
0 221 180
0 221 181
0 220 180
0 220 180
0 221 180
0 218 178
0 221 181
0 221 181
0 221 180
0 221 181
0 221 181
0 221 181
0 220 180
0 221 181
0 220 180
0 218 178
0 220 180
0 219 179
0 221 180
0 221 181
0 220 179
0 219 180
0 220 179
0 222 181
0 221 181
0 219 179
0 221 180
0 222 181
0 220 179
0 219 180
0 219 179
0 221 181
0 221 180
0 220 180
0 220 180
0 220 179
0 220 180
0 222 181
0 221 181
0 220 180
0 221 181
0 219 178
0 221 181
0 218 179
0 221 181
0 220 180
0 220 181
0 219 179
0 219 179
0 220 180
0 220 179
0 221 181
0 219 179
0 221 181
0 221 181
0 222 181
0 221 180
0 220 180
0 221 180
0 220 179
0 221 179
0 220 180
0 220 179
0 221 181
0 220 179
0 222 181
0 217 179
0 219 180
0 221 181
0 220 180
0 220 180
0 222 181
0 221 180
0 221 181
0 220 180
0 221 181
0 221 181
0 220 180
0 222 181
0 219 178
0 219 179
0 221 180
0 220 180
0 220 180
0 221 180
0 221 180
0 222 181
0 221 181
0 222 181
0 220 180
0 219 180
0 219 179
0 221 179
0 221 180
0 221 180
0 221 180
0 220 180
0 221 181
0 221 180
0 220 181
0 221 181
0 220 180
0 222 181
0 222 181
0 220 181
0 220 180
0 221 181
0 221 181
0 222 181
0 223 181
0 221 181
0 222 181
0 221 181
0 220 180
0 221 181
0 221 181
0 221 180
0 221 181
0 221 181
0 219 180
0 221 181
0 221 181
0 220 180
0 221 181
0 220 180
0 221 181
0 221 181
0 221 181
0 221 181
0 219 179
0 220 180
0 221 181
0 221 181
0 221 181
0 219 179
0 219 180
0 219 179
0 221 181
0 220 180
0 220 180
0 221 181
0 220 180
0 221 181
0 220 179
0 221 181
0 221 181
0 221 180
0 218 179
0 222 181
0 221 181
0 221 181
0 221 181
0 220 181
0 222 181
0 222 181
0 222 181
0 221 181
0 220 181
0 221 181
0 221 181
0 222 181
0 221 181
0 221 181
0 221 181
0 221 181
0 222 181
0 220 180
0 220 180
0 221 180
0 221 179
0 222 181
0 222 181
0 221 181
0 221 181
0 221 181
0 219 179
0 221 181
0 220 179
0 220 180
0 221 180
0 221 180
0 221 180
0 219 179
0 221 181
0 219 179
0 219 179
0 220 180
0 221 181
0 220 181
0 221 181
0 221 181
0 221 180
0 221 181
0 221 179
0 220 180
0 221 181
0 221 181
0 220 181
0 220 181
0 222 181
0 221 181
0 220 181
0 222 181
0 221 181
0 221 181
0 221 181
0 222 181
0 221 181
0 221 180
0 222 181
0 221 181
0 222 181
0 222 181
0 221 181
0 222 181
0 220 180
0 220 181
0 222 181
0 221 181
0 220 180
0 221 181
0 220 180
0 220 180
0 221 181
0 221 181
0 221 181
0 220 181
0 221 181
0 221 181
0 221 181
0 221 181
0 221 181
0 221 181
0 221 181
0 220 180
0 220 181
0 221 181
0 221 181
0 222 180
0 221 181
0 220 180
0 222 181
0 221 181
0 221 181
0 222 181
0 220 181
0 221 181
0 222 181
0 220 180
0 222 181
0 221 181
0 221 181
0 220 181
0 221 180
0 221 181
0 221 181
0 221 181
0 220 180
0 222 181
0 222 181
0 220 180
0 222 181
0 220 180
0 221 181
0 221 181
0 220 180
0 220 180
0 221 181
0 222 181
0 221 181
0 221 181
0 222 181
0 221 181
0 220 180
0 221 181
0 221 181
0 221 181
0 221 181
0 221 181
0 220 181
0 219 178
0 220 181
0 221 179
0 220 181
0 221 180
0 220 180
0 221 181
0 221 180
0 221 181
0 220 180
0 222 181
0 221 181
0 222 181
0 220 180
0 221 180
0 220 180
0 221 180
0 221 181
0 222 181
0 221 181
0 220 180
0 219 180
0 222 181
0 220 180
0 221 180
0 222 180
0 222 181
0 221 181
0 221 180
0 220 179
0 220 181
0 222 181
0 222 181
0 221 180
0 220 179
0 222 181
0 221 180
0 222 181
0 221 181
0 221 181
0 221 180
0 222 181
0 221 181
0 222 181
0 220 181
0 219 180
0 220 180
0 222 181
0 221 180
0 221 181
0 221 180
0 221 180
0 221 181
0 222 181
0 221 181
0 220 180
0 221 181
0 220 180
0 221 181
0 221 180
0 220 180
0 221 181
0 219 178
0 222 181
0 221 180
0 220 180
0 221 181
0 221 181
0 221 181
0 222 181
0 221 181
0 221 181
0 219 180
0 220 180
0 220 179
0 220 180
0 221 181
0 220 179
0 219 180
0 221 180
0 221 181
0 222 181
0 220 180
0 219 180
0 221 180
0 221 181
0 221 181
0 222 181
0 221 181
0 221 181
0 222 181
0 220 180
0 222 181
0 221 180
0 218 179
0 220 180
0 221 181
0 221 181
0 220 180
0 219 180
0 219 180
0 221 180
0 216 177
0 221 179
0 220 180
0 221 181
0 220 180
0 220 180
0 221 180
0 219 180
0 221 181
0 220 180
0 218 178
0 221 180
0 221 181
0 219 179
0 220 179
0 220 180
0 222 181
0 220 180
0 221 181
0 221 181
0 219 178
0 221 181
0 220 180
0 221 181
0 221 180
0 220 181
0 220 180
0 220 180
0 220 180
0 219 179
0 222 181
0 219 179
0 220 180
0 220 178
0 219 180
0 220 180
0 221 180
0 220 180
0 219 179
0 221 181
0 221 181
0 220 181
0 221 181
0 221 180
0 219 178
0 218 177
0 221 180
0 220 179
0 220 181
0 220 180
0 221 181
0 218 178
0 219 179
0 221 181
0 220 180
0 219 180
0 220 180
0 220 179
0 220 181
0 221 181
0 221 181
0 219 180
0 221 181
0 220 179
0 221 181
0 220 181
0 221 180
0 221 181
0 220 179
0 221 180
0 222 181
0 220 180
0 219 179
0 221 180
0 222 181
0 219 178
0 221 181
0 220 180
0 221 181
0 219 179
0 220 180
0 221 180
0 219 180
0 219 180
0 221 181
0 220 180
0 221 180
0 221 181
0 219 180
0 221 181
0 220 180
0 220 180
0 220 181
0 221 181
0 221 180
0 221 180
0 221 180
0 221 181
0 220 178
0 220 179
0 222 181
0 221 180
0 221 181
0 221 181
0 220 181
0 221 180
0 220 180
0 220 180
0 220 180
0 220 180
0 220 180
0 221 181
0 220 180
0 219 178
0 221 179
0 221 181
0 221 181
0 221 179
0 220 180
0 221 180
0 220 178
0 221 181
0 221 180
0 220 180
0 221 181
0 221 180
0 221 181
0 220 180
0 220 180
0 221 181
0 220 180
0 222 181
0 222 181
0 221 181
0 222 180
0 220 180
0 221 181
0 221 179
0 219 178
0 221 181
0 221 181
0 221 181
0 220 180
0 220 180
0 220 180
0 221 180
0 221 181
0 221 181
0 221 181
0 221 181
0 219 179
0 221 181
0 221 181
0 221 180
0 222 180
0 222 181
0 221 181
0 221 180
0 220 181
0 219 178
0 220 180
0 221 181
0 222 181
0 222 181
0 221 181
0 220 180
0 221 180
0 221 181
0 221 181
0 220 180
0 221 181
0 219 179
0 219 179
0 220 181
0 221 180
0 221 181
0 220 181
0 221 181
0 222 181
0 221 180
0 220 181
0 219 179
0 219 180
0 222 181
0 221 181
0 221 181
0 222 181
0 221 181
0 221 181
0 221 181
0 222 181
0 221 181
0 221 181
0 221 181
0 220 179
0 221 181
0 221 181
0 221 180
0 221 180
0 220 180
0 222 181
0 221 181
0 221 181
0 219 180
0 223 181
0 221 181
0 222 181
0 221 181
0 219 179
0 221 180
0 221 180
0 221 181
0 221 181
0 220 180
0 220 181
0 222 181
0 221 181
0 221 180
0 221 181
0 221 180
0 221 181
0 220 181
0 221 181
0 222 181
0 221 181
0 221 181
0 220 181
0 221 181
0 220 180
0 221 181
0 222 181
0 220 180
0 221 181
0 221 181
0 220 180
0 222 181
0 221 181
0 221 181
0 220 180
0 221 181
0 221 181
0 220 180
0 221 181
0 220 181
0 221 181
0 221 181
0 221 181
0 221 181
0 222 181
0 221 181
0 221 181
0 221 181
0 222 181
0 221 181
0 222 181
0 222 181
0 221 181
0 221 181
0 222 181
0 220 181
0 222 181
0 222 181
0 219 180
0 221 181
0 223 181
0 221 181
0 220 181
0 222 181
0 221 181
0 221 181
0 220 179
0 220 179
0 222 181
0 221 181
0 221 181
0 221 181
0 221 181
0 222 181
0 221 181
0 222 181
0 219 179
0 221 180
0 221 181
0 220 181
0 222 181
0 221 181
0 221 181
0 220 180
0 220 180
0 220 181
0 221 181
0 222 181
0 221 181
0 221 181
0 222 181
0 220 181
0 220 181
0 220 181
0 221 181
0 220 180
0 221 181
0 220 181
0 221 181
0 221 181
0 221 181
0 221 181
0 221 180
0 221 181
0 221 180
0 221 181
0 222 181
0 220 180
0 221 181
0 221 181
0 221 181
0 222 181
0 221 181
0 221 181
0 222 181
0 220 181
0 219 180
0 222 181
0 221 180
0 219 180
0 221 181
0 223 181
0 222 181
0 221 179
0 220 180
0 221 181
0 221 181
0 220 181
0 221 181
0 220 180
0 220 181
0 220 180
0 220 180
0 219 179
0 221 181
0 221 181
0 220 181
0 220 180
0 219 179
0 220 179
0 221 181
0 220 180
0 220 179
0 221 180
0 220 180
0 220 180
0 221 181
0 221 181
0 221 181
0 221 181
0 221 181
0 220 180
0 222 181
0 219 179
0 221 181
0 220 181
0 221 181
0 221 181
0 220 180
0 221 180
0 221 181
0 220 180
0 219 180
0 222 181
0 222 181
0 219 180
0 221 181
0 221 181
0 221 181
0 221 181
0 221 181
0 222 181
0 220 180
0 221 180
0 222 181
0 220 180
0 221 181
0 221 181
0 221 181
0 221 181
0 221 181
0 222 181
0 221 181
0 221 181
0 221 180
0 221 180
0 221 181
0 221 181
0 219 180
0 221 181
0 221 181
0 220 181
0 221 181
0 218 178
0 220 180
0 220 179
0 220 180
0 221 181
0 221 181
0 221 181
0 220 179
0 221 180
0 219 179
0 220 178
0 222 180
0 219 179
0 219 179
0 222 180
0 221 180
0 220 180
0 220 180
0 219 179
0 221 181
0 219 179
0 222 181
0 221 181
0 221 181
0 218 179
0 220 180
0 222 181
0 220 180
0 219 179
0 220 180
0 219 179
0 220 181
0 222 181
0 221 181
0 222 181
0 220 180
0 222 181
0 220 180
0 221 181
0 221 181
0 219 179
0 222 181
0 221 180
0 222 181
0 220 180
0 221 181
0 219 179
0 222 181
0 219 180
0 219 179
0 219 179
0 218 178
0 221 180
0 221 180
0 221 181
0 218 178
0 220 180
0 220 181
0 222 181
0 220 179
0 221 181
0 220 179
0 221 181
0 221 180
0 221 180
0 221 181
0 221 181
0 220 180
0 220 180
0 221 181
0 219 178
0 219 180
0 219 180
0 219 178
0 221 180
0 221 181
0 221 180
0 220 180
0 221 181
0 221 181
0 222 181
0 218 179
0 221 181
0 219 179
0 220 180
0 222 181
0 220 181
0 220 180
0 222 181
0 221 181
0 220 178
0 221 180
0 221 181
0 221 180
0 220 180
0 220 179
0 218 179
0 221 181
0 220 180
0 220 179
0 220 180
0 222 181
0 219 179
0 221 181
0 221 180
0 221 180
0 219 178
0 220 181
0 220 179
0 221 181
0 219 180
0 221 181
0 219 180
0 222 181
0 222 181
0 220 180
0 219 179
0 221 181
0 222 181
0 220 181
0 219 180
0 219 179
0 221 181
0 220 179
0 220 181
0 221 181
0 221 181
0 220 180
0 221 180
0 221 181
0 221 180
0 220 181
0 220 178
0 222 180
0 221 180
0 220 179
0 220 180
0 221 181
0 218 179
0 220 180
0 220 181
0 222 181
0 222 180
0 220 179
0 221 181
0 221 180
0 222 181
0 220 179
0 220 180
0 221 181
0 221 181
0 222 181
0 221 180
0 220 180
0 221 180
0 218 179
0 221 181
0 221 181
0 219 178
0 221 180
0 220 179
0 222 181
0 219 180
0 221 180
0 221 181
0 220 180
0 220 181
0 220 179
0 222 181
0 221 181
0 220 181
0 221 180
0 220 181
0 220 180
0 220 180
0 221 181
0 220 181
0 221 181
0 221 180
0 221 181
0 221 181
0 219 179
0 220 180
0 219 179
0 222 181
0 222 181
0 221 181
0 221 181
0 221 180
0 221 181
0 221 181
0 221 181
0 221 181
0 221 181
0 221 181
0 222 181
0 221 181
0 221 181
0 221 180
0 221 180
0 221 181
0 222 181
0 222 181
0 220 181
0 221 181
0 220 180
0 222 181
0 221 181
0 220 180
0 221 181
0 222 181
0 221 180
0 220 180
0 220 181
0 221 181
0 221 181
0 221 180
0 222 181
0 221 181
0 221 181
0 221 181
0 221 180
0 222 181
0 221 181
0 220 180
0 220 180
0 221 181
0 221 181
0 221 181
0 220 181
0 221 181
0 222 181
0 221 181
0 221 181
0 222 181
0 221 181
0 221 181
0 222 181
0 222 181
0 221 180
0 221 181
0 221 181
0 221 181
0 222 181
0 220 181
0 222 181
0 219 180
0 221 181
0 222 181
0 222 181
0 220 181
0 220 180
0 220 181
0 220 181
0 221 181
0 221 181
0 221 181
0 221 181
0 221 181
0 221 181
0 222 181
0 221 181
0 221 181
0 222 181
0 220 181
0 221 181
0 221 181
0 221 181
0 220 180
0 221 181
0 221 181
0 222 181
0 221 181
0 222 181
0 221 180
0 222 180
0 221 181
0 222 181
0 220 180
0 221 181
0 221 181
0 221 181
0 221 181
0 221 180
0 220 180
0 221 181
0 222 181
0 221 181
0 220 181
0 221 181
0 220 180
0 222 181
0 221 180
0 221 181
0 221 181
0 222 181
0 221 181
0 221 181
0 222 181
0 221 181
0 221 181
0 221 181
0 221 181
0 220 180
0 222 181
0 221 181
0 221 181
0 222 181
0 220 180
0 221 180
0 221 181
0 221 181
0 220 180
0 222 181
0 222 181
0 221 181
0 222 181
0 221 181
0 221 181
0 222 181
0 221 181
0 221 181
0 220 181
0 221 180
0 221 181
0 219 180
0 220 180
0 221 181
0 220 180
0 222 181
0 221 180
0 221 181
0 221 181
0 221 180
0 221 180
0 221 180
0 221 180
0 220 180
0 220 180
0 221 181
0 221 181
0 221 181
0 221 181
0 220 181
0 221 181
0 222 181
0 222 181
0 221 181
0 221 181
0 221 180
0 221 180
0 222 181
0 220 181
0 221 181
0 222 181
0 220 180
0 219 179
0 221 181
0 221 181
0 220 180
0 221 181
0 222 181
0 219 179
0 220 179
0 221 181
0 221 181
0 222 181
0 222 181
0 220 181
0 219 179
0 222 181
0 219 179
0 222 181
0 222 181
0 219 180
0 220 180
0 221 181
0 221 180
0 222 181
0 221 181
0 220 180
0 221 180
0 221 181
0 221 181
0 220 180
0 220 180
0 221 181
0 221 181
0 222 180
0 220 181
0 219 179
0 219 179
0 221 180
0 221 180
0 221 179
0 220 180
0 218 179
0 219 179
0 221 181
0 221 181
0 220 180
0 219 179
0 222 181
0 222 181
0 221 180
0 221 180
0 220 181
0 221 180
0 218 178
0 221 181
0 220 180
0 223 180
0 221 181
0 220 180
0 220 180
0 220 180
0 221 180
0 221 181
0 219 180
0 221 181
0 221 181
0 219 179
0 221 181
0 220 180
0 221 180
0 221 180
0 221 180
0 221 181
0 220 179
0 220 180
0 221 180
0 221 180
0 222 181
0 221 181
0 221 181
0 221 180
0 221 181
0 216 177
0 222 181
0 221 181
0 220 179
0 221 181
0 220 180
0 220 180
0 219 179
0 219 179
0 219 178
0 221 181
0 221 181
0 221 181
0 219 179
0 218 179
0 220 179
0 220 180
0 221 180
0 221 180
0 220 180
0 219 180
0 221 181
0 221 181
0 218 178
0 220 180
0 222 181
0 220 180
0 222 181
0 219 179
0 221 181
0 220 180
0 221 181
0 221 180
0 221 181
0 221 181
0 220 179
0 221 180
0 221 180
0 219 179
0 220 180
0 220 180
0 221 180
0 221 180
0 220 180
0 220 180
0 222 180
0 221 181
0 219 179
0 221 181
0 220 180
0 220 180
0 219 179
0 221 181
0 221 181
0 220 180
0 221 181
0 221 180
0 221 180
0 220 180
0 221 180
0 220 180
0 221 181
0 220 180
0 221 180
0 221 181
0 220 180
0 221 181
0 221 181
0 221 180
0 220 180
0 221 181
0 220 179
0 220 180
0 221 181
0 220 181
0 220 180
0 221 181
0 221 181
0 222 181
0 221 181
0 220 180
0 220 180
0 221 181
0 220 180
0 220 180
0 220 181
0 221 181
0 221 180
0 220 179
0 221 181
0 221 181
0 220 180
0 220 180
0 220 180
0 221 181
0 221 180
0 221 181
0 221 181
0 222 181
0 221 180
0 221 180
0 220 180
0 222 181
0 221 180
0 221 180
0 221 181
0 220 181
0 220 181
0 220 180
0 221 180
0 221 181
0 219 179
0 222 181
0 220 180
0 222 181
0 221 181
0 221 180
0 221 181
0 221 179
0 220 180
0 221 181
0 221 180
0 222 181
0 220 180
0 221 181
0 219 180
0 221 181
0 220 179
0 220 180
0 219 179
0 221 181
0 220 180
0 221 181
0 221 181
0 220 181
0 221 180
0 221 180
0 221 181
0 221 181
0 220 181
0 221 180
0 219 180
0 222 180
0 219 180
0 221 181
0 221 180
0 222 181
0 220 180
0 221 181
0 221 180
0 222 181
0 219 179
0 221 181
0 219 179
0 220 180
0 222 181
0 221 181
0 221 181
0 220 181
0 221 180
0 221 181
0 220 180
0 220 179
0 221 181
0 220 180
0 220 180
0 221 181
0 220 179
0 221 181
0 221 181
0 221 181
0 221 181
0 220 181
0 221 181
0 219 180
0 221 181
0 220 180
0 221 181
0 222 180
0 221 181
0 221 181
0 220 180
0 220 181
0 221 180
0 221 181
0 220 180
0 221 180
0 221 181
0 220 181
0 221 181
0 220 180
0 222 181
0 221 181
0 221 181
0 222 180
0 221 181
0 222 181
0 221 181
0 221 181
0 222 181
0 222 181
0 222 181
0 222 181
0 221 181
0 220 181
0 222 181
0 221 181
0 221 181
0 221 181
0 222 181
0 220 181
0 222 181
0 222 181
0 221 181
0 221 181
0 221 181
0 220 181
0 221 181
0 220 180
0 221 181
0 220 180
0 219 180
0 220 181
0 222 181
0 221 181
0 221 181
0 222 181
0 222 181
0 221 181
0 221 181
0 221 181
0 222 180
0 221 181
0 221 181
0 221 181
0 220 180
0 221 181
0 220 181
0 221 181
0 221 181
0 222 181
0 222 181
0 221 181
0 221 180
0 221 181
0 221 181
0 221 181
0 221 181
0 221 181
0 221 181
0 221 181
0 221 181
0 221 181
0 222 181
0 221 181
0 221 180
0 222 181
0 221 181
0 221 180
0 221 180
0 221 181
0 220 180
0 222 181
0 220 180
0 220 180
0 220 179
0 223 181
0 220 180
0 221 181
0 221 181
0 222 181
0 222 181
0 221 181
0 221 181
0 220 181
0 221 180
0 220 180
0 221 181
0 218 179
0 220 181
0 220 180
0 221 179
0 222 181
0 221 181
0 221 181
0 221 181
0 222 181
0 223 181
0 221 181
0 219 180
0 221 180
0 221 181
0 221 181
0 220 180
0 221 181
0 220 181
0 219 179
0 220 181
0 220 181
0 221 181
0 221 181
0 221 181
0 221 181
0 219 180
0 220 180
0 219 180
0 220 180
0 221 181
0 218 178
0 222 181
0 221 181
0 222 181
0 221 181
0 222 181
0 221 181
0 221 180
0 222 180
0 221 181
0 220 180
0 220 181
0 220 180
0 220 179
0 220 181
0 220 180
0 220 179
0 219 179
0 219 179
0 221 180
0 221 181
0 220 180
0 221 180
0 219 180
0 219 179
0 221 181
0 220 181
0 221 180
0 221 181
0 220 180
0 221 181
0 220 180
0 221 180
0 219 178
0 221 180
0 220 179
0 221 180
0 221 180
0 221 181
0 220 181
0 221 181
0 222 181
0 220 179
0 221 181
0 221 180
0 221 181
0 221 180
0 220 181
0 222 181
0 218 179
0 221 181
0 221 181
0 220 180
0 219 179
0 221 179
0 220 180
0 221 180
0 219 180
0 220 180
0 220 180
0 220 180
0 218 179
0 221 179
0 220 180
0 222 181
0 221 179
0 220 180
0 221 180
0 219 179
0 221 181
0 219 180
0 220 179
0 220 180
0 220 180
0 221 180
0 221 180
0 220 180
0 219 180
0 221 180
0 221 181
0 221 181
0 220 180
0 221 180
0 222 181
0 220 181
0 219 179
0 222 181
0 220 180
0 220 181
0 220 180
0 222 181
0 219 179
0 219 180
0 220 180
0 221 179
0 220 180
0 220 180
0 219 179
0 221 180
0 221 181
0 222 181
0 220 180
0 223 181
0 222 181
0 219 179
0 220 181
0 221 181
0 220 180
0 221 181
0 221 180
0 220 180
0 222 181
0 221 181
0 221 180
0 220 180
0 220 180
0 221 180
0 222 181
0 222 181
0 221 181
0 219 180
0 220 180
0 222 181
0 221 180
0 221 180
0 219 180
0 218 178
0 219 180
0 220 180
0 222 181
0 220 181
0 221 181
0 220 180
0 221 180
0 220 180
0 220 180
0 221 181
0 220 180
0 220 180
0 220 181
0 219 179
0 221 181
0 219 178
0 220 179
0 218 180
0 220 179
0 221 181
0 221 181
0 221 181
0 220 179
0 218 179
0 221 181
0 221 180
0 220 179
0 220 181
0 221 181
0 221 180
0 219 179
0 222 181
0 220 180
0 219 179
0 221 181
0 219 179
0 220 180
0 221 179
0 220 180
0 220 180
0 221 181
0 220 180
0 221 181
0 221 180
0 221 181
0 219 179
0 220 180
0 221 181
0 221 181
0 220 180
0 220 180
0 221 181
0 221 181
0 219 180
0 221 179
0 220 179
0 221 180
0 221 180
0 220 180
0 221 181
0 221 181
0 218 178
0 220 179
0 221 181
0 221 181
0 220 180
0 221 179
0 221 180
0 219 180
0 220 180
0 219 179
0 222 181
0 221 181
0 221 181
0 220 181
0 220 181
0 221 181
0 220 180
0 221 180
0 221 181
0 221 181
0 221 181
0 221 180
0 222 181
0 221 181
0 219 179
0 221 181
0 222 181
0 221 181
0 222 181
0 221 180
0 221 180
0 223 181
0 221 181
0 219 178
0 221 180
0 221 181
0 221 181
0 221 180
0 221 181
0 221 181
0 221 181
0 221 180
0 221 180
0 221 181
0 221 181
0 221 180
0 221 181
0 219 180
0 220 180
0 222 181
0 219 179
0 221 181
0 221 181
0 221 181
0 221 181
0 221 181
0 220 180
0 221 180
0 221 181
0 220 180
0 222 181
0 221 181
0 221 181
0 221 181
0 221 180
0 221 181
0 221 181
0 220 180
0 221 181
0 220 180
0 222 181
0 222 181
0 219 180
0 221 181
0 221 181
0 221 181
0 222 181
0 220 181
0 221 181
0 221 181
0 221 181
0 221 181
0 220 181
0 221 180
0 220 181
0 222 181
0 220 180
0 221 181
0 221 181
